(.../Documents/EAGLE/ulps/pcb-gcode.ulp)
(Copyright 2005 - 2012 by John Johnson)
(See readme.txt for licensing terms.)
(This file generated from the board:)
(.../esp32_artnet_pinball/esp32_artnet_pinball.brd)
(Current profile is .../EAGLE/ulps/profiles/generic.pp  )
(This file generated 10.04.20 10:29)
(Settings from pcb-machine.h)
(  Tool Size)
(0.1500 )
(Z Axis Settings)
(  High     Up        Down     Drill)
(20.4000 	2.0000 	-0.1500 	-1.9000 )
(spindle on time = 3.0000)
(milling depth = -1.3000)
(text depth = -0.1000)
(tool change at 0.0000 0.0000 20.4000 )
(feed rate xy = F208.00 )
(feed rate z  = F100.00 )
(Settings from pcb-defaults.h)
(isolate min = 0.1000)
(isolate max = 0.5000)
(isolate step = 0.1000)
(Generated bottom outlines, bottom drill, )
(Unit of measure: mm)
(Metric Mode)
G21
(Absolute Coordinates)
G90
G00 X0.0000 Y0.0000 
M03
G04 P3.000000
G00 Z2.0000 
G00 X0.2000 Y-0.3000 
G01 Z-1.3000 F100.00 
G01 X0.3000 Y-0.3000 F208.00 
G01 X57.0000 Y-0.3000 
G00 Z2.0000 
G00 X57.0000 Y44.9000 
G01 Z-1.3000 F100.00 
G01 X0.0000 Y44.9000 F208.00 
G01 X-0.1000 Y44.8000 
G00 Z2.0000 
G00 X0.0000 Y44.9000 
G01 Z-1.3000 F100.00 
G01 X0.1000 Y45.0000 F208.00 
G00 Z2.0000 
G00 X0.3000 Y-0.3000 
G01 Z-1.3000 F100.00 
G01 X0.3000 Y45.1000 F208.00 
G01 X0.4000 Y45.1000 
G00 Z2.0000 
G00 X57.0000 Y-0.5000 
G01 Z-1.3000 F100.00 
G01 X57.0000 Y44.6000 F208.00 
G01 X57.1000 Y44.7000 
G00 Z20.4000 
M05
M02
