(.../Documents/EAGLE/ulps/pcb-gcode.ulp)
(Copyright 2005 - 2012 by John Johnson)
(See readme.txt for licensing terms.)
(This file generated from the board:)
(.../Teensy_Stromzaehler P2/Teensy_Stromzaehler.brd)
(Current profile is .../EAGLE/ulps/profiles/generic.pp  )
(This file generated 19.11.20 10:00)
(Settings from pcb-machine.h)
(  Tool Size)
(0.1000 )
(Z Axis Settings)
(  High     Up        Down     Drill)
(20.4000 	2.0000 	-0.1500 	-1.9000 )
(spindle on time = 3.0000)
(milling depth = -1.3000)
(text depth = -0.1000)
(tool change at 0.0000 0.0000 20.4000 )
(feed rate xy = F208.00 )
(feed rate z  = F100.00 )
(Settings from pcb-defaults.h)
(isolate min = 0.1000)
(isolate max = 0.5000)
(isolate step = 0.1000)
(Generated bottom outlines, bottom drill, )
(Unit of measure: mm)
(Metric Mode)
G21
(Absolute Coordinates)
G90
M03
G04 P3.000000
G00 Z2.0000 
G00 X-6.2738 Y59.2328 
G01 Z-0.1000 F100.00 
G01 X-5.7319 Y57.6072 F208.00 
G01 X-5.1901 Y59.2328 
G00 Z2.0000 
G00 X-3.9018 Y57.6072 
G01 Z-0.1000 F100.00 
G01 X-4.2631 Y57.6072 F208.00 
G00 Z2.0000 
G00 X-4.6243 Y57.9684 
G01 Z-0.1000 F100.00 
G03 X-4.2631 Y57.6072 I0.3612 J0.0000 
G00 Z2.0000 
G01 Z-0.1000 F100.00 
G01 X-4.6243 Y58.8716 F208.00 
G00 Z2.0000 
G00 X-4.2631 Y59.2328 
G01 Z-0.1000 F100.00 
G03 X-4.6243 Y58.8716 I0.0000 J-0.3612 
G00 Z2.0000 
G01 Z-0.1000 F100.00 
G01 X-3.9018 Y59.2328 F208.00 
G00 Z2.0000 
G00 X-2.5992 Y57.6072 
G01 Z-0.1000 F100.00 
G01 X-2.9605 Y57.6072 F208.00 
G00 Z2.0000 
G00 X-3.3217 Y57.9684 
G01 Z-0.1000 F100.00 
G03 X-2.9605 Y57.6072 I0.3612 J0.0000 
G00 Z2.0000 
G01 Z-0.1000 F100.00 
G01 X-3.3217 Y58.8716 F208.00 
G00 Z2.0000 
G00 X-2.9605 Y59.2328 
G01 Z-0.1000 F100.00 
G03 X-3.3217 Y58.8716 I0.0000 J-0.3612 
G00 Z2.0000 
G01 Z-0.1000 F100.00 
G01 X-2.5992 Y59.2328 F208.00 
G00 Z2.0000 
G00 X-5.6416 Y55.8433 
G01 Z-0.1000 F100.00 
G01 X-5.3707 Y55.8433 F208.00 
G01 X-5.3707 Y54.9402 
G01 X-5.9126 Y54.9402 
G00 Z2.0000 
G00 X-6.2738 Y55.3014 
G01 Z-0.1000 F100.00 
G03 X-5.9126 Y54.9402 I0.3612 J0.0000 
G00 Z2.0000 
G01 Z-0.1000 F100.00 
G01 X-6.2738 Y56.2046 F208.00 
G00 Z2.0000 
G00 X-5.9126 Y56.5658 
G01 Z-0.1000 F100.00 
G03 X-6.2738 Y56.2046 I0.0000 J-0.3612 
G00 Z2.0000 
G01 Z-0.1000 F100.00 
G01 X-5.3707 Y56.5658 F208.00 
G00 Z2.0000 
G00 X-4.6065 Y54.9402 
G01 Z-0.1000 F100.00 
G01 X-4.6065 Y56.5658 F208.00 
G01 X-3.7034 Y54.9402 
G01 X-3.7034 Y56.5658 
G00 Z2.0000 
G00 X-2.9391 Y54.9402 
G01 Z-0.1000 F100.00 
G01 X-2.9391 Y56.5658 F208.00 
G01 X-2.4876 Y56.5658 
G00 Z2.0000 
G00 X-2.0360 Y56.1142 
G01 Z-0.1000 F100.00 
G03 X-2.4876 Y56.5658 I-0.4516 J0.0000 
G00 Z2.0000 
G01 Z-0.1000 F100.00 
G01 X-2.0360 Y55.3918 F208.00 
G00 Z2.0000 
G00 X-2.4876 Y54.9402 
G01 Z-0.1000 F100.00 
G03 X-2.0360 Y55.3918 I0.0000 J0.4516 
G00 Z2.0000 
G01 Z-0.1000 F100.00 
G01 X-2.9391 Y54.9402 F208.00 
G00 Z2.0000 
G00 X-5.7319 Y52.2732 
G01 Z-0.1000 F100.00 
G03 X-5.3707 Y52.6344 I0.0000 J0.3612 
G00 Z2.0000 
G00 X-6.2738 Y52.4990 
G01 Z-0.1000 F100.00 
G03 X-5.7319 Y52.2732 I0.5419 J0.5374 
G00 Z2.0000 
G00 X-5.8674 Y53.8988 
G01 Z-0.1000 F100.00 
G03 X-6.2286 Y53.5376 I0.0000 J-0.3612 
G00 Z2.0000 
G00 X-5.4610 Y53.7633 
G01 Z-0.1000 F100.00 
G03 X-5.8674 Y53.8988 I-0.4064 J-0.5419 
G00 Z2.0000 
G00 X-6.2286 Y53.5376 
G01 Z-0.1000 F100.00 
G03 X-6.0480 Y53.2215 I0.3669 J0.0000 
G00 Z2.0000 
G00 X-5.3707 Y52.6344 
G01 Z-0.1000 F100.00 
G03 X-5.5513 Y52.9505 I-0.3669 J0.0000 
G00 Z2.0000 
G00 X-5.5513 Y52.9505 
G01 Z-0.1000 F100.00 
G01 X-6.0480 Y53.2215 F208.00 
G00 Z2.0000 
G00 X-4.0442 Y52.2732 
G01 Z-0.1000 F100.00 
G01 X-4.4055 Y52.2732 F208.00 
G00 Z2.0000 
G00 X-4.7667 Y52.6344 
G01 Z-0.1000 F100.00 
G03 X-4.4055 Y52.2732 I0.3612 J0.0000 
G00 Z2.0000 
G01 Z-0.1000 F100.00 
G01 X-4.7667 Y53.5376 F208.00 
G00 Z2.0000 
G00 X-4.4055 Y53.8988 
G01 Z-0.1000 F100.00 
G03 X-4.7667 Y53.5376 I0.0000 J-0.3612 
G00 Z2.0000 
G01 Z-0.1000 F100.00 
G01 X-4.0442 Y53.8988 F208.00 
G00 Z2.0000 
G00 X-3.4051 Y53.8988 
G01 Z-0.1000 F100.00 
G01 X-3.4051 Y52.2732 F208.00 
G01 X-2.6826 Y52.2732 
G00 Z2.0000 
G00 X-5.7319 Y49.6062 
G01 Z-0.1000 F100.00 
G03 X-5.3707 Y49.9674 I0.0000 J0.3612 
G00 Z2.0000 
G00 X-6.2738 Y49.8320 
G01 Z-0.1000 F100.00 
G03 X-5.7319 Y49.6062 I0.5419 J0.5374 
G00 Z2.0000 
G00 X-5.8674 Y51.2318 
G01 Z-0.1000 F100.00 
G03 X-6.2286 Y50.8706 I0.0000 J-0.3612 
G00 Z2.0000 
G00 X-5.4610 Y51.0963 
G01 Z-0.1000 F100.00 
G03 X-5.8674 Y51.2318 I-0.4064 J-0.5419 
G00 Z2.0000 
G00 X-6.2286 Y50.8706 
G01 Z-0.1000 F100.00 
G03 X-6.0480 Y50.5545 I0.3669 J0.0000 
G00 Z2.0000 
G00 X-5.3707 Y49.9674 
G01 Z-0.1000 F100.00 
G03 X-5.5513 Y50.2835 I-0.3669 J0.0000 
G00 Z2.0000 
G00 X-5.5513 Y50.2835 
G01 Z-0.1000 F100.00 
G01 X-6.0480 Y50.5545 F208.00 
G00 Z2.0000 
G00 X-4.7107 Y49.6062 
G01 Z-0.1000 F100.00 
G01 X-4.7107 Y51.2318 F208.00 
G01 X-4.2591 Y51.2318 
G00 Z2.0000 
G00 X-3.8076 Y50.7802 
G01 Z-0.1000 F100.00 
G03 X-4.2591 Y51.2318 I-0.4516 J0.0000 
G00 Z2.0000 
G01 Z-0.1000 F100.00 
G01 X-3.8076 Y50.0578 F208.00 
G00 Z2.0000 
G00 X-4.2591 Y49.6062 
G01 Z-0.1000 F100.00 
G03 X-3.8076 Y50.0578 I0.0000 J0.4516 
G00 Z2.0000 
G01 Z-0.1000 F100.00 
G01 X-4.7107 Y49.6062 F208.00 
G00 Z2.0000 
G00 X-3.1858 Y49.6062 
G01 Z-0.1000 F100.00 
G01 X-2.6439 Y51.2318 F208.00 
G01 X-2.1020 Y49.6062 
G00 Z2.0000 
G00 X-2.2375 Y50.0126 
G01 Z-0.1000 F100.00 
G01 X-3.0503 Y50.0126 F208.00 
G00 Z20.4000 
M05
M02
