(.../Documents/EAGLE/ulps/pcb-gcode.ulp)
(Copyright 2005 - 2012 by John Johnson)
(See readme.txt for licensing terms.)
(This file generated from the board:)
(.../Documents/EAGLE/projects/ISP/ISP.brd)
(Current profile is .../EAGLE/ulps/profiles/generic.pp  )
(This file generated 20.10.19 15:54)
(Settings from pcb-machine.h)
(  Tool Size)
(1.6000 )
(Z Axis Settings)
(  High     Up        Down     Drill)
(20.4000 	2.0000 	-0.1000 	-1.8000 )
(spindle on time = 3.0000)
(milling depth = -1.6000)
(text depth = -0.1000)
(tool change at 0.0000 0.0000 20.4000 )
(feed rate xy = F208.00 )
(feed rate z  = F60.00 )
(Settings from pcb-defaults.h)
(isolate min = 0.0100)
(isolate max = 0.3000)
(isolate step = 0.1000)
(Generated bottom outlines, bottom drill, )
(Unit of measure: mm)
(Metric Mode)
G21
(Absolute Coordinates)
G90
G00 X0.0000 Y0.0000 
M03
G04 P3.000000
G00 Z2.0000 
G00 X-26.9185 Y27.7282 
G01 Z-1.6000 F60.00 
G01 X-20.1889 Y34.4578 F208.00 
G01 X-19.9910 Y34.3632 
G01 X-1.7815 Y34.2641 
G00 Z2.0000 
G00 X0.6928 Y31.2933 
G01 Z-1.6000 F60.00 
G01 X0.6928 Y1.3863 F208.00 
G00 Z20.4000 
M05
M02
