(.../Documents/EAGLE/ulps/pcb-gcode.ulp)
(Copyright 2005 - 2012 by John Johnson)
(See readme.txt for licensing terms.)
(This file generated from the board:)
(.../Documents/EAGLE/projects/ISP/ISP.brd)
(Current profile is .../EAGLE/ulps/profiles/generic.pp  )
(This file generated 20.10.19 15:54)
(Settings from pcb-machine.h)
(  Tool Size)
(0.1500 )
(Z Axis Settings)
(  High     Up        Down     Drill)
(20.4000 	2.0000 	-0.1000 	-1.8000 )
(spindle on time = 3.0000)
(milling depth = -1.6000)
(text depth = -0.1000)
(tool change at 0.0000 0.0000 20.4000 )
(feed rate xy = F208.00 )
(feed rate z  = F60.00 )
(Settings from pcb-defaults.h)
(isolate min = 0.0100)
(isolate max = 0.3000)
(isolate step = 0.1000)
(Generated bottom outlines, bottom drill, )
(Unit of measure: mm)
( Tool|       Size       |  Min Sub |  Max Sub |   Count )
( T01  0.800mm 0.0315in 0.0000in 0.0000in )
( T02  0.813mm 0.0320in 0.0000in 0.0000in )
( T03  1.016mm 0.0400in 0.0000in 0.0000in )
(Metric Mode)
G21
(Absolute Coordinates)
G90
M05
G00 Z20.4000 
G00 X0.0000 Y0.0000 
M06 T01  ; 0.8000 
G00 Z2.0000 
M03
G04 P3.000000
G00 Z2.000000
G00 X-10.5925 Y3.0404 
G01 Z-1.8000 F60.00 
G01 Z2.000000
(R2.0000  P2.000000)
(G00 Z2.000000)
G00 X-11.1484 Y6.4863 
G01 Z-1.800000
G01 Z2.000000
(G00 Z2.000000)
G00 X-19.1498 Y0.6444 
G01 Z-1.800000
G01 Z2.000000
(G00 Z2.000000)
G00 X-23.5357 Y0.6146 
G01 Z-1.800000
G01 Z2.000000
M05
G00 Z20.4000 
M06 T02  ; 0.8128 
G00 Z2.0000 
M03
G04 P3.000000
G00 Z2.000000
G00 X-4.9655 Y18.7454 
G01 Z-1.8000 F60.00 
G01 Z2.000000
(R2.0000  P2.000000)
(G00 Z2.000000)
G00 X-4.9655 Y26.3654 
G01 Z-1.800000
G01 Z2.000000
(G00 Z2.000000)
G00 X-8.4884 Y29.3759 
G01 Z-1.800000
G01 Z2.000000
(G00 Z2.000000)
G00 X-9.8107 Y16.0962 
G01 Z-1.800000
G01 Z2.000000
(G00 Z2.000000)
G00 X-9.8107 Y23.7162 
G01 Z-1.800000
G01 Z2.000000
(G00 Z2.000000)
G00 X-11.0284 Y29.3759 
G01 Z-1.800000
G01 Z2.000000
(G00 Z2.000000)
G00 X-15.4099 Y24.2382 
G01 Z-1.800000
G01 Z2.000000
(G00 Z2.000000)
G00 X-15.4265 Y18.7445 
G01 Z-1.800000
G01 Z2.000000
(G00 Z2.000000)
G00 X-15.7827 Y5.0602 
G01 Z-1.800000
G01 Z2.000000
(G00 Z2.000000)
G00 X-15.7827 Y7.6002 
G01 Z-1.800000
G01 Z2.000000
(G00 Z2.000000)
G00 X-15.7827 Y10.1402 
G01 Z-1.800000
G01 Z2.000000
(G00 Z2.000000)
G00 X-15.7827 Y12.6802 
G01 Z-1.800000
G01 Z2.000000
(G00 Z2.000000)
G00 X-17.9499 Y24.2382 
G01 Z-1.800000
G01 Z2.000000
(G00 Z2.000000)
G00 X-20.5065 Y18.7445 
G01 Z-1.800000
G01 Z2.000000
(G00 Z2.000000)
G00 X-23.4027 Y5.0602 
G01 Z-1.800000
G01 Z2.000000
(G00 Z2.000000)
G00 X-23.4027 Y7.6002 
G01 Z-1.800000
G01 Z2.000000
(G00 Z2.000000)
G00 X-23.4027 Y10.1402 
G01 Z-1.800000
G01 Z2.000000
(G00 Z2.000000)
G00 X-23.4027 Y12.6802 
G01 Z-1.800000
G01 Z2.000000
M05
G00 Z20.4000 
M06 T03  ; 1.0160 
G00 Z2.0000 
M03
G04 P3.000000
G00 Z2.000000
G00 X-4.9889 Y4.0164 
G01 Z-1.8000 F60.00 
G01 Z2.000000
(R2.0000  P2.000000)
(G00 Z2.000000)
G00 X-4.9889 Y6.5564 
G01 Z-1.800000
G01 Z2.000000
(G00 Z2.000000)
G00 X-4.9889 Y9.0964 
G01 Z-1.800000
G01 Z2.000000
(G00 Z2.000000)
G00 X-4.9889 Y11.6364 
G01 Z-1.800000
G01 Z2.000000
(G00 Z2.000000)
G00 X-4.9889 Y14.1764 
G01 Z-1.800000
G01 Z2.000000
(G00 Z2.000000)
G00 X-7.5289 Y4.0164 
G01 Z-1.800000
G01 Z2.000000
(G00 Z2.000000)
G00 X-7.5289 Y6.5564 
G01 Z-1.800000
G01 Z2.000000
(G00 Z2.000000)
G00 X-7.5289 Y9.0964 
G01 Z-1.800000
G01 Z2.000000
(G00 Z2.000000)
G00 X-7.5289 Y11.6364 
G01 Z-1.800000
G01 Z2.000000
(G00 Z2.000000)
G00 X-7.5289 Y14.1764 
G01 Z-1.800000
G01 Z2.000000
T01 
G00 Z20.4000 
M05
M02
