(.../Documents/EAGLE/ulps/pcb-gcode.ulp)
(Copyright 2005 - 2012 by John Johnson)
(See readme.txt for licensing terms.)
(This file generated from the board:)
(.../Documents/EAGLE/projects/ISP/ISP.brd)
(Current profile is .../EAGLE/ulps/profiles/generic.pp  )
(This file generated 20.10.19 15:54)
(Settings from pcb-machine.h)
(  Tool Size)
(0.1500 )
(Z Axis Settings)
(  High     Up        Down     Drill)
(20.4000 	2.0000 	-0.1000 	-1.8000 )
(spindle on time = 3.0000)
(milling depth = -1.6000)
(text depth = -0.1000)
(tool change at 0.0000 0.0000 20.4000 )
(feed rate xy = F208.00 )
(feed rate z  = F60.00 )
(Settings from pcb-defaults.h)
(isolate min = 0.0100)
(isolate max = 0.3000)
(isolate step = 0.1000)
(Generated bottom outlines, bottom drill, )
(Unit of measure: mm)
(Metric Mode)
G21
(Absolute Coordinates)
G90
G00 X0.0000 Y0.0000 
M03
G04 P3.000000
G00 Z2.0000 
G00 X-7.8797 Y4.8634 
G01 Z-0.1000 F60.00 
G01 X-7.1781 Y4.8634 F208.00 
G01 X-6.6819 Y4.3673 
G01 X-6.6819 Y3.6656 
G01 X-7.1781 Y3.1694 
G01 X-7.8797 Y3.1694 
G01 X-8.1337 Y3.4234 
G01 X-9.4460 Y3.4234 
G01 X-9.9062 Y2.9632 
G01 X-9.9308 Y2.8397 
G01 X-9.9827 Y2.7144 
G01 X-10.0580 Y2.6017 
G01 X-10.1538 Y2.5059 
G01 X-10.2666 Y2.4305 
G01 X-10.3918 Y2.3787 
G01 X-10.5248 Y2.3522 
G01 X-10.6603 Y2.3522 
G01 X-10.7865 Y2.3773 
G01 X-10.7961 Y2.3773 
G01 X-10.9107 Y2.4001 
G01 X-11.0186 Y2.4448 
G01 X-11.1157 Y2.5097 
G01 X-11.1983 Y2.5923 
G01 X-11.2632 Y2.6894 
G01 X-11.3079 Y2.7973 
G01 X-11.3307 Y2.9119 
G01 X-11.3307 Y3.0287 
G01 X-11.3079 Y3.1433 
G01 X-11.2632 Y3.2512 
G01 X-11.2288 Y3.3028 
G01 X-11.2024 Y3.3664 
G01 X-11.1271 Y3.4791 
G01 X-11.0312 Y3.5750 
G01 X-10.9185 Y3.6503 
G01 X-10.8807 Y3.6660 
G01 X-10.0696 Y4.4770 
G01 X-9.9725 Y4.5419 
G01 X-9.8646 Y4.5866 
G01 X-9.7500 Y4.6094 
G01 X-8.1337 Y4.6094 
G01 X-7.8797 Y4.8634 
G00 Z2.0000 
G00 X-5.8359 Y3.6656 
G01 Z-0.1000 F60.00 
G01 X-5.8359 Y4.3673 F208.00 
G01 X-5.3397 Y4.8634 
G01 X-4.6381 Y4.8634 
G01 X-4.3841 Y4.6094 
G01 X-2.9105 Y4.6094 
G01 X-2.9105 Y18.0740 
G01 X-4.5827 Y18.0740 
G01 X-4.6568 Y18.0000 
G01 X-5.2743 Y18.0000 
G01 X-5.5923 Y18.3180 
G01 X-7.0849 Y18.3180 
G01 X-7.1995 Y18.3408 
G01 X-7.3074 Y18.3855 
G01 X-7.4045 Y18.4504 
G01 X-7.5530 Y18.5988 
G01 X-7.6356 Y18.6814 
G01 X-7.7005 Y18.7785 
G01 X-7.7452 Y18.8865 
G01 X-7.7680 Y19.0010 
G01 X-7.7680 Y20.4962 
G01 X-13.1642 Y20.4962 
G01 X-14.5454 Y19.1150 
G01 X-14.5414 Y19.1111 
G01 X-14.5414 Y18.3778 
G01 X-15.0599 Y17.8594 
G01 X-15.7931 Y17.8594 
G01 X-16.3116 Y18.3778 
G01 X-16.3116 Y19.1111 
G01 X-15.7931 Y19.6296 
G01 X-15.7081 Y19.6296 
G01 X-13.7878 Y21.5498 
G01 X-13.6907 Y21.6147 
G01 X-13.5828 Y21.6594 
G01 X-13.4682 Y21.6822 
G01 X-7.1661 Y21.6822 
G01 X-7.0515 Y21.6594 
G01 X-6.9436 Y21.6147 
G01 X-6.8465 Y21.5498 
G01 X-6.7639 Y21.4672 
G01 X-6.7144 Y21.4177 
G01 X-6.6495 Y21.3206 
G01 X-6.6048 Y21.2127 
G01 X-6.5820 Y21.0981 
G01 X-6.5820 Y19.5040 
G01 X-5.0728 Y19.5040 
G01 X-5.0062 Y19.4907 
G01 X-4.6568 Y19.4907 
G01 X-4.4261 Y19.2600 
G01 X-2.5147 Y19.2600 
G01 X-2.4001 Y19.2372 
G01 X-2.2922 Y19.1925 
G01 X-2.1951 Y19.1276 
G01 X-1.9395 Y18.8720 
G01 X-1.8569 Y18.7894 
G01 X-1.7920 Y18.6923 
G01 X-1.7473 Y18.5844 
G01 X-1.7245 Y18.4698 
G01 X-1.7245 Y0.2300 
G01 X-1.7473 Y0.1155 
G01 X-1.7920 Y0.0076 
G01 X-1.8569 Y-0.0896 
G01 X-1.9395 Y-0.1722 
G01 X-2.0366 Y-0.2371 
G01 X-2.1445 Y-0.2818 
G01 X-2.2591 Y-0.3045 
G01 X-14.2143 Y-0.3045 
G01 X-14.3288 Y-0.2818 
G01 X-14.4367 Y-0.2371 
G01 X-14.5339 Y-0.1722 
G01 X-14.6165 Y-0.0896 
G01 X-16.0751 Y1.3691 
G01 X-16.1577 Y1.4517 
G01 X-16.2226 Y1.5488 
G01 X-16.2673 Y1.6567 
G01 X-16.2901 Y1.7713 
G01 X-16.2901 Y4.5134 
G01 X-16.3616 Y4.5850 
G01 X-16.4432 Y4.7071 
G01 X-16.4994 Y4.8428 
G01 X-16.5280 Y4.9868 
G01 X-16.5280 Y5.1336 
G01 X-16.4994 Y5.2776 
G01 X-16.4432 Y5.4133 
G01 X-16.3616 Y5.5353 
G01 X-16.2578 Y5.6392 
G01 X-16.1357 Y5.7207 
G01 X-16.0001 Y5.7769 
G01 X-15.8561 Y5.8056 
G01 X-15.7092 Y5.8056 
G01 X-15.5652 Y5.7769 
G01 X-15.4296 Y5.7207 
G01 X-15.3075 Y5.6392 
G01 X-15.2037 Y5.5353 
G01 X-15.1221 Y5.4133 
G01 X-15.0659 Y5.2776 
G01 X-15.0373 Y5.1336 
G01 X-15.0373 Y4.9868 
G01 X-15.0659 Y4.8428 
G01 X-15.1041 Y4.7506 
G01 X-15.1041 Y2.0753 
G01 X-13.9102 Y0.8815 
G01 X-2.9105 Y0.8815 
G01 X-2.9105 Y3.4234 
G01 X-4.3841 Y3.4234 
G01 X-4.6381 Y3.1694 
G01 X-5.3397 Y3.1694 
G01 X-5.8359 Y3.6656 
G00 Z2.0000 
G00 X-8.3759 Y6.2056 
G01 Z-0.1000 F60.00 
G01 X-8.3759 Y6.9073 F208.00 
G01 X-7.8797 Y7.4034 
G01 X-7.1781 Y7.4034 
G01 X-6.6819 Y6.9073 
G01 X-6.6819 Y6.2056 
G01 X-7.1781 Y5.7094 
G01 X-7.8797 Y5.7094 
G01 X-8.3759 Y6.2056 
G00 Z2.0000 
G00 X-7.8797 Y12.4834 
G01 Z-0.1000 F60.00 
G01 X-7.1781 Y12.4834 F208.00 
G01 X-6.6819 Y11.9873 
G01 X-6.6819 Y11.2856 
G01 X-7.1781 Y10.7894 
G01 X-7.8797 Y10.7894 
G01 X-8.1337 Y11.0434 
G01 X-9.4997 Y11.0434 
G01 X-13.4035 Y7.1396 
G01 X-13.5006 Y7.0747 
G01 X-13.6086 Y7.0300 
G01 X-13.7231 Y7.0072 
G01 X-15.3285 Y7.0072 
G01 X-15.4296 Y6.9396 
G01 X-15.5652 Y6.8834 
G01 X-15.7092 Y6.8548 
G01 X-15.8561 Y6.8548 
G01 X-16.0001 Y6.8834 
G01 X-16.1357 Y6.9396 
G01 X-16.2578 Y7.0212 
G01 X-16.3616 Y7.1250 
G01 X-16.4432 Y7.2471 
G01 X-16.4994 Y7.3828 
G01 X-16.5280 Y7.5268 
G01 X-16.5280 Y7.6736 
G01 X-16.4994 Y7.8176 
G01 X-16.4432 Y7.9533 
G01 X-16.3616 Y8.0753 
G01 X-16.2578 Y8.1792 
G01 X-16.1357 Y8.2607 
G01 X-16.0001 Y8.3169 
G01 X-15.8561 Y8.3456 
G01 X-15.7092 Y8.3456 
G01 X-15.5652 Y8.3169 
G01 X-15.4296 Y8.2607 
G01 X-15.3285 Y8.1932 
G01 X-14.0272 Y8.1932 
G01 X-10.1233 Y12.0970 
G01 X-10.0262 Y12.1619 
G01 X-9.9183 Y12.2066 
G01 X-9.8037 Y12.2294 
G01 X-8.1337 Y12.2294 
G01 X-7.8797 Y12.4834 
G00 Z2.0000 
G00 X-5.8359 Y13.8256 
G01 Z-0.1000 F60.00 
G01 X-5.8359 Y14.5273 F208.00 
G01 X-5.5819 Y14.7813 
G01 X-5.5819 Y15.8843 
G01 X-5.5899 Y15.8922 
G01 X-7.4808 Y15.8922 
G01 X-7.5954 Y15.9150 
G01 X-7.7033 Y15.9597 
G01 X-7.8004 Y16.0246 
G01 X-7.8994 Y16.1236 
G01 X-7.9820 Y16.2062 
G01 X-8.0469 Y16.3033 
G01 X-8.0916 Y16.4112 
G01 X-8.1143 Y16.5258 
G01 X-8.1143 Y16.7842 
G01 X-9.9452 Y18.6150 
G01 X-10.6888 Y18.6150 
G01 X-13.0976 Y16.2062 
G01 X-13.1802 Y16.1236 
G01 X-13.2773 Y16.0587 
G01 X-13.3853 Y16.0140 
G01 X-13.4998 Y15.9913 
G01 X-20.6926 Y15.9913 
G01 X-20.8071 Y16.0140 
G01 X-20.9151 Y16.0587 
G01 X-21.0122 Y16.1236 
G01 X-21.1607 Y16.2722 
G01 X-21.2433 Y16.3548 
G01 X-21.3082 Y16.4519 
G01 X-21.3529 Y16.5598 
G01 X-21.3757 Y16.6744 
G01 X-21.3757 Y18.1515 
G01 X-22.1858 Y18.1515 
G01 X-22.8097 Y17.5277 
G01 X-22.8097 Y13.1344 
G01 X-22.7421 Y13.0333 
G01 X-22.6859 Y12.8976 
G01 X-22.6573 Y12.7536 
G01 X-22.6573 Y12.6068 
G01 X-22.6859 Y12.4628 
G01 X-22.7421 Y12.3271 
G01 X-22.8237 Y12.2050 
G01 X-22.9275 Y12.1012 
G01 X-23.0496 Y12.0196 
G01 X-23.1852 Y11.9634 
G01 X-23.3292 Y11.9348 
G01 X-23.4761 Y11.9348 
G01 X-23.6201 Y11.9634 
G01 X-23.7557 Y12.0196 
G01 X-23.8778 Y12.1012 
G01 X-23.9816 Y12.2050 
G01 X-24.0632 Y12.3271 
G01 X-24.1194 Y12.4628 
G01 X-24.1480 Y12.6068 
G01 X-24.1480 Y12.7536 
G01 X-24.1194 Y12.8976 
G01 X-24.0632 Y13.0333 
G01 X-23.9956 Y13.1344 
G01 X-23.9956 Y17.8317 
G01 X-23.9729 Y17.9463 
G01 X-23.9282 Y18.0542 
G01 X-23.8633 Y18.1513 
G01 X-23.7807 Y18.2339 
G01 X-22.8095 Y19.2051 
G01 X-22.7124 Y19.2700 
G01 X-22.6044 Y19.3147 
G01 X-22.4899 Y19.3375 
G01 X-21.2193 Y19.3375 
G01 X-21.2193 Y24.2618 
G01 X-21.1965 Y24.3764 
G01 X-21.1518 Y24.4843 
G01 X-21.0869 Y24.5814 
G01 X-21.0521 Y24.6162 
G01 X-20.9695 Y24.6988 
G01 X-20.8724 Y24.7637 
G01 X-20.7645 Y24.8084 
G01 X-20.6499 Y24.8312 
G01 X-18.5429 Y24.8312 
G01 X-18.5429 Y26.7645 
G01 X-18.5201 Y26.8791 
G01 X-18.5011 Y26.9251 
G01 X-18.4754 Y26.9870 
G01 X-18.4105 Y27.0841 
G01 X-18.4066 Y27.0880 
G01 X-15.4066 Y30.0880 
G01 X-15.3095 Y30.1529 
G01 X-15.2635 Y30.1720 
G01 X-15.2016 Y30.1976 
G01 X-15.1111 Y30.2156 
G01 X-15.0870 Y30.2204 
G01 X-11.2215 Y30.2204 
G01 X-11.1070 Y30.1976 
G01 X-10.9990 Y30.1529 
G01 X-10.9517 Y30.1213 
G01 X-10.7196 Y30.1213 
G01 X-10.2830 Y29.6846 
G01 X-10.2830 Y29.0671 
G01 X-10.7196 Y28.6305 
G01 X-11.3371 Y28.6305 
G01 X-11.7411 Y29.0344 
G01 X-14.7830 Y29.0344 
G01 X-17.3569 Y26.4605 
G01 X-17.3569 Y24.6993 
G01 X-17.2045 Y24.5469 
G01 X-17.2045 Y23.9294 
G01 X-17.6411 Y23.4928 
G01 X-18.2586 Y23.4928 
G01 X-18.4110 Y23.6452 
G01 X-20.0333 Y23.6452 
G01 X-20.0333 Y19.5230 
G01 X-19.6214 Y19.1111 
G01 X-19.6214 Y18.3778 
G01 X-20.1399 Y17.8594 
G01 X-20.1897 Y17.8594 
G01 X-20.1897 Y17.1773 
G01 X-13.8039 Y17.1773 
G01 X-11.3951 Y19.5860 
G01 X-11.3125 Y19.6686 
G01 X-11.2153 Y19.7335 
G01 X-11.1074 Y19.7782 
G01 X-10.9929 Y19.8010 
G01 X-9.6412 Y19.8010 
G01 X-9.5266 Y19.7782 
G01 X-9.4187 Y19.7335 
G01 X-9.3216 Y19.6686 
G01 X-9.2390 Y19.5860 
G01 X-7.0607 Y17.4078 
G01 X-6.9958 Y17.3107 
G01 X-6.9511 Y17.2028 
G01 X-6.9284 Y17.0882 
G01 X-6.9284 Y17.0782 
G01 X-5.2858 Y17.0782 
G01 X-5.1713 Y17.0555 
G01 X-5.0634 Y17.0107 
G01 X-4.9662 Y16.9459 
G01 X-4.5283 Y16.5079 
G01 X-4.4634 Y16.4108 
G01 X-4.4187 Y16.3028 
G01 X-4.3959 Y16.1883 
G01 X-4.3959 Y14.7813 
G01 X-4.1419 Y14.5273 
G01 X-4.1419 Y13.8256 
G01 X-4.3959 Y13.5716 
G01 X-4.3959 Y12.2413 
G01 X-4.1419 Y11.9873 
G01 X-4.1419 Y11.2856 
G01 X-4.3959 Y11.0316 
G01 X-4.3959 Y9.7013 
G01 X-4.1419 Y9.4473 
G01 X-4.1419 Y8.7456 
G01 X-4.3959 Y8.4916 
G01 X-4.3959 Y7.1613 
G01 X-4.1419 Y6.9073 
G01 X-4.1419 Y6.2056 
G01 X-4.6381 Y5.7094 
G01 X-5.3397 Y5.7094 
G01 X-5.8359 Y6.2056 
G01 X-5.8359 Y6.9073 
G01 X-5.5819 Y7.1613 
G01 X-5.5819 Y8.4916 
G01 X-5.8359 Y8.7456 
G01 X-5.8359 Y9.4473 
G01 X-5.5819 Y9.7013 
G01 X-5.5819 Y11.0316 
G01 X-5.8359 Y11.2856 
G01 X-5.8359 Y11.9873 
G01 X-5.5819 Y12.2413 
G01 X-5.5819 Y13.5716 
G01 X-5.8359 Y13.8256 
G00 Z2.0000 
G00 X-16.1357 Y13.3407 
G01 Z-0.1000 F60.00 
G01 X-16.0001 Y13.3969 F208.00 
G01 X-15.8561 Y13.4256 
G01 X-15.7092 Y13.4256 
G01 X-15.5652 Y13.3969 
G01 X-15.4296 Y13.3407 
G01 X-15.3091 Y13.2602 
G01 X-15.2596 Y13.2504 
G01 X-15.1516 Y13.2057 
G01 X-15.0545 Y13.1408 
G01 X-14.9719 Y13.0582 
G01 X-14.9070 Y12.9611 
G01 X-14.8623 Y12.8532 
G01 X-14.8395 Y12.7386 
G01 X-14.8395 Y12.6218 
G01 X-14.8623 Y12.5072 
G01 X-14.9070 Y12.3993 
G01 X-14.9719 Y12.3022 
G01 X-15.0545 Y12.2196 
G01 X-15.1516 Y12.1547 
G01 X-15.2596 Y12.1100 
G01 X-15.3091 Y12.1001 
G01 X-15.4296 Y12.0196 
G01 X-15.5652 Y11.9634 
G01 X-15.7092 Y11.9348 
G01 X-15.8561 Y11.9348 
G01 X-16.0001 Y11.9634 
G01 X-16.1357 Y12.0196 
G01 X-16.2368 Y12.0872 
G01 X-18.8051 Y12.0872 
G01 X-18.8051 Y1.5020 
G01 X-18.7204 Y1.4669 
G01 X-18.6233 Y1.4020 
G01 X-18.5407 Y1.3194 
G01 X-18.4758 Y1.2223 
G01 X-18.4311 Y1.1143 
G01 X-18.4083 Y0.9998 
G01 X-18.4083 Y0.8830 
G01 X-18.4311 Y0.7684 
G01 X-18.4616 Y0.6949 
G01 X-18.4616 Y0.5766 
G01 X-18.4880 Y0.4437 
G01 X-18.5399 Y0.3184 
G01 X-18.6152 Y0.2057 
G01 X-18.7111 Y0.1099 
G01 X-18.8238 Y0.0346 
G01 X-18.9490 Y-0.0173 
G01 X-19.0820 Y-0.0438 
G01 X-19.2175 Y-0.0438 
G01 X-19.3505 Y-0.0173 
G01 X-19.4757 Y0.0346 
G01 X-19.5885 Y0.1099 
G01 X-19.6843 Y0.2057 
G01 X-19.7596 Y0.3184 
G01 X-19.8115 Y0.4437 
G01 X-19.8380 Y0.5766 
G01 X-19.8380 Y0.6919 
G01 X-19.8587 Y0.7127 
G01 X-19.9236 Y0.8098 
G01 X-19.9683 Y0.9177 
G01 X-19.9911 Y1.0323 
G01 X-19.9911 Y12.7386 
G01 X-19.9683 Y12.8532 
G01 X-19.9236 Y12.9611 
G01 X-19.8587 Y13.0582 
G01 X-19.7761 Y13.1408 
G01 X-19.6790 Y13.2057 
G01 X-19.5711 Y13.2504 
G01 X-19.4565 Y13.2732 
G01 X-16.2368 Y13.2732 
G01 X-16.1357 Y13.3407 
G00 Z2.0000 
G00 X-16.5280 Y10.0668 
G01 Z-0.1000 F60.00 
G01 X-16.5280 Y10.2136 F208.00 
G01 X-16.4994 Y10.3576 
G01 X-16.4432 Y10.4933 
G01 X-16.3616 Y10.6153 
G01 X-16.2578 Y10.7192 
G01 X-16.1357 Y10.8007 
G01 X-16.0001 Y10.8569 
G01 X-15.8561 Y10.8856 
G01 X-15.7092 Y10.8856 
G01 X-15.5652 Y10.8569 
G01 X-15.4296 Y10.8007 
G01 X-15.3285 Y10.7332 
G01 X-14.6048 Y10.7332 
G01 X-12.3204 Y13.0176 
G01 X-12.3204 Y14.2379 
G01 X-12.2976 Y14.3524 
G01 X-12.2529 Y14.4603 
G01 X-12.1880 Y14.5575 
G01 X-12.1054 Y14.6401 
G01 X-10.5560 Y16.1894 
G01 X-10.5560 Y16.4049 
G01 X-10.1194 Y16.8416 
G01 X-9.5019 Y16.8416 
G01 X-9.3394 Y16.6791 
G01 X-9.2757 Y16.6664 
G01 X-9.1677 Y16.6217 
G01 X-9.0706 Y16.5568 
G01 X-7.5373 Y15.0234 
G01 X-7.1781 Y15.0234 
G01 X-6.6819 Y14.5273 
G01 X-6.6819 Y13.8256 
G01 X-7.1781 Y13.3294 
G01 X-7.8797 Y13.3294 
G01 X-8.3759 Y13.8256 
G01 X-8.3759 Y14.1848 
G01 X-9.5419 Y15.3508 
G01 X-9.7174 Y15.3508 
G01 X-11.1344 Y13.9338 
G01 X-11.1344 Y12.7135 
G01 X-11.1572 Y12.5990 
G01 X-11.2019 Y12.4911 
G01 X-11.2668 Y12.3939 
G01 X-13.9811 Y9.6796 
G01 X-14.0782 Y9.6147 
G01 X-14.1862 Y9.5700 
G01 X-14.3007 Y9.5472 
G01 X-15.3285 Y9.5472 
G01 X-15.4296 Y9.4796 
G01 X-15.5652 Y9.4234 
G01 X-15.7092 Y9.3948 
G01 X-15.8561 Y9.3948 
G01 X-16.0001 Y9.4234 
G01 X-16.1357 Y9.4796 
G01 X-16.2578 Y9.5612 
G01 X-16.3616 Y9.6650 
G01 X-16.4432 Y9.7871 
G01 X-16.4994 Y9.9228 
G01 X-16.5280 Y10.0668 
G00 Z2.0000 
G00 X-24.1480 Y10.0668 
G01 Z-0.1000 F60.00 
G01 X-24.1480 Y10.2136 F208.00 
G01 X-24.1194 Y10.3576 
G01 X-24.0632 Y10.4933 
G01 X-23.9816 Y10.6153 
G01 X-23.8778 Y10.7192 
G01 X-23.7557 Y10.8007 
G01 X-23.6201 Y10.8569 
G01 X-23.4761 Y10.8856 
G01 X-23.3292 Y10.8856 
G01 X-23.1852 Y10.8569 
G01 X-23.0496 Y10.8007 
G01 X-22.9275 Y10.7192 
G01 X-22.8237 Y10.6153 
G01 X-22.7421 Y10.4933 
G01 X-22.6859 Y10.3576 
G01 X-22.6573 Y10.2136 
G01 X-22.6573 Y10.0668 
G01 X-22.6859 Y9.9228 
G01 X-22.7421 Y9.7871 
G01 X-22.8237 Y9.6650 
G01 X-22.9275 Y9.5612 
G01 X-23.0496 Y9.4796 
G01 X-23.1852 Y9.4234 
G01 X-23.3292 Y9.3948 
G01 X-23.4761 Y9.3948 
G01 X-23.6201 Y9.4234 
G01 X-23.7557 Y9.4796 
G01 X-23.8778 Y9.5612 
G01 X-23.9816 Y9.6650 
G01 X-24.0632 Y9.7871 
G01 X-24.1194 Y9.9228 
G01 X-24.1480 Y10.0668 
G00 Z2.0000 
G00 X-24.1480 Y7.5268 
G01 Z-0.1000 F60.00 
G01 X-24.1480 Y7.6736 F208.00 
G01 X-24.1194 Y7.8176 
G01 X-24.0632 Y7.9533 
G01 X-23.9816 Y8.0753 
G01 X-23.8778 Y8.1792 
G01 X-23.7557 Y8.2607 
G01 X-23.6201 Y8.3169 
G01 X-23.4761 Y8.3456 
G01 X-23.3292 Y8.3456 
G01 X-23.1852 Y8.3169 
G01 X-23.0496 Y8.2607 
G01 X-22.9275 Y8.1792 
G01 X-22.8237 Y8.0753 
G01 X-22.7421 Y7.9533 
G01 X-22.6859 Y7.8176 
G01 X-22.6573 Y7.6736 
G01 X-22.6573 Y7.5268 
G01 X-22.6859 Y7.3828 
G01 X-22.7421 Y7.2471 
G01 X-22.8237 Y7.1250 
G01 X-22.9275 Y7.0212 
G01 X-23.0496 Y6.9396 
G01 X-23.1852 Y6.8834 
G01 X-23.3292 Y6.8548 
G01 X-23.4761 Y6.8548 
G01 X-23.6201 Y6.8834 
G01 X-23.7557 Y6.9396 
G01 X-23.8778 Y7.0212 
G01 X-23.9816 Y7.1250 
G01 X-24.0632 Y7.2471 
G01 X-24.1194 Y7.3828 
G01 X-24.1480 Y7.5268 
G00 Z2.0000 
G00 X-24.1480 Y4.9868 
G01 Z-0.1000 F60.00 
G01 X-24.1480 Y5.1336 F208.00 
G01 X-24.1194 Y5.2776 
G01 X-24.0632 Y5.4133 
G01 X-23.9816 Y5.5353 
G01 X-23.8778 Y5.6392 
G01 X-23.7557 Y5.7207 
G01 X-23.6201 Y5.7769 
G01 X-23.4761 Y5.8056 
G01 X-23.3292 Y5.8056 
G01 X-23.1852 Y5.7769 
G01 X-23.0496 Y5.7207 
G01 X-22.9275 Y5.6392 
G01 X-22.8237 Y5.5353 
G01 X-22.7421 Y5.4133 
G01 X-22.6859 Y5.2776 
G01 X-22.6573 Y5.1336 
G01 X-22.6573 Y4.9868 
G01 X-22.6859 Y4.8428 
G01 X-22.7421 Y4.7071 
G01 X-22.8237 Y4.5850 
G01 X-22.8567 Y4.5520 
G01 X-22.8567 Y0.7282 
G01 X-22.8475 Y0.6824 
G01 X-22.8475 Y0.5469 
G01 X-22.8740 Y0.4139 
G01 X-22.9259 Y0.2887 
G01 X-23.0012 Y0.1759 
G01 X-23.0970 Y0.0801 
G01 X-23.2097 Y0.0048 
G01 X-23.3350 Y-0.0471 
G01 X-23.4680 Y-0.0736 
G01 X-23.6035 Y-0.0736 
G01 X-23.7365 Y-0.0471 
G01 X-23.8617 Y0.0048 
G01 X-23.9744 Y0.0801 
G01 X-24.0703 Y0.1759 
G01 X-24.1456 Y0.2887 
G01 X-24.1975 Y0.4139 
G01 X-24.2239 Y0.5469 
G01 X-24.2239 Y0.6824 
G01 X-24.1975 Y0.8154 
G01 X-24.1456 Y0.9406 
G01 X-24.0703 Y1.0533 
G01 X-24.0426 Y1.0810 
G01 X-24.0426 Y4.6763 
G01 X-24.0632 Y4.7071 
G01 X-24.1194 Y4.8428 
G01 X-24.1480 Y4.9868 
G00 Z2.0000 
G00 X-5.7109 Y26.0566 
G01 Z-0.1000 F60.00 
G01 X-5.7109 Y26.6741 F208.00 
G01 X-5.5585 Y26.8265 
G01 X-5.5585 Y28.7829 
G01 X-8.0272 Y28.7829 
G01 X-8.1796 Y28.6305 
G01 X-8.7971 Y28.6305 
G01 X-9.2338 Y29.0671 
G01 X-9.2338 Y29.6846 
G01 X-8.7971 Y30.1213 
G01 X-8.1796 Y30.1213 
G01 X-8.0272 Y29.9689 
G01 X-4.9071 Y29.9689 
G01 X-4.7926 Y29.9461 
G01 X-4.6847 Y29.9014 
G01 X-4.5875 Y29.8365 
G01 X-4.5049 Y29.7539 
G01 X-4.4400 Y29.6568 
G01 X-4.3953 Y29.5488 
G01 X-4.3725 Y29.4343 
G01 X-4.3725 Y26.8265 
G01 X-4.2201 Y26.6741 
G01 X-4.2201 Y26.0566 
G01 X-4.6568 Y25.6200 
G01 X-5.2743 Y25.6200 
G01 X-5.7109 Y26.0566 
G00 Z2.0000 
G00 X-16.1553 Y23.9294 
G01 Z-0.1000 F60.00 
G01 X-16.1553 Y24.5469 F208.00 
G01 X-15.7186 Y24.9836 
G01 X-15.1011 Y24.9836 
G01 X-14.9713 Y24.8537 
G01 X-10.2968 Y24.8537 
G01 X-10.1822 Y24.8309 
G01 X-10.0743 Y24.7862 
G01 X-9.9772 Y24.7213 
G01 X-9.7174 Y24.4616 
G01 X-9.5019 Y24.4616 
G01 X-9.0653 Y24.0249 
G01 X-9.0653 Y23.4074 
G01 X-9.5019 Y22.9708 
G01 X-10.1194 Y22.9708 
G01 X-10.5560 Y23.4074 
G01 X-10.5560 Y23.6229 
G01 X-10.6008 Y23.6677 
G01 X-14.9262 Y23.6677 
G01 X-15.1011 Y23.4928 
G01 X-15.7186 Y23.4928 
G01 X-16.1553 Y23.9294 
G00 Z2.0000 
G00 X-11.5781 Y7.5162 
G01 Z-0.1000 F60.00 
G01 X-11.5781 Y7.6330 F208.00 
G01 X-11.5553 Y7.7475 
G01 X-11.5106 Y7.8555 
G01 X-11.4457 Y7.9526 
G01 X-9.8413 Y9.5570 
G01 X-9.7442 Y9.6219 
G01 X-9.6363 Y9.6666 
G01 X-9.5217 Y9.6894 
G01 X-8.1337 Y9.6894 
G01 X-7.8797 Y9.9434 
G01 X-7.1781 Y9.9434 
G01 X-6.6819 Y9.4473 
G01 X-6.6819 Y8.7456 
G01 X-7.1781 Y8.2494 
G01 X-7.8797 Y8.2494 
G01 X-8.1337 Y8.5034 
G01 X-9.2177 Y8.5034 
G01 X-10.3921 Y7.3289 
G01 X-10.3921 Y6.2768 
G01 X-10.4149 Y6.1623 
G01 X-10.4596 Y6.0543 
G01 X-10.5245 Y5.9572 
G01 X-10.6071 Y5.8746 
G01 X-10.7042 Y5.8097 
G01 X-10.8122 Y5.7650 
G01 X-10.9267 Y5.7422 
G01 X-11.0435 Y5.7422 
G01 X-11.1581 Y5.7650 
G01 X-11.2581 Y5.8064 
G01 X-11.3492 Y5.8246 
G01 X-11.4744 Y5.8764 
G01 X-11.5871 Y5.9517 
G01 X-11.6830 Y6.0476 
G01 X-11.7583 Y6.1603 
G01 X-11.8102 Y6.2856 
G01 X-11.8366 Y6.4185 
G01 X-11.8366 Y6.5541 
G01 X-11.8102 Y6.6870 
G01 X-11.7583 Y6.8123 
G01 X-11.6830 Y6.9250 
G01 X-11.5871 Y7.0209 
G01 X-11.5781 Y7.0269 
G01 X-11.5781 Y7.5162 
G00 Z2.0000 
G00 X-7.9212 Y4.9634 
G01 Z-0.1000 F60.00 
G01 X-7.1366 Y4.9634 F208.00 
G01 X-6.5819 Y4.4087 
G01 X-6.5819 Y3.6242 
G01 X-7.1366 Y3.0694 
G01 X-7.9212 Y3.0694 
G01 X-8.1752 Y3.3234 
G01 X-9.4046 Y3.3234 
G01 X-9.8141 Y2.9139 
G01 X-9.8346 Y2.8105 
G01 X-9.8941 Y2.6671 
G01 X-9.9803 Y2.5380 
G01 X-10.0901 Y2.4282 
G01 X-10.2192 Y2.3419 
G01 X-10.3626 Y2.2825 
G01 X-10.5149 Y2.2522 
G01 X-10.6702 Y2.2522 
G01 X-10.7964 Y2.2773 
G01 X-10.8060 Y2.2773 
G01 X-10.9399 Y2.3039 
G01 X-11.0660 Y2.3562 
G01 X-11.1795 Y2.4320 
G01 X-11.2760 Y2.5286 
G01 X-11.3518 Y2.6421 
G01 X-11.4041 Y2.7682 
G01 X-11.4307 Y2.9021 
G01 X-11.4307 Y3.0386 
G01 X-11.4041 Y3.1725 
G01 X-11.3518 Y3.2986 
G01 X-11.3174 Y3.3501 
G01 X-11.2910 Y3.4138 
G01 X-11.2048 Y3.5429 
G01 X-11.0950 Y3.6526 
G01 X-10.9659 Y3.7389 
G01 X-10.9374 Y3.7507 
G01 X-10.1334 Y4.5547 
G01 X-10.0199 Y4.6306 
G01 X-9.8937 Y4.6828 
G01 X-9.7599 Y4.7094 
G01 X-8.1752 Y4.7094 
G01 X-7.9212 Y4.9634 
G00 Z2.0000 
G00 X-5.9359 Y3.6242 
G01 Z-0.1000 F60.00 
G01 X-5.9359 Y4.4087 F208.00 
G01 X-5.3811 Y4.9634 
G01 X-4.5966 Y4.9634 
G01 X-4.3426 Y4.7094 
G01 X-3.0105 Y4.7094 
G01 X-3.0105 Y17.9740 
G01 X-4.5413 Y17.9740 
G01 X-4.6154 Y17.9000 
G01 X-5.3157 Y17.9000 
G01 X-5.6338 Y18.2180 
G01 X-7.0948 Y18.2180 
G01 X-7.2287 Y18.2446 
G01 X-7.3548 Y18.2969 
G01 X-7.4683 Y18.3727 
G01 X-7.6167 Y18.5212 
G01 X-7.7133 Y18.6177 
G01 X-7.7891 Y18.7312 
G01 X-7.8413 Y18.8573 
G01 X-7.8680 Y18.9912 
G01 X-7.8680 Y20.3962 
G01 X-13.1227 Y20.3962 
G01 X-14.4414 Y19.0776 
G01 X-14.4414 Y18.3364 
G01 X-15.0185 Y17.7594 
G01 X-15.8345 Y17.7594 
G01 X-16.4116 Y18.3364 
G01 X-16.4116 Y19.1525 
G01 X-15.8345 Y19.7296 
G01 X-15.7495 Y19.7296 
G01 X-13.8515 Y21.6275 
G01 X-13.7380 Y21.7034 
G01 X-13.6119 Y21.7556 
G01 X-13.4780 Y21.7822 
G01 X-7.1562 Y21.7822 
G01 X-7.0223 Y21.7556 
G01 X-6.8962 Y21.7034 
G01 X-6.7827 Y21.6275 
G01 X-6.6862 Y21.5310 
G01 X-6.6367 Y21.4815 
G01 X-6.5608 Y21.3680 
G01 X-6.5086 Y21.2419 
G01 X-6.4820 Y21.1080 
G01 X-6.4820 Y19.6040 
G01 X-5.0629 Y19.6040 
G01 X-4.9963 Y19.5907 
G01 X-4.6154 Y19.5907 
G01 X-4.3846 Y19.3600 
G01 X-2.5048 Y19.3600 
G01 X-2.3710 Y19.3334 
G01 X-2.2448 Y19.2811 
G01 X-2.1313 Y19.2053 
G01 X-1.8757 Y18.9497 
G01 X-1.7792 Y18.8532 
G01 X-1.7034 Y18.7397 
G01 X-1.6511 Y18.6135 
G01 X-1.6245 Y18.4797 
G01 X-1.6245 Y0.2202 
G01 X-1.6511 Y0.0863 
G01 X-1.7034 Y-0.0398 
G01 X-1.7792 Y-0.1533 
G01 X-1.8757 Y-0.2498 
G01 X-1.9892 Y-0.3257 
G01 X-2.1153 Y-0.3779 
G01 X-2.2492 Y-0.4045 
G01 X-14.2241 Y-0.4045 
G01 X-14.3580 Y-0.3779 
G01 X-14.4841 Y-0.3257 
G01 X-14.5976 Y-0.2498 
G01 X-14.6941 Y-0.1533 
G01 X-16.1388 Y1.2914 
G01 X-16.2353 Y1.3879 
G01 X-16.3112 Y1.5014 
G01 X-16.3634 Y1.6275 
G01 X-16.3901 Y1.7614 
G01 X-16.3901 Y4.4720 
G01 X-16.4393 Y4.5213 
G01 X-16.5318 Y4.6597 
G01 X-16.5956 Y4.8136 
G01 X-16.6280 Y4.9769 
G01 X-16.6280 Y5.1435 
G01 X-16.5956 Y5.3068 
G01 X-16.5318 Y5.4606 
G01 X-16.4393 Y5.5991 
G01 X-16.3216 Y5.7168 
G01 X-16.1831 Y5.8094 
G01 X-16.0292 Y5.8731 
G01 X-15.8659 Y5.9056 
G01 X-15.6994 Y5.9056 
G01 X-15.5361 Y5.8731 
G01 X-15.3822 Y5.8094 
G01 X-15.2437 Y5.7168 
G01 X-15.1260 Y5.5991 
G01 X-15.0335 Y5.4606 
G01 X-14.9697 Y5.3068 
G01 X-14.9373 Y5.1435 
G01 X-14.9373 Y4.9769 
G01 X-14.9697 Y4.8136 
G01 X-15.0041 Y4.7307 
G01 X-15.0041 Y2.1167 
G01 X-13.8688 Y0.9815 
G01 X-3.0105 Y0.9815 
G01 X-3.0105 Y3.3234 
G01 X-4.3426 Y3.3234 
G01 X-4.5966 Y3.0694 
G01 X-5.3811 Y3.0694 
G01 X-5.9359 Y3.6242 
G00 Z2.0000 
G00 X-8.4759 Y6.1642 
G01 Z-0.1000 F60.00 
G01 X-8.4759 Y6.9487 F208.00 
G01 X-7.9212 Y7.5034 
G01 X-7.1366 Y7.5034 
G01 X-6.5819 Y6.9487 
G01 X-6.5819 Y6.1642 
G01 X-7.1366 Y5.6094 
G01 X-7.9212 Y5.6094 
G01 X-8.4759 Y6.1642 
G00 Z2.0000 
G00 X-7.9212 Y12.5834 
G01 Z-0.1000 F60.00 
G01 X-7.1366 Y12.5834 F208.00 
G01 X-6.5819 Y12.0287 
G01 X-6.5819 Y11.2442 
G01 X-7.1366 Y10.6894 
G01 X-7.9212 Y10.6894 
G01 X-8.1751 Y10.9434 
G01 X-9.4582 Y10.9434 
G01 X-13.3398 Y7.0619 
G01 X-13.4533 Y6.9861 
G01 X-13.5794 Y6.9338 
G01 X-13.7133 Y6.9072 
G01 X-15.2981 Y6.9072 
G01 X-15.3822 Y6.8510 
G01 X-15.5361 Y6.7873 
G01 X-15.6994 Y6.7548 
G01 X-15.8659 Y6.7548 
G01 X-16.0292 Y6.7873 
G01 X-16.1831 Y6.8510 
G01 X-16.3216 Y6.9435 
G01 X-16.4393 Y7.0613 
G01 X-16.5318 Y7.1997 
G01 X-16.5956 Y7.3536 
G01 X-16.6280 Y7.5169 
G01 X-16.6280 Y7.6835 
G01 X-16.5956 Y7.8468 
G01 X-16.5318 Y8.0006 
G01 X-16.4393 Y8.1391 
G01 X-16.3216 Y8.2568 
G01 X-16.1831 Y8.3494 
G01 X-16.0292 Y8.4131 
G01 X-15.8659 Y8.4456 
G01 X-15.6994 Y8.4456 
G01 X-15.5361 Y8.4131 
G01 X-15.3822 Y8.3494 
G01 X-15.2981 Y8.2932 
G01 X-14.0686 Y8.2932 
G01 X-10.1870 Y12.1747 
G01 X-10.0735 Y12.2506 
G01 X-9.9474 Y12.3028 
G01 X-9.8135 Y12.3294 
G01 X-8.1751 Y12.3294 
G01 X-7.9212 Y12.5834 
G00 Z2.0000 
G00 X-5.9359 Y13.7842 
G01 Z-0.1000 F60.00 
G01 X-5.9359 Y14.5687 F208.00 
G01 X-5.6819 Y14.8227 
G01 X-5.6819 Y15.7922 
G01 X-7.4906 Y15.7922 
G01 X-7.6245 Y15.8189 
G01 X-7.7506 Y15.8711 
G01 X-7.8642 Y15.9470 
G01 X-7.9631 Y16.0459 
G01 X-8.0596 Y16.1424 
G01 X-8.1355 Y16.2559 
G01 X-8.1877 Y16.3821 
G01 X-8.2143 Y16.5159 
G01 X-8.2143 Y16.7428 
G01 X-9.9866 Y18.5150 
G01 X-10.6474 Y18.5150 
G01 X-13.0199 Y16.1425 
G01 X-13.1165 Y16.0460 
G01 X-13.2300 Y15.9701 
G01 X-13.3561 Y15.9179 
G01 X-13.4900 Y15.8913 
G01 X-20.7024 Y15.8913 
G01 X-20.8363 Y15.9179 
G01 X-20.9624 Y15.9701 
G01 X-21.0759 Y16.0460 
G01 X-21.2245 Y16.1945 
G01 X-21.3210 Y16.2910 
G01 X-21.3968 Y16.4045 
G01 X-21.4491 Y16.5306 
G01 X-21.4757 Y16.6645 
G01 X-21.4757 Y18.0515 
G01 X-22.1444 Y18.0515 
G01 X-22.7096 Y17.4862 
G01 X-22.7096 Y13.1647 
G01 X-22.6535 Y13.0806 
G01 X-22.5897 Y12.9268 
G01 X-22.5572 Y12.7635 
G01 X-22.5572 Y12.5969 
G01 X-22.5897 Y12.4336 
G01 X-22.6535 Y12.2797 
G01 X-22.7460 Y12.1413 
G01 X-22.8637 Y12.0235 
G01 X-23.0022 Y11.9310 
G01 X-23.1561 Y11.8673 
G01 X-23.3194 Y11.8348 
G01 X-23.4859 Y11.8348 
G01 X-23.6492 Y11.8673 
G01 X-23.8031 Y11.9310 
G01 X-23.9416 Y12.0235 
G01 X-24.0593 Y12.1413 
G01 X-24.1518 Y12.2797 
G01 X-24.2156 Y12.4336 
G01 X-24.2480 Y12.5969 
G01 X-24.2480 Y12.7635 
G01 X-24.2156 Y12.9268 
G01 X-24.1518 Y13.0806 
G01 X-24.0956 Y13.1647 
G01 X-24.0956 Y17.8415 
G01 X-24.0690 Y17.9754 
G01 X-24.0168 Y18.1015 
G01 X-23.9409 Y18.2150 
G01 X-23.8444 Y18.3116 
G01 X-22.8732 Y19.2827 
G01 X-22.7597 Y19.3586 
G01 X-22.6336 Y19.4108 
G01 X-22.4997 Y19.4375 
G01 X-21.3193 Y19.4375 
G01 X-21.3193 Y24.2716 
G01 X-21.2927 Y24.4055 
G01 X-21.2404 Y24.5316 
G01 X-21.1646 Y24.6451 
G01 X-21.1298 Y24.6799 
G01 X-21.0333 Y24.7765 
G01 X-20.9198 Y24.8523 
G01 X-20.7936 Y24.9045 
G01 X-20.6597 Y24.9312 
G01 X-18.6429 Y24.9312 
G01 X-18.6429 Y26.7744 
G01 X-18.6163 Y26.9082 
G01 X-18.5852 Y26.9832 
G01 X-18.5640 Y27.0343 
G01 X-18.4882 Y27.1479 
G01 X-18.4842 Y27.1518 
G01 X-15.4704 Y30.1657 
G01 X-15.3569 Y30.2415 
G01 X-15.2308 Y30.2938 
G01 X-15.0969 Y30.3204 
G01 X-11.2117 Y30.3204 
G01 X-11.0778 Y30.2938 
G01 X-10.9517 Y30.2415 
G01 X-10.9213 Y30.2213 
G01 X-10.6782 Y30.2213 
G01 X-10.1830 Y29.7260 
G01 X-10.1830 Y29.0257 
G01 X-10.6782 Y28.5305 
G01 X-11.3786 Y28.5305 
G01 X-11.7825 Y28.9344 
G01 X-14.7416 Y28.9344 
G01 X-17.2569 Y26.4190 
G01 X-17.2569 Y24.7407 
G01 X-17.1045 Y24.5884 
G01 X-17.1045 Y23.8880 
G01 X-17.5997 Y23.3928 
G01 X-18.3001 Y23.3928 
G01 X-18.4525 Y23.5452 
G01 X-19.9333 Y23.5452 
G01 X-19.9333 Y19.5644 
G01 X-19.5214 Y19.1525 
G01 X-19.5214 Y18.3364 
G01 X-20.0897 Y17.7681 
G01 X-20.0897 Y17.2773 
G01 X-13.8453 Y17.2773 
G01 X-11.4727 Y19.6498 
G01 X-11.3762 Y19.7463 
G01 X-11.2627 Y19.8222 
G01 X-11.1366 Y19.8744 
G01 X-11.0027 Y19.9010 
G01 X-9.6313 Y19.9010 
G01 X-9.4974 Y19.8744 
G01 X-9.3713 Y19.8222 
G01 X-9.2578 Y19.7463 
G01 X-9.1613 Y19.6498 
G01 X-6.9831 Y17.4716 
G01 X-6.9072 Y17.3581 
G01 X-6.8550 Y17.2319 
G01 X-6.8443 Y17.1782 
G01 X-5.2760 Y17.1782 
G01 X-5.1421 Y17.1516 
G01 X-5.0160 Y17.0994 
G01 X-4.9025 Y17.0235 
G01 X-4.4506 Y16.5716 
G01 X-4.3748 Y16.4581 
G01 X-4.3225 Y16.3320 
G01 X-4.2959 Y16.1981 
G01 X-4.2959 Y14.8227 
G01 X-4.0419 Y14.5687 
G01 X-4.0419 Y13.7842 
G01 X-4.2959 Y13.5302 
G01 X-4.2959 Y12.2827 
G01 X-4.0419 Y12.0287 
G01 X-4.0419 Y11.2442 
G01 X-4.2959 Y10.9902 
G01 X-4.2959 Y9.7427 
G01 X-4.0419 Y9.4887 
G01 X-4.0419 Y8.7042 
G01 X-4.2959 Y8.4502 
G01 X-4.2959 Y7.2027 
G01 X-4.0419 Y6.9487 
G01 X-4.0419 Y6.1642 
G01 X-4.5966 Y5.6094 
G01 X-5.3811 Y5.6094 
G01 X-5.9359 Y6.1642 
G01 X-5.9359 Y6.9487 
G01 X-5.6819 Y7.2027 
G01 X-5.6819 Y8.4502 
G01 X-5.9359 Y8.7042 
G01 X-5.9359 Y9.4887 
G01 X-5.6819 Y9.7427 
G01 X-5.6819 Y10.9902 
G01 X-5.9359 Y11.2442 
G01 X-5.9359 Y12.0287 
G01 X-5.6819 Y12.2827 
G01 X-5.6819 Y13.5302 
G01 X-5.9359 Y13.7842 
G00 Z2.0000 
G00 X-16.1831 Y13.4294 
G01 Z-0.1000 F60.00 
G01 X-16.0292 Y13.4931 F208.00 
G01 X-15.8659 Y13.5256 
G01 X-15.6994 Y13.5256 
G01 X-15.5361 Y13.4931 
G01 X-15.3822 Y13.4294 
G01 X-15.2701 Y13.3544 
G01 X-15.2304 Y13.3466 
G01 X-15.1043 Y13.2943 
G01 X-14.9908 Y13.2185 
G01 X-14.8943 Y13.1219 
G01 X-14.8184 Y13.0084 
G01 X-14.7662 Y12.8823 
G01 X-14.7395 Y12.7484 
G01 X-14.7395 Y12.6119 
G01 X-14.7662 Y12.4780 
G01 X-14.8184 Y12.3519 
G01 X-14.8943 Y12.2384 
G01 X-14.9908 Y12.1419 
G01 X-15.1043 Y12.0661 
G01 X-15.2304 Y12.0138 
G01 X-15.2701 Y12.0059 
G01 X-15.3822 Y11.9310 
G01 X-15.5361 Y11.8673 
G01 X-15.6994 Y11.8348 
G01 X-15.8659 Y11.8348 
G01 X-16.0292 Y11.8673 
G01 X-16.1831 Y11.9310 
G01 X-16.2672 Y11.9872 
G01 X-18.7051 Y11.9872 
G01 X-18.7051 Y1.5688 
G01 X-18.6731 Y1.5555 
G01 X-18.5596 Y1.4797 
G01 X-18.4630 Y1.3831 
G01 X-18.3872 Y1.2696 
G01 X-18.3349 Y1.1435 
G01 X-18.3083 Y1.0096 
G01 X-18.3083 Y0.8731 
G01 X-18.3349 Y0.7392 
G01 X-18.3616 Y0.6750 
G01 X-18.3616 Y0.5668 
G01 X-18.3919 Y0.4145 
G01 X-18.4513 Y0.2711 
G01 X-18.5375 Y0.1420 
G01 X-18.6473 Y0.0322 
G01 X-18.7764 Y-0.0541 
G01 X-18.9198 Y-0.1135 
G01 X-19.0721 Y-0.1438 
G01 X-19.2274 Y-0.1438 
G01 X-19.3797 Y-0.1135 
G01 X-19.5231 Y-0.0541 
G01 X-19.6522 Y0.0322 
G01 X-19.7620 Y0.1420 
G01 X-19.8483 Y0.2711 
G01 X-19.9077 Y0.4145 
G01 X-19.9380 Y0.5668 
G01 X-19.9380 Y0.6513 
G01 X-20.0123 Y0.7625 
G01 X-20.0645 Y0.8886 
G01 X-20.0911 Y1.0225 
G01 X-20.0911 Y12.7484 
G01 X-20.0645 Y12.8823 
G01 X-20.0123 Y13.0084 
G01 X-19.9364 Y13.1219 
G01 X-19.8399 Y13.2185 
G01 X-19.7264 Y13.2943 
G01 X-19.6003 Y13.3466 
G01 X-19.4664 Y13.3732 
G01 X-16.2672 Y13.3732 
G01 X-16.1831 Y13.4294 
G00 Z2.0000 
G00 X-16.6280 Y10.0569 
G01 Z-0.1000 F60.00 
G01 X-16.6280 Y10.2234 F208.00 
G01 X-16.5956 Y10.3868 
G01 X-16.5318 Y10.5406 
G01 X-16.4393 Y10.6791 
G01 X-16.3216 Y10.7968 
G01 X-16.1831 Y10.8894 
G01 X-16.0292 Y10.9531 
G01 X-15.8659 Y10.9856 
G01 X-15.6994 Y10.9856 
G01 X-15.5361 Y10.9531 
G01 X-15.3822 Y10.8894 
G01 X-15.2981 Y10.8332 
G01 X-14.6462 Y10.8332 
G01 X-12.4204 Y13.0590 
G01 X-12.4204 Y14.2477 
G01 X-12.3937 Y14.3816 
G01 X-12.3415 Y14.5077 
G01 X-12.2657 Y14.6212 
G01 X-12.1691 Y14.7177 
G01 X-10.6560 Y16.2308 
G01 X-10.6560 Y16.4463 
G01 X-10.1608 Y16.9416 
G01 X-9.4605 Y16.9416 
G01 X-9.2901 Y16.7712 
G01 X-9.2465 Y16.7625 
G01 X-9.1204 Y16.7103 
G01 X-9.0069 Y16.6345 
G01 X-7.4958 Y15.1234 
G01 X-7.1366 Y15.1234 
G01 X-6.5819 Y14.5687 
G01 X-6.5819 Y13.7842 
G01 X-7.1366 Y13.2294 
G01 X-7.9212 Y13.2294 
G01 X-8.4759 Y13.7842 
G01 X-8.4759 Y14.1434 
G01 X-9.5833 Y15.2508 
G01 X-9.6760 Y15.2508 
G01 X-11.0344 Y13.8924 
G01 X-11.0344 Y12.7037 
G01 X-11.0610 Y12.5698 
G01 X-11.1132 Y12.4437 
G01 X-11.1891 Y12.3302 
G01 X-13.9174 Y9.6019 
G01 X-14.0309 Y9.5261 
G01 X-14.1570 Y9.4738 
G01 X-14.2909 Y9.4472 
G01 X-15.2981 Y9.4472 
G01 X-15.3822 Y9.3910 
G01 X-15.5361 Y9.3273 
G01 X-15.6994 Y9.2948 
G01 X-15.8659 Y9.2948 
G01 X-16.0292 Y9.3273 
G01 X-16.1831 Y9.3910 
G01 X-16.3216 Y9.4835 
G01 X-16.4393 Y9.6013 
G01 X-16.5318 Y9.7397 
G01 X-16.5956 Y9.8936 
G01 X-16.6280 Y10.0569 
G00 Z2.0000 
G00 X-24.2480 Y10.0569 
G01 Z-0.1000 F60.00 
G01 X-24.2480 Y10.2234 F208.00 
G01 X-24.2156 Y10.3868 
G01 X-24.1518 Y10.5406 
G01 X-24.0593 Y10.6791 
G01 X-23.9416 Y10.7968 
G01 X-23.8031 Y10.8894 
G01 X-23.6492 Y10.9531 
G01 X-23.4859 Y10.9856 
G01 X-23.3194 Y10.9856 
G01 X-23.1561 Y10.9531 
G01 X-23.0022 Y10.8894 
G01 X-22.8637 Y10.7968 
G01 X-22.7460 Y10.6791 
G01 X-22.6535 Y10.5406 
G01 X-22.5897 Y10.3868 
G01 X-22.5572 Y10.2234 
G01 X-22.5572 Y10.0569 
G01 X-22.5897 Y9.8936 
G01 X-22.6535 Y9.7397 
G01 X-22.7460 Y9.6013 
G01 X-22.8637 Y9.4835 
G01 X-23.0022 Y9.3910 
G01 X-23.1561 Y9.3273 
G01 X-23.3194 Y9.2948 
G01 X-23.4859 Y9.2948 
G01 X-23.6492 Y9.3273 
G01 X-23.8031 Y9.3910 
G01 X-23.9416 Y9.4835 
G01 X-24.0593 Y9.6013 
G01 X-24.1518 Y9.7397 
G01 X-24.2156 Y9.8936 
G01 X-24.2480 Y10.0569 
G00 Z2.0000 
G00 X-24.2480 Y7.5169 
G01 Z-0.1000 F60.00 
G01 X-24.2480 Y7.6835 F208.00 
G01 X-24.2156 Y7.8468 
G01 X-24.1518 Y8.0006 
G01 X-24.0593 Y8.1391 
G01 X-23.9416 Y8.2568 
G01 X-23.8031 Y8.3494 
G01 X-23.6492 Y8.4131 
G01 X-23.4859 Y8.4456 
G01 X-23.3194 Y8.4456 
G01 X-23.1561 Y8.4131 
G01 X-23.0022 Y8.3494 
G01 X-22.8637 Y8.2568 
G01 X-22.7460 Y8.1391 
G01 X-22.6535 Y8.0006 
G01 X-22.5897 Y7.8468 
G01 X-22.5572 Y7.6835 
G01 X-22.5572 Y7.5169 
G01 X-22.5897 Y7.3536 
G01 X-22.6535 Y7.1997 
G01 X-22.7460 Y7.0613 
G01 X-22.8637 Y6.9435 
G01 X-23.0022 Y6.8510 
G01 X-23.1561 Y6.7873 
G01 X-23.3194 Y6.7548 
G01 X-23.4859 Y6.7548 
G01 X-23.6492 Y6.7873 
G01 X-23.8031 Y6.8510 
G01 X-23.9416 Y6.9435 
G01 X-24.0593 Y7.0613 
G01 X-24.1518 Y7.1997 
G01 X-24.2156 Y7.3536 
G01 X-24.2480 Y7.5169 
G00 Z2.0000 
G00 X-24.2480 Y4.9769 
G01 Z-0.1000 F60.00 
G01 X-24.2480 Y5.1435 F208.00 
G01 X-24.2156 Y5.3068 
G01 X-24.1518 Y5.4606 
G01 X-24.0593 Y5.5991 
G01 X-23.9416 Y5.7168 
G01 X-23.8031 Y5.8094 
G01 X-23.6492 Y5.8731 
G01 X-23.4859 Y5.9056 
G01 X-23.3194 Y5.9056 
G01 X-23.1561 Y5.8731 
G01 X-23.0022 Y5.8094 
G01 X-22.8637 Y5.7168 
G01 X-22.7460 Y5.5991 
G01 X-22.6535 Y5.4606 
G01 X-22.5897 Y5.3068 
G01 X-22.5572 Y5.1435 
G01 X-22.5572 Y4.9769 
G01 X-22.5897 Y4.8136 
G01 X-22.6535 Y4.6597 
G01 X-22.7460 Y4.5213 
G01 X-22.7567 Y4.5106 
G01 X-22.7567 Y0.7381 
G01 X-22.7475 Y0.6923 
G01 X-22.7475 Y0.5370 
G01 X-22.7778 Y0.3847 
G01 X-22.8372 Y0.2413 
G01 X-22.9235 Y0.1122 
G01 X-23.0333 Y0.0024 
G01 X-23.1624 Y-0.0839 
G01 X-23.3058 Y-0.1433 
G01 X-23.4581 Y-0.1736 
G01 X-23.6134 Y-0.1736 
G01 X-23.7656 Y-0.1433 
G01 X-23.9091 Y-0.0839 
G01 X-24.0382 Y0.0024 
G01 X-24.1480 Y0.1122 
G01 X-24.2342 Y0.2413 
G01 X-24.2936 Y0.3847 
G01 X-24.3239 Y0.5370 
G01 X-24.3239 Y0.6923 
G01 X-24.2936 Y0.8446 
G01 X-24.2342 Y0.9880 
G01 X-24.1480 Y1.1171 
G01 X-24.1426 Y1.1224 
G01 X-24.1426 Y4.6460 
G01 X-24.1518 Y4.6597 
G01 X-24.2156 Y4.8136 
G01 X-24.2480 Y4.9769 
G00 Z2.0000 
G00 X-5.8109 Y26.0152 
G01 Z-0.1000 F60.00 
G01 X-5.8109 Y26.7155 F208.00 
G01 X-5.6585 Y26.8679 
G01 X-5.6585 Y28.6829 
G01 X-7.9858 Y28.6829 
G01 X-8.1382 Y28.5305 
G01 X-8.8385 Y28.5305 
G01 X-9.3338 Y29.0257 
G01 X-9.3338 Y29.7260 
G01 X-8.8385 Y30.2213 
G01 X-8.1382 Y30.2213 
G01 X-7.9858 Y30.0689 
G01 X-4.8973 Y30.0689 
G01 X-4.7634 Y30.0422 
G01 X-4.6373 Y29.9900 
G01 X-4.5238 Y29.9141 
G01 X-4.4273 Y29.8176 
G01 X-4.3514 Y29.7041 
G01 X-4.2992 Y29.5780 
G01 X-4.2725 Y29.4441 
G01 X-4.2725 Y26.8679 
G01 X-4.1201 Y26.7155 
G01 X-4.1201 Y26.0152 
G01 X-4.6154 Y25.5200 
G01 X-5.3157 Y25.5200 
G01 X-5.8109 Y26.0152 
G00 Z2.0000 
G00 X-16.2553 Y23.8880 
G01 Z-0.1000 F60.00 
G01 X-16.2553 Y24.5884 F208.00 
G01 X-15.7601 Y25.0836 
G01 X-15.0597 Y25.0836 
G01 X-14.9299 Y24.9537 
G01 X-10.2870 Y24.9537 
G01 X-10.1531 Y24.9271 
G01 X-10.0270 Y24.8749 
G01 X-9.9134 Y24.7990 
G01 X-9.6760 Y24.5616 
G01 X-9.4605 Y24.5616 
G01 X-8.9653 Y24.0663 
G01 X-8.9653 Y23.3660 
G01 X-9.4605 Y22.8708 
G01 X-10.1608 Y22.8708 
G01 X-10.6560 Y23.3660 
G01 X-10.6560 Y23.5677 
G01 X-14.8848 Y23.5677 
G01 X-15.0597 Y23.3928 
G01 X-15.7601 Y23.3928 
G01 X-16.2553 Y23.8880 
G00 Z2.0000 
G00 X-11.6781 Y7.5063 
G01 Z-0.1000 F60.00 
G01 X-11.6781 Y7.6428 F208.00 
G01 X-11.6515 Y7.7767 
G01 X-11.5993 Y7.9028 
G01 X-11.5234 Y8.0163 
G01 X-9.9050 Y9.6347 
G01 X-9.7915 Y9.7106 
G01 X-9.6654 Y9.7628 
G01 X-9.5315 Y9.7894 
G01 X-8.1752 Y9.7894 
G01 X-7.9212 Y10.0434 
G01 X-7.1366 Y10.0434 
G01 X-6.5819 Y9.4887 
G01 X-6.5819 Y8.7042 
G01 X-7.1366 Y8.1494 
G01 X-7.9212 Y8.1494 
G01 X-8.1752 Y8.4034 
G01 X-9.1762 Y8.4034 
G01 X-10.2921 Y7.2875 
G01 X-10.2921 Y6.2670 
G01 X-10.3188 Y6.1331 
G01 X-10.3710 Y6.0070 
G01 X-10.4469 Y5.8935 
G01 X-10.5434 Y5.7970 
G01 X-10.6569 Y5.7211 
G01 X-10.7830 Y5.6689 
G01 X-10.9169 Y5.6422 
G01 X-11.0534 Y5.6422 
G01 X-11.1873 Y5.6689 
G01 X-11.2872 Y5.7103 
G01 X-11.3783 Y5.7284 
G01 X-11.5218 Y5.7878 
G01 X-11.6509 Y5.8741 
G01 X-11.7607 Y5.9839 
G01 X-11.8469 Y6.1130 
G01 X-11.9063 Y6.2564 
G01 X-11.9366 Y6.4087 
G01 X-11.9366 Y6.5639 
G01 X-11.9063 Y6.7162 
G01 X-11.8469 Y6.8597 
G01 X-11.7607 Y6.9888 
G01 X-11.6781 Y7.0713 
G01 X-11.6781 Y7.5063 
G00 Z2.0000 
G00 X-11.7781 Y7.4965 
G01 Z-0.1000 F60.00 
G01 X-11.7781 Y7.6527 F208.00 
G01 X-11.7477 Y7.8059 
G01 X-11.6879 Y7.9502 
G01 X-11.6011 Y8.0801 
G01 X-9.9688 Y9.7124 
G01 X-9.8389 Y9.7992 
G01 X-9.6946 Y9.8590 
G01 X-9.5414 Y9.8894 
G01 X-8.2166 Y9.8894 
G01 X-7.9626 Y10.1434 
G01 X-7.0952 Y10.1434 
G01 X-6.4819 Y9.5301 
G01 X-6.4819 Y8.6627 
G01 X-7.0952 Y8.0494 
G01 X-7.9626 Y8.0494 
G01 X-8.2166 Y8.3034 
G01 X-9.1348 Y8.3034 
G01 X-10.1921 Y7.2461 
G01 X-10.1921 Y6.2571 
G01 X-10.2226 Y6.1039 
G01 X-10.2824 Y5.9596 
G01 X-10.3692 Y5.8297 
G01 X-10.4796 Y5.7193 
G01 X-10.6095 Y5.6325 
G01 X-10.7538 Y5.5727 
G01 X-10.9070 Y5.5422 
G01 X-11.0632 Y5.5422 
G01 X-11.2164 Y5.5727 
G01 X-11.3164 Y5.6141 
G01 X-11.4075 Y5.6322 
G01 X-11.5691 Y5.6992 
G01 X-11.7146 Y5.7964 
G01 X-11.8383 Y5.9201 
G01 X-11.9355 Y6.0656 
G01 X-12.0025 Y6.2272 
G01 X-12.0366 Y6.3988 
G01 X-12.0366 Y6.5738 
G01 X-12.0025 Y6.7454 
G01 X-11.9355 Y6.9070 
G01 X-11.8383 Y7.0525 
G01 X-11.7781 Y7.1127 
G01 X-11.7781 Y7.4965 
G00 Z2.0000 
G00 X-16.5116 Y18.2950 
G01 Z-0.1000 F60.00 
G01 X-16.5116 Y19.1939 F208.00 
G01 X-15.8760 Y19.8296 
G01 X-15.7909 Y19.8296 
G01 X-13.9153 Y21.7052 
G01 X-13.7854 Y21.7920 
G01 X-13.6411 Y21.8518 
G01 X-13.4879 Y21.8822 
G01 X-7.1464 Y21.8822 
G01 X-6.9932 Y21.8518 
G01 X-6.8489 Y21.7920 
G01 X-6.7190 Y21.7052 
G01 X-6.6085 Y21.5947 
G01 X-6.5590 Y21.5452 
G01 X-6.4722 Y21.4153 
G01 X-6.4125 Y21.2710 
G01 X-6.3820 Y21.1178 
G01 X-6.3820 Y19.7040 
G01 X-5.0531 Y19.7040 
G01 X-4.9865 Y19.6907 
G01 X-4.5739 Y19.6907 
G01 X-4.3432 Y19.4600 
G01 X-2.4950 Y19.4600 
G01 X-2.3418 Y19.4295 
G01 X-2.1975 Y19.3698 
G01 X-2.0676 Y19.2830 
G01 X-1.8120 Y19.0274 
G01 X-1.7015 Y18.9169 
G01 X-1.6147 Y18.7870 
G01 X-1.5550 Y18.6427 
G01 X-1.5245 Y18.4895 
G01 X-1.5245 Y0.2103 
G01 X-1.5550 Y0.0571 
G01 X-1.6147 Y-0.0872 
G01 X-1.7015 Y-0.2171 
G01 X-1.8120 Y-0.3275 
G01 X-1.9419 Y-0.4143 
G01 X-2.0862 Y-0.4741 
G01 X-2.2394 Y-0.5045 
G01 X-14.2340 Y-0.5045 
G01 X-14.3872 Y-0.4741 
G01 X-14.5315 Y-0.4143 
G01 X-14.6614 Y-0.3275 
G01 X-14.7718 Y-0.2171 
G01 X-16.2026 Y1.2137 
G01 X-16.3130 Y1.3242 
G01 X-16.3998 Y1.4540 
G01 X-16.4596 Y1.5984 
G01 X-16.4901 Y1.7516 
G01 X-16.4901 Y4.4306 
G01 X-16.5170 Y4.4575 
G01 X-16.6205 Y4.6124 
G01 X-16.6917 Y4.7844 
G01 X-16.7280 Y4.9671 
G01 X-16.7280 Y5.1533 
G01 X-16.6917 Y5.3359 
G01 X-16.6205 Y5.5080 
G01 X-16.5170 Y5.6628 
G01 X-16.3853 Y5.7945 
G01 X-16.2305 Y5.8980 
G01 X-16.0584 Y5.9693 
G01 X-15.8758 Y6.0056 
G01 X-15.6895 Y6.0056 
G01 X-15.5069 Y5.9693 
G01 X-15.3348 Y5.8980 
G01 X-15.1800 Y5.7945 
G01 X-15.0483 Y5.6628 
G01 X-14.9448 Y5.5080 
G01 X-14.8736 Y5.3359 
G01 X-14.8373 Y5.1533 
G01 X-14.8373 Y4.9671 
G01 X-14.8736 Y4.7844 
G01 X-14.9041 Y4.7108 
G01 X-14.9041 Y2.1581 
G01 X-13.8274 Y1.0815 
G01 X-3.1105 Y1.0815 
G01 X-3.1105 Y3.2234 
G01 X-4.3012 Y3.2234 
G01 X-4.5552 Y2.9694 
G01 X-5.4226 Y2.9694 
G01 X-6.0359 Y3.5827 
G01 X-6.0359 Y4.4501 
G01 X-5.4226 Y5.0634 
G01 X-4.5552 Y5.0634 
G01 X-4.3012 Y4.8094 
G01 X-3.1105 Y4.8094 
G01 X-3.1105 Y17.8740 
G01 X-4.4999 Y17.8740 
G01 X-4.5739 Y17.8000 
G01 X-5.3571 Y17.8000 
G01 X-5.6752 Y18.1180 
G01 X-7.1046 Y18.1180 
G01 X-7.2578 Y18.1485 
G01 X-7.4022 Y18.2082 
G01 X-7.5320 Y18.2950 
G01 X-7.6805 Y18.4435 
G01 X-7.7909 Y18.5539 
G01 X-7.8777 Y18.6838 
G01 X-7.9375 Y18.8281 
G01 X-7.9680 Y18.9813 
G01 X-7.9680 Y20.2962 
G01 X-13.0813 Y20.2962 
G01 X-14.3414 Y19.0361 
G01 X-14.3414 Y18.2950 
G01 X-14.9770 Y17.6594 
G01 X-15.8760 Y17.6594 
G01 X-16.5116 Y18.2950 
G00 Z2.0000 
G00 X-19.4214 Y19.1939 
G01 Z-0.1000 F60.00 
G01 X-19.4214 Y18.2950 F208.00 
G01 X-19.9897 Y17.7267 
G01 X-19.9897 Y17.3773 
G01 X-13.8867 Y17.3773 
G01 X-11.5504 Y19.7135 
G01 X-11.4400 Y19.8240 
G01 X-11.3101 Y19.9108 
G01 X-11.1658 Y19.9705 
G01 X-11.0126 Y20.0010 
G01 X-9.6215 Y20.0010 
G01 X-9.4683 Y19.9705 
G01 X-9.3240 Y19.9108 
G01 X-9.1941 Y19.8240 
G01 X-9.0836 Y19.7135 
G01 X-6.9054 Y17.5353 
G01 X-6.8186 Y17.4054 
G01 X-6.7659 Y17.2782 
G01 X-5.2662 Y17.2782 
G01 X-5.1129 Y17.2478 
G01 X-4.9686 Y17.1880 
G01 X-4.8387 Y17.1012 
G01 X-4.3729 Y16.6354 
G01 X-4.2861 Y16.5055 
G01 X-4.2264 Y16.3612 
G01 X-4.1959 Y16.2080 
G01 X-4.1959 Y14.8641 
G01 X-3.9419 Y14.6101 
G01 X-3.9419 Y13.7427 
G01 X-4.1959 Y13.4887 
G01 X-4.1959 Y12.3241 
G01 X-3.9419 Y12.0701 
G01 X-3.9419 Y11.2027 
G01 X-4.1959 Y10.9487 
G01 X-4.1959 Y9.7841 
G01 X-3.9419 Y9.5301 
G01 X-3.9419 Y8.6627 
G01 X-4.1959 Y8.4087 
G01 X-4.1959 Y7.2441 
G01 X-3.9419 Y6.9901 
G01 X-3.9419 Y6.1227 
G01 X-4.5552 Y5.5094 
G01 X-5.4226 Y5.5094 
G01 X-6.0359 Y6.1227 
G01 X-6.0359 Y6.9901 
G01 X-5.7819 Y7.2441 
G01 X-5.7819 Y8.4087 
G01 X-6.0359 Y8.6627 
G01 X-6.0359 Y9.5301 
G01 X-5.7819 Y9.7841 
G01 X-5.7819 Y10.9487 
G01 X-6.0359 Y11.2027 
G01 X-6.0359 Y12.0701 
G01 X-5.7819 Y12.3241 
G01 X-5.7819 Y13.4887 
G01 X-6.0359 Y13.7427 
G01 X-6.0359 Y14.6101 
G01 X-5.7819 Y14.8641 
G01 X-5.7819 Y15.6922 
G01 X-7.5005 Y15.6922 
G01 X-7.6537 Y15.7227 
G01 X-7.7980 Y15.7825 
G01 X-7.9279 Y15.8693 
G01 X-8.0269 Y15.9682 
G01 X-8.1373 Y16.0787 
G01 X-8.2241 Y16.2086 
G01 X-8.2839 Y16.3529 
G01 X-8.3144 Y16.5061 
G01 X-8.3144 Y16.7013 
G01 X-10.0280 Y18.4150 
G01 X-10.6060 Y18.4150 
G01 X-12.9423 Y16.0787 
G01 X-13.0527 Y15.9683 
G01 X-13.1826 Y15.8815 
G01 X-13.3269 Y15.8217 
G01 X-13.4801 Y15.7913 
G01 X-20.7123 Y15.7913 
G01 X-20.8655 Y15.8217 
G01 X-21.0098 Y15.8815 
G01 X-21.1397 Y15.9683 
G01 X-21.2882 Y16.1168 
G01 X-21.3986 Y16.2273 
G01 X-21.4854 Y16.3571 
G01 X-21.5452 Y16.5015 
G01 X-21.5757 Y16.6547 
G01 X-21.5757 Y17.9515 
G01 X-22.1030 Y17.9515 
G01 X-22.6097 Y17.4448 
G01 X-22.6097 Y13.1950 
G01 X-22.5648 Y13.1280 
G01 X-22.4936 Y12.9559 
G01 X-22.4573 Y12.7733 
G01 X-22.4573 Y12.5871 
G01 X-22.4936 Y12.4044 
G01 X-22.5648 Y12.2324 
G01 X-22.6683 Y12.0775 
G01 X-22.8000 Y11.9458 
G01 X-22.9548 Y11.8424 
G01 X-23.1269 Y11.7711 
G01 X-23.3095 Y11.7348 
G01 X-23.4958 Y11.7348 
G01 X-23.6784 Y11.7711 
G01 X-23.8505 Y11.8424 
G01 X-24.0053 Y11.9458 
G01 X-24.1370 Y12.0775 
G01 X-24.2405 Y12.2324 
G01 X-24.3117 Y12.4044 
G01 X-24.3480 Y12.5871 
G01 X-24.3480 Y12.7733 
G01 X-24.3117 Y12.9559 
G01 X-24.2405 Y13.1280 
G01 X-24.1956 Y13.1950 
G01 X-24.1956 Y17.8514 
G01 X-24.1652 Y18.0046 
G01 X-24.1054 Y18.1489 
G01 X-24.0186 Y18.2788 
G01 X-23.9082 Y18.3892 
G01 X-22.9370 Y19.3604 
G01 X-22.8071 Y19.4472 
G01 X-22.6628 Y19.5070 
G01 X-22.5096 Y19.5375 
G01 X-21.4193 Y19.5375 
G01 X-21.4193 Y24.2815 
G01 X-21.3888 Y24.4347 
G01 X-21.3290 Y24.5790 
G01 X-21.2423 Y24.7089 
G01 X-21.2075 Y24.7437 
G01 X-21.0970 Y24.8541 
G01 X-20.9671 Y24.9409 
G01 X-20.8228 Y25.0007 
G01 X-20.6696 Y25.0312 
G01 X-18.7429 Y25.0312 
G01 X-18.7429 Y26.7842 
G01 X-18.7349 Y26.8244 
G01 X-18.7124 Y26.9374 
G01 X-18.6526 Y27.0817 
G01 X-18.5659 Y27.2116 
G01 X-18.5619 Y27.2156 
G01 X-15.5341 Y30.2434 
G01 X-15.4042 Y30.3302 
G01 X-15.2599 Y30.3899 
G01 X-15.1067 Y30.4204 
G01 X-11.2018 Y30.4204 
G01 X-11.0486 Y30.3899 
G01 X-10.9043 Y30.3302 
G01 X-10.8910 Y30.3213 
G01 X-10.6368 Y30.3213 
G01 X-10.0830 Y29.7675 
G01 X-10.0830 Y28.9843 
G01 X-10.6368 Y28.4305 
G01 X-11.4200 Y28.4305 
G01 X-11.8239 Y28.8344 
G01 X-14.7001 Y28.8344 
G01 X-17.1569 Y26.3776 
G01 X-17.1569 Y24.7822 
G01 X-17.0045 Y24.6298 
G01 X-17.0045 Y23.8466 
G01 X-17.5583 Y23.2928 
G01 X-18.3415 Y23.2928 
G01 X-18.4939 Y23.4452 
G01 X-19.8333 Y23.4452 
G01 X-19.8333 Y19.6058 
G01 X-19.4214 Y19.1939 
G00 Z2.0000 
G00 X-9.4338 Y28.9843 
G01 Z-0.1000 F60.00 
G01 X-9.4338 Y29.7675 F208.00 
G01 X-8.8800 Y30.3213 
G01 X-8.0968 Y30.3213 
G01 X-7.9444 Y30.1689 
G01 X-4.8874 Y30.1689 
G01 X-4.7342 Y30.1384 
G01 X-4.5899 Y30.0786 
G01 X-4.4600 Y29.9918 
G01 X-4.3496 Y29.8814 
G01 X-4.2628 Y29.7515 
G01 X-4.2030 Y29.6072 
G01 X-4.1725 Y29.4540 
G01 X-4.1725 Y26.9093 
G01 X-4.0201 Y26.7569 
G01 X-4.0201 Y25.9738 
G01 X-4.5739 Y25.4200 
G01 X-5.3571 Y25.4200 
G01 X-5.9109 Y25.9738 
G01 X-5.9109 Y26.7569 
G01 X-5.7585 Y26.9093 
G01 X-5.7585 Y28.5829 
G01 X-7.9444 Y28.5829 
G01 X-8.0968 Y28.4305 
G01 X-8.8800 Y28.4305 
G01 X-9.4338 Y28.9843 
G00 Z2.0000 
G00 X-10.7560 Y23.3246 
G01 Z-0.1000 F60.00 
G01 X-10.7560 Y23.4677 F208.00 
G01 X-14.8433 Y23.4677 
G01 X-15.0183 Y23.2928 
G01 X-15.8015 Y23.2928 
G01 X-16.3553 Y23.8466 
G01 X-16.3553 Y24.6298 
G01 X-15.8015 Y25.1836 
G01 X-15.0183 Y25.1836 
G01 X-14.8885 Y25.0537 
G01 X-10.2771 Y25.0537 
G01 X-10.1239 Y25.0233 
G01 X-9.9796 Y24.9635 
G01 X-9.8497 Y24.8767 
G01 X-9.6346 Y24.6616 
G01 X-9.4191 Y24.6616 
G01 X-8.8652 Y24.1078 
G01 X-8.8652 Y23.3246 
G01 X-9.4191 Y22.7708 
G01 X-10.2022 Y22.7708 
G01 X-10.7560 Y23.3246 
G00 Z2.0000 
G00 X-24.3480 Y4.9671 
G01 Z-0.1000 F60.00 
G01 X-24.3480 Y5.1533 F208.00 
G01 X-24.3117 Y5.3359 
G01 X-24.2405 Y5.5080 
G01 X-24.1370 Y5.6628 
G01 X-24.0053 Y5.7945 
G01 X-23.8505 Y5.8980 
G01 X-23.6784 Y5.9693 
G01 X-23.4958 Y6.0056 
G01 X-23.3095 Y6.0056 
G01 X-23.1269 Y5.9693 
G01 X-22.9548 Y5.8980 
G01 X-22.8000 Y5.7945 
G01 X-22.6683 Y5.6628 
G01 X-22.5648 Y5.5080 
G01 X-22.4936 Y5.3359 
G01 X-22.4573 Y5.1533 
G01 X-22.4573 Y4.9671 
G01 X-22.4936 Y4.7844 
G01 X-22.5648 Y4.6124 
G01 X-22.6567 Y4.4750 
G01 X-22.6567 Y0.7479 
G01 X-22.6475 Y0.7021 
G01 X-22.6475 Y0.5272 
G01 X-22.6817 Y0.3556 
G01 X-22.7486 Y0.1939 
G01 X-22.8458 Y0.0484 
G01 X-22.9695 Y-0.0753 
G01 X-23.1150 Y-0.1725 
G01 X-23.2767 Y-0.2394 
G01 X-23.4483 Y-0.2736 
G01 X-23.6232 Y-0.2736 
G01 X-23.7948 Y-0.2394 
G01 X-23.9565 Y-0.1725 
G01 X-24.1019 Y-0.0753 
G01 X-24.2256 Y0.0484 
G01 X-24.3228 Y0.1939 
G01 X-24.3898 Y0.3556 
G01 X-24.4239 Y0.5272 
G01 X-24.4239 Y0.7021 
G01 X-24.3898 Y0.8737 
G01 X-24.3228 Y1.0354 
G01 X-24.2426 Y1.1554 
G01 X-24.2426 Y4.6177 
G01 X-24.3117 Y4.7844 
G01 X-24.3480 Y4.9671 
G00 Z2.0000 
G00 X-24.3480 Y7.5071 
G01 Z-0.1000 F60.00 
G01 X-24.3480 Y7.6933 F208.00 
G01 X-24.3117 Y7.8759 
G01 X-24.2405 Y8.0480 
G01 X-24.1370 Y8.2028 
G01 X-24.0053 Y8.3345 
G01 X-23.8505 Y8.4380 
G01 X-23.6784 Y8.5092 
G01 X-23.4958 Y8.5456 
G01 X-23.3095 Y8.5456 
G01 X-23.1269 Y8.5092 
G01 X-22.9548 Y8.4380 
G01 X-22.8000 Y8.3345 
G01 X-22.6683 Y8.2028 
G01 X-22.5648 Y8.0480 
G01 X-22.4936 Y7.8759 
G01 X-22.4573 Y7.6933 
G01 X-22.4573 Y7.5071 
G01 X-22.4936 Y7.3244 
G01 X-22.5648 Y7.1524 
G01 X-22.6683 Y6.9975 
G01 X-22.8000 Y6.8658 
G01 X-22.9548 Y6.7624 
G01 X-23.1269 Y6.6911 
G01 X-23.3095 Y6.6548 
G01 X-23.4958 Y6.6548 
G01 X-23.6784 Y6.6911 
G01 X-23.8505 Y6.7624 
G01 X-24.0053 Y6.8658 
G01 X-24.1370 Y6.9975 
G01 X-24.2405 Y7.1524 
G01 X-24.3117 Y7.3244 
G01 X-24.3480 Y7.5071 
G00 Z2.0000 
G00 X-24.3480 Y10.0471 
G01 Z-0.1000 F60.00 
G01 X-24.3480 Y10.2333 F208.00 
G01 X-24.3117 Y10.4159 
G01 X-24.2405 Y10.5880 
G01 X-24.1370 Y10.7428 
G01 X-24.0053 Y10.8745 
G01 X-23.8505 Y10.9780 
G01 X-23.6784 Y11.0493 
G01 X-23.4958 Y11.0856 
G01 X-23.3095 Y11.0856 
G01 X-23.1269 Y11.0493 
G01 X-22.9548 Y10.9780 
G01 X-22.8000 Y10.8745 
G01 X-22.6683 Y10.7428 
G01 X-22.5648 Y10.5880 
G01 X-22.4936 Y10.4159 
G01 X-22.4573 Y10.2333 
G01 X-22.4573 Y10.0471 
G01 X-22.4936 Y9.8644 
G01 X-22.5648 Y9.6924 
G01 X-22.6683 Y9.5375 
G01 X-22.8000 Y9.4058 
G01 X-22.9548 Y9.3024 
G01 X-23.1269 Y9.2311 
G01 X-23.3095 Y9.1948 
G01 X-23.4958 Y9.1948 
G01 X-23.6784 Y9.2311 
G01 X-23.8505 Y9.3024 
G01 X-24.0053 Y9.4058 
G01 X-24.1370 Y9.5375 
G01 X-24.2405 Y9.6924 
G01 X-24.3117 Y9.8644 
G01 X-24.3480 Y10.0471 
G00 Z2.0000 
G00 X-16.7280 Y10.0471 
G01 Z-0.1000 F60.00 
G01 X-16.7280 Y10.2333 F208.00 
G01 X-16.6917 Y10.4159 
G01 X-16.6205 Y10.5880 
G01 X-16.5170 Y10.7428 
G01 X-16.3853 Y10.8745 
G01 X-16.2305 Y10.9780 
G01 X-16.0584 Y11.0493 
G01 X-15.8758 Y11.0856 
G01 X-15.6895 Y11.0856 
G01 X-15.5069 Y11.0493 
G01 X-15.3348 Y10.9780 
G01 X-15.2678 Y10.9332 
G01 X-14.6876 Y10.9332 
G01 X-12.5204 Y13.1004 
G01 X-12.5204 Y14.2576 
G01 X-12.4899 Y14.4108 
G01 X-12.4301 Y14.5551 
G01 X-12.3433 Y14.6850 
G01 X-12.2329 Y14.7954 
G01 X-10.7560 Y16.2722 
G01 X-10.7560 Y16.4878 
G01 X-10.2022 Y17.0416 
G01 X-9.4191 Y17.0416 
G01 X-9.2409 Y16.8634 
G01 X-9.2173 Y16.8587 
G01 X-9.0730 Y16.7989 
G01 X-8.9431 Y16.7121 
G01 X-7.4544 Y15.2234 
G01 X-7.0952 Y15.2234 
G01 X-6.4819 Y14.6101 
G01 X-6.4819 Y13.7427 
G01 X-7.0952 Y13.1294 
G01 X-7.9626 Y13.1294 
G01 X-8.5759 Y13.7427 
G01 X-8.5759 Y14.1020 
G01 X-9.6247 Y15.1508 
G01 X-9.6346 Y15.1508 
G01 X-10.9344 Y13.8510 
G01 X-10.9344 Y12.6938 
G01 X-10.9649 Y12.5406 
G01 X-11.0246 Y12.3963 
G01 X-11.1114 Y12.2664 
G01 X-13.8536 Y9.5242 
G01 X-13.9835 Y9.4374 
G01 X-14.1278 Y9.3777 
G01 X-14.2810 Y9.3472 
G01 X-15.2678 Y9.3472 
G01 X-15.3348 Y9.3024 
G01 X-15.5069 Y9.2311 
G01 X-15.6895 Y9.1948 
G01 X-15.8758 Y9.1948 
G01 X-16.0584 Y9.2311 
G01 X-16.2305 Y9.3024 
G01 X-16.3853 Y9.4058 
G01 X-16.5170 Y9.5375 
G01 X-16.6205 Y9.6924 
G01 X-16.6917 Y9.8644 
G01 X-16.7280 Y10.0471 
G00 Z2.0000 
G00 X-16.2305 Y13.5180 
G01 Z-0.1000 F60.00 
G01 X-16.0584 Y13.5892 F208.00 
G01 X-15.8758 Y13.6256 
G01 X-15.6895 Y13.6256 
G01 X-15.5069 Y13.5892 
G01 X-15.3348 Y13.5180 
G01 X-15.2311 Y13.4486 
G01 X-15.2012 Y13.4427 
G01 X-15.0569 Y13.3829 
G01 X-14.9270 Y13.2961 
G01 X-14.8166 Y13.1857 
G01 X-14.7298 Y13.0558 
G01 X-14.6700 Y12.9115 
G01 X-14.6395 Y12.7583 
G01 X-14.6395 Y12.6021 
G01 X-14.6700 Y12.4489 
G01 X-14.7298 Y12.3046 
G01 X-14.8166 Y12.1747 
G01 X-14.9270 Y12.0642 
G01 X-15.0569 Y11.9774 
G01 X-15.2012 Y11.9177 
G01 X-15.2311 Y11.9117 
G01 X-15.3348 Y11.8424 
G01 X-15.5069 Y11.7711 
G01 X-15.6895 Y11.7348 
G01 X-15.8758 Y11.7348 
G01 X-16.0584 Y11.7711 
G01 X-16.2305 Y11.8424 
G01 X-16.2975 Y11.8872 
G01 X-18.6051 Y11.8872 
G01 X-18.6051 Y1.6304 
G01 X-18.4958 Y1.5573 
G01 X-18.3854 Y1.4469 
G01 X-18.2986 Y1.3170 
G01 X-18.2388 Y1.1727 
G01 X-18.2083 Y1.0195 
G01 X-18.2083 Y0.8633 
G01 X-18.2388 Y0.7101 
G01 X-18.2616 Y0.6551 
G01 X-18.2616 Y0.5569 
G01 X-18.2957 Y0.3854 
G01 X-18.3626 Y0.2237 
G01 X-18.4598 Y0.0782 
G01 X-18.5836 Y-0.0455 
G01 X-18.7290 Y-0.1427 
G01 X-18.8907 Y-0.2096 
G01 X-19.0623 Y-0.2438 
G01 X-19.2372 Y-0.2438 
G01 X-19.4088 Y-0.2096 
G01 X-19.5705 Y-0.1427 
G01 X-19.7160 Y-0.0455 
G01 X-19.8397 Y0.0782 
G01 X-19.9369 Y0.2237 
G01 X-20.0038 Y0.3854 
G01 X-20.0380 Y0.5569 
G01 X-20.0380 Y0.6209 
G01 X-20.1009 Y0.7151 
G01 X-20.1607 Y0.8594 
G01 X-20.1911 Y1.0126 
G01 X-20.1911 Y12.7583 
G01 X-20.1607 Y12.9115 
G01 X-20.1009 Y13.0558 
G01 X-20.0141 Y13.1857 
G01 X-19.9036 Y13.2961 
G01 X-19.7738 Y13.3829 
G01 X-19.6294 Y13.4427 
G01 X-19.4762 Y13.4732 
G01 X-16.2975 Y13.4732 
G01 X-16.2305 Y13.5180 
G00 Z2.0000 
G00 X-7.9626 Y12.6834 
G01 Z-0.1000 F60.00 
G01 X-7.0952 Y12.6834 F208.00 
G01 X-6.4819 Y12.0701 
G01 X-6.4819 Y11.2027 
G01 X-7.0952 Y10.5894 
G01 X-7.9626 Y10.5894 
G01 X-8.2166 Y10.8434 
G01 X-9.4168 Y10.8434 
G01 X-13.2760 Y6.9842 
G01 X-13.4059 Y6.8974 
G01 X-13.5502 Y6.8377 
G01 X-13.7034 Y6.8072 
G01 X-15.2678 Y6.8072 
G01 X-15.3348 Y6.7624 
G01 X-15.5069 Y6.6911 
G01 X-15.6895 Y6.6548 
G01 X-15.8758 Y6.6548 
G01 X-16.0584 Y6.6911 
G01 X-16.2305 Y6.7624 
G01 X-16.3853 Y6.8658 
G01 X-16.5170 Y6.9975 
G01 X-16.6205 Y7.1524 
G01 X-16.6917 Y7.3244 
G01 X-16.7280 Y7.5071 
G01 X-16.7280 Y7.6933 
G01 X-16.6917 Y7.8759 
G01 X-16.6205 Y8.0480 
G01 X-16.5170 Y8.2028 
G01 X-16.3853 Y8.3345 
G01 X-16.2305 Y8.4380 
G01 X-16.0584 Y8.5092 
G01 X-15.8758 Y8.5456 
G01 X-15.6895 Y8.5456 
G01 X-15.5069 Y8.5092 
G01 X-15.3348 Y8.4380 
G01 X-15.2678 Y8.3932 
G01 X-14.1100 Y8.3932 
G01 X-10.2508 Y12.2524 
G01 X-10.1209 Y12.3392 
G01 X-9.9766 Y12.3990 
G01 X-9.8234 Y12.4294 
G01 X-8.2166 Y12.4294 
G01 X-7.9626 Y12.6834 
G00 Z2.0000 
G00 X-8.5759 Y6.1227 
G01 Z-0.1000 F60.00 
G01 X-8.5759 Y6.9901 F208.00 
G01 X-7.9626 Y7.6034 
G01 X-7.0952 Y7.6034 
G01 X-6.4819 Y6.9901 
G01 X-6.4819 Y6.1227 
G01 X-7.0952 Y5.5094 
G01 X-7.9626 Y5.5094 
G01 X-8.5759 Y6.1227 
G00 Z2.0000 
G00 X-7.9626 Y5.0634 
G01 Z-0.1000 F60.00 
G01 X-7.0952 Y5.0634 F208.00 
G01 X-6.4819 Y4.4501 
G01 X-6.4819 Y3.5827 
G01 X-7.0952 Y2.9694 
G01 X-7.9626 Y2.9694 
G01 X-8.2166 Y3.2234 
G01 X-9.3631 Y3.2234 
G01 X-9.7219 Y2.8647 
G01 X-9.7385 Y2.7813 
G01 X-9.8054 Y2.6197 
G01 X-9.9026 Y2.4742 
G01 X-10.0263 Y2.3505 
G01 X-10.1718 Y2.2533 
G01 X-10.3335 Y2.1863 
G01 X-10.5051 Y2.1522 
G01 X-10.6800 Y2.1522 
G01 X-10.8062 Y2.1773 
G01 X-10.8158 Y2.1773 
G01 X-10.9690 Y2.2078 
G01 X-11.1133 Y2.2676 
G01 X-11.2432 Y2.3544 
G01 X-11.3537 Y2.4648 
G01 X-11.4405 Y2.5947 
G01 X-11.5002 Y2.7390 
G01 X-11.5307 Y2.8922 
G01 X-11.5307 Y3.0484 
G01 X-11.5002 Y3.2016 
G01 X-11.4405 Y3.3459 
G01 X-11.4060 Y3.3975 
G01 X-11.3797 Y3.4611 
G01 X-11.2825 Y3.6066 
G01 X-11.1587 Y3.7303 
G01 X-11.0133 Y3.8275 
G01 X-10.9940 Y3.8355 
G01 X-10.1971 Y4.6324 
G01 X-10.0672 Y4.7192 
G01 X-9.9229 Y4.7790 
G01 X-9.7697 Y4.8094 
G01 X-8.2166 Y4.8094 
G01 X-7.9626 Y5.0634 
G00 Z2.0000 
G00 X-19.3214 Y19.2353 
G01 Z-0.1000 F60.00 
G01 X-19.3214 Y18.2536 F208.00 
G01 X-19.8897 Y17.6853 
G01 X-19.8897 Y17.4773 
G01 X-13.9281 Y17.4773 
G01 X-11.6281 Y19.7773 
G01 X-11.5037 Y19.9017 
G01 X-11.3575 Y19.9994 
G01 X-11.1949 Y20.0667 
G01 X-11.0224 Y20.1010 
G01 X-9.6116 Y20.1010 
G01 X-9.4391 Y20.0667 
G01 X-9.2766 Y19.9994 
G01 X-9.1303 Y19.9017 
G01 X-9.0059 Y19.7773 
G01 X-8.0351 Y18.8065 
G01 X-8.0680 Y18.9715 
G01 X-8.0680 Y20.1962 
G01 X-13.0399 Y20.1962 
G01 X-14.2414 Y18.9947 
G01 X-14.2414 Y18.2536 
G01 X-14.9356 Y17.5594 
G01 X-15.9174 Y17.5594 
G01 X-16.6116 Y18.2536 
G01 X-16.6116 Y19.2353 
G01 X-15.9174 Y19.9296 
G01 X-15.8323 Y19.9296 
G01 X-13.9790 Y21.7829 
G01 X-13.8328 Y21.8806 
G01 X-13.6703 Y21.9479 
G01 X-13.4977 Y21.9822 
G01 X-7.1365 Y21.9822 
G01 X-6.9640 Y21.9479 
G01 X-6.8015 Y21.8806 
G01 X-6.6552 Y21.7829 
G01 X-6.5308 Y21.6585 
G01 X-6.4813 Y21.6090 
G01 X-6.3836 Y21.4627 
G01 X-6.3163 Y21.3002 
G01 X-6.2820 Y21.1277 
G01 X-6.2820 Y19.8040 
G01 X-5.0432 Y19.8040 
G01 X-4.9766 Y19.7907 
G01 X-4.5325 Y19.7907 
G01 X-4.3018 Y19.5600 
G01 X-2.4851 Y19.5600 
G01 X-2.3126 Y19.5257 
G01 X-2.1501 Y19.4584 
G01 X-2.0038 Y19.3606 
G01 X-1.7482 Y19.1050 
G01 X-1.6238 Y18.9807 
G01 X-1.5261 Y18.8344 
G01 X-1.4588 Y18.6719 
G01 X-1.4245 Y18.4994 
G01 X-1.4245 Y0.2005 
G01 X-1.4588 Y0.0280 
G01 X-1.5261 Y-0.1345 
G01 X-1.6238 Y-0.2808 
G01 X-1.7482 Y-0.4052 
G01 X-1.8945 Y-0.5029 
G01 X-2.0570 Y-0.5702 
G01 X-2.2295 Y-0.6045 
G01 X-14.2438 Y-0.6045 
G01 X-14.4163 Y-0.5702 
G01 X-14.5788 Y-0.5029 
G01 X-14.7251 Y-0.4052 
G01 X-14.8495 Y-0.2808 
G01 X-16.2663 Y1.1360 
G01 X-16.3907 Y1.2604 
G01 X-16.4884 Y1.4067 
G01 X-16.5557 Y1.5692 
G01 X-16.5901 Y1.7417 
G01 X-16.5901 Y4.3929 
G01 X-16.6768 Y4.5123 
G01 X-16.7515 Y4.6589 
G01 X-16.8023 Y4.8154 
G01 X-16.8280 Y4.9779 
G01 X-16.8280 Y5.1425 
G01 X-16.8023 Y5.3050 
G01 X-16.7515 Y5.4615 
G01 X-16.6768 Y5.6081 
G01 X-16.5800 Y5.7412 
G01 X-16.4637 Y5.8576 
G01 X-16.3306 Y5.9543 
G01 X-16.1839 Y6.0290 
G01 X-16.0274 Y6.0798 
G01 X-15.8649 Y6.1056 
G01 X-15.7004 Y6.1056 
G01 X-15.5379 Y6.0798 
G01 X-15.3814 Y6.0290 
G01 X-15.2347 Y5.9543 
G01 X-15.1016 Y5.8576 
G01 X-14.9853 Y5.7412 
G01 X-14.8885 Y5.6081 
G01 X-14.8138 Y5.4615 
G01 X-14.7630 Y5.3050 
G01 X-14.7373 Y5.1425 
G01 X-14.7373 Y4.9779 
G01 X-14.7630 Y4.8154 
G01 X-14.8041 Y4.6890 
G01 X-14.8041 Y2.1996 
G01 X-13.7860 Y1.1815 
G01 X-3.2105 Y1.1815 
G01 X-3.2105 Y3.1234 
G01 X-4.2598 Y3.1234 
G01 X-4.5138 Y2.8694 
G01 X-5.4640 Y2.8694 
G01 X-6.1359 Y3.5413 
G01 X-6.1359 Y4.4915 
G01 X-5.4640 Y5.1634 
G01 X-4.5138 Y5.1634 
G01 X-4.2598 Y4.9094 
G01 X-3.2105 Y4.9094 
G01 X-3.2105 Y17.7740 
G01 X-4.4585 Y17.7740 
G01 X-4.5325 Y17.7000 
G01 X-5.3986 Y17.7000 
G01 X-5.7166 Y18.0180 
G01 X-7.1145 Y18.0180 
G01 X-7.2795 Y18.0508 
G01 X-6.8277 Y17.5991 
G01 X-6.7300 Y17.4528 
G01 X-6.6991 Y17.3782 
G01 X-5.2563 Y17.3782 
G01 X-5.0838 Y17.3439 
G01 X-4.9213 Y17.2766 
G01 X-4.7750 Y17.1789 
G01 X-4.2953 Y16.6991 
G01 X-4.1975 Y16.5529 
G01 X-4.1302 Y16.3904 
G01 X-4.0959 Y16.2178 
G01 X-4.0959 Y14.9055 
G01 X-3.8419 Y14.6515 
G01 X-3.8419 Y13.7013 
G01 X-4.0959 Y13.4473 
G01 X-4.0959 Y12.3655 
G01 X-3.8419 Y12.1115 
G01 X-3.8419 Y11.1613 
G01 X-4.0959 Y10.9073 
G01 X-4.0959 Y9.8255 
G01 X-3.8419 Y9.5715 
G01 X-3.8419 Y8.6213 
G01 X-4.0959 Y8.3673 
G01 X-4.0959 Y7.2855 
G01 X-3.8419 Y7.0315 
G01 X-3.8419 Y6.0813 
G01 X-4.5138 Y5.4094 
G01 X-5.4640 Y5.4094 
G01 X-6.1359 Y6.0813 
G01 X-6.1359 Y7.0315 
G01 X-5.8819 Y7.2855 
G01 X-5.8819 Y8.3673 
G01 X-6.1359 Y8.6213 
G01 X-6.1359 Y9.5715 
G01 X-5.8819 Y9.8255 
G01 X-5.8819 Y10.9073 
G01 X-6.1359 Y11.1613 
G01 X-6.1359 Y12.1115 
G01 X-5.8819 Y12.3655 
G01 X-5.8819 Y13.4473 
G01 X-6.1359 Y13.7013 
G01 X-6.1359 Y14.6515 
G01 X-5.8819 Y14.9055 
G01 X-5.8819 Y15.5922 
G01 X-7.5103 Y15.5922 
G01 X-7.6829 Y15.6266 
G01 X-7.7397 Y15.6501 
G01 X-7.4130 Y15.3234 
G01 X-7.0538 Y15.3234 
G01 X-6.3819 Y14.6515 
G01 X-6.3819 Y13.7013 
G01 X-7.0538 Y13.0294 
G01 X-8.0040 Y13.0294 
G01 X-8.6759 Y13.7013 
G01 X-8.6759 Y14.0605 
G01 X-9.6296 Y15.0143 
G01 X-10.8344 Y13.8096 
G01 X-10.8344 Y12.6840 
G01 X-10.8687 Y12.5115 
G01 X-10.9360 Y12.3489 
G01 X-11.0337 Y12.2027 
G01 X-13.7899 Y9.4465 
G01 X-13.9361 Y9.3488 
G01 X-14.0987 Y9.2815 
G01 X-14.2712 Y9.2472 
G01 X-15.2332 Y9.2472 
G01 X-15.3814 Y9.1714 
G01 X-15.5379 Y9.1205 
G01 X-15.7004 Y9.0948 
G01 X-15.8649 Y9.0948 
G01 X-16.0274 Y9.1205 
G01 X-16.1839 Y9.1714 
G01 X-16.3306 Y9.2461 
G01 X-16.4637 Y9.3428 
G01 X-16.5800 Y9.4592 
G01 X-16.6768 Y9.5923 
G01 X-16.7515 Y9.7389 
G01 X-16.8023 Y9.8954 
G01 X-16.8280 Y10.0579 
G01 X-16.8280 Y10.2225 
G01 X-16.8023 Y10.3850 
G01 X-16.7515 Y10.5415 
G01 X-16.6768 Y10.6881 
G01 X-16.5800 Y10.8212 
G01 X-16.4637 Y10.9376 
G01 X-16.3306 Y11.0343 
G01 X-16.1839 Y11.1090 
G01 X-16.0274 Y11.1598 
G01 X-15.8649 Y11.1856 
G01 X-15.7004 Y11.1856 
G01 X-15.5379 Y11.1598 
G01 X-15.3814 Y11.1090 
G01 X-15.2347 Y11.0343 
G01 X-14.7290 Y11.0332 
G01 X-12.6204 Y13.1418 
G01 X-12.6204 Y14.2674 
G01 X-12.5861 Y14.4399 
G01 X-12.5187 Y14.6024 
G01 X-12.4210 Y14.7487 
G01 X-12.2966 Y14.8731 
G01 X-10.8560 Y16.3137 
G01 X-10.8560 Y16.5292 
G01 X-10.2437 Y17.1416 
G01 X-9.3776 Y17.1416 
G01 X-9.1916 Y16.9555 
G01 X-9.1882 Y16.9549 
G01 X-9.0256 Y16.8875 
G01 X-8.8794 Y16.7898 
G01 X-8.3565 Y16.2669 
G01 X-8.3800 Y16.3237 
G01 X-8.4144 Y16.4962 
G01 X-8.4144 Y16.6599 
G01 X-10.0695 Y18.3150 
G01 X-10.5646 Y18.3150 
G01 X-12.8646 Y16.0150 
G01 X-12.9890 Y15.8906 
G01 X-13.1352 Y15.7929 
G01 X-13.2978 Y15.7256 
G01 X-13.4703 Y15.6913 
G01 X-20.7221 Y15.6913 
G01 X-20.8947 Y15.7256 
G01 X-21.0572 Y15.7929 
G01 X-21.2034 Y15.8906 
G01 X-21.3519 Y16.0391 
G01 X-21.4763 Y16.1635 
G01 X-21.5741 Y16.3098 
G01 X-21.6414 Y16.4723 
G01 X-21.6757 Y16.6448 
G01 X-21.6757 Y17.8515 
G01 X-22.0616 Y17.8515 
G01 X-22.5097 Y17.4034 
G01 X-22.5097 Y13.2296 
G01 X-22.4338 Y13.0815 
G01 X-22.3830 Y12.9250 
G01 X-22.3573 Y12.7625 
G01 X-22.3573 Y12.5979 
G01 X-22.3830 Y12.4354 
G01 X-22.4338 Y12.2789 
G01 X-22.5085 Y12.1323 
G01 X-22.6053 Y11.9992 
G01 X-22.7216 Y11.8828 
G01 X-22.8547 Y11.7861 
G01 X-23.0014 Y11.7114 
G01 X-23.1578 Y11.6605 
G01 X-23.3204 Y11.6348 
G01 X-23.4849 Y11.6348 
G01 X-23.6474 Y11.6605 
G01 X-23.8039 Y11.7114 
G01 X-23.9506 Y11.7861 
G01 X-24.0837 Y11.8828 
G01 X-24.2000 Y11.9992 
G01 X-24.2968 Y12.1323 
G01 X-24.3715 Y12.2789 
G01 X-24.4223 Y12.4354 
G01 X-24.4480 Y12.5979 
G01 X-24.4480 Y12.7625 
G01 X-24.4223 Y12.9250 
G01 X-24.3715 Y13.0815 
G01 X-24.2968 Y13.2281 
G01 X-24.2956 Y17.8612 
G01 X-24.2613 Y18.0338 
G01 X-24.1940 Y18.1963 
G01 X-24.0963 Y18.3425 
G01 X-23.9719 Y18.4669 
G01 X-23.0007 Y19.4381 
G01 X-22.8545 Y19.5358 
G01 X-22.6920 Y19.6031 
G01 X-22.5194 Y19.6375 
G01 X-21.5193 Y19.6375 
G01 X-21.5193 Y24.2913 
G01 X-21.4850 Y24.4639 
G01 X-21.4177 Y24.6264 
G01 X-21.3199 Y24.7726 
G01 X-21.2851 Y24.8074 
G01 X-21.1607 Y24.9318 
G01 X-21.0145 Y25.0295 
G01 X-20.8520 Y25.0969 
G01 X-20.6794 Y25.1312 
G01 X-18.8429 Y25.1312 
G01 X-18.8429 Y26.7941 
G01 X-18.8288 Y26.8646 
G01 X-18.8086 Y26.9666 
G01 X-18.7413 Y27.1291 
G01 X-18.6435 Y27.2753 
G01 X-18.5191 Y27.3997 
G01 X-15.7223 Y30.1967 
G01 X-15.5979 Y30.3211 
G01 X-15.5014 Y30.3855 
G01 X-15.4516 Y30.4188 
G01 X-15.2891 Y30.4861 
G01 X-15.1166 Y30.5204 
G01 X-11.1920 Y30.5204 
G01 X-11.0195 Y30.4861 
G01 X-10.8629 Y30.4213 
G01 X-10.5954 Y30.4213 
G01 X-9.9830 Y29.8089 
G01 X-9.9830 Y28.9428 
G01 X-10.5954 Y28.3305 
G01 X-11.4614 Y28.3305 
G01 X-11.8653 Y28.7344 
G01 X-14.6587 Y28.7344 
G01 X-17.0569 Y26.3362 
G01 X-17.0569 Y24.8236 
G01 X-16.9045 Y24.6712 
G01 X-16.9045 Y23.8052 
G01 X-17.5169 Y23.1928 
G01 X-18.3829 Y23.1928 
G01 X-18.5353 Y23.3452 
G01 X-19.7333 Y23.3452 
G01 X-19.7333 Y19.6472 
G01 X-19.3214 Y19.2353 
G00 Z2.0000 
G00 X-9.5338 Y28.9428 
G01 Z-0.1000 F60.00 
G01 X-9.5338 Y29.8089 F208.00 
G01 X-8.9214 Y30.4213 
G01 X-8.0554 Y30.4213 
G01 X-7.9030 Y30.2689 
G01 X-4.8776 Y30.2689 
G01 X-4.7051 Y30.2345 
G01 X-4.5426 Y30.1672 
G01 X-4.3963 Y30.0695 
G01 X-4.2719 Y29.9451 
G01 X-4.1742 Y29.7989 
G01 X-4.1069 Y29.6363 
G01 X-4.0725 Y29.4638 
G01 X-4.0725 Y26.9508 
G01 X-3.9201 Y26.7984 
G01 X-3.9201 Y25.9323 
G01 X-4.5325 Y25.3200 
G01 X-5.3986 Y25.3200 
G01 X-6.0109 Y25.9323 
G01 X-6.0109 Y26.7984 
G01 X-5.8585 Y26.9508 
G01 X-5.8585 Y28.4829 
G01 X-7.9030 Y28.4829 
G01 X-8.0554 Y28.3305 
G01 X-8.9214 Y28.3305 
G01 X-9.5338 Y28.9428 
G00 Z2.0000 
G00 X-10.8560 Y23.2832 
G01 Z-0.1000 F60.00 
G01 X-10.8560 Y23.3677 F208.00 
G01 X-14.8019 Y23.3677 
G01 X-14.9769 Y23.1928 
G01 X-15.8429 Y23.1928 
G01 X-16.4553 Y23.8052 
G01 X-16.4553 Y24.6712 
G01 X-15.8429 Y25.2836 
G01 X-14.9769 Y25.2836 
G01 X-14.8470 Y25.1537 
G01 X-10.2673 Y25.1537 
G01 X-10.0947 Y25.1194 
G01 X-9.9322 Y25.0521 
G01 X-9.7860 Y24.9544 
G01 X-9.5932 Y24.7616 
G01 X-9.3776 Y24.7616 
G01 X-8.7652 Y24.1492 
G01 X-8.7652 Y23.2832 
G01 X-9.3776 Y22.6708 
G01 X-10.2437 Y22.6708 
G01 X-10.8560 Y23.2832 
G00 Z2.0000 
G00 X-24.4480 Y4.9779 
G01 Z-0.1000 F60.00 
G01 X-24.4480 Y5.1425 F208.00 
G01 X-24.4223 Y5.3050 
G01 X-24.3715 Y5.4615 
G01 X-24.2968 Y5.6081 
G01 X-24.2000 Y5.7412 
G01 X-24.0837 Y5.8576 
G01 X-23.9506 Y5.9543 
G01 X-23.8039 Y6.0290 
G01 X-23.6474 Y6.0798 
G01 X-23.4849 Y6.1056 
G01 X-23.3204 Y6.1056 
G01 X-23.1578 Y6.0798 
G01 X-23.0014 Y6.0290 
G01 X-22.8547 Y5.9543 
G01 X-22.7216 Y5.8576 
G01 X-22.6053 Y5.7412 
G01 X-22.5085 Y5.6081 
G01 X-22.4338 Y5.4615 
G01 X-22.3830 Y5.3050 
G01 X-22.3573 Y5.1425 
G01 X-22.3573 Y4.9779 
G01 X-22.3830 Y4.8154 
G01 X-22.4338 Y4.6589 
G01 X-22.5085 Y4.5123 
G01 X-22.5567 Y4.4461 
G01 X-22.5567 Y0.7578 
G01 X-22.5475 Y0.7120 
G01 X-22.5475 Y0.5173 
G01 X-22.5855 Y0.3264 
G01 X-22.6600 Y0.1466 
G01 X-22.7682 Y-0.0153 
G01 X-22.9058 Y-0.1529 
G01 X-23.0676 Y-0.2611 
G01 X-23.2475 Y-0.3356 
G01 X-23.4384 Y-0.3736 
G01 X-23.6331 Y-0.3736 
G01 X-23.8240 Y-0.3356 
G01 X-24.0038 Y-0.2611 
G01 X-24.1657 Y-0.1529 
G01 X-24.3033 Y-0.0153 
G01 X-24.4115 Y0.1466 
G01 X-24.4860 Y0.3264 
G01 X-24.5239 Y0.5173 
G01 X-24.5239 Y0.7120 
G01 X-24.4860 Y0.9029 
G01 X-24.4115 Y1.0827 
G01 X-24.3426 Y1.1857 
G01 X-24.3426 Y4.6024 
G01 X-24.3715 Y4.6589 
G01 X-24.4223 Y4.8154 
G01 X-24.4480 Y4.9779 
G00 Z2.0000 
G00 X-24.4480 Y7.5179 
G01 Z-0.1000 F60.00 
G01 X-24.4480 Y7.6825 F208.00 
G01 X-24.4223 Y7.8450 
G01 X-24.3715 Y8.0015 
G01 X-24.2968 Y8.1481 
G01 X-24.2000 Y8.2812 
G01 X-24.0837 Y8.3976 
G01 X-23.9506 Y8.4943 
G01 X-23.8039 Y8.5690 
G01 X-23.6474 Y8.6198 
G01 X-23.4849 Y8.6456 
G01 X-23.3204 Y8.6456 
G01 X-23.1578 Y8.6198 
G01 X-23.0014 Y8.5690 
G01 X-22.8547 Y8.4943 
G01 X-22.7216 Y8.3976 
G01 X-22.6053 Y8.2812 
G01 X-22.5085 Y8.1481 
G01 X-22.4338 Y8.0015 
G01 X-22.3830 Y7.8450 
G01 X-22.3573 Y7.6825 
G01 X-22.3573 Y7.5179 
G01 X-22.3830 Y7.3554 
G01 X-22.4338 Y7.1989 
G01 X-22.5085 Y7.0523 
G01 X-22.6053 Y6.9192 
G01 X-22.7216 Y6.8028 
G01 X-22.8547 Y6.7061 
G01 X-23.0014 Y6.6314 
G01 X-23.1578 Y6.5805 
G01 X-23.3204 Y6.5548 
G01 X-23.4849 Y6.5548 
G01 X-23.6474 Y6.5805 
G01 X-23.8039 Y6.6314 
G01 X-23.9506 Y6.7061 
G01 X-24.0837 Y6.8028 
G01 X-24.2000 Y6.9192 
G01 X-24.2968 Y7.0523 
G01 X-24.3715 Y7.1989 
G01 X-24.4223 Y7.3554 
G01 X-24.4480 Y7.5179 
G00 Z2.0000 
G00 X-16.8280 Y7.5179 
G01 Z-0.1000 F60.00 
G01 X-16.8280 Y7.6825 F208.00 
G01 X-16.8023 Y7.8450 
G01 X-16.7515 Y8.0015 
G01 X-16.6768 Y8.1481 
G01 X-16.5800 Y8.2812 
G01 X-16.4637 Y8.3976 
G01 X-16.3306 Y8.4943 
G01 X-16.1839 Y8.5690 
G01 X-16.0274 Y8.6198 
G01 X-15.8649 Y8.6456 
G01 X-15.7004 Y8.6456 
G01 X-15.5379 Y8.6198 
G01 X-15.3814 Y8.5690 
G01 X-15.2347 Y8.4943 
G01 X-14.1514 Y8.4932 
G01 X-10.3145 Y12.3301 
G01 X-10.1683 Y12.4278 
G01 X-10.0058 Y12.4951 
G01 X-9.8332 Y12.5294 
G01 X-8.2580 Y12.5294 
G01 X-8.0040 Y12.7834 
G01 X-7.0538 Y12.7834 
G01 X-6.3819 Y12.1115 
G01 X-6.3819 Y11.1613 
G01 X-7.0538 Y10.4894 
G01 X-8.0040 Y10.4894 
G01 X-8.2580 Y10.7434 
G01 X-9.3754 Y10.7434 
G01 X-13.2123 Y6.9065 
G01 X-13.3585 Y6.8088 
G01 X-13.5210 Y6.7415 
G01 X-13.6936 Y6.7072 
G01 X-15.2332 Y6.7072 
G01 X-15.3814 Y6.6314 
G01 X-15.5379 Y6.5805 
G01 X-15.7004 Y6.5548 
G01 X-15.8649 Y6.5548 
G01 X-16.0274 Y6.5805 
G01 X-16.1839 Y6.6314 
G01 X-16.3306 Y6.7061 
G01 X-16.4637 Y6.8028 
G01 X-16.5800 Y6.9192 
G01 X-16.6768 Y7.0523 
G01 X-16.7515 Y7.1989 
G01 X-16.8023 Y7.3554 
G01 X-16.8280 Y7.5179 
G00 Z2.0000 
G00 X-24.4480 Y10.0579 
G01 Z-0.1000 F60.00 
G01 X-24.4480 Y10.2225 F208.00 
G01 X-24.4223 Y10.3850 
G01 X-24.3715 Y10.5415 
G01 X-24.2968 Y10.6881 
G01 X-24.2000 Y10.8212 
G01 X-24.0837 Y10.9376 
G01 X-23.9506 Y11.0343 
G01 X-23.8039 Y11.1090 
G01 X-23.6474 Y11.1598 
G01 X-23.4849 Y11.1856 
G01 X-23.3204 Y11.1856 
G01 X-23.1578 Y11.1598 
G01 X-23.0014 Y11.1090 
G01 X-22.8547 Y11.0343 
G01 X-22.7216 Y10.9376 
G01 X-22.6053 Y10.8212 
G01 X-22.5085 Y10.6881 
G01 X-22.4338 Y10.5415 
G01 X-22.3830 Y10.3850 
G01 X-22.3573 Y10.2225 
G01 X-22.3573 Y10.0579 
G01 X-22.3830 Y9.8954 
G01 X-22.4338 Y9.7389 
G01 X-22.5085 Y9.5923 
G01 X-22.6053 Y9.4592 
G01 X-22.7216 Y9.3428 
G01 X-22.8547 Y9.2461 
G01 X-23.0014 Y9.1714 
G01 X-23.1578 Y9.1205 
G01 X-23.3204 Y9.0948 
G01 X-23.4849 Y9.0948 
G01 X-23.6474 Y9.1205 
G01 X-23.8039 Y9.1714 
G01 X-23.9506 Y9.2461 
G01 X-24.0837 Y9.3428 
G01 X-24.2000 Y9.4592 
G01 X-24.2968 Y9.5923 
G01 X-24.3715 Y9.7389 
G01 X-24.4223 Y9.8954 
G01 X-24.4480 Y10.0579 
G00 Z2.0000 
G00 X-16.3306 Y13.5743 
G01 Z-0.1000 F60.00 
G01 X-16.1839 Y13.6490 F208.00 
G01 X-16.0274 Y13.6998 
G01 X-15.8649 Y13.7256 
G01 X-15.7004 Y13.7256 
G01 X-15.5379 Y13.6998 
G01 X-15.3814 Y13.6490 
G01 X-15.2347 Y13.5743 
G01 X-15.1912 Y13.5427 
G01 X-15.1721 Y13.5389 
G01 X-15.0095 Y13.4715 
G01 X-14.8633 Y13.3738 
G01 X-14.7389 Y13.2494 
G01 X-14.6412 Y13.1032 
G01 X-14.5739 Y12.9407 
G01 X-14.5395 Y12.7681 
G01 X-14.5395 Y12.5922 
G01 X-14.5739 Y12.4197 
G01 X-14.6412 Y12.2572 
G01 X-14.7389 Y12.1109 
G01 X-14.8633 Y11.9865 
G01 X-15.0095 Y11.8888 
G01 X-15.1721 Y11.8215 
G01 X-15.1912 Y11.8177 
G01 X-15.2347 Y11.7861 
G01 X-15.3814 Y11.7114 
G01 X-15.5379 Y11.6605 
G01 X-15.7004 Y11.6348 
G01 X-15.8649 Y11.6348 
G01 X-16.0274 Y11.6605 
G01 X-16.1839 Y11.7114 
G01 X-16.3306 Y11.7861 
G01 X-18.5051 Y11.7872 
G01 X-18.5051 Y1.6838 
G01 X-18.4321 Y1.6350 
G01 X-18.3077 Y1.5106 
G01 X-18.2099 Y1.3644 
G01 X-18.1426 Y1.2019 
G01 X-18.1083 Y1.0293 
G01 X-18.1083 Y0.8534 
G01 X-18.1426 Y0.6809 
G01 X-18.1616 Y0.6352 
G01 X-18.1616 Y0.5471 
G01 X-18.1995 Y0.3562 
G01 X-18.2740 Y0.1763 
G01 X-18.3822 Y0.0145 
G01 X-18.5198 Y-0.1232 
G01 X-18.6817 Y-0.2313 
G01 X-18.8615 Y-0.3058 
G01 X-19.0524 Y-0.3438 
G01 X-19.2471 Y-0.3438 
G01 X-19.4380 Y-0.3058 
G01 X-19.6178 Y-0.2313 
G01 X-19.7797 Y-0.1232 
G01 X-19.9173 Y0.0145 
G01 X-20.0255 Y0.1763 
G01 X-20.1000 Y0.3562 
G01 X-20.1380 Y0.5471 
G01 X-20.1380 Y0.5906 
G01 X-20.1895 Y0.6677 
G01 X-20.2568 Y0.8302 
G01 X-20.2911 Y1.0028 
G01 X-20.2911 Y12.7681 
G01 X-20.2568 Y12.9407 
G01 X-20.1895 Y13.1032 
G01 X-20.0918 Y13.2494 
G01 X-19.9674 Y13.3738 
G01 X-19.8211 Y13.4715 
G01 X-19.6586 Y13.5389 
G01 X-19.4861 Y13.5732 
G01 X-16.3321 Y13.5732 
G00 Z2.0000 
G00 X-8.6759 Y6.0813 
G01 Z-0.1000 F60.00 
G01 X-8.6759 Y7.0315 F208.00 
G01 X-8.0040 Y7.7034 
G01 X-7.0538 Y7.7034 
G01 X-6.3819 Y7.0315 
G01 X-6.3819 Y6.0813 
G01 X-7.0538 Y5.4094 
G01 X-8.0040 Y5.4094 
G01 X-8.6759 Y6.0813 
G00 Z2.0000 
G00 X-8.0040 Y5.1634 
G01 Z-0.1000 F60.00 
G01 X-7.0538 Y5.1634 F208.00 
G01 X-6.3819 Y4.4915 
G01 X-6.3819 Y3.5413 
G01 X-7.0538 Y2.8694 
G01 X-8.0040 Y2.8694 
G01 X-8.2580 Y3.1234 
G01 X-9.3217 Y3.1234 
G01 X-9.6297 Y2.8154 
G01 X-9.6423 Y2.7522 
G01 X-9.7168 Y2.5723 
G01 X-9.8250 Y2.4105 
G01 X-9.9626 Y2.2728 
G01 X-10.1245 Y2.1647 
G01 X-10.3043 Y2.0902 
G01 X-10.4952 Y2.0522 
G01 X-10.6899 Y2.0522 
G01 X-10.8161 Y2.0773 
G01 X-10.8257 Y2.0773 
G01 X-10.9982 Y2.1116 
G01 X-11.1607 Y2.1789 
G01 X-11.3070 Y2.2767 
G01 X-11.4314 Y2.4011 
G01 X-11.5291 Y2.5473 
G01 X-11.5964 Y2.7098 
G01 X-11.6307 Y2.8824 
G01 X-11.6307 Y3.0583 
G01 X-11.5964 Y3.2308 
G01 X-11.5291 Y3.3933 
G01 X-11.4946 Y3.4449 
G01 X-11.4683 Y3.5085 
G01 X-11.3601 Y3.6704 
G01 X-11.2225 Y3.8080 
G01 X-11.0606 Y3.9161 
G01 X-11.0506 Y3.9203 
G01 X-10.2609 Y4.7101 
G01 X-10.1146 Y4.8078 
G01 X-9.9521 Y4.8751 
G01 X-9.7796 Y4.9094 
G01 X-8.2580 Y4.9094 
G01 X-8.0040 Y5.1634 
G00 Z2.0000 
G00 X-11.8781 Y7.4866 
G01 Z-0.1000 F60.00 
G01 X-11.8781 Y7.6625 F208.00 
G01 X-11.8438 Y7.8350 
G01 X-11.7765 Y7.9976 
G01 X-11.6788 Y8.1438 
G01 X-10.0325 Y9.7901 
G01 X-9.8863 Y9.8878 
G01 X-9.7238 Y9.9551 
G01 X-9.5512 Y9.9894 
G01 X-8.2580 Y9.9894 
G01 X-8.0040 Y10.2434 
G01 X-7.0538 Y10.2434 
G01 X-6.3819 Y9.5715 
G01 X-6.3819 Y8.6213 
G01 X-7.0538 Y7.9494 
G01 X-8.0040 Y7.9494 
G01 X-8.2580 Y8.2034 
G01 X-9.0934 Y8.2034 
G01 X-10.0921 Y7.2047 
G01 X-10.0921 Y6.2473 
G01 X-10.1265 Y6.0748 
G01 X-10.1938 Y5.9122 
G01 X-10.2915 Y5.7660 
G01 X-10.4159 Y5.6416 
G01 X-10.5621 Y5.5439 
G01 X-10.7247 Y5.4766 
G01 X-10.8972 Y5.4422 
G01 X-11.0731 Y5.4422 
G01 X-11.2456 Y5.4766 
G01 X-11.3456 Y5.5180 
G01 X-11.4367 Y5.5361 
G01 X-11.6165 Y5.6106 
G01 X-11.7784 Y5.7187 
G01 X-11.9160 Y5.8564 
G01 X-12.0242 Y6.0182 
G01 X-12.0986 Y6.1981 
G01 X-12.1366 Y6.3890 
G01 X-12.1366 Y6.5836 
G01 X-12.0986 Y6.7746 
G01 X-12.0242 Y6.9544 
G01 X-11.9160 Y7.1162 
G01 X-11.8781 Y7.1541 
G01 X-11.8781 Y7.4866 
G00 Z2.0000 
G00 Z20.4000 
M05
M02
