(.../Documents/EAGLE/ulps/pcb-gcode.ulp)
(Copyright 2005 - 2012 by John Johnson)
(See readme.txt for licensing terms.)
(This file generated from the board:)
(.../projects/BLE_Garten/Garten.brd)
(Current profile is .../EAGLE/ulps/profiles/generic.pp  )
(This file generated 14.09.19 10:42)
(Settings from pcb-machine.h)
(  Tool Size)
(0.1000 )
(Z Axis Settings)
(  High     Up        Down     Drill)
(10.4000 	3.5400 	-0.2800 	-2.6128 )
(spindle on time = 3.0000)
(milling depth = -2.2000)
(text depth = -0.1270)
(tool change at 0.0000 0.0000 20.4000 )
(feed rate xy = F508.00 )
(feed rate z  = F50.00 )
(Settings from pcb-defaults.h)
(isolate min = 0.0025)
(isolate max = 0.2500)
(isolate step = 0.2000)
(Generated bottom outlines, bottom drill, )
(Unit of measure: mm)
(Metric Mode)
G21
(Absolute Coordinates)
G90
G00 X0.0000 Y0.0000 
M03
G04 P3.000000
G00 Z3.5400 
G00 X-17.1328 Y35.0782 
G01 Z-0.2800 F50.00 
G01 X-17.1328 Y33.3937 F508.00 
G01 X-17.1641 Y33.2363 
G01 X-17.2255 Y33.0881 
G01 X-17.2598 Y33.0368 
G01 X-17.2598 Y29.9767 
G01 X-17.2578 Y29.9645 
G01 X-17.2598 Y29.9091 
G01 X-17.2598 Y29.8536 
G01 X-17.2622 Y29.8415 
G01 X-17.2842 Y29.2245 
G01 X-8.1186 Y29.2245 
G01 X-8.0510 Y29.2245 
G01 X-7.9851 Y29.2245 
G01 X-7.9813 Y29.2241 
G01 X-7.9167 Y29.2109 
G01 X-7.8523 Y29.1980 
G01 X-7.8486 Y29.1969 
G01 X-7.7878 Y29.1713 
G01 X-7.7272 Y29.1462 
G01 X-7.7238 Y29.1444 
G01 X-7.6689 Y29.1073 
G01 X-7.6146 Y29.0710 
G01 X-7.6116 Y29.0685 
G01 X-7.5650 Y29.0214 
G01 X-7.5188 Y28.9752 
G01 X-7.5164 Y28.9723 
G01 X-7.4801 Y28.9173 
G01 X-7.4435 Y28.8626 
G01 X-7.4418 Y28.8592 
G01 X-7.4170 Y28.7984 
G01 X-7.3917 Y28.7375 
G01 X-7.3906 Y28.7338 
G01 X-7.3782 Y28.6693 
G01 X-7.3653 Y28.6046 
G01 X-7.3649 Y28.6008 
G01 X-7.3653 Y28.5352 
G01 X-7.3653 Y28.4692 
G01 X-7.4259 Y17.5619 
G01 X-3.2848 Y17.4543 
G01 X-3.3197 Y19.6497 
G01 X-3.3734 Y19.7301 
G01 X-3.4348 Y19.8783 
G01 X-3.4661 Y20.0357 
G01 X-3.4661 Y21.7201 
G01 X-3.4348 Y21.8775 
G01 X-3.3734 Y22.0257 
G01 X-3.2842 Y22.1591 
G01 X-3.1708 Y22.2726 
G01 X-3.0373 Y22.3617 
G01 X-2.8891 Y22.4231 
G01 X-2.7317 Y22.4544 
G01 X-2.5713 Y22.4544 
G01 X-2.4139 Y22.4231 
G01 X-2.2657 Y22.3617 
G01 X-2.1323 Y22.2726 
G01 X-2.0188 Y22.1591 
G01 X-1.9297 Y22.0257 
G01 X-1.8683 Y21.8775 
G01 X-1.8370 Y21.7201 
G01 X-1.8370 Y20.0357 
G01 X-1.8683 Y19.8783 
G01 X-1.9297 Y19.7301 
G01 X-1.9453 Y19.7067 
G01 X-1.8994 Y16.8125 
G01 X-1.8969 Y16.7982 
G01 X-1.8983 Y16.7449 
G01 X-1.8975 Y16.6916 
G01 X-1.9001 Y16.6773 
G01 X-1.9004 Y16.6628 
G01 X-1.9122 Y16.6108 
G01 X-1.9218 Y16.5583 
G01 X-1.9271 Y16.5448 
G01 X-1.9303 Y16.5307 
G01 X-1.9520 Y16.4820 
G01 X-1.9716 Y16.4324 
G01 X-1.9795 Y16.4202 
G01 X-1.9854 Y16.4070 
G01 X-2.0161 Y16.3634 
G01 X-2.0451 Y16.3186 
G01 X-2.0551 Y16.3082 
G01 X-2.0635 Y16.2964 
G01 X-2.1022 Y16.2597 
G01 X-2.1393 Y16.2213 
G01 X-2.1512 Y16.2131 
G01 X-2.1617 Y16.2031 
G01 X-2.2068 Y16.1747 
G01 X-2.2507 Y16.1443 
G01 X-2.2640 Y16.1386 
G01 X-2.2763 Y16.1308 
G01 X-2.3260 Y16.1117 
G01 X-2.3750 Y16.0905 
G01 X-2.3892 Y16.0875 
G01 X-2.4027 Y16.0823 
G01 X-2.4552 Y16.0732 
G01 X-2.5074 Y16.0620 
G01 X-2.5219 Y16.0618 
G01 X-2.5362 Y16.0593 
G01 X-2.5895 Y16.0607 
G01 X-2.6428 Y16.0598 
G01 X-2.6570 Y16.0625 
G01 X-8.1280 Y16.2047 
G01 X-8.1886 Y16.2050 
G01 X-8.1956 Y16.2064 
G01 X-8.2027 Y16.2066 
G01 X-8.2618 Y16.2200 
G01 X-8.3213 Y16.2321 
G01 X-8.3279 Y16.2349 
G01 X-8.3348 Y16.2365 
G01 X-8.3902 Y16.2611 
G01 X-8.4462 Y16.2847 
G01 X-8.4520 Y16.2886 
G01 X-8.4585 Y16.2915 
G01 X-8.5080 Y16.3265 
G01 X-8.5584 Y16.3605 
G01 X-8.5633 Y16.3656 
G01 X-8.5691 Y16.3697 
G01 X-8.6109 Y16.4137 
G01 X-8.6536 Y16.4568 
G01 X-8.6575 Y16.4627 
G01 X-8.6624 Y16.4679 
G01 X-8.6948 Y16.5192 
G01 X-8.7282 Y16.5698 
G01 X-8.7309 Y16.5764 
G01 X-8.7347 Y16.5824 
G01 X-8.7564 Y16.6391 
G01 X-8.7793 Y16.6952 
G01 X-8.7807 Y16.7022 
G01 X-8.7832 Y16.7088 
G01 X-8.7935 Y16.7687 
G01 X-8.8050 Y16.8282 
G01 X-8.8050 Y16.8353 
G01 X-8.8062 Y16.8423 
G01 X-8.8046 Y16.9031 
G01 X-8.7442 Y27.8494 
G01 X-17.9413 Y27.8494 
G01 X-17.9535 Y27.8474 
G01 X-18.0090 Y27.8494 
G01 X-18.0644 Y27.8494 
G01 X-18.0765 Y27.8518 
G01 X-18.0889 Y27.8522 
G01 X-18.1429 Y27.8650 
G01 X-18.1973 Y27.8758 
G01 X-18.2087 Y27.8805 
G01 X-18.2207 Y27.8834 
G01 X-18.2712 Y27.9064 
G01 X-18.3224 Y27.9276 
G01 X-18.3327 Y27.9345 
G01 X-18.3439 Y27.9396 
G01 X-18.3889 Y27.9721 
G01 X-18.4350 Y28.0029 
G01 X-18.4437 Y28.0116 
G01 X-18.4538 Y28.0188 
G01 X-18.4916 Y28.0594 
G01 X-18.5308 Y28.0986 
G01 X-18.5376 Y28.1089 
G01 X-18.5460 Y28.1180 
G01 X-18.5752 Y28.1652 
G01 X-18.6060 Y28.2113 
G01 X-18.6107 Y28.2227 
G01 X-18.6172 Y28.2332 
G01 X-18.6366 Y28.2852 
G01 X-18.6578 Y28.3364 
G01 X-18.6602 Y28.3485 
G01 X-18.6646 Y28.3601 
G01 X-18.6734 Y28.4149 
G01 X-18.6843 Y28.4692 
G01 X-18.6843 Y28.4816 
G01 X-18.6862 Y28.4938 
G01 X-18.6843 Y28.5492 
G01 X-18.6843 Y28.6046 
G01 X-18.6818 Y28.6168 
G01 X-18.6349 Y29.9337 
G01 X-18.6349 Y33.0368 
G01 X-18.6692 Y33.0881 
G01 X-18.7306 Y33.2363 
G01 X-18.7619 Y33.3937 
G01 X-18.7619 Y35.0782 
G01 X-18.7306 Y35.2355 
G01 X-18.6692 Y35.3838 
G01 X-18.5800 Y35.5172 
G01 X-18.4666 Y35.6306 
G01 X-18.3331 Y35.7198 
G01 X-18.1849 Y35.7812 
G01 X-18.0275 Y35.8125 
G01 X-17.8671 Y35.8125 
G01 X-17.7097 Y35.7812 
G01 X-17.5615 Y35.7198 
G01 X-17.4281 Y35.6306 
G01 X-17.3146 Y35.5172 
G01 X-17.2255 Y35.3838 
G01 X-17.1641 Y35.2355 
G01 X-17.1328 Y35.0782 
G00 Z3.5400 
G00 X-14.5928 Y33.3937 
G01 Z-0.2800 F50.00 
G01 X-14.6241 Y33.2363 F508.00 
G01 X-14.6855 Y33.0881 
G01 X-14.7746 Y32.9547 
G01 X-14.8881 Y32.8412 
G01 X-15.0215 Y32.7521 
G01 X-15.1697 Y32.6907 
G01 X-15.3271 Y32.6594 
G01 X-15.4875 Y32.6594 
G01 X-15.6449 Y32.6907 
G01 X-15.7932 Y32.7521 
G01 X-15.9266 Y32.8412 
G01 X-16.0400 Y32.9547 
G01 X-16.1292 Y33.0881 
G01 X-16.1906 Y33.2363 
G01 X-16.2219 Y33.3937 
G01 X-16.2219 Y35.0782 
G01 X-16.1906 Y35.2355 
G01 X-16.1789 Y35.2638 
G01 X-16.1396 Y36.5498 
G01 X-20.7862 Y36.5599 
G01 X-20.7982 Y34.3397 
G01 X-20.7982 Y34.2630 
G01 X-20.7986 Y34.2587 
G01 X-20.8395 Y26.7517 
G01 X-11.7734 Y26.7517 
G01 X-11.6184 Y26.7209 
G01 X-11.4723 Y26.6604 
G01 X-11.3409 Y26.5726 
G01 X-11.2291 Y26.4608 
G01 X-11.1412 Y26.3293 
G01 X-11.0807 Y26.1833 
G01 X-11.0499 Y26.0282 
G01 X-11.0499 Y25.9361 
G01 X-11.0450 Y25.9115 
G01 X-11.0450 Y23.2392 
G01 X-11.0330 Y23.1789 
G01 X-11.0330 Y21.4944 
G01 X-11.0643 Y21.3371 
G01 X-11.1257 Y21.1888 
G01 X-11.2149 Y21.0554 
G01 X-11.3283 Y20.9420 
G01 X-11.4617 Y20.8528 
G01 X-11.6100 Y20.7914 
G01 X-11.7673 Y20.7601 
G01 X-11.9278 Y20.7601 
G01 X-12.0851 Y20.7914 
G01 X-12.2334 Y20.8528 
G01 X-12.3668 Y20.9420 
G01 X-12.4802 Y21.0554 
G01 X-12.5694 Y21.1888 
G01 X-12.6308 Y21.3371 
G01 X-12.6621 Y21.4944 
G01 X-12.6621 Y23.1789 
G01 X-12.6501 Y23.2392 
G01 X-12.6501 Y25.1467 
G01 X-21.5696 Y25.1467 
G01 X-21.6485 Y25.1467 
G01 X-21.7255 Y25.1467 
G01 X-21.7299 Y25.1471 
G01 X-21.8049 Y25.1624 
G01 X-21.8805 Y25.1775 
G01 X-21.8847 Y25.1788 
G01 X-21.9555 Y25.2085 
G01 X-22.0266 Y25.2380 
G01 X-22.0305 Y25.2401 
G01 X-22.0940 Y25.2831 
G01 X-22.1580 Y25.3258 
G01 X-22.1614 Y25.3286 
G01 X-22.2153 Y25.3831 
G01 X-22.2698 Y25.4376 
G01 X-22.2726 Y25.4410 
G01 X-22.3148 Y25.5050 
G01 X-22.3576 Y25.5691 
G01 X-22.3597 Y25.5729 
G01 X-22.3887 Y25.6440 
G01 X-22.4181 Y25.7151 
G01 X-22.4194 Y25.7193 
G01 X-22.4340 Y25.7947 
G01 X-22.4490 Y25.8702 
G01 X-22.4494 Y25.8745 
G01 X-22.4490 Y25.9514 
G01 X-22.4490 Y26.0282 
G01 X-22.4033 Y34.3440 
G01 X-22.4033 Y34.4211 
G01 X-22.3869 Y37.3674 
G01 X-22.3868 Y37.4450 
G01 X-22.3865 Y37.4476 
G01 X-22.3709 Y37.5240 
G01 X-22.3556 Y37.6000 
G01 X-22.3246 Y37.6743 
G01 X-22.2948 Y37.7459 
G01 X-22.2499 Y37.8128 
G01 X-22.2067 Y37.8771 
G01 X-22.1498 Y37.9338 
G01 X-22.0946 Y37.9887 
G01 X-22.0282 Y38.0329 
G01 X-21.9630 Y38.0762 
G01 X-21.8890 Y38.1067 
G01 X-21.8168 Y38.1364 
G01 X-21.7380 Y38.1519 
G01 X-21.6617 Y38.1669 
G01 X-21.6591 Y38.1672 
G01 X-21.5816 Y38.1667 
G01 X-15.3781 Y38.1532 
G01 X-15.3668 Y38.1551 
G01 X-15.2991 Y38.1530 
G01 X-15.2315 Y38.1529 
G01 X-15.2202 Y38.1506 
G01 X-15.2088 Y38.1503 
G01 X-15.1428 Y38.1350 
G01 X-15.0765 Y38.1217 
G01 X-15.0659 Y38.1173 
G01 X-15.0547 Y38.1147 
G01 X-14.9931 Y38.0869 
G01 X-14.9306 Y38.0609 
G01 X-14.9210 Y38.0545 
G01 X-14.9106 Y38.0498 
G01 X-14.8555 Y38.0105 
G01 X-14.7993 Y37.9728 
G01 X-14.7912 Y37.9646 
G01 X-14.7819 Y37.9580 
G01 X-14.7355 Y37.9087 
G01 X-14.6878 Y37.8607 
G01 X-14.6814 Y37.8512 
G01 X-14.6736 Y37.8428 
G01 X-14.6377 Y37.7855 
G01 X-14.6002 Y37.7291 
G01 X-14.5959 Y37.7185 
G01 X-14.5898 Y37.7088 
G01 X-14.5658 Y37.6455 
G01 X-14.5400 Y37.5829 
G01 X-14.5378 Y37.5717 
G01 X-14.5338 Y37.5610 
G01 X-14.5226 Y37.4943 
G01 X-14.5095 Y37.4278 
G01 X-14.5096 Y37.4163 
G01 X-14.5077 Y37.4050 
G01 X-14.5097 Y37.3374 
G01 X-14.5099 Y37.2697 
G01 X-14.5121 Y37.2585 
G01 X-14.5928 Y34.6168 
G01 X-14.5928 Y33.3937 
G00 Z3.5400 
G00 X-12.0528 Y35.0782 
G01 Z-0.2800 F50.00 
G01 X-12.0528 Y33.3937 F508.00 
G01 X-12.0841 Y33.2363 
G01 X-12.1455 Y33.0881 
G01 X-12.2346 Y32.9547 
G01 X-12.3481 Y32.8412 
G01 X-12.4815 Y32.7521 
G01 X-12.6297 Y32.6907 
G01 X-12.7871 Y32.6594 
G01 X-12.9475 Y32.6594 
G01 X-13.1049 Y32.6907 
G01 X-13.2531 Y32.7521 
G01 X-13.3866 Y32.8412 
G01 X-13.5000 Y32.9547 
G01 X-13.5892 Y33.0881 
G01 X-13.6506 Y33.2363 
G01 X-13.6819 Y33.3937 
G01 X-13.6819 Y35.0782 
G01 X-13.6506 Y35.2355 
G01 X-13.5892 Y35.3838 
G01 X-13.5000 Y35.5172 
G01 X-13.3866 Y35.6306 
G01 X-13.2531 Y35.7198 
G01 X-13.1049 Y35.7812 
G01 X-12.9475 Y35.8125 
G01 X-12.7871 Y35.8125 
G01 X-12.6297 Y35.7812 
G01 X-12.4815 Y35.7198 
G01 X-12.3481 Y35.6306 
G01 X-12.2346 Y35.5172 
G01 X-12.1455 Y35.3838 
G01 X-12.0841 Y35.2355 
G01 X-12.0528 Y35.0782 
G00 Z3.5400 
G00 X-6.9728 Y35.0782 
G01 Z-0.2800 F50.00 
G01 X-6.9728 Y33.3937 F508.00 
G01 X-7.0041 Y33.2363 
G01 X-7.0655 Y33.0881 
G01 X-7.1546 Y32.9547 
G01 X-7.2681 Y32.8412 
G01 X-7.4015 Y32.7521 
G01 X-7.5497 Y32.6907 
G01 X-7.7071 Y32.6594 
G01 X-7.8675 Y32.6594 
G01 X-8.0249 Y32.6907 
G01 X-8.1731 Y32.7521 
G01 X-8.3066 Y32.8412 
G01 X-8.4200 Y32.9547 
G01 X-8.5092 Y33.0881 
G01 X-8.5706 Y33.2363 
G01 X-8.6019 Y33.3937 
G01 X-8.6019 Y35.0782 
G01 X-8.5706 Y35.2355 
G01 X-8.5092 Y35.3838 
G01 X-8.4200 Y35.5172 
G01 X-8.3066 Y35.6306 
G01 X-8.1731 Y35.7198 
G01 X-8.0249 Y35.7812 
G01 X-7.8675 Y35.8125 
G01 X-7.7071 Y35.8125 
G01 X-7.5497 Y35.7812 
G01 X-7.4015 Y35.7198 
G01 X-7.2681 Y35.6306 
G01 X-7.1546 Y35.5172 
G01 X-7.0655 Y35.3838 
G01 X-7.0041 Y35.2355 
G01 X-6.9728 Y35.0782 
G00 Z3.5400 
G00 X-4.4328 Y35.0782 
G01 Z-0.2800 F50.00 
G01 X-4.4328 Y33.3937 F508.00 
G01 X-4.4641 Y33.2363 
G01 X-4.5255 Y33.0881 
G01 X-4.6146 Y32.9547 
G01 X-4.7281 Y32.8412 
G01 X-4.8615 Y32.7521 
G01 X-5.0097 Y32.6907 
G01 X-5.1671 Y32.6594 
G01 X-5.3275 Y32.6594 
G01 X-5.4849 Y32.6907 
G01 X-5.6332 Y32.7521 
G01 X-5.7666 Y32.8412 
G01 X-5.8800 Y32.9547 
G01 X-5.9692 Y33.0881 
G01 X-6.0306 Y33.2363 
G01 X-6.0619 Y33.3937 
G01 X-6.0619 Y35.0782 
G01 X-6.0306 Y35.2355 
G01 X-5.9692 Y35.3838 
G01 X-5.8800 Y35.5172 
G01 X-5.7666 Y35.6306 
G01 X-5.6332 Y35.7198 
G01 X-5.4849 Y35.7812 
G01 X-5.3275 Y35.8125 
G01 X-5.1671 Y35.8125 
G01 X-5.0097 Y35.7812 
G01 X-4.8615 Y35.7198 
G01 X-4.7281 Y35.6306 
G01 X-4.6146 Y35.5172 
G01 X-4.5255 Y35.3838 
G01 X-4.4641 Y35.2355 
G01 X-4.4328 Y35.0782 
G00 Z3.5400 
G00 X-1.8928 Y35.0782 
G01 Z-0.2800 F50.00 
G01 X-1.8928 Y33.3937 F508.00 
G01 X-1.9241 Y33.2363 
G01 X-1.9855 Y33.0881 
G01 X-2.0746 Y32.9547 
G01 X-2.1881 Y32.8412 
G01 X-2.3215 Y32.7521 
G01 X-2.4697 Y32.6907 
G01 X-2.6271 Y32.6594 
G01 X-2.7875 Y32.6594 
G01 X-2.9449 Y32.6907 
G01 X-3.0932 Y32.7521 
G01 X-3.2266 Y32.8412 
G01 X-3.3400 Y32.9547 
G01 X-3.4292 Y33.0881 
G01 X-3.4906 Y33.2363 
G01 X-3.5219 Y33.3937 
G01 X-3.5219 Y35.0782 
G01 X-3.4906 Y35.2355 
G01 X-3.4292 Y35.3838 
G01 X-3.3400 Y35.5172 
G01 X-3.2266 Y35.6306 
G01 X-3.0932 Y35.7198 
G01 X-2.9449 Y35.7812 
G01 X-2.7875 Y35.8125 
G01 X-2.6271 Y35.8125 
G01 X-2.4697 Y35.7812 
G01 X-2.3215 Y35.7198 
G01 X-2.1881 Y35.6306 
G01 X-2.0746 Y35.5172 
G01 X-1.9855 Y35.3838 
G01 X-1.9241 Y35.2355 
G01 X-1.8928 Y35.0782 
G00 Z3.5400 
G00 X-18.2836 Y15.2293 
G01 Z-0.2800 F50.00 
G01 X-18.2836 Y16.1671 F508.00 
G01 X-17.8517 Y16.5990 
G01 X-17.7637 Y22.4318 
G01 X-17.7421 Y22.5327 
G01 X-17.7421 Y23.1789 
G01 X-17.7108 Y23.3363 
G01 X-17.6494 Y23.4845 
G01 X-17.5602 Y23.6179 
G01 X-17.4468 Y23.7314 
G01 X-17.3134 Y23.8205 
G01 X-17.1651 Y23.8819 
G01 X-17.0078 Y23.9132 
G01 X-16.8473 Y23.9132 
G01 X-16.6900 Y23.8819 
G01 X-16.5417 Y23.8205 
G01 X-16.4083 Y23.7314 
G01 X-16.2949 Y23.6179 
G01 X-16.2057 Y23.4845 
G01 X-16.1443 Y23.3363 
G01 X-16.1130 Y23.1789 
G01 X-16.1130 Y22.5383 
G01 X-16.0889 Y22.4065 
G01 X-16.1805 Y16.3282 
G01 X-16.0195 Y16.1671 
G01 X-16.0195 Y15.2293 
G01 X-16.6826 Y14.5662 
G01 X-17.6204 Y14.5662 
G01 X-18.2836 Y15.2293 
G00 Z3.5400 
G00 X-15.2021 Y21.4944 
G01 Z-0.2800 F50.00 
G01 X-15.2021 Y23.1789 F508.00 
G01 X-15.1708 Y23.3363 
G01 X-15.1094 Y23.4845 
G01 X-15.0202 Y23.6179 
G01 X-14.9068 Y23.7314 
G01 X-14.7734 Y23.8205 
G01 X-14.6251 Y23.8819 
G01 X-14.4678 Y23.9132 
G01 X-14.3073 Y23.9132 
G01 X-14.1500 Y23.8819 
G01 X-14.0017 Y23.8205 
G01 X-13.8683 Y23.7314 
G01 X-13.7549 Y23.6179 
G01 X-13.6657 Y23.4845 
G01 X-13.6043 Y23.3363 
G01 X-13.5730 Y23.1789 
G01 X-13.5730 Y22.4442 
G01 X-13.5629 Y22.3937 
G01 X-13.5629 Y22.2356 
G01 X-13.5730 Y22.1850 
G01 X-13.5730 Y21.4944 
G01 X-13.6043 Y21.3371 
G01 X-13.6423 Y21.2454 
G01 X-13.5832 Y12.6324 
G01 X-13.1505 Y12.1997 
G01 X-0.9141 Y12.3940 
G01 X-0.9141 Y19.9753 
G01 X-0.9261 Y20.0357 
G01 X-0.9261 Y21.7201 
G01 X-0.8948 Y21.8775 
G01 X-0.8835 Y21.9046 
G01 X-0.8839 Y33.0802 
G01 X-0.8892 Y33.0881 
G01 X-0.9506 Y33.2363 
G01 X-0.9819 Y33.3937 
G01 X-0.9819 Y35.0782 
G01 X-0.9506 Y35.2355 
G01 X-0.8892 Y35.3838 
G01 X-0.8000 Y35.5172 
G01 X-0.6866 Y35.6306 
G01 X-0.5532 Y35.7198 
G01 X-0.4049 Y35.7812 
G01 X-0.2475 Y35.8125 
G01 X-0.0871 Y35.8125 
G01 X0.0703 Y35.7812 
G01 X0.2185 Y35.7198 
G01 X0.3519 Y35.6306 
G01 X0.4654 Y35.5172 
G01 X0.5545 Y35.3838 
G01 X0.6159 Y35.2355 
G01 X0.6472 Y35.0782 
G01 X0.6472 Y34.4881 
G01 X0.6903 Y34.3841 
G01 X0.7211 Y34.2291 
G01 X0.7216 Y20.8294 
G01 X0.7030 Y20.7360 
G01 X0.7030 Y20.0357 
G01 X0.6910 Y19.9753 
G01 X0.6910 Y12.2332 
G01 X0.6602 Y12.0782 
G01 X0.6024 Y11.9386 
G01 X0.6407 Y11.8502 
G01 X0.6740 Y11.6956 
G01 X0.6765 Y11.5375 
G01 X0.6481 Y11.3820 
G01 X0.5899 Y11.2350 
G01 X0.5042 Y11.1022 
G01 X0.3942 Y10.9887 
G01 X0.2642 Y10.8988 
G01 X0.1191 Y10.8360 
G01 X-0.0355 Y10.8027 
G01 X-13.7554 Y10.5848 
G01 X-13.7775 Y10.5626 
G01 X-14.7153 Y10.5626 
G01 X-15.3785 Y11.2257 
G01 X-15.3785 Y12.1635 
G01 X-14.9580 Y12.5840 
G01 X-15.0161 Y21.0513 
G01 X-15.0202 Y21.0554 
G01 X-15.1094 Y21.1888 
G01 X-15.1708 Y21.3371 
G01 X-15.2021 Y21.4944 
G00 Z3.5400 
G00 X-6.0061 Y20.0357 
G01 Z-0.2800 F50.00 
G01 X-6.0061 Y21.7201 F508.00 
G01 X-5.9748 Y21.8775 
G01 X-5.9134 Y22.0257 
G01 X-5.8650 Y22.0981 
G01 X-5.8650 Y30.4077 
G01 X-5.8772 Y30.4371 
G01 X-5.8844 Y30.4728 
G01 X-10.4553 Y30.4811 
G01 X-10.4791 Y30.4778 
G01 X-10.5341 Y30.4812 
G01 X-10.5893 Y30.4813 
G01 X-10.6129 Y30.4861 
G01 X-10.6369 Y30.4875 
G01 X-10.6902 Y30.5016 
G01 X-10.7443 Y30.5124 
G01 X-10.7665 Y30.5217 
G01 X-10.7898 Y30.5278 
G01 X-10.8393 Y30.5520 
G01 X-10.8902 Y30.5732 
G01 X-10.9102 Y30.5866 
G01 X-10.9318 Y30.5972 
G01 X-10.9757 Y30.6306 
G01 X-11.0215 Y30.6613 
G01 X-11.0385 Y30.6783 
G01 X-11.0576 Y30.6929 
G01 X-11.0941 Y30.7342 
G01 X-11.1331 Y30.7733 
G01 X-11.1464 Y30.7933 
G01 X-11.1623 Y30.8113 
G01 X-11.1901 Y30.8590 
G01 X-11.2207 Y30.9049 
G01 X-11.2298 Y30.9271 
G01 X-11.2420 Y30.9479 
G01 X-11.2599 Y31.0001 
G01 X-11.2809 Y31.0510 
G01 X-11.2855 Y31.0746 
G01 X-11.2934 Y31.0974 
G01 X-11.3008 Y31.1520 
G01 X-11.3114 Y31.2061 
G01 X-11.3114 Y31.2302 
G01 X-11.3146 Y31.2540 
G01 X-11.3113 Y31.3091 
G01 X-11.3112 Y31.3642 
G01 X-11.3064 Y31.3878 
G01 X-11.1419 Y34.0653 
G01 X-11.1419 Y35.0782 
G01 X-11.1106 Y35.2355 
G01 X-11.0492 Y35.3838 
G01 X-10.9600 Y35.5172 
G01 X-10.8466 Y35.6306 
G01 X-10.7132 Y35.7198 
G01 X-10.5649 Y35.7812 
G01 X-10.4075 Y35.8125 
G01 X-10.2471 Y35.8125 
G01 X-10.0897 Y35.7812 
G01 X-9.9415 Y35.7198 
G01 X-9.8081 Y35.6306 
G01 X-9.6946 Y35.5172 
G01 X-9.6055 Y35.3838 
G01 X-9.5441 Y35.2355 
G01 X-9.5128 Y35.0782 
G01 X-9.5128 Y33.3937 
G01 X-9.5441 Y33.2363 
G01 X-9.5918 Y33.1212 
G01 X-9.6555 Y32.0847 
G01 X-5.1044 Y32.0765 
G01 X-5.0264 Y32.0765 
G01 X-4.9481 Y32.0609 
G01 X-4.8714 Y32.0456 
G01 X-4.7979 Y32.0152 
G01 X-4.7253 Y31.9851 
G01 X-4.6593 Y31.9410 
G01 X-4.5939 Y31.8973 
G01 X-4.5374 Y31.8408 
G01 X-4.4821 Y31.7855 
G01 X-4.4376 Y31.7189 
G01 X-4.3943 Y31.6541 
G01 X-4.3637 Y31.5803 
G01 X-4.3338 Y31.5080 
G01 X-4.3183 Y31.4302 
G01 X-4.3029 Y31.3530 
G01 X-4.3029 Y31.2733 
G01 X-4.3029 Y30.9346 
G01 X-4.2908 Y30.9052 
G01 X-4.2750 Y30.8262 
G01 X-4.2599 Y30.7502 
G01 X-4.2599 Y30.6696 
G01 X-4.2599 Y20.9279 
G01 X-4.2908 Y20.7728 
G01 X-4.3513 Y20.6268 
G01 X-4.3770 Y20.5883 
G01 X-4.3770 Y20.0357 
G01 X-4.4083 Y19.8783 
G01 X-4.4697 Y19.7301 
G01 X-4.5588 Y19.5966 
G01 X-4.6723 Y19.4832 
G01 X-4.8057 Y19.3940 
G01 X-4.9539 Y19.3326 
G01 X-5.1113 Y19.3013 
G01 X-5.2717 Y19.3013 
G01 X-5.4291 Y19.3326 
G01 X-5.5773 Y19.3940 
G01 X-5.7108 Y19.4832 
G01 X-5.8242 Y19.5966 
G01 X-5.9134 Y19.7301 
G01 X-5.9748 Y19.8783 
G01 X-6.0061 Y20.0357 
G00 Z3.5400 
G00 X-16.9328 Y35.0979 
G01 Z-0.2800 F50.00 
G01 X-16.9328 Y33.3740 F508.00 
G01 X-16.9718 Y33.1780 
G01 X-17.0482 Y32.9934 
G01 X-17.0598 Y32.9761 
G01 X-17.0598 Y29.9928 
G01 X-17.0572 Y29.9771 
G01 X-17.0598 Y29.9055 
G01 X-17.0598 Y29.8339 
G01 X-17.0629 Y29.8183 
G01 X-17.0769 Y29.4245 
G01 X-8.1378 Y29.4245 
G01 X-8.0505 Y29.4245 
G01 X-7.9654 Y29.4245 
G01 X-7.9605 Y29.4240 
G01 X-7.8775 Y29.4070 
G01 X-7.7940 Y29.3904 
G01 X-7.7892 Y29.3889 
G01 X-7.7108 Y29.3559 
G01 X-7.6324 Y29.3235 
G01 X-7.6281 Y29.3211 
G01 X-7.5576 Y29.2735 
G01 X-7.4871 Y29.2263 
G01 X-7.4833 Y29.2232 
G01 X-7.4236 Y29.1629 
G01 X-7.3634 Y29.1027 
G01 X-7.3603 Y29.0989 
G01 X-7.3135 Y29.0280 
G01 X-7.2663 Y28.9573 
G01 X-7.2640 Y28.9530 
G01 X-7.2319 Y28.8743 
G01 X-7.1994 Y28.7958 
G01 X-7.1980 Y28.7911 
G01 X-7.1819 Y28.7078 
G01 X-7.1653 Y28.6243 
G01 X-7.1648 Y28.6194 
G01 X-7.1653 Y28.5346 
G01 X-7.1653 Y28.4495 
G01 X-7.2248 Y17.7568 
G01 X-3.4881 Y17.6597 
G01 X-3.5187 Y19.5876 
G01 X-3.5506 Y19.6353 
G01 X-3.6271 Y19.8200 
G01 X-3.6661 Y20.0160 
G01 X-3.6661 Y21.7398 
G01 X-3.6271 Y21.9358 
G01 X-3.5506 Y22.1204 
G01 X-3.4396 Y22.2866 
G01 X-3.2983 Y22.4279 
G01 X-3.1321 Y22.5390 
G01 X-2.9474 Y22.6154 
G01 X-2.7514 Y22.6544 
G01 X-2.5516 Y22.6544 
G01 X-2.3556 Y22.6154 
G01 X-2.1710 Y22.5390 
G01 X-2.0048 Y22.4279 
G01 X-1.8635 Y22.2866 
G01 X-1.7524 Y22.1204 
G01 X-1.6760 Y21.9358 
G01 X-1.6370 Y21.7398 
G01 X-1.6370 Y20.0160 
G01 X-1.6760 Y19.8200 
G01 X-1.7445 Y19.6546 
G01 X-1.6997 Y16.8311 
G01 X-1.6965 Y16.8127 
G01 X-1.6983 Y16.7439 
G01 X-1.6972 Y16.6751 
G01 X-1.7005 Y16.6566 
G01 X-1.7010 Y16.6379 
G01 X-1.7162 Y16.5708 
G01 X-1.7286 Y16.5031 
G01 X-1.7354 Y16.4856 
G01 X-1.7396 Y16.4674 
G01 X-1.7675 Y16.4045 
G01 X-1.7929 Y16.3405 
G01 X-1.8030 Y16.3248 
G01 X-1.8106 Y16.3077 
G01 X-1.8504 Y16.2515 
G01 X-1.8877 Y16.1936 
G01 X-1.9007 Y16.1802 
G01 X-1.9115 Y16.1649 
G01 X-1.9614 Y16.1175 
G01 X-2.0093 Y16.0680 
G01 X-2.0248 Y16.0574 
G01 X-2.0383 Y16.0445 
G01 X-2.0965 Y16.0078 
G01 X-2.1532 Y15.9686 
G01 X-2.1703 Y15.9612 
G01 X-2.1862 Y15.9512 
G01 X-2.2504 Y15.9265 
G01 X-2.3136 Y15.8992 
G01 X-2.3319 Y15.8952 
G01 X-2.3494 Y15.8885 
G01 X-2.4172 Y15.8768 
G01 X-2.4845 Y15.8623 
G01 X-2.5032 Y15.8620 
G01 X-2.5217 Y15.8589 
G01 X-2.5905 Y15.8607 
G01 X-2.6593 Y15.8596 
G01 X-2.6777 Y15.8629 
G01 X-8.1311 Y16.0047 
G01 X-8.2094 Y16.0051 
G01 X-8.2184 Y16.0069 
G01 X-8.2276 Y16.0072 
G01 X-8.3040 Y16.0244 
G01 X-8.3807 Y16.0401 
G01 X-8.3892 Y16.0437 
G01 X-8.3981 Y16.0457 
G01 X-8.4696 Y16.0776 
G01 X-8.5419 Y16.1079 
G01 X-8.5495 Y16.1131 
G01 X-8.5578 Y16.1168 
G01 X-8.6218 Y16.1620 
G01 X-8.6867 Y16.2059 
G01 X-8.6931 Y16.2124 
G01 X-8.7006 Y16.2177 
G01 X-8.7546 Y16.2745 
G01 X-8.8096 Y16.3302 
G01 X-8.8147 Y16.3378 
G01 X-8.8210 Y16.3445 
G01 X-8.8628 Y16.4107 
G01 X-8.9060 Y16.4761 
G01 X-8.9094 Y16.4846 
G01 X-8.9143 Y16.4923 
G01 X-8.9424 Y16.5654 
G01 X-8.9720 Y16.6380 
G01 X-8.9737 Y16.6470 
G01 X-8.9770 Y16.6555 
G01 X-8.9903 Y16.7327 
G01 X-9.0051 Y16.8096 
G01 X-9.0051 Y16.8188 
G01 X-9.0066 Y16.8278 
G01 X-9.0046 Y16.9061 
G01 X-8.9453 Y27.6494 
G01 X-17.9252 Y27.6494 
G01 X-17.9410 Y27.6468 
G01 X-18.0125 Y27.6494 
G01 X-18.0841 Y27.6494 
G01 X-18.0998 Y27.6525 
G01 X-18.1157 Y27.6531 
G01 X-18.1853 Y27.6695 
G01 X-18.2556 Y27.6835 
G01 X-18.2703 Y27.6896 
G01 X-18.2859 Y27.6933 
G01 X-18.3510 Y27.7230 
G01 X-18.4171 Y27.7504 
G01 X-18.4304 Y27.7593 
G01 X-18.4449 Y27.7659 
G01 X-18.5029 Y27.8077 
G01 X-18.5625 Y27.8475 
G01 X-18.5738 Y27.8588 
G01 X-18.5867 Y27.8681 
G01 X-18.6355 Y27.9205 
G01 X-18.6861 Y27.9712 
G01 X-18.6950 Y27.9844 
G01 X-18.7058 Y27.9961 
G01 X-18.7435 Y28.0570 
G01 X-18.7832 Y28.1165 
G01 X-18.7893 Y28.1313 
G01 X-18.7977 Y28.1448 
G01 X-18.8228 Y28.2119 
G01 X-18.8501 Y28.2780 
G01 X-18.8533 Y28.2937 
G01 X-18.8588 Y28.3086 
G01 X-18.8703 Y28.3793 
G01 X-18.8843 Y28.4495 
G01 X-18.8843 Y28.4655 
G01 X-18.8868 Y28.4812 
G01 X-18.8843 Y28.5528 
G01 X-18.8843 Y28.6243 
G01 X-18.8811 Y28.6400 
G01 X-18.8349 Y29.9372 
G01 X-18.8349 Y32.9761 
G01 X-18.8464 Y32.9934 
G01 X-18.9229 Y33.1780 
G01 X-18.9619 Y33.3740 
G01 X-18.9619 Y35.0979 
G01 X-18.9229 Y35.2939 
G01 X-18.8464 Y35.4785 
G01 X-18.7354 Y35.6447 
G01 X-18.5941 Y35.7860 
G01 X-18.4279 Y35.8970 
G01 X-18.2432 Y35.9735 
G01 X-18.0472 Y36.0125 
G01 X-17.8474 Y36.0125 
G01 X-17.6514 Y35.9735 
G01 X-17.4668 Y35.8970 
G01 X-17.3006 Y35.7860 
G01 X-17.1593 Y35.6447 
G01 X-17.0482 Y35.4785 
G01 X-16.9718 Y35.2939 
G01 X-16.9328 Y35.0979 
G00 Z3.5400 
G00 X-14.3928 Y33.3740 
G01 Z-0.2800 F50.00 
G01 X-14.4318 Y33.1780 F508.00 
G01 X-14.5082 Y32.9934 
G01 X-14.6193 Y32.8272 
G01 X-14.7606 Y32.6859 
G01 X-14.9268 Y32.5749 
G01 X-15.1114 Y32.4984 
G01 X-15.3074 Y32.4594 
G01 X-15.5072 Y32.4594 
G01 X-15.7033 Y32.4984 
G01 X-15.8879 Y32.5749 
G01 X-16.0541 Y32.6859 
G01 X-16.1954 Y32.8272 
G01 X-16.3064 Y32.9934 
G01 X-16.3829 Y33.1780 
G01 X-16.4219 Y33.3740 
G01 X-16.4219 Y35.0979 
G01 X-16.3829 Y35.2939 
G01 X-16.3776 Y35.3065 
G01 X-16.3458 Y36.3502 
G01 X-20.5873 Y36.3595 
G01 X-20.5982 Y34.3392 
G01 X-20.5982 Y34.2433 
G01 X-20.5987 Y34.2407 
G01 X-20.5987 Y34.2379 
G01 X-20.6384 Y26.9517 
G01 X-11.7537 Y26.9517 
G01 X-11.5600 Y26.9132 
G01 X-11.3776 Y26.8376 
G01 X-11.2134 Y26.7279 
G01 X-11.0737 Y26.5883 
G01 X-10.9640 Y26.4241 
G01 X-10.8884 Y26.2416 
G01 X-10.8499 Y26.0479 
G01 X-10.8499 Y25.9558 
G01 X-10.8450 Y25.9312 
G01 X-10.8450 Y23.2589 
G01 X-10.8330 Y23.1986 
G01 X-10.8330 Y21.4748 
G01 X-10.8720 Y21.2787 
G01 X-10.9485 Y21.0941 
G01 X-11.0595 Y20.9279 
G01 X-11.2008 Y20.7866 
G01 X-11.3670 Y20.6756 
G01 X-11.5516 Y20.5991 
G01 X-11.7476 Y20.5601 
G01 X-11.9475 Y20.5601 
G01 X-12.1435 Y20.5991 
G01 X-12.3281 Y20.6756 
G01 X-12.4943 Y20.7866 
G01 X-12.6356 Y20.9279 
G01 X-12.7466 Y21.0941 
G01 X-12.8231 Y21.2787 
G01 X-12.8621 Y21.4748 
G01 X-12.8621 Y23.1986 
G01 X-12.8501 Y23.2589 
G01 X-12.8501 Y24.9467 
G01 X-21.5505 Y24.9467 
G01 X-21.5532 Y24.9461 
G01 X-21.6490 Y24.9467 
G01 X-21.7452 Y24.9467 
G01 X-21.7479 Y24.9472 
G01 X-21.7506 Y24.9472 
G01 X-21.8447 Y24.9665 
G01 X-21.9389 Y24.9852 
G01 X-21.9414 Y24.9862 
G01 X-21.9441 Y24.9868 
G01 X-22.0326 Y25.0240 
G01 X-22.1213 Y25.0608 
G01 X-22.1262 Y25.0634 
G01 X-22.2057 Y25.1171 
G01 X-22.2855 Y25.1705 
G01 X-22.2898 Y25.1740 
G01 X-22.3573 Y25.2423 
G01 X-22.4252 Y25.3101 
G01 X-22.4286 Y25.3144 
G01 X-22.4815 Y25.3945 
G01 X-22.5349 Y25.4743 
G01 X-22.5359 Y25.4769 
G01 X-22.5737 Y25.5680 
G01 X-22.6105 Y25.6568 
G01 X-22.6110 Y25.6595 
G01 X-22.6120 Y25.6620 
G01 X-22.6302 Y25.7562 
G01 X-22.6490 Y25.8505 
G01 X-22.6490 Y25.8532 
G01 X-22.6495 Y25.8559 
G01 X-22.6490 Y25.9517 
G01 X-22.6490 Y26.0479 
G01 X-22.6484 Y26.0506 
G01 X-22.6033 Y34.3447 
G01 X-22.6033 Y34.4408 
G01 X-22.6027 Y34.4435 
G01 X-22.5869 Y37.3685 
G01 X-22.5867 Y37.4651 
G01 X-22.5864 Y37.4684 
G01 X-22.5668 Y37.5642 
G01 X-22.5478 Y37.6587 
G01 X-22.5468 Y37.6618 
G01 X-22.5091 Y37.7516 
G01 X-22.4718 Y37.8410 
G01 X-22.4703 Y37.8439 
G01 X-22.4160 Y37.9241 
G01 X-22.3617 Y38.0050 
G01 X-22.2909 Y38.0755 
G01 X-22.2218 Y38.1443 
G01 X-22.1386 Y38.1996 
G01 X-22.0574 Y38.2537 
G01 X-22.0545 Y38.2552 
G01 X-21.9650 Y38.2917 
G01 X-21.8747 Y38.3288 
G01 X-21.8716 Y38.3298 
G01 X-21.7764 Y38.3482 
G01 X-21.6810 Y38.3670 
G01 X-21.6777 Y38.3673 
G01 X-21.5803 Y38.3667 
G01 X-15.3945 Y38.3532 
G01 X-15.3804 Y38.3556 
G01 X-15.2958 Y38.3530 
G01 X-15.2113 Y38.3528 
G01 X-15.1973 Y38.3500 
G01 X-15.1830 Y38.3496 
G01 X-15.1005 Y38.3305 
G01 X-15.0177 Y38.3139 
G01 X-15.0045 Y38.3084 
G01 X-14.9905 Y38.3052 
G01 X-14.9134 Y38.2704 
G01 X-14.8354 Y38.2379 
G01 X-14.8235 Y38.2299 
G01 X-14.8105 Y38.2240 
G01 X-14.7417 Y38.1750 
G01 X-14.6715 Y38.1278 
G01 X-14.6614 Y38.1177 
G01 X-14.6497 Y38.1094 
G01 X-14.5918 Y38.0478 
G01 X-14.5321 Y37.9879 
G01 X-14.5242 Y37.9760 
G01 X-14.5144 Y37.9655 
G01 X-14.4696 Y37.8938 
G01 X-14.4228 Y37.8235 
G01 X-14.4173 Y37.8102 
G01 X-14.4097 Y37.7981 
G01 X-14.3798 Y37.7190 
G01 X-14.3476 Y37.6408 
G01 X-14.3448 Y37.6268 
G01 X-14.3398 Y37.6134 
G01 X-14.3258 Y37.5300 
G01 X-14.3095 Y37.4471 
G01 X-14.3095 Y37.4328 
G01 X-14.3072 Y37.4186 
G01 X-14.3097 Y37.3341 
G01 X-14.3099 Y37.2496 
G01 X-14.3128 Y37.2356 
G01 X-14.3928 Y34.6137 
G01 X-14.3928 Y33.3740 
G00 Z3.5400 
G00 X-11.8528 Y35.0979 
G01 Z-0.2800 F50.00 
G01 X-11.8528 Y33.3740 F508.00 
G01 X-11.8918 Y33.1780 
G01 X-11.9682 Y32.9934 
G01 X-12.0793 Y32.8272 
G01 X-12.2206 Y32.6859 
G01 X-12.3868 Y32.5749 
G01 X-12.5714 Y32.4984 
G01 X-12.7674 Y32.4594 
G01 X-12.9672 Y32.4594 
G01 X-13.1633 Y32.4984 
G01 X-13.3479 Y32.5749 
G01 X-13.5141 Y32.6859 
G01 X-13.6554 Y32.8272 
G01 X-13.7664 Y32.9934 
G01 X-13.8429 Y33.1780 
G01 X-13.8819 Y33.3740 
G01 X-13.8819 Y35.0979 
G01 X-13.8429 Y35.2939 
G01 X-13.7664 Y35.4785 
G01 X-13.6554 Y35.6447 
G01 X-13.5141 Y35.7860 
G01 X-13.3479 Y35.8970 
G01 X-13.1633 Y35.9735 
G01 X-12.9672 Y36.0125 
G01 X-12.7674 Y36.0125 
G01 X-12.5714 Y35.9735 
G01 X-12.3868 Y35.8970 
G01 X-12.2206 Y35.7860 
G01 X-12.0793 Y35.6447 
G01 X-11.9682 Y35.4785 
G01 X-11.8918 Y35.2939 
G01 X-11.8528 Y35.0979 
G00 Z3.5400 
G00 X-6.7728 Y35.0979 
G01 Z-0.2800 F50.00 
G01 X-6.7728 Y33.3740 F508.00 
G01 X-6.8118 Y33.1780 
G01 X-6.8882 Y32.9934 
G01 X-6.9993 Y32.8272 
G01 X-7.1406 Y32.6859 
G01 X-7.3068 Y32.5749 
G01 X-7.4914 Y32.4984 
G01 X-7.6874 Y32.4594 
G01 X-7.8872 Y32.4594 
G01 X-8.0832 Y32.4984 
G01 X-8.2679 Y32.5749 
G01 X-8.4341 Y32.6859 
G01 X-8.5754 Y32.8272 
G01 X-8.6864 Y32.9934 
G01 X-8.7629 Y33.1780 
G01 X-8.8019 Y33.3740 
G01 X-8.8019 Y35.0979 
G01 X-8.7629 Y35.2939 
G01 X-8.6864 Y35.4785 
G01 X-8.5754 Y35.6447 
G01 X-8.4341 Y35.7860 
G01 X-8.2679 Y35.8970 
G01 X-8.0832 Y35.9735 
G01 X-7.8872 Y36.0125 
G01 X-7.6874 Y36.0125 
G01 X-7.4914 Y35.9735 
G01 X-7.3068 Y35.8970 
G01 X-7.1406 Y35.7860 
G01 X-6.9993 Y35.6447 
G01 X-6.8882 Y35.4785 
G01 X-6.8118 Y35.2939 
G01 X-6.7728 Y35.0979 
G00 Z3.5400 
G00 X-4.2328 Y35.0979 
G01 Z-0.2800 F50.00 
G01 X-4.2328 Y33.3740 F508.00 
G01 X-4.2718 Y33.1780 
G01 X-4.3482 Y32.9934 
G01 X-4.4593 Y32.8272 
G01 X-4.6006 Y32.6859 
G01 X-4.7668 Y32.5749 
G01 X-4.9514 Y32.4984 
G01 X-5.1474 Y32.4594 
G01 X-5.3472 Y32.4594 
G01 X-5.5433 Y32.4984 
G01 X-5.7279 Y32.5749 
G01 X-5.8941 Y32.6859 
G01 X-6.0354 Y32.8272 
G01 X-6.1464 Y32.9934 
G01 X-6.2229 Y33.1780 
G01 X-6.2619 Y33.3740 
G01 X-6.2619 Y35.0979 
G01 X-6.2229 Y35.2939 
G01 X-6.1464 Y35.4785 
G01 X-6.0354 Y35.6447 
G01 X-5.8941 Y35.7860 
G01 X-5.7279 Y35.8970 
G01 X-5.5433 Y35.9735 
G01 X-5.3472 Y36.0125 
G01 X-5.1474 Y36.0125 
G01 X-4.9514 Y35.9735 
G01 X-4.7668 Y35.8970 
G01 X-4.6006 Y35.7860 
G01 X-4.4593 Y35.6447 
G01 X-4.3482 Y35.4785 
G01 X-4.2718 Y35.2939 
G01 X-4.2328 Y35.0979 
G00 Z3.5400 
G00 X-1.6928 Y35.0979 
G01 Z-0.2800 F50.00 
G01 X-1.6928 Y33.3740 F508.00 
G01 X-1.7318 Y33.1780 
G01 X-1.8082 Y32.9934 
G01 X-1.9193 Y32.8272 
G01 X-2.0606 Y32.6859 
G01 X-2.2268 Y32.5749 
G01 X-2.4114 Y32.4984 
G01 X-2.6074 Y32.4594 
G01 X-2.8072 Y32.4594 
G01 X-3.0032 Y32.4984 
G01 X-3.1879 Y32.5749 
G01 X-3.3541 Y32.6859 
G01 X-3.4954 Y32.8272 
G01 X-3.6064 Y32.9934 
G01 X-3.6829 Y33.1780 
G01 X-3.7219 Y33.3740 
G01 X-3.7219 Y35.0979 
G01 X-3.6829 Y35.2939 
G01 X-3.6064 Y35.4785 
G01 X-3.4954 Y35.6447 
G01 X-3.3541 Y35.7860 
G01 X-3.1879 Y35.8970 
G01 X-3.0032 Y35.9735 
G01 X-2.8072 Y36.0125 
G01 X-2.6074 Y36.0125 
G01 X-2.4114 Y35.9735 
G01 X-2.2268 Y35.8970 
G01 X-2.0606 Y35.7860 
G01 X-1.9193 Y35.6447 
G01 X-1.8082 Y35.4785 
G01 X-1.7318 Y35.2939 
G01 X-1.6928 Y35.0979 
G00 Z3.5400 
G00 X-15.5785 Y11.1429 
G01 Z-0.2800 F50.00 
G01 X-15.5785 Y12.2464 F508.00 
G01 X-15.1586 Y12.6663 
G01 X-15.2156 Y20.9879 
G01 X-15.2866 Y21.0941 
G01 X-15.3631 Y21.2787 
G01 X-15.4021 Y21.4748 
G01 X-15.4021 Y23.1986 
G01 X-15.3631 Y23.3946 
G01 X-15.2866 Y23.5792 
G01 X-15.1756 Y23.7454 
G01 X-15.0343 Y23.8867 
G01 X-14.8681 Y23.9977 
G01 X-14.6835 Y24.0742 
G01 X-14.4875 Y24.1132 
G01 X-14.2876 Y24.1132 
G01 X-14.0916 Y24.0742 
G01 X-13.9070 Y23.9977 
G01 X-13.7408 Y23.8867 
G01 X-13.5995 Y23.7454 
G01 X-13.4885 Y23.5792 
G01 X-13.4120 Y23.3946 
G01 X-13.3730 Y23.1986 
G01 X-13.3730 Y22.4639 
G01 X-13.3629 Y22.4134 
G01 X-13.3629 Y22.2159 
G01 X-13.3730 Y22.1653 
G01 X-13.3730 Y21.4748 
G01 X-13.4120 Y21.2787 
G01 X-13.4420 Y21.2063 
G01 X-13.3838 Y12.7158 
G01 X-13.0690 Y12.4010 
G01 X-1.1141 Y12.5908 
G01 X-1.1141 Y19.9556 
G01 X-1.1261 Y20.0160 
G01 X-1.1261 Y21.7398 
G01 X-1.0871 Y21.9358 
G01 X-1.0835 Y21.9444 
G01 X-1.0839 Y33.0356 
G01 X-1.1429 Y33.1780 
G01 X-1.1819 Y33.3740 
G01 X-1.1819 Y35.0979 
G01 X-1.1429 Y35.2939 
G01 X-1.0664 Y35.4785 
G01 X-0.9554 Y35.6447 
G01 X-0.8141 Y35.7860 
G01 X-0.6479 Y35.8970 
G01 X-0.4632 Y35.9735 
G01 X-0.2672 Y36.0125 
G01 X-0.0674 Y36.0125 
G01 X0.1286 Y35.9735 
G01 X0.3132 Y35.8970 
G01 X0.4794 Y35.7860 
G01 X0.6207 Y35.6447 
G01 X0.7318 Y35.4785 
G01 X0.8082 Y35.2939 
G01 X0.8472 Y35.0979 
G01 X0.8472 Y34.5279 
G01 X0.8826 Y34.4425 
G01 X0.9211 Y34.2488 
G01 X0.9216 Y20.8097 
G01 X0.9030 Y20.7163 
G01 X0.9030 Y20.0160 
G01 X0.8910 Y19.9556 
G01 X0.8910 Y12.2135 
G01 X0.8525 Y12.0198 
G01 X0.8196 Y11.9403 
G01 X0.8320 Y11.9115 
G01 X0.8736 Y11.7185 
G01 X0.8767 Y11.5210 
G01 X0.8413 Y11.3268 
G01 X0.7686 Y11.1431 
G01 X0.6615 Y10.9772 
G01 X0.5241 Y10.8354 
G01 X0.3617 Y10.7231 
G01 X0.1805 Y10.6446 
G01 X-0.0126 Y10.6030 
G01 X-13.6712 Y10.3861 
G01 X-13.6947 Y10.3626 
G01 X-14.7982 Y10.3626 
G01 X-15.5785 Y11.1429 
G00 Z3.5400 
G00 X-17.9421 Y23.1986 
G01 Z-0.2800 F50.00 
G01 X-17.9031 Y23.3946 F508.00 
G01 X-17.8266 Y23.5792 
G01 X-17.7156 Y23.7454 
G01 X-17.5743 Y23.8867 
G01 X-17.4081 Y23.9977 
G01 X-17.2235 Y24.0742 
G01 X-17.0275 Y24.1132 
G01 X-16.8276 Y24.1132 
G01 X-16.6316 Y24.0742 
G01 X-16.4470 Y23.9977 
G01 X-16.2808 Y23.8867 
G01 X-16.1395 Y23.7454 
G01 X-16.0285 Y23.5792 
G01 X-15.9520 Y23.3946 
G01 X-15.9130 Y23.1986 
G01 X-15.9130 Y22.5676 
G01 X-15.9120 Y22.5643 
G01 X-15.8889 Y22.4027 
G01 X-15.9793 Y16.4097 
G01 X-15.8195 Y16.2500 
G01 X-15.8195 Y15.1465 
G01 X-16.5998 Y14.3662 
G01 X-17.7033 Y14.3662 
G01 X-18.4836 Y15.1465 
G01 X-18.4836 Y16.2500 
G01 X-18.0505 Y16.6831 
G01 X-17.9637 Y22.4340 
G01 X-17.9421 Y22.5585 
G01 X-17.9421 Y23.1986 
G00 Z3.5400 
G00 X-6.2061 Y20.0160 
G01 Z-0.2800 F50.00 
G01 X-6.2061 Y21.7398 F508.00 
G01 X-6.1671 Y21.9358 
G01 X-6.0906 Y22.1204 
G01 X-6.0650 Y22.1587 
G01 X-6.0650 Y30.2731 
G01 X-10.4419 Y30.2811 
G01 X-10.4717 Y30.2770 
G01 X-10.5405 Y30.2812 
G01 X-10.6093 Y30.2814 
G01 X-10.6388 Y30.2873 
G01 X-10.6688 Y30.2891 
G01 X-10.7354 Y30.3067 
G01 X-10.8029 Y30.3202 
G01 X-10.8307 Y30.3318 
G01 X-10.8598 Y30.3395 
G01 X-10.9217 Y30.3697 
G01 X-10.9853 Y30.3961 
G01 X-11.0102 Y30.4129 
G01 X-11.0373 Y30.4261 
G01 X-11.0921 Y30.4678 
G01 X-11.1493 Y30.5061 
G01 X-11.1705 Y30.5274 
G01 X-11.1944 Y30.5457 
G01 X-11.2400 Y30.5973 
G01 X-11.2886 Y30.6460 
G01 X-11.3053 Y30.6711 
G01 X-11.3252 Y30.6936 
G01 X-11.3599 Y30.7531 
G01 X-11.3981 Y30.8104 
G01 X-11.4095 Y30.8382 
G01 X-11.4247 Y30.8642 
G01 X-11.4471 Y30.9294 
G01 X-11.4733 Y30.9930 
G01 X-11.4791 Y31.0225 
G01 X-11.4889 Y31.0510 
G01 X-11.4982 Y31.1192 
G01 X-11.5115 Y31.1868 
G01 X-11.5114 Y31.2169 
G01 X-11.5155 Y31.2467 
G01 X-11.5113 Y31.3154 
G01 X-11.5111 Y31.3843 
G01 X-11.5052 Y31.4138 
G01 X-11.3419 Y34.0714 
G01 X-11.3419 Y35.0979 
G01 X-11.3029 Y35.2939 
G01 X-11.2264 Y35.4785 
G01 X-11.1154 Y35.6447 
G01 X-10.9741 Y35.7860 
G01 X-10.8079 Y35.8970 
G01 X-10.6233 Y35.9735 
G01 X-10.4272 Y36.0125 
G01 X-10.2274 Y36.0125 
G01 X-10.0314 Y35.9735 
G01 X-9.8468 Y35.8970 
G01 X-9.6806 Y35.7860 
G01 X-9.5393 Y35.6447 
G01 X-9.4282 Y35.4785 
G01 X-9.3518 Y35.2939 
G01 X-9.3128 Y35.0979 
G01 X-9.3128 Y33.3740 
G01 X-9.3518 Y33.1780 
G01 X-9.3942 Y33.0755 
G01 X-9.4428 Y32.2843 
G01 X-5.1050 Y32.2765 
G01 X-5.0067 Y32.2765 
G01 X-4.9083 Y32.2569 
G01 X-4.8131 Y32.2379 
G01 X-4.7202 Y32.1995 
G01 X-4.6306 Y32.1624 
G01 X-4.5483 Y32.1074 
G01 X-4.4664 Y32.0527 
G01 X-4.3966 Y31.9828 
G01 X-4.3268 Y31.9130 
G01 X-4.2715 Y31.8302 
G01 X-4.2170 Y31.7488 
G01 X-4.1789 Y31.6566 
G01 X-4.1415 Y31.5664 
G01 X-4.1219 Y31.4680 
G01 X-4.1029 Y31.3727 
G01 X-4.1029 Y31.2729 
G01 X-4.1029 Y30.9744 
G01 X-4.0985 Y30.9636 
G01 X-4.0788 Y30.8650 
G01 X-4.0599 Y30.7699 
G01 X-4.0599 Y30.6701 
G01 X-4.0599 Y20.9082 
G01 X-4.0985 Y20.7145 
G01 X-4.1740 Y20.5321 
G01 X-4.1770 Y20.5276 
G01 X-4.1770 Y20.0160 
G01 X-4.2160 Y19.8200 
G01 X-4.2924 Y19.6353 
G01 X-4.4035 Y19.4691 
G01 X-4.5448 Y19.3278 
G01 X-4.7110 Y19.2168 
G01 X-4.8956 Y19.1403 
G01 X-5.0916 Y19.1013 
G01 X-5.2914 Y19.1013 
G01 X-5.4874 Y19.1403 
G01 X-5.6721 Y19.2168 
G01 X-5.8383 Y19.3278 
G01 X-5.9796 Y19.4691 
G01 X-6.0906 Y19.6353 
G01 X-6.1671 Y19.8200 
G01 X-6.2061 Y20.0160 
G00 Z3.5400 
G00 X-15.6021 Y21.4791 
G01 Z-0.2800 F50.00 
G01 X-15.6021 Y23.1943 F508.00 
G01 X-15.5722 Y23.3831 
G01 X-15.5131 Y23.5649 
G01 X-15.4263 Y23.7352 
G01 X-15.3139 Y23.8899 
G01 X-15.1788 Y24.0251 
G01 X-15.0241 Y24.1374 
G01 X-14.8538 Y24.2242 
G01 X-14.6720 Y24.2833 
G01 X-14.4831 Y24.3132 
G01 X-14.2920 Y24.3132 
G01 X-14.1031 Y24.2833 
G01 X-13.9213 Y24.2242 
G01 X-13.7510 Y24.1374 
G01 X-13.5963 Y24.0251 
G01 X-13.4611 Y23.8899 
G01 X-13.3488 Y23.7352 
G01 X-13.2620 Y23.5649 
G01 X-13.2029 Y23.3831 
G01 X-13.1730 Y23.1943 
G01 X-13.1730 Y22.4728 
G01 X-13.1629 Y22.4093 
G01 X-13.1629 Y22.2200 
G01 X-13.1730 Y22.1564 
G01 X-13.1730 Y21.4791 
G01 X-13.2029 Y21.2903 
G01 X-13.2418 Y21.1707 
G01 X-13.1844 Y12.7992 
G01 X-12.9875 Y12.6023 
G01 X-1.3141 Y12.7877 
G01 X-1.3141 Y19.9445 
G01 X-1.3261 Y20.0203 
G01 X-1.3261 Y21.7355 
G01 X-1.2962 Y21.9243 
G01 X-1.2835 Y21.9632 
G01 X-1.2839 Y32.9901 
G01 X-1.2929 Y33.0077 
G01 X-1.3520 Y33.1895 
G01 X-1.3819 Y33.3783 
G01 X-1.3819 Y35.0935 
G01 X-1.3520 Y35.2823 
G01 X-1.2929 Y35.4642 
G01 X-1.2061 Y35.6345 
G01 X-1.0937 Y35.7892 
G01 X-0.9585 Y35.9243 
G01 X-0.8039 Y36.0367 
G01 X-0.6335 Y36.1235 
G01 X-0.4517 Y36.1826 
G01 X-0.2629 Y36.2125 
G01 X-0.0717 Y36.2125 
G01 X0.1171 Y36.1826 
G01 X0.2989 Y36.1235 
G01 X0.4692 Y36.0367 
G01 X0.6239 Y35.9243 
G01 X0.7591 Y35.7892 
G01 X0.8714 Y35.6345 
G01 X0.9582 Y35.4642 
G01 X1.0173 Y35.2823 
G01 X1.0472 Y35.0935 
G01 X1.0472 Y34.5680 
G01 X1.0915 Y34.4316 
G01 X1.1211 Y34.2447 
G01 X1.1216 Y20.8139 
G01 X1.1030 Y20.6965 
G01 X1.1030 Y20.0203 
G01 X1.0910 Y19.9445 
G01 X1.0910 Y12.2176 
G01 X1.0614 Y12.0306 
G01 X1.0304 Y11.9352 
G01 X1.0411 Y11.9040 
G01 X1.0737 Y11.7176 
G01 X1.0767 Y11.5283 
G01 X1.0500 Y11.3409 
G01 X0.9944 Y11.1600 
G01 X0.9112 Y10.9900 
G01 X0.8023 Y10.8351 
G01 X0.6706 Y10.6991 
G01 X0.5193 Y10.5855 
G01 X0.3520 Y10.4969 
G01 X0.1730 Y10.4355 
G01 X-0.0135 Y10.4030 
G01 X-13.5871 Y10.1874 
G01 X-13.6118 Y10.1626 
G01 X-14.8810 Y10.1626 
G01 X-15.7785 Y11.0600 
G01 X-15.7785 Y12.3292 
G01 X-15.3591 Y12.7486 
G01 X-15.4152 Y20.9228 
G01 X-15.4263 Y20.9381 
G01 X-15.5131 Y21.1085 
G01 X-15.5722 Y21.2903 
G01 X-15.6021 Y21.4791 
G00 Z3.5400 
G00 X-18.6836 Y15.0636 
G01 Z-0.2800 F50.00 
G01 X-18.6836 Y16.3328 F508.00 
G01 X-18.2492 Y16.7672 
G01 X-18.1635 Y22.4527 
G01 X-18.1421 Y22.5757 
G01 X-18.1421 Y23.1943 
G01 X-18.1122 Y23.3831 
G01 X-18.0531 Y23.5649 
G01 X-17.9663 Y23.7352 
G01 X-17.8539 Y23.8899 
G01 X-17.7188 Y24.0251 
G01 X-17.5641 Y24.1374 
G01 X-17.3938 Y24.2242 
G01 X-17.2120 Y24.2833 
G01 X-17.0231 Y24.3132 
G01 X-16.8320 Y24.3132 
G01 X-16.6431 Y24.2833 
G01 X-16.4613 Y24.2242 
G01 X-16.2910 Y24.1374 
G01 X-16.1363 Y24.0251 
G01 X-16.0011 Y23.8899 
G01 X-15.8888 Y23.7352 
G01 X-15.8020 Y23.5649 
G01 X-15.7429 Y23.3831 
G01 X-15.7130 Y23.1943 
G01 X-15.7130 Y22.5856 
G01 X-15.6887 Y22.4154 
G01 X-15.7780 Y16.4913 
G01 X-15.6195 Y16.3328 
G01 X-15.6195 Y15.0636 
G01 X-16.5169 Y14.1662 
G01 X-17.7861 Y14.1662 
G01 X-18.6836 Y15.0636 
G00 Z3.5400 
G00 X-1.4928 Y35.0935 
G01 Z-0.2800 F50.00 
G01 X-1.4928 Y33.3783 F508.00 
G01 X-1.5227 Y33.1895 
G01 X-1.5818 Y33.0077 
G01 X-1.6686 Y32.8374 
G01 X-1.7809 Y32.6827 
G01 X-1.9161 Y32.5475 
G01 X-2.0708 Y32.4352 
G01 X-2.2411 Y32.3484 
G01 X-2.4229 Y32.2893 
G01 X-2.6117 Y32.2594 
G01 X-2.8029 Y32.2594 
G01 X-2.9917 Y32.2893 
G01 X-3.1735 Y32.3484 
G01 X-3.3439 Y32.4352 
G01 X-3.4985 Y32.5475 
G01 X-3.6337 Y32.6827 
G01 X-3.7461 Y32.8374 
G01 X-3.8329 Y33.0077 
G01 X-3.8920 Y33.1895 
G01 X-3.9219 Y33.3783 
G01 X-3.9219 Y35.0935 
G01 X-3.8920 Y35.2823 
G01 X-3.8329 Y35.4642 
G01 X-3.7461 Y35.6345 
G01 X-3.6337 Y35.7892 
G01 X-3.4985 Y35.9243 
G01 X-3.3439 Y36.0367 
G01 X-3.1735 Y36.1235 
G01 X-2.9917 Y36.1826 
G01 X-2.8029 Y36.2125 
G01 X-2.6117 Y36.2125 
G01 X-2.4229 Y36.1826 
G01 X-2.2411 Y36.1235 
G01 X-2.0708 Y36.0367 
G01 X-1.9161 Y35.9243 
G01 X-1.7809 Y35.7892 
G01 X-1.6686 Y35.6345 
G01 X-1.5818 Y35.4642 
G01 X-1.5227 Y35.2823 
G01 X-1.4928 Y35.0935 
G00 Z3.5400 
G00 X-9.1128 Y35.0935 
G01 Z-0.2800 F50.00 
G01 X-9.1128 Y33.3783 F508.00 
G01 X-9.1427 Y33.1895 
G01 X-9.1971 Y33.0220 
G01 X-9.2302 Y32.4839 
G01 X-8.4892 Y32.4826 
G01 X-8.5785 Y32.5475 
G01 X-8.7137 Y32.6827 
G01 X-8.8261 Y32.8374 
G01 X-8.9129 Y33.0077 
G01 X-8.9720 Y33.1895 
G01 X-9.0019 Y33.3783 
G01 X-9.0019 Y35.0935 
G01 X-8.9720 Y35.2823 
G01 X-8.9129 Y35.4642 
G01 X-8.8261 Y35.6345 
G01 X-8.7137 Y35.7892 
G01 X-8.5785 Y35.9243 
G01 X-8.4239 Y36.0367 
G01 X-8.2535 Y36.1235 
G01 X-8.0717 Y36.1826 
G01 X-7.8829 Y36.2125 
G01 X-7.6917 Y36.2125 
G01 X-7.5029 Y36.1826 
G01 X-7.3211 Y36.1235 
G01 X-7.1508 Y36.0367 
G01 X-6.9961 Y35.9243 
G01 X-6.8609 Y35.7892 
G01 X-6.7486 Y35.6345 
G01 X-6.6618 Y35.4642 
G01 X-6.6027 Y35.2823 
G01 X-6.5728 Y35.0935 
G01 X-6.5728 Y33.3783 
G01 X-6.6027 Y33.1895 
G01 X-6.6618 Y33.0077 
G01 X-6.7486 Y32.8374 
G01 X-6.8609 Y32.6827 
G01 X-6.9961 Y32.5475 
G01 X-7.0890 Y32.4801 
G01 X-5.9428 Y32.4780 
G01 X-6.0385 Y32.5475 
G01 X-6.1737 Y32.6827 
G01 X-6.2861 Y32.8374 
G01 X-6.3729 Y33.0077 
G01 X-6.4320 Y33.1895 
G01 X-6.4619 Y33.3783 
G01 X-6.4619 Y35.0935 
G01 X-6.4320 Y35.2823 
G01 X-6.3729 Y35.4642 
G01 X-6.2861 Y35.6345 
G01 X-6.1737 Y35.7892 
G01 X-6.0385 Y35.9243 
G01 X-5.8839 Y36.0367 
G01 X-5.7135 Y36.1235 
G01 X-5.5317 Y36.1826 
G01 X-5.3429 Y36.2125 
G01 X-5.1517 Y36.2125 
G01 X-4.9629 Y36.1826 
G01 X-4.7811 Y36.1235 
G01 X-4.6108 Y36.0367 
G01 X-4.4561 Y35.9243 
G01 X-4.3209 Y35.7892 
G01 X-4.2086 Y35.6345 
G01 X-4.1218 Y35.4642 
G01 X-4.0627 Y35.2823 
G01 X-4.0328 Y35.0935 
G01 X-4.0328 Y33.3783 
G01 X-4.0627 Y33.1895 
G01 X-4.1218 Y33.0077 
G01 X-4.2086 Y32.8374 
G01 X-4.3209 Y32.6827 
G01 X-4.4561 Y32.5475 
G01 X-4.6108 Y32.4352 
G01 X-4.6797 Y32.4000 
G01 X-4.6439 Y32.3884 
G01 X-4.5587 Y32.3450 
G01 X-4.4752 Y32.3024 
G01 X-4.3975 Y32.2460 
G01 X-4.3221 Y32.1912 
G01 X-4.2540 Y32.1231 
G01 X-4.1882 Y32.0573 
G01 X-4.1318 Y31.9796 
G01 X-4.0770 Y31.9042 
G01 X-4.0335 Y31.8188 
G01 X-3.9910 Y31.7355 
G01 X-3.9615 Y31.6446 
G01 X-3.9325 Y31.5555 
G01 X-3.9176 Y31.4614 
G01 X-3.9029 Y31.3686 
G01 X-3.9029 Y31.2726 
G01 X-3.9029 Y30.9940 
G01 X-3.8895 Y30.9527 
G01 X-3.8746 Y30.8583 
G01 X-3.8599 Y30.7658 
G01 X-3.8599 Y30.6706 
G01 X-3.8599 Y21.7742 
G01 X-3.8362 Y21.9243 
G01 X-3.7771 Y22.1061 
G01 X-3.6903 Y22.2764 
G01 X-3.5779 Y22.4311 
G01 X-3.4427 Y22.5663 
G01 X-3.2881 Y22.6786 
G01 X-3.1177 Y22.7654 
G01 X-2.9359 Y22.8245 
G01 X-2.7471 Y22.8544 
G01 X-2.5559 Y22.8544 
G01 X-2.3671 Y22.8245 
G01 X-2.1853 Y22.7654 
G01 X-2.0150 Y22.6786 
G01 X-1.8603 Y22.5663 
G01 X-1.7251 Y22.4311 
G01 X-1.6128 Y22.2764 
G01 X-1.5260 Y22.1061 
G01 X-1.4669 Y21.9243 
G01 X-1.4370 Y21.7355 
G01 X-1.4370 Y20.0203 
G01 X-1.4669 Y19.8315 
G01 X-1.5260 Y19.6497 
G01 X-1.5438 Y19.6147 
G01 X-1.4996 Y16.8283 
G01 X-1.4966 Y16.8057 
G01 X-1.4982 Y16.7429 
G01 X-1.4972 Y16.6800 
G01 X-1.5004 Y16.6574 
G01 X-1.5010 Y16.6346 
G01 X-1.5125 Y16.5728 
G01 X-1.5213 Y16.5106 
G01 X-1.5280 Y16.4887 
G01 X-1.5322 Y16.4662 
G01 X-1.5532 Y16.4070 
G01 X-1.5716 Y16.3469 
G01 X-1.5817 Y16.3264 
G01 X-1.5893 Y16.3049 
G01 X-1.6193 Y16.2497 
G01 X-1.6469 Y16.1932 
G01 X-1.6601 Y16.1745 
G01 X-1.6710 Y16.1544 
G01 X-1.7092 Y16.1046 
G01 X-1.7453 Y16.0531 
G01 X-1.7612 Y16.0367 
G01 X-1.7751 Y16.0186 
G01 X-1.8207 Y15.9754 
G01 X-1.8644 Y15.9302 
G01 X-1.8827 Y15.9165 
G01 X-1.8993 Y15.9007 
G01 X-1.9510 Y15.8651 
G01 X-2.0013 Y15.8274 
G01 X-2.0215 Y15.8167 
G01 X-2.0404 Y15.8037 
G01 X-2.0970 Y15.7767 
G01 X-2.1526 Y15.7473 
G01 X-2.1742 Y15.7399 
G01 X-2.1948 Y15.7300 
G01 X-2.2551 Y15.7122 
G01 X-2.3145 Y15.6918 
G01 X-2.3370 Y15.6879 
G01 X-2.3590 Y15.6814 
G01 X-2.4212 Y15.6731 
G01 X-2.4831 Y15.6623 
G01 X-2.5060 Y15.6620 
G01 X-2.5287 Y15.6590 
G01 X-2.5914 Y15.6606 
G01 X-2.6543 Y15.6596 
G01 X-2.6770 Y15.6628 
G01 X-8.1343 Y15.8047 
G01 X-8.2087 Y15.8051 
G01 X-8.2198 Y15.8069 
G01 X-8.2309 Y15.8072 
G01 X-8.3042 Y15.8208 
G01 X-8.3776 Y15.8328 
G01 X-8.3883 Y15.8363 
G01 X-8.3993 Y15.8384 
G01 X-8.4694 Y15.8632 
G01 X-8.5402 Y15.8866 
G01 X-8.5501 Y15.8917 
G01 X-8.5606 Y15.8955 
G01 X-8.6260 Y15.9310 
G01 X-8.6922 Y15.9652 
G01 X-8.7013 Y15.9718 
G01 X-8.7111 Y15.9771 
G01 X-8.7701 Y16.0224 
G01 X-8.8302 Y16.0665 
G01 X-8.8381 Y16.0745 
G01 X-8.8469 Y16.0813 
G01 X-8.8982 Y16.1353 
G01 X-8.9506 Y16.1882 
G01 X-8.9571 Y16.1973 
G01 X-8.9648 Y16.2054 
G01 X-9.0070 Y16.2668 
G01 X-9.0504 Y16.3273 
G01 X-9.0554 Y16.3373 
G01 X-9.0618 Y16.3465 
G01 X-9.0938 Y16.4137 
G01 X-9.1273 Y16.4802 
G01 X-9.1307 Y16.4909 
G01 X-9.1355 Y16.5010 
G01 X-9.1567 Y16.5724 
G01 X-9.1793 Y16.6433 
G01 X-9.1810 Y16.6544 
G01 X-9.1841 Y16.6651 
G01 X-9.1939 Y16.7389 
G01 X-9.2051 Y16.8126 
G01 X-9.2051 Y16.8237 
G01 X-9.2065 Y16.8348 
G01 X-9.2046 Y16.9092 
G01 X-9.1464 Y27.4494 
G01 X-17.9306 Y27.4494 
G01 X-17.9499 Y27.4470 
G01 X-18.0161 Y27.4494 
G01 X-18.0823 Y27.4494 
G01 X-18.1016 Y27.4524 
G01 X-18.1210 Y27.4531 
G01 X-18.1859 Y27.4658 
G01 X-18.2514 Y27.4762 
G01 X-18.2699 Y27.4822 
G01 X-18.2890 Y27.4859 
G01 X-18.3512 Y27.5086 
G01 X-18.4142 Y27.5291 
G01 X-18.4315 Y27.5379 
G01 X-18.4499 Y27.5446 
G01 X-18.5077 Y27.5767 
G01 X-18.5667 Y27.6068 
G01 X-18.5825 Y27.6182 
G01 X-18.5995 Y27.6277 
G01 X-18.6516 Y27.6685 
G01 X-18.7052 Y27.7074 
G01 X-18.7190 Y27.7212 
G01 X-18.7343 Y27.7332 
G01 X-18.7794 Y27.7816 
G01 X-18.8262 Y27.8284 
G01 X-18.8377 Y27.8442 
G01 X-18.8510 Y27.8585 
G01 X-18.8879 Y27.9133 
G01 X-18.9269 Y27.9669 
G01 X-18.9357 Y27.9843 
G01 X-18.9466 Y28.0005 
G01 X-18.9745 Y28.0605 
G01 X-19.0046 Y28.1195 
G01 X-19.0106 Y28.1380 
G01 X-19.0188 Y28.1557 
G01 X-19.0370 Y28.2193 
G01 X-19.0575 Y28.2823 
G01 X-19.0605 Y28.3015 
G01 X-19.0659 Y28.3202 
G01 X-19.0739 Y28.3859 
G01 X-19.0843 Y28.4513 
G01 X-19.0843 Y28.4708 
G01 X-19.0866 Y28.4902 
G01 X-19.0843 Y28.5563 
G01 X-19.0843 Y28.6225 
G01 X-19.0812 Y28.6418 
G01 X-19.0349 Y29.9407 
G01 X-19.0349 Y32.9331 
G01 X-19.0729 Y33.0077 
G01 X-19.1320 Y33.1895 
G01 X-19.1619 Y33.3783 
G01 X-19.1619 Y35.0935 
G01 X-19.1320 Y35.2823 
G01 X-19.0729 Y35.4642 
G01 X-18.9861 Y35.6345 
G01 X-18.8737 Y35.7892 
G01 X-18.7385 Y35.9243 
G01 X-18.5839 Y36.0367 
G01 X-18.4135 Y36.1235 
G01 X-18.3180 Y36.1545 
G01 X-20.3884 Y36.1590 
G01 X-20.3977 Y34.4302 
G01 X-20.3982 Y34.3388 
G01 X-20.3982 Y34.2474 
G01 X-20.3987 Y34.2442 
G01 X-20.3987 Y34.2410 
G01 X-20.4373 Y27.1517 
G01 X-11.7578 Y27.1517 
G01 X-11.5709 Y27.1221 
G01 X-11.3908 Y27.0636 
G01 X-11.2222 Y26.9777 
G01 X-11.0690 Y26.8664 
G01 X-10.9352 Y26.7326 
G01 X-10.8239 Y26.5795 
G01 X-10.7380 Y26.4108 
G01 X-10.6795 Y26.2308 
G01 X-10.6499 Y26.0438 
G01 X-10.6499 Y25.9580 
G01 X-10.6450 Y25.9271 
G01 X-10.6450 Y23.2700 
G01 X-10.6330 Y23.1943 
G01 X-10.6330 Y21.4791 
G01 X-10.6629 Y21.2903 
G01 X-10.7220 Y21.1085 
G01 X-10.8088 Y20.9381 
G01 X-10.9211 Y20.7835 
G01 X-11.0563 Y20.6483 
G01 X-11.2110 Y20.5359 
G01 X-11.3813 Y20.4491 
G01 X-11.5631 Y20.3900 
G01 X-11.7520 Y20.3601 
G01 X-11.9431 Y20.3601 
G01 X-12.1320 Y20.3900 
G01 X-12.3138 Y20.4491 
G01 X-12.4841 Y20.5359 
G01 X-12.6388 Y20.6483 
G01 X-12.7739 Y20.7835 
G01 X-12.8863 Y20.9381 
G01 X-12.9731 Y21.1085 
G01 X-13.0322 Y21.2903 
G01 X-13.0621 Y21.4791 
G01 X-13.0621 Y23.1943 
G01 X-13.0501 Y23.2700 
G01 X-13.0501 Y24.7467 
G01 X-21.5551 Y24.7467 
G01 X-21.5583 Y24.7462 
G01 X-21.6495 Y24.7467 
G01 X-21.7411 Y24.7467 
G01 X-21.7443 Y24.7472 
G01 X-21.7476 Y24.7472 
G01 X-21.8375 Y24.7619 
G01 X-21.9280 Y24.7763 
G01 X-21.9312 Y24.7773 
G01 X-21.9344 Y24.7778 
G01 X-22.0211 Y24.8065 
G01 X-22.1081 Y24.8348 
G01 X-22.1110 Y24.8363 
G01 X-22.1141 Y24.8373 
G01 X-22.1954 Y24.8793 
G01 X-22.2767 Y24.9207 
G01 X-22.2794 Y24.9226 
G01 X-22.2823 Y24.9241 
G01 X-22.3562 Y24.9784 
G01 X-22.4298 Y25.0320 
G01 X-22.4348 Y25.0362 
G01 X-22.4992 Y25.1013 
G01 X-22.5637 Y25.1658 
G01 X-22.5656 Y25.1685 
G01 X-22.6212 Y25.2450 
G01 X-22.6749 Y25.3189 
G01 X-22.6764 Y25.3219 
G01 X-22.6784 Y25.3245 
G01 X-22.7193 Y25.4060 
G01 X-22.7609 Y25.4876 
G01 X-22.7619 Y25.4907 
G01 X-22.7634 Y25.4937 
G01 X-22.7911 Y25.5805 
G01 X-22.8194 Y25.6676 
G01 X-22.8199 Y25.6709 
G01 X-22.8209 Y25.6740 
G01 X-22.8347 Y25.7642 
G01 X-22.8490 Y25.8546 
G01 X-22.8490 Y25.8579 
G01 X-22.8495 Y25.8611 
G01 X-22.8490 Y25.9523 
G01 X-22.8490 Y26.0438 
G01 X-22.8485 Y26.0471 
G01 X-22.8033 Y34.3451 
G01 X-22.8033 Y34.4367 
G01 X-22.8028 Y34.4400 
G01 X-22.7869 Y37.3690 
G01 X-22.7867 Y37.4615 
G01 X-22.7864 Y37.4653 
G01 X-22.7714 Y37.5572 
G01 X-22.7567 Y37.6484 
G01 X-22.7558 Y37.6521 
G01 X-22.7266 Y37.7403 
G01 X-22.6978 Y37.8282 
G01 X-22.6963 Y37.8318 
G01 X-22.6538 Y37.9142 
G01 X-22.6115 Y37.9967 
G01 X-22.6095 Y38.0000 
G01 X-22.5548 Y38.0745 
G01 X-22.5000 Y38.1496 
G01 X-22.4974 Y38.1525 
G01 X-22.4315 Y38.2178 
G01 X-22.3658 Y38.2831 
G01 X-22.3629 Y38.2857 
G01 X-22.2873 Y38.3400 
G01 X-22.2124 Y38.3941 
G01 X-22.2091 Y38.3961 
G01 X-22.1263 Y38.4377 
G01 X-22.0436 Y38.4796 
G01 X-22.0400 Y38.4811 
G01 X-21.9514 Y38.5094 
G01 X-21.8635 Y38.5377 
G01 X-21.8597 Y38.5386 
G01 X-21.7677 Y38.5527 
G01 X-21.6764 Y38.5669 
G01 X-21.6726 Y38.5672 
G01 X-21.5796 Y38.5667 
G01 X-15.3871 Y38.5532 
G01 X-15.3702 Y38.5554 
G01 X-15.2926 Y38.5530 
G01 X-15.2150 Y38.5528 
G01 X-15.1981 Y38.5501 
G01 X-15.1810 Y38.5496 
G01 X-15.1047 Y38.5351 
G01 X-15.0281 Y38.5228 
G01 X-15.0118 Y38.5175 
G01 X-14.9950 Y38.5143 
G01 X-14.9219 Y38.4881 
G01 X-14.8482 Y38.4639 
G01 X-14.8330 Y38.4561 
G01 X-14.8168 Y38.4503 
G01 X-14.7488 Y38.4130 
G01 X-14.6797 Y38.3776 
G01 X-14.6659 Y38.3675 
G01 X-14.6509 Y38.3593 
G01 X-14.5896 Y38.3118 
G01 X-14.5268 Y38.2660 
G01 X-14.5148 Y38.2539 
G01 X-14.5012 Y38.2434 
G01 X-14.4480 Y38.1869 
G01 X-14.3933 Y38.1319 
G01 X-14.3833 Y38.1180 
G01 X-14.3715 Y38.1056 
G01 X-14.3278 Y38.0414 
G01 X-14.2824 Y37.9785 
G01 X-14.2746 Y37.9633 
G01 X-14.2650 Y37.9491 
G01 X-14.2319 Y37.8789 
G01 X-14.1968 Y37.8097 
G01 X-14.1916 Y37.7934 
G01 X-14.1842 Y37.7779 
G01 X-14.1625 Y37.7034 
G01 X-14.1387 Y37.6296 
G01 X-14.1361 Y37.6126 
G01 X-14.1313 Y37.5962 
G01 X-14.1215 Y37.5192 
G01 X-14.1095 Y37.4425 
G01 X-14.1095 Y37.4254 
G01 X-14.1074 Y37.4084 
G01 X-14.1098 Y37.3308 
G01 X-14.1099 Y37.2532 
G01 X-14.1126 Y37.2363 
G01 X-14.1928 Y34.6107 
G01 X-14.1928 Y33.3783 
G01 X-14.2227 Y33.1895 
G01 X-14.2818 Y33.0077 
G01 X-14.3686 Y32.8374 
G01 X-14.4809 Y32.6827 
G01 X-14.6161 Y32.5475 
G01 X-14.7708 Y32.4352 
G01 X-14.9411 Y32.3484 
G01 X-15.1229 Y32.2893 
G01 X-15.3117 Y32.2594 
G01 X-15.5029 Y32.2594 
G01 X-15.6917 Y32.2893 
G01 X-15.8735 Y32.3484 
G01 X-16.0439 Y32.4352 
G01 X-16.1985 Y32.5475 
G01 X-16.3337 Y32.6827 
G01 X-16.4461 Y32.8374 
G01 X-16.5329 Y33.0077 
G01 X-16.5920 Y33.1895 
G01 X-16.6219 Y33.3783 
G01 X-16.6219 Y35.0935 
G01 X-16.5920 Y35.2823 
G01 X-16.5771 Y35.3281 
G01 X-16.5520 Y36.1507 
G01 X-17.5716 Y36.1529 
G01 X-17.4811 Y36.1235 
G01 X-17.3108 Y36.0367 
G01 X-17.1561 Y35.9243 
G01 X-17.0209 Y35.7892 
G01 X-16.9086 Y35.6345 
G01 X-16.8218 Y35.4642 
G01 X-16.7627 Y35.2823 
G01 X-16.7328 Y35.0935 
G01 X-16.7328 Y33.3783 
G01 X-16.7627 Y33.1895 
G01 X-16.8218 Y33.0077 
G01 X-16.8598 Y32.9331 
G01 X-16.8598 Y29.9875 
G01 X-16.8574 Y29.9681 
G01 X-16.8598 Y29.9020 
G01 X-16.8598 Y29.8358 
G01 X-16.8628 Y29.8165 
G01 X-16.8697 Y29.6245 
G01 X-8.1354 Y29.6245 
G01 X-8.1324 Y29.6249 
G01 X-8.0500 Y29.6245 
G01 X-7.9672 Y29.6245 
G01 X-7.9643 Y29.6240 
G01 X-7.9612 Y29.6240 
G01 X-7.8799 Y29.6106 
G01 X-7.7982 Y29.5977 
G01 X-7.7953 Y29.5968 
G01 X-7.7923 Y29.5963 
G01 X-7.7137 Y29.5702 
G01 X-7.6354 Y29.5448 
G01 X-7.6327 Y29.5434 
G01 X-7.6298 Y29.5425 
G01 X-7.5563 Y29.5045 
G01 X-7.4828 Y29.4671 
G01 X-7.4777 Y29.4639 
G01 X-7.4113 Y29.4151 
G01 X-7.3444 Y29.3665 
G01 X-7.3398 Y29.3625 
G01 X-7.2819 Y29.3040 
G01 X-7.2233 Y29.2454 
G01 X-7.2194 Y29.2408 
G01 X-7.1714 Y29.1740 
G01 X-7.1227 Y29.1069 
G01 X-7.1213 Y29.1042 
G01 X-7.0824 Y29.0279 
G01 X-7.0450 Y28.9544 
G01 X-7.0440 Y28.9515 
G01 X-7.0427 Y28.9488 
G01 X-7.0175 Y28.8699 
G01 X-6.9921 Y28.7916 
G01 X-6.9916 Y28.7886 
G01 X-6.9907 Y28.7857 
G01 X-6.9782 Y28.7040 
G01 X-6.9653 Y28.6225 
G01 X-6.9653 Y28.6195 
G01 X-6.9648 Y28.6165 
G01 X-6.9653 Y28.5339 
G01 X-6.9653 Y28.4513 
G01 X-6.9658 Y28.4484 
G01 X-7.0237 Y17.9516 
G01 X-3.6914 Y17.8650 
G01 X-3.7179 Y19.5334 
G01 X-3.7771 Y19.6497 
G01 X-3.8362 Y19.8315 
G01 X-3.8661 Y20.0203 
G01 X-3.8661 Y20.8736 
G01 X-3.8895 Y20.7253 
G01 X-3.9480 Y20.5453 
G01 X-3.9770 Y20.4885 
G01 X-3.9770 Y20.0203 
G01 X-4.0069 Y19.8315 
G01 X-4.0660 Y19.6497 
G01 X-4.1528 Y19.4793 
G01 X-4.2651 Y19.3247 
G01 X-4.4003 Y19.1895 
G01 X-4.5550 Y19.0771 
G01 X-4.7253 Y18.9903 
G01 X-4.9071 Y18.9312 
G01 X-5.0959 Y18.9013 
G01 X-5.2871 Y18.9013 
G01 X-5.4759 Y18.9312 
G01 X-5.6577 Y18.9903 
G01 X-5.8281 Y19.0771 
G01 X-5.9827 Y19.1895 
G01 X-6.1179 Y19.3247 
G01 X-6.2303 Y19.4793 
G01 X-6.3171 Y19.6497 
G01 X-6.3761 Y19.8315 
G01 X-6.4061 Y20.0203 
G01 X-6.4061 Y21.7355 
G01 X-6.3761 Y21.9243 
G01 X-6.3171 Y22.1061 
G01 X-6.2650 Y22.2083 
G01 X-6.2650 Y30.0735 
G01 X-10.4523 Y30.0811 
G01 X-10.4881 Y30.0776 
G01 X-10.5467 Y30.0812 
G01 X-10.6056 Y30.0813 
G01 X-10.6411 Y30.0870 
G01 X-10.6770 Y30.0892 
G01 X-10.7344 Y30.1020 
G01 X-10.7925 Y30.1113 
G01 X-10.8267 Y30.1225 
G01 X-10.8618 Y30.1303 
G01 X-10.9165 Y30.1518 
G01 X-10.9724 Y30.1701 
G01 X-11.0044 Y30.1865 
G01 X-11.0379 Y30.1997 
G01 X-11.0885 Y30.2296 
G01 X-11.1409 Y30.2564 
G01 X-11.1700 Y30.2775 
G01 X-11.2009 Y30.2958 
G01 X-11.2463 Y30.3332 
G01 X-11.2938 Y30.3679 
G01 X-11.3192 Y30.3934 
G01 X-11.3470 Y30.4163 
G01 X-11.3859 Y30.4603 
G01 X-11.4274 Y30.5020 
G01 X-11.4485 Y30.5311 
G01 X-11.4723 Y30.5581 
G01 X-11.5039 Y30.6077 
G01 X-11.5384 Y30.6553 
G01 X-11.5547 Y30.6874 
G01 X-11.5740 Y30.7177 
G01 X-11.5974 Y30.7717 
G01 X-11.6240 Y30.8241 
G01 X-11.6351 Y30.8584 
G01 X-11.6494 Y30.8913 
G01 X-11.6641 Y30.9483 
G01 X-11.6822 Y31.0042 
G01 X-11.6878 Y31.0398 
G01 X-11.6968 Y31.0746 
G01 X-11.7024 Y31.1332 
G01 X-11.7115 Y31.1912 
G01 X-11.7114 Y31.2272 
G01 X-11.7148 Y31.2630 
G01 X-11.7112 Y31.3217 
G01 X-11.7111 Y31.3805 
G01 X-11.7054 Y31.4161 
G01 X-11.5419 Y34.0776 
G01 X-11.5419 Y35.0935 
G01 X-11.5120 Y35.2823 
G01 X-11.4529 Y35.4642 
G01 X-11.3661 Y35.6345 
G01 X-11.2537 Y35.7892 
G01 X-11.1185 Y35.9243 
G01 X-10.9639 Y36.0367 
G01 X-10.7935 Y36.1235 
G01 X-10.6117 Y36.1826 
G01 X-10.4229 Y36.2125 
G01 X-10.2317 Y36.2125 
G01 X-10.0429 Y36.1826 
G01 X-9.8611 Y36.1235 
G01 X-9.6908 Y36.0367 
G01 X-9.5361 Y35.9243 
G01 X-9.4009 Y35.7892 
G01 X-9.2886 Y35.6345 
G01 X-9.2018 Y35.4642 
G01 X-9.1427 Y35.2823 
G01 X-9.1128 Y35.0935 
G00 Z3.5400 
G00 X-11.6528 Y35.0935 
G01 Z-0.2800 F50.00 
G01 X-11.6528 Y33.3783 F508.00 
G01 X-11.6827 Y33.1895 
G01 X-11.7418 Y33.0077 
G01 X-11.8286 Y32.8374 
G01 X-11.9409 Y32.6827 
G01 X-12.0761 Y32.5475 
G01 X-12.2308 Y32.4352 
G01 X-12.4011 Y32.3484 
G01 X-12.5829 Y32.2893 
G01 X-12.7717 Y32.2594 
G01 X-12.9629 Y32.2594 
G01 X-13.1517 Y32.2893 
G01 X-13.3335 Y32.3484 
G01 X-13.5039 Y32.4352 
G01 X-13.6585 Y32.5475 
G01 X-13.7937 Y32.6827 
G01 X-13.9061 Y32.8374 
G01 X-13.9929 Y33.0077 
G01 X-14.0520 Y33.1895 
G01 X-14.0819 Y33.3783 
G01 X-14.0819 Y35.0935 
G01 X-14.0520 Y35.2823 
G01 X-13.9929 Y35.4642 
G01 X-13.9061 Y35.6345 
G01 X-13.7937 Y35.7892 
G01 X-13.6585 Y35.9243 
G01 X-13.5039 Y36.0367 
G01 X-13.3335 Y36.1235 
G01 X-13.1517 Y36.1826 
G01 X-12.9629 Y36.2125 
G01 X-12.7717 Y36.2125 
G01 X-12.5829 Y36.1826 
G01 X-12.4011 Y36.1235 
G01 X-12.2308 Y36.0367 
G01 X-12.0761 Y35.9243 
G01 X-11.9409 Y35.7892 
G01 X-11.8286 Y35.6345 
G01 X-11.7418 Y35.4642 
G01 X-11.6827 Y35.2823 
G01 X-11.6528 Y35.0935 
G00 Z3.5400 
G00 Z10.4000 
M05
M02
