(.../Documents/EAGLE/ulps/pcb-gcode.ulp)
(Copyright 2005 - 2012 by John Johnson)
(See readme.txt for licensing terms.)
(This file generated from the board:)
(.../projects/HM-MOIST/HM-MOIST.brd)
(Current profile is .../EAGLE/ulps/profiles/generic.pp  )
(This file generated 08.03.21 20:27)
(Settings from pcb-machine.h)
(  Tool Size)
(0.1500 )
(Z Axis Settings)
(  High     Up        Down     Drill)
(20.4000 	2.0000 	-0.1500 	-1.9000 )
(spindle on time = 3.0000)
(milling depth = -1.3000)
(text depth = -0.1000)
(tool change at 0.0000 0.0000 20.4000 )
(feed rate xy = F208.00 )
(feed rate z  = F100.00 )
(Settings from pcb-defaults.h)
(isolate min = 0.1000)
(isolate max = 0.5000)
(isolate step = 0.1000)
(Generated bottom outlines, bottom drill, )
(Unit of measure: mm)
( Tool|       Size       |  Min Sub |  Max Sub |   Count )
( T01  0.350mm 0.0138in 0.0000in 0.0000in )
( T02  0.500mm 0.0197in 0.0000in 0.0000in )
( T03  0.528mm 0.0208in 0.0000in 0.0000in )
( T04  0.813mm 0.0320in 0.0000in 0.0000in )
( T05  0.900mm 0.0354in 0.0000in 0.0000in )
( T06  1.000mm 0.0394in 0.0000in 0.0000in )
( T07  1.016mm 0.0400in 0.0000in 0.0000in )
( T08  1.100mm 0.0433in 0.0000in 0.0000in )
( T09  1.118mm 0.0440in 0.0000in 0.0000in )
(Metric Mode)
G21
(Absolute Coordinates)
G90
M05
G00 Z20.4000 
G00 X0.0000 Y0.0000 
M06 T01  ; 0.3500 
G00 Z2.0000 
M03
G04 P3.000000
G00 Z2.000000
G00 X-24.1300 Y25.4000 
G01 Z-1.9000 F100.00 
G01 Z2.000000
(R2.0000  P2.000000)
M05
G00 Z20.4000 
M06 T02  ; 0.5000 
G00 Z2.0000 
M03
G04 P3.000000
G00 Z2.000000
G00 X-34.2900 Y25.4000 
G01 Z-1.9000 F100.00 
G01 Z2.000000
(R2.0000  P2.000000)
(G00 Z2.000000)
G00 X-35.5600 Y26.6700 
G01 Z-1.900000
G01 Z2.000000
(G00 Z2.000000)
G00 X-41.9100 Y35.5600 
G01 Z-1.900000
G01 Z2.000000
(G00 Z2.000000)
G00 X-19.0500 Y10.1600 
G01 Z-1.900000
G01 Z2.000000
(G00 Z2.000000)
G00 X-24.1300 Y20.3200 
G01 Z-1.900000
G01 Z2.000000
(G00 Z2.000000)
G00 X-26.6700 Y26.6700 
G01 Z-1.900000
G01 Z2.000000
M05
G00 Z20.4000 
M06 T03  ; 0.5278 
G00 Z2.0000 
M03
G04 P3.000000
G00 Z2.000000
G00 X-41.9100 Y25.4000 
G01 Z-1.9000 F100.00 
G01 Z2.000000
(R2.0000  P2.000000)
M05
G00 Z20.4000 
M06 T04  ; 0.8128 
G00 Z2.0000 
M03
G04 P3.000000
G00 Z2.000000
G00 X-6.3500 Y39.3700 
G01 Z-1.9000 F100.00 
G01 Z2.000000
(R2.0000  P2.000000)
(G00 Z2.000000)
G00 X-6.3500 Y41.9100 
G01 Z-1.900000
G01 Z2.000000
(G00 Z2.000000)
G00 X-15.2400 Y12.7000 
G01 Z-1.900000
G01 Z2.000000
(G00 Z2.000000)
G00 X-15.2400 Y20.3200 
G01 Z-1.900000
G01 Z2.000000
(G00 Z2.000000)
G00 X-26.6700 Y10.1600 
G01 Z-1.900000
G01 Z2.000000
(G00 Z2.000000)
G00 X-26.6700 Y17.7800 
G01 Z-1.900000
G01 Z2.000000
M05
G00 Z20.4000 
M06 T05  ; 0.9000 
G00 Z2.0000 
M03
G04 P3.000000
G00 Z2.000000
G00 X-31.4800 Y29.1000 
G01 Z-1.9000 F100.00 
G01 Z2.000000
(R2.0000  P2.000000)
(G00 Z2.000000)
G00 X-33.4800 Y29.1000 
G01 Z-1.900000
G01 Z2.000000
(G00 Z2.000000)
G00 X-35.4800 Y29.1000 
G01 Z-1.900000
G01 Z2.000000
(G00 Z2.000000)
G00 X-37.4800 Y29.1000 
G01 Z-1.900000
G01 Z2.000000
(G00 Z2.000000)
G00 X-23.4800 Y29.1000 
G01 Z-1.900000
G01 Z2.000000
(G00 Z2.000000)
G00 X-25.4800 Y29.1000 
G01 Z-1.900000
G01 Z2.000000
(G00 Z2.000000)
G00 X-27.4800 Y29.1000 
G01 Z-1.900000
G01 Z2.000000
(G00 Z2.000000)
G00 X-29.4800 Y29.1000 
G01 Z-1.900000
G01 Z2.000000
M05
G00 Z20.4000 
M06 T06  ; 1.0000 
G00 Z2.0000 
M03
G04 P3.000000
G00 Z2.000000
G00 X-31.7500 Y7.6200 
G01 Z-1.9000 F100.00 
G01 Z2.000000
(R2.0000  P2.000000)
(G00 Z2.000000)
G00 X-31.7500 Y22.8600 
G01 Z-1.900000
G01 Z2.000000
(G00 Z2.000000)
G00 X-34.2900 Y7.6200 
G01 Z-1.900000
G01 Z2.000000
(G00 Z2.000000)
G00 X-34.2900 Y22.8600 
G01 Z-1.900000
G01 Z2.000000
(G00 Z2.000000)
G00 X-36.8300 Y7.6200 
G01 Z-1.900000
G01 Z2.000000
(G00 Z2.000000)
G00 X-36.8300 Y15.2400 
G01 Z-1.900000
G01 Z2.000000
(G00 Z2.000000)
G00 X-36.8300 Y17.7800 
G01 Z-1.900000
G01 Z2.000000
(G00 Z2.000000)
G00 X-36.8300 Y20.3200 
G01 Z-1.900000
G01 Z2.000000
(G00 Z2.000000)
G00 X-36.8300 Y22.8600 
G01 Z-1.900000
G01 Z2.000000
(G00 Z2.000000)
G00 X-6.3500 Y8.8900 
G01 Z-1.900000
G01 Z2.000000
(G00 Z2.000000)
G00 X-6.3500 Y11.4300 
G01 Z-1.900000
G01 Z2.000000
(G00 Z2.000000)
G00 X-6.3500 Y13.9700 
G01 Z-1.900000
G01 Z2.000000
(G00 Z2.000000)
G00 X-6.3500 Y16.5100 
G01 Z-1.900000
G01 Z2.000000
(G00 Z2.000000)
G00 X-6.3500 Y19.0500 
G01 Z-1.900000
G01 Z2.000000
(G00 Z2.000000)
G00 X-6.3500 Y21.5900 
G01 Z-1.900000
G01 Z2.000000
(G00 Z2.000000)
G00 X-8.8900 Y7.6200 
G01 Z-1.900000
G01 Z2.000000
(G00 Z2.000000)
G00 X-8.8900 Y22.8600 
G01 Z-1.900000
G01 Z2.000000
(G00 Z2.000000)
G00 X-11.4300 Y7.6200 
G01 Z-1.900000
G01 Z2.000000
(G00 Z2.000000)
G00 X-11.4300 Y22.8600 
G01 Z-1.900000
G01 Z2.000000
(G00 Z2.000000)
G00 X-13.9700 Y7.6200 
G01 Z-1.900000
G01 Z2.000000
(G00 Z2.000000)
G00 X-13.9700 Y22.8600 
G01 Z-1.900000
G01 Z2.000000
(G00 Z2.000000)
G00 X-16.5100 Y7.6200 
G01 Z-1.900000
G01 Z2.000000
(G00 Z2.000000)
G00 X-16.5100 Y22.8600 
G01 Z-1.900000
G01 Z2.000000
(G00 Z2.000000)
G00 X-17.7800 Y20.3200 
G01 Z-1.900000
G01 Z2.000000
(G00 Z2.000000)
G00 X-19.0500 Y7.6200 
G01 Z-1.900000
G01 Z2.000000
(G00 Z2.000000)
G00 X-19.0500 Y22.8600 
G01 Z-1.900000
G01 Z2.000000
(G00 Z2.000000)
G00 X-20.3200 Y20.3200 
G01 Z-1.900000
G01 Z2.000000
(G00 Z2.000000)
G00 X-21.5900 Y7.6200 
G01 Z-1.900000
G01 Z2.000000
(G00 Z2.000000)
G00 X-21.5900 Y22.8600 
G01 Z-1.900000
G01 Z2.000000
(G00 Z2.000000)
G00 X-24.1300 Y7.6200 
G01 Z-1.900000
G01 Z2.000000
(G00 Z2.000000)
G00 X-24.1300 Y22.8600 
G01 Z-1.900000
G01 Z2.000000
(G00 Z2.000000)
G00 X-26.6700 Y7.6200 
G01 Z-1.900000
G01 Z2.000000
(G00 Z2.000000)
G00 X-26.6700 Y22.8600 
G01 Z-1.900000
G01 Z2.000000
(G00 Z2.000000)
G00 X-29.2100 Y7.6200 
G01 Z-1.900000
G01 Z2.000000
(G00 Z2.000000)
G00 X-29.2100 Y22.8600 
G01 Z-1.900000
G01 Z2.000000
M05
G00 Z20.4000 
M06 T07  ; 1.0160 
G00 Z2.0000 
M03
G04 P3.000000
G00 Z2.000000
G00 X-40.9194 Y5.6388 
G01 Z-1.9000 F100.00 
G01 Z2.000000
(R2.0000  P2.000000)
(G00 Z2.000000)
G00 X-40.9194 Y12.1412 
G01 Z-1.900000
G01 Z2.000000
(G00 Z2.000000)
G00 X-41.9100 Y38.1000 
G01 Z-1.900000
G01 Z2.000000
(G00 Z2.000000)
G00 X-41.9100 Y22.8600 
G01 Z-1.900000
G01 Z2.000000
(G00 Z2.000000)
G00 X-44.4500 Y38.1000 
G01 Z-1.900000
G01 Z2.000000
(G00 Z2.000000)
G00 X-44.4500 Y22.8600 
G01 Z-1.900000
G01 Z2.000000
(G00 Z2.000000)
G00 X-45.4406 Y5.6388 
G01 Z-1.900000
G01 Z2.000000
(G00 Z2.000000)
G00 X-45.4406 Y12.1412 
G01 Z-1.900000
G01 Z2.000000
(G00 Z2.000000)
G00 X-46.9900 Y38.1000 
G01 Z-1.900000
G01 Z2.000000
(G00 Z2.000000)
G00 X-46.9900 Y22.8600 
G01 Z-1.900000
G01 Z2.000000
M05
G00 Z20.4000 
M06 T08  ; 1.1000 
G00 Z2.0000 
M03
G04 P3.000000
G00 Z2.000000
G00 X-31.4800 Y47.1000 
G01 Z-1.9000 F100.00 
G01 Z2.000000
(R2.0000  P2.000000)
(G00 Z2.000000)
G00 X-33.9800 Y47.1000 
G01 Z-1.900000
G01 Z2.000000
(G00 Z2.000000)
G00 X-28.9800 Y47.1000 
G01 Z-1.900000
G01 Z2.000000
M05
G00 Z20.4000 
M06 T09  ; 1.1176 
G00 Z2.0000 
M03
G04 P3.000000
G00 Z2.000000
G00 X-8.8900 Y26.6700 
G01 Z-1.9000 F100.00 
G01 Z2.000000
(R2.0000  P2.000000)
(G00 Z2.000000)
G00 X-11.4300 Y31.7500 
G01 Z-1.900000
G01 Z2.000000
T01 
G00 Z20.4000 
M05
M02
