(.../Documents/EAGLE/ulps/pcb-gcode.ulp)
(Copyright 2005 - 2012 by John Johnson)
(See readme.txt for licensing terms.)
(This file generated from the board:)
(.../projects/HM-MOIST/HM-MOIST.brd)
(Current profile is .../EAGLE/ulps/profiles/generic.pp  )
(This file generated 08.03.21 20:27)
(Settings from pcb-machine.h)
(  Tool Size)
(0.1500 )
(Z Axis Settings)
(  High     Up        Down     Drill)
(20.4000 	2.0000 	-0.1500 	-1.9000 )
(spindle on time = 3.0000)
(milling depth = -1.3000)
(text depth = -0.1000)
(tool change at 0.0000 0.0000 20.4000 )
(feed rate xy = F208.00 )
(feed rate z  = F100.00 )
(Settings from pcb-defaults.h)
(isolate min = 0.1000)
(isolate max = 0.5000)
(isolate step = 0.1000)
(Generated bottom outlines, bottom drill, )
(Unit of measure: mm)
(Metric Mode)
G21
(Absolute Coordinates)
G90
G00 X0.0000 Y0.0000 
M03
G04 P3.000000
G00 Z2.0000 
G00 X-16.0754 Y19.9740 
G01 Z-0.1500 F100.00 
G01 X-16.0754 Y20.6660 F208.00 
G01 X-15.8214 Y20.9200 
G01 X-15.8214 Y21.3492 
G01 X-16.4058 Y21.9335 
G01 X-16.4185 Y21.9310 
G01 X-16.6015 Y21.9310 
G01 X-16.7810 Y21.9667 
G01 X-16.9500 Y22.0367 
G01 X-17.1022 Y22.1384 
G01 X-17.2316 Y22.2678 
G01 X-17.3333 Y22.4200 
G01 X-17.4033 Y22.5890 
G01 X-17.4390 Y22.7685 
G01 X-17.4390 Y22.9515 
G01 X-17.4033 Y23.1310 
G01 X-17.3333 Y23.3000 
G01 X-17.2316 Y23.4522 
G01 X-17.1022 Y23.5816 
G01 X-17.0914 Y23.5888 
G01 X-17.0914 Y28.6286 
G01 X-22.7378 Y28.6286 
G01 X-22.7972 Y28.5397 
G01 X-22.8986 Y28.4383 
G01 X-22.8986 Y25.9927 
G01 X-22.9209 Y25.8804 
G01 X-22.9648 Y25.7746 
G01 X-23.0284 Y25.6794 
G01 X-23.7594 Y24.9484 
G01 X-23.8546 Y24.8848 
G01 X-23.9604 Y24.8409 
G01 X-24.0727 Y24.8186 
G01 X-24.1873 Y24.8186 
G01 X-24.2996 Y24.8409 
G01 X-24.4054 Y24.8848 
G01 X-24.5006 Y24.9484 
G01 X-24.5816 Y25.0294 
G01 X-24.6452 Y25.1246 
G01 X-24.6891 Y25.2304 
G01 X-24.7114 Y25.3427 
G01 X-24.7114 Y25.4573 
G01 X-24.6891 Y25.5696 
G01 X-24.6452 Y25.6754 
G01 X-24.5816 Y25.7706 
G01 X-24.0614 Y26.2908 
G01 X-24.0614 Y28.4383 
G01 X-24.1628 Y28.5397 
G01 X-24.2590 Y28.6836 
G01 X-24.3252 Y28.8436 
G01 X-24.3590 Y29.0134 
G01 X-24.3590 Y29.1866 
G01 X-24.3252 Y29.3564 
G01 X-24.2590 Y29.5164 
G01 X-24.1628 Y29.6603 
G01 X-24.0403 Y29.7828 
G01 X-23.8964 Y29.8790 
G01 X-23.7364 Y29.9452 
G01 X-23.5666 Y29.9790 
G01 X-23.3934 Y29.9790 
G01 X-23.2236 Y29.9452 
G01 X-23.0636 Y29.8790 
G01 X-22.9326 Y29.7914 
G01 X-16.4527 Y29.7914 
G01 X-16.3404 Y29.7691 
G01 X-16.2346 Y29.7252 
G01 X-16.1394 Y29.6616 
G01 X-16.0584 Y29.5806 
G01 X-15.9948 Y29.4854 
G01 X-15.9509 Y29.3796 
G01 X-15.9286 Y29.2673 
G01 X-15.9286 Y23.5888 
G01 X-15.9178 Y23.5816 
G01 X-15.7884 Y23.4522 
G01 X-15.6867 Y23.3000 
G01 X-15.6167 Y23.1310 
G01 X-15.5810 Y22.9515 
G01 X-15.5810 Y22.7685 
G01 X-15.5835 Y22.7558 
G01 X-14.8694 Y22.0416 
G01 X-14.7884 Y21.9606 
G01 X-14.7248 Y21.8654 
G01 X-14.6809 Y21.7596 
G01 X-14.6586 Y21.6473 
G01 X-14.6586 Y20.9200 
G01 X-14.4046 Y20.6660 
G01 X-14.4046 Y19.9740 
G01 X-14.8940 Y19.4846 
G01 X-15.5860 Y19.4846 
G01 X-16.0754 Y19.9740 
G00 Z2.0000 
G00 X-10.3250 Y16.7452 
G01 Z-0.1500 F100.00 
G01 X-10.3516 Y16.6809 F208.00 
G01 X-10.4009 Y16.6316 
G01 X-10.4652 Y16.6050 
G01 X-12.1348 Y16.6050 
G01 X-12.1991 Y16.6316 
G01 X-12.2484 Y16.6809 
G01 X-12.2750 Y16.7452 
G01 X-12.2750 Y18.8148 
G01 X-12.2484 Y18.8791 
G01 X-12.1991 Y18.9284 
G01 X-12.1348 Y18.9550 
G01 X-10.7414 Y18.9550 
G01 X-10.7414 Y21.6473 
G01 X-10.7191 Y21.7596 
G01 X-10.6752 Y21.8654 
G01 X-10.6116 Y21.9606 
G01 X-10.5306 Y22.0416 
G01 X-9.8165 Y22.7558 
G01 X-9.8190 Y22.7685 
G01 X-9.8190 Y22.9515 
G01 X-9.7833 Y23.1310 
G01 X-9.7133 Y23.3000 
G01 X-9.6116 Y23.4522 
G01 X-9.4822 Y23.5816 
G01 X-9.4714 Y23.5888 
G01 X-9.4714 Y25.4773 
G01 X-10.1445 Y26.1504 
G01 X-10.1445 Y27.1896 
G01 X-9.4096 Y27.9245 
G01 X-8.3704 Y27.9245 
G01 X-7.6355 Y27.1896 
G01 X-7.6355 Y26.1504 
G01 X-8.3086 Y25.4773 
G01 X-8.3086 Y23.5888 
G01 X-8.2978 Y23.5816 
G01 X-8.1684 Y23.4522 
G01 X-8.0667 Y23.3000 
G01 X-7.9967 Y23.1310 
G01 X-7.9610 Y22.9515 
G01 X-7.9610 Y22.7685 
G01 X-7.9967 Y22.5890 
G01 X-8.0667 Y22.4200 
G01 X-8.1684 Y22.2678 
G01 X-8.2978 Y22.1384 
G01 X-8.4500 Y22.0367 
G01 X-8.6190 Y21.9667 
G01 X-8.7985 Y21.9310 
G01 X-8.9815 Y21.9310 
G01 X-8.9942 Y21.9335 
G01 X-9.5786 Y21.3492 
G01 X-9.5786 Y17.7227 
G01 X-9.6009 Y17.6104 
G01 X-9.6448 Y17.5046 
G01 X-9.7084 Y17.4094 
G01 X-9.7894 Y17.3284 
G01 X-9.8846 Y17.2648 
G01 X-9.9904 Y17.2209 
G01 X-10.1027 Y17.1986 
G01 X-10.2173 Y17.1986 
G01 X-10.3250 Y17.2200 
G01 X-10.3250 Y16.7452 
G00 Z2.0000 
G00 X-13.1250 Y18.8148 
G01 Z-0.1500 F100.00 
G01 X-13.1250 Y16.7452 F208.00 
G01 X-13.1516 Y16.6809 
G01 X-13.2009 Y16.6316 
G01 X-13.2652 Y16.6050 
G01 X-14.9348 Y16.6050 
G01 X-14.9991 Y16.6316 
G01 X-15.0484 Y16.6809 
G01 X-15.0750 Y16.7452 
G01 X-15.0750 Y17.1986 
G01 X-26.0700 Y17.1986 
G01 X-26.3240 Y16.9446 
G01 X-27.0160 Y16.9446 
G01 X-27.5054 Y17.4340 
G01 X-27.5054 Y18.1260 
G01 X-27.2514 Y18.3800 
G01 X-27.2514 Y22.1312 
G01 X-27.2622 Y22.1384 
G01 X-27.3916 Y22.2678 
G01 X-27.4933 Y22.4200 
G01 X-27.5633 Y22.5890 
G01 X-27.5990 Y22.7685 
G01 X-27.5990 Y22.9515 
G01 X-27.5633 Y23.1310 
G01 X-27.4933 Y23.3000 
G01 X-27.3916 Y23.4522 
G01 X-27.2622 Y23.5816 
G01 X-27.1100 Y23.6833 
G01 X-26.9410 Y23.7533 
G01 X-26.7615 Y23.7890 
G01 X-26.5785 Y23.7890 
G01 X-26.3990 Y23.7533 
G01 X-26.2300 Y23.6833 
G01 X-26.0778 Y23.5816 
G01 X-25.9484 Y23.4522 
G01 X-25.8467 Y23.3000 
G01 X-25.7767 Y23.1310 
G01 X-25.7410 Y22.9515 
G01 X-25.7410 Y22.7685 
G01 X-25.7767 Y22.5890 
G01 X-25.8467 Y22.4200 
G01 X-25.9484 Y22.2678 
G01 X-26.0778 Y22.1384 
G01 X-26.0886 Y22.1312 
G01 X-26.0886 Y18.3800 
G01 X-26.0700 Y18.3614 
G01 X-15.0750 Y18.3614 
G01 X-15.0750 Y18.8148 
G01 X-15.0484 Y18.8791 
G01 X-14.9991 Y18.9284 
G01 X-14.9348 Y18.9550 
G01 X-13.2652 Y18.9550 
G01 X-13.2009 Y18.9284 
G01 X-13.1516 Y18.8791 
G01 X-13.1250 Y18.8148 
G00 Z2.0000 
G00 X-7.3848 Y30.6450 
G01 Z-0.1500 F100.00 
G01 X-7.4491 Y30.6716 F208.00 
G01 X-7.4984 Y30.7209 
G01 X-7.5250 Y30.7852 
G01 X-7.5250 Y32.4548 
G01 X-7.4984 Y32.5191 
G01 X-7.4491 Y32.5684 
G01 X-7.3848 Y32.5950 
G01 X-5.3152 Y32.5950 
G01 X-5.2509 Y32.5684 
G01 X-5.2016 Y32.5191 
G01 X-5.1750 Y32.4548 
G01 X-5.1750 Y31.0614 
G01 X-2.4827 Y31.0614 
G01 X-2.3704 Y31.0391 
G01 X-2.2646 Y30.9952 
G01 X-2.1694 Y30.9316 
G01 X-2.0884 Y30.8506 
G01 X-2.0248 Y30.7554 
G01 X-1.9809 Y30.6496 
G01 X-1.9586 Y30.5373 
G01 X-1.9586 Y2.4827 
G01 X-1.9809 Y2.3704 
G01 X-2.0248 Y2.2646 
G01 X-2.0884 Y2.1694 
G01 X-2.1694 Y2.0884 
G01 X-2.2646 Y2.0248 
G01 X-2.3704 Y1.9809 
G01 X-2.4827 Y1.9586 
G01 X-24.1873 Y1.9586 
G01 X-24.2996 Y1.9809 
G01 X-24.4054 Y2.0248 
G01 X-24.5006 Y2.0884 
G01 X-24.5816 Y2.1694 
G01 X-24.6452 Y2.2646 
G01 X-24.6891 Y2.3704 
G01 X-24.7114 Y2.4827 
G01 X-24.7114 Y6.8912 
G01 X-24.7222 Y6.8984 
G01 X-24.8516 Y7.0278 
G01 X-24.9533 Y7.1800 
G01 X-25.0233 Y7.3490 
G01 X-25.0590 Y7.5285 
G01 X-25.0590 Y7.7115 
G01 X-25.0233 Y7.8910 
G01 X-24.9533 Y8.0600 
G01 X-24.8516 Y8.2122 
G01 X-24.7222 Y8.3416 
G01 X-24.5700 Y8.4433 
G01 X-24.4010 Y8.5133 
G01 X-24.2215 Y8.5490 
G01 X-24.0385 Y8.5490 
G01 X-23.8590 Y8.5133 
G01 X-23.6900 Y8.4433 
G01 X-23.5378 Y8.3416 
G01 X-23.4084 Y8.2122 
G01 X-23.3067 Y8.0600 
G01 X-23.2367 Y7.8910 
G01 X-23.2010 Y7.7115 
G01 X-23.2010 Y7.5285 
G01 X-23.2367 Y7.3490 
G01 X-23.3067 Y7.1800 
G01 X-23.4084 Y7.0278 
G01 X-23.5378 Y6.8984 
G01 X-23.5486 Y6.8912 
G01 X-23.5486 Y3.1214 
G01 X-3.1214 Y3.1214 
G01 X-3.1214 Y29.8986 
G01 X-6.4073 Y29.8986 
G01 X-6.5196 Y29.9209 
G01 X-6.6254 Y29.9648 
G01 X-6.7206 Y30.0284 
G01 X-6.8016 Y30.1094 
G01 X-6.8652 Y30.2046 
G01 X-6.9091 Y30.3104 
G01 X-6.9314 Y30.4227 
G01 X-6.9314 Y30.6450 
G01 X-7.3848 Y30.6450 
G00 Z2.0000 
G00 X-5.3152 Y33.4450 
G01 Z-0.1500 F100.00 
G01 X-7.3848 Y33.4450 F208.00 
G01 X-7.4491 Y33.4716 
G01 X-7.4984 Y33.5209 
G01 X-7.5250 Y33.5852 
G01 X-7.5250 Y35.2548 
G01 X-7.4984 Y35.3191 
G01 X-7.4491 Y35.3684 
G01 X-7.3848 Y35.3950 
G01 X-6.9314 Y35.3950 
G01 X-6.9314 Y38.7700 
G01 X-7.1854 Y39.0240 
G01 X-7.1854 Y39.7160 
G01 X-6.6960 Y40.2054 
G01 X-6.0040 Y40.2054 
G01 X-5.5146 Y39.7160 
G01 X-5.5146 Y39.0240 
G01 X-5.7686 Y38.7700 
G01 X-5.7686 Y35.3950 
G01 X-5.3152 Y35.3950 
G01 X-5.2509 Y35.3684 
G01 X-5.2016 Y35.3191 
G01 X-5.1750 Y35.2548 
G01 X-5.1750 Y33.5852 
G01 X-5.2016 Y33.5209 
G01 X-5.2509 Y33.4716 
G01 X-5.3152 Y33.4450 
G00 Z2.0000 
G00 X-43.5130 Y23.7143 
G01 Z-0.1500 F100.00 
G01 X-43.5130 Y22.0057 F208.00 
G01 X-43.5490 Y21.8247 
G01 X-43.6196 Y21.6542 
G01 X-43.7222 Y21.5007 
G01 X-43.8527 Y21.3702 
G01 X-43.8686 Y21.3596 
G01 X-43.8686 Y19.2908 
G01 X-37.8592 Y13.2814 
G01 X-15.8400 Y13.2814 
G01 X-15.5860 Y13.5354 
G01 X-14.8940 Y13.5354 
G01 X-14.4046 Y13.0460 
G01 X-14.4046 Y12.3540 
G01 X-14.8940 Y11.8646 
G01 X-15.5860 Y11.8646 
G01 X-15.8400 Y12.1186 
G01 X-21.0086 Y12.1186 
G01 X-21.0086 Y8.3488 
G01 X-20.9978 Y8.3416 
G01 X-20.8684 Y8.2122 
G01 X-20.7667 Y8.0600 
G01 X-20.6967 Y7.8910 
G01 X-20.6610 Y7.7115 
G01 X-20.6610 Y7.5285 
G01 X-20.6967 Y7.3490 
G01 X-20.7667 Y7.1800 
G01 X-20.8684 Y7.0278 
G01 X-20.9978 Y6.8984 
G01 X-21.1500 Y6.7967 
G01 X-21.3190 Y6.7267 
G01 X-21.4985 Y6.6910 
G01 X-21.6815 Y6.6910 
G01 X-21.8610 Y6.7267 
G01 X-22.0300 Y6.7967 
G01 X-22.1822 Y6.8984 
G01 X-22.3116 Y7.0278 
G01 X-22.4133 Y7.1800 
G01 X-22.4833 Y7.3490 
G01 X-22.5190 Y7.5285 
G01 X-22.5190 Y7.7115 
G01 X-22.4833 Y7.8910 
G01 X-22.4133 Y8.0600 
G01 X-22.3116 Y8.2122 
G01 X-22.1822 Y8.3416 
G01 X-22.1714 Y8.3488 
G01 X-22.1714 Y12.1186 
G01 X-38.1573 Y12.1186 
G01 X-38.2696 Y12.1409 
G01 X-38.3754 Y12.1848 
G01 X-38.4706 Y12.2484 
G01 X-44.8206 Y18.5984 
G01 X-44.9016 Y18.6794 
G01 X-44.9652 Y18.7746 
G01 X-45.0091 Y18.8804 
G01 X-45.0314 Y18.9927 
G01 X-45.0314 Y21.3596 
G01 X-45.0473 Y21.3702 
G01 X-45.1778 Y21.5007 
G01 X-45.2804 Y21.6542 
G01 X-45.3510 Y21.8247 
G01 X-45.3870 Y22.0057 
G01 X-45.3870 Y23.7143 
G01 X-45.3510 Y23.8953 
G01 X-45.2804 Y24.0658 
G01 X-45.1778 Y24.2193 
G01 X-45.0473 Y24.3498 
G01 X-44.8938 Y24.4524 
G01 X-44.7233 Y24.5230 
G01 X-44.5423 Y24.5590 
G01 X-44.3577 Y24.5590 
G01 X-44.1767 Y24.5230 
G01 X-44.0062 Y24.4524 
G01 X-43.8527 Y24.3498 
G01 X-43.7222 Y24.2193 
G01 X-43.6196 Y24.0658 
G01 X-43.5490 Y23.8953 
G01 X-43.5130 Y23.7143 
G00 Z2.0000 
G00 X-40.9730 Y23.7143 
G01 Z-0.1500 F100.00 
G01 X-40.9730 Y22.0057 F208.00 
G01 X-41.0090 Y21.8247 
G01 X-41.0796 Y21.6542 
G01 X-41.1822 Y21.5007 
G01 X-41.3127 Y21.3702 
G01 X-41.4662 Y21.2676 
G01 X-41.6367 Y21.1970 
G01 X-41.8177 Y21.1610 
G01 X-42.0023 Y21.1610 
G01 X-42.1833 Y21.1970 
G01 X-42.3538 Y21.2676 
G01 X-42.5073 Y21.3702 
G01 X-42.6378 Y21.5007 
G01 X-42.7404 Y21.6542 
G01 X-42.8110 Y21.8247 
G01 X-42.8470 Y22.0057 
G01 X-42.8470 Y23.7143 
G01 X-42.8110 Y23.8953 
G01 X-42.7404 Y24.0658 
G01 X-42.6378 Y24.2193 
G01 X-42.5073 Y24.3498 
G01 X-42.4914 Y24.3604 
G01 X-42.4914 Y25.1257 
G01 X-42.5274 Y25.2127 
G01 X-42.5521 Y25.3368 
G01 X-42.5521 Y25.4632 
G01 X-42.5274 Y25.5873 
G01 X-42.4790 Y25.7041 
G01 X-42.4088 Y25.8093 
G01 X-42.3193 Y25.8987 
G01 X-42.2141 Y25.9690 
G01 X-42.0973 Y26.0174 
G01 X-41.9732 Y26.0421 
G01 X-41.8468 Y26.0421 
G01 X-41.7227 Y26.0174 
G01 X-41.6059 Y25.9690 
G01 X-41.5007 Y25.8987 
G01 X-41.4112 Y25.8093 
G01 X-41.3410 Y25.7041 
G01 X-41.2926 Y25.5873 
G01 X-41.2679 Y25.4632 
G01 X-41.2679 Y25.3368 
G01 X-41.2926 Y25.2127 
G01 X-41.3286 Y25.1257 
G01 X-41.3286 Y24.3604 
G01 X-41.3127 Y24.3498 
G01 X-41.1822 Y24.2193 
G01 X-41.0796 Y24.0658 
G01 X-41.0090 Y23.8953 
G01 X-40.9730 Y23.7143 
G00 Z2.0000 
G00 X-34.9800 Y47.0015 
G01 Z-0.1500 F100.00 
G01 X-34.9800 Y47.1985 F208.00 
G01 X-34.9416 Y47.3917 
G01 X-34.8662 Y47.5737 
G01 X-34.7567 Y47.7375 
G01 X-34.6175 Y47.8767 
G01 X-34.4537 Y47.9862 
G01 X-34.2717 Y48.0616 
G01 X-34.0785 Y48.1000 
G01 X-33.8815 Y48.1000 
G01 X-33.6883 Y48.0616 
G01 X-33.5063 Y47.9862 
G01 X-33.3425 Y47.8767 
G01 X-33.2033 Y47.7375 
G01 X-33.0938 Y47.5737 
G01 X-33.0184 Y47.3917 
G01 X-32.9800 Y47.1985 
G01 X-32.9800 Y47.0015 
G01 X-33.0184 Y46.8083 
G01 X-33.0938 Y46.6263 
G01 X-33.2033 Y46.4625 
G01 X-33.3425 Y46.3233 
G01 X-33.5063 Y46.2138 
G01 X-33.6883 Y46.1384 
G01 X-33.8815 Y46.1000 
G01 X-34.0785 Y46.1000 
G01 X-34.2717 Y46.1384 
G01 X-34.4537 Y46.2138 
G01 X-34.6175 Y46.3233 
G01 X-34.7567 Y46.4625 
G01 X-34.8662 Y46.6263 
G01 X-34.9416 Y46.8083 
G01 X-34.9800 Y47.0015 
G00 Z2.0000 
G00 X-29.9800 Y47.0015 
G01 Z-0.1500 F100.00 
G01 X-29.9800 Y47.1985 F208.00 
G01 X-29.9416 Y47.3917 
G01 X-29.8662 Y47.5737 
G01 X-29.7567 Y47.7375 
G01 X-29.6175 Y47.8767 
G01 X-29.4537 Y47.9862 
G01 X-29.2717 Y48.0616 
G01 X-29.0785 Y48.1000 
G01 X-28.8815 Y48.1000 
G01 X-28.6883 Y48.0616 
G01 X-28.5063 Y47.9862 
G01 X-28.3425 Y47.8767 
G01 X-28.2033 Y47.7375 
G01 X-28.0938 Y47.5737 
G01 X-28.0184 Y47.3917 
G01 X-27.9800 Y47.1985 
G01 X-27.9800 Y47.0015 
G01 X-28.0184 Y46.8083 
G01 X-28.0938 Y46.6263 
G01 X-28.2033 Y46.4625 
G01 X-28.3425 Y46.3233 
G01 X-28.5063 Y46.2138 
G01 X-28.6883 Y46.1384 
G01 X-28.8815 Y46.1000 
G01 X-29.0785 Y46.1000 
G01 X-29.2717 Y46.1384 
G01 X-29.4537 Y46.2138 
G01 X-29.6175 Y46.3233 
G01 X-29.7567 Y46.4625 
G01 X-29.8662 Y46.6263 
G01 X-29.9416 Y46.8083 
G01 X-29.9800 Y47.0015 
G00 Z2.0000 
G00 X-32.4800 Y47.0015 
G01 Z-0.1500 F100.00 
G01 X-32.4800 Y47.1985 F208.00 
G01 X-32.4416 Y47.3917 
G01 X-32.3662 Y47.5737 
G01 X-32.2567 Y47.7375 
G01 X-32.1175 Y47.8767 
G01 X-31.9537 Y47.9862 
G01 X-31.7717 Y48.0616 
G01 X-31.5785 Y48.1000 
G01 X-31.3815 Y48.1000 
G01 X-31.1883 Y48.0616 
G01 X-31.0063 Y47.9862 
G01 X-30.8425 Y47.8767 
G01 X-30.7033 Y47.7375 
G01 X-30.5938 Y47.5737 
G01 X-30.5184 Y47.3917 
G01 X-30.4800 Y47.1985 
G01 X-30.4800 Y47.0015 
G01 X-30.5184 Y46.8083 
G01 X-30.5938 Y46.6263 
G01 X-30.7033 Y46.4625 
G01 X-30.8425 Y46.3233 
G01 X-31.0063 Y46.2138 
G01 X-31.1883 Y46.1384 
G01 X-31.3815 Y46.1000 
G01 X-31.5785 Y46.1000 
G01 X-31.7717 Y46.1384 
G01 X-31.9537 Y46.2138 
G01 X-32.1175 Y46.3233 
G01 X-32.2567 Y46.4625 
G01 X-32.3662 Y46.6263 
G01 X-32.4416 Y46.8083 
G01 X-32.4800 Y47.0015 
G00 Z2.0000 
G00 X-38.3590 Y29.1866 
G01 Z-0.1500 F100.00 
G01 X-38.3252 Y29.3564 F208.00 
G01 X-38.2590 Y29.5164 
G01 X-38.1628 Y29.6603 
G01 X-38.0403 Y29.7828 
G01 X-37.8964 Y29.8790 
G01 X-37.7364 Y29.9452 
G01 X-37.5666 Y29.9790 
G01 X-37.3934 Y29.9790 
G01 X-37.2236 Y29.9452 
G01 X-37.0636 Y29.8790 
G01 X-36.9197 Y29.7828 
G01 X-36.7972 Y29.6603 
G01 X-36.7010 Y29.5164 
G01 X-36.6348 Y29.3564 
G01 X-36.6010 Y29.1866 
G01 X-36.6010 Y29.0134 
G01 X-36.6348 Y28.8436 
G01 X-36.7010 Y28.6836 
G01 X-36.7972 Y28.5397 
G01 X-36.9197 Y28.4172 
G01 X-37.0636 Y28.3210 
G01 X-37.2236 Y28.2548 
G01 X-37.3934 Y28.2210 
G01 X-37.5186 Y28.2210 
G01 X-37.5186 Y24.3708 
G01 X-36.9342 Y23.7865 
G01 X-36.9215 Y23.7890 
G01 X-36.7385 Y23.7890 
G01 X-36.5590 Y23.7533 
G01 X-36.3900 Y23.6833 
G01 X-36.2378 Y23.5816 
G01 X-36.1084 Y23.4522 
G01 X-36.0067 Y23.3000 
G01 X-35.9367 Y23.1310 
G01 X-35.9010 Y22.9515 
G01 X-35.9010 Y22.7685 
G01 X-35.9367 Y22.5890 
G01 X-36.0067 Y22.4200 
G01 X-36.1084 Y22.2678 
G01 X-36.2378 Y22.1384 
G01 X-36.3900 Y22.0367 
G01 X-36.5590 Y21.9667 
G01 X-36.7385 Y21.9310 
G01 X-36.9215 Y21.9310 
G01 X-37.1010 Y21.9667 
G01 X-37.2700 Y22.0367 
G01 X-37.4222 Y22.1384 
G01 X-37.5516 Y22.2678 
G01 X-37.6533 Y22.4200 
G01 X-37.7233 Y22.5890 
G01 X-37.7590 Y22.7685 
G01 X-37.7590 Y22.9515 
G01 X-37.7565 Y22.9642 
G01 X-38.4706 Y23.6784 
G01 X-38.5516 Y23.7594 
G01 X-38.6152 Y23.8546 
G01 X-38.6591 Y23.9604 
G01 X-38.6814 Y24.0727 
G01 X-38.6814 Y28.5373 
G01 X-38.6591 Y28.6496 
G01 X-38.6152 Y28.7554 
G01 X-38.5516 Y28.8506 
G01 X-38.3590 Y29.0432 
G01 X-38.3590 Y29.1866 
G00 Z2.0000 
G00 X-28.3590 Y29.0134 
G01 Z-0.1500 F100.00 
G01 X-28.3590 Y29.1866 F208.00 
G01 X-28.3252 Y29.3564 
G01 X-28.2590 Y29.5164 
G01 X-28.1628 Y29.6603 
G01 X-28.0403 Y29.7828 
G01 X-27.8964 Y29.8790 
G01 X-27.7364 Y29.9452 
G01 X-27.5666 Y29.9790 
G01 X-27.3934 Y29.9790 
G01 X-27.2236 Y29.9452 
G01 X-27.0636 Y29.8790 
G01 X-26.9197 Y29.7828 
G01 X-26.7972 Y29.6603 
G01 X-26.7010 Y29.5164 
G01 X-26.6348 Y29.3564 
G01 X-26.6010 Y29.1866 
G01 X-26.6010 Y29.0134 
G01 X-26.6348 Y28.8436 
G01 X-26.7010 Y28.6836 
G01 X-26.7972 Y28.5397 
G01 X-26.8986 Y28.4383 
G01 X-26.8986 Y27.7208 
G01 X-26.4674 Y27.2896 
G01 X-26.3621 Y27.2460 
G01 X-26.2556 Y27.1749 
G01 X-26.1651 Y27.0844 
G01 X-26.0940 Y26.9779 
G01 X-26.0450 Y26.8596 
G01 X-26.0200 Y26.7340 
G01 X-26.0200 Y26.6060 
G01 X-26.0450 Y26.4804 
G01 X-26.0940 Y26.3621 
G01 X-26.1651 Y26.2556 
G01 X-26.2556 Y26.1651 
G01 X-26.3621 Y26.0940 
G01 X-26.4804 Y26.0450 
G01 X-26.6060 Y26.0200 
G01 X-26.7340 Y26.0200 
G01 X-26.8596 Y26.0450 
G01 X-26.9779 Y26.0940 
G01 X-27.0844 Y26.1651 
G01 X-27.1749 Y26.2556 
G01 X-27.2460 Y26.3621 
G01 X-27.2896 Y26.4674 
G01 X-27.9316 Y27.1094 
G01 X-27.9952 Y27.2046 
G01 X-28.0391 Y27.3104 
G01 X-28.0614 Y27.4227 
G01 X-28.0614 Y28.4383 
G01 X-28.1628 Y28.5397 
G01 X-28.2590 Y28.6836 
G01 X-28.3252 Y28.8436 
G01 X-28.3590 Y29.0134 
G00 Z2.0000 
G00 X-36.3590 Y29.0134 
G01 Z-0.1500 F100.00 
G01 X-36.3590 Y29.1866 F208.00 
G01 X-36.3252 Y29.3564 
G01 X-36.2590 Y29.5164 
G01 X-36.1628 Y29.6603 
G01 X-36.0403 Y29.7828 
G01 X-35.8964 Y29.8790 
G01 X-35.7364 Y29.9452 
G01 X-35.5666 Y29.9790 
G01 X-35.3934 Y29.9790 
G01 X-35.2236 Y29.9452 
G01 X-35.0636 Y29.8790 
G01 X-34.9197 Y29.7828 
G01 X-34.7972 Y29.6603 
G01 X-34.7010 Y29.5164 
G01 X-34.6348 Y29.3564 
G01 X-34.6010 Y29.1866 
G01 X-34.6010 Y29.0134 
G01 X-34.6348 Y28.8436 
G01 X-34.7010 Y28.6836 
G01 X-34.7972 Y28.5397 
G01 X-34.9197 Y28.4172 
G01 X-34.9786 Y28.3779 
G01 X-34.9786 Y26.9649 
G01 X-34.9350 Y26.8596 
G01 X-34.9100 Y26.7340 
G01 X-34.9100 Y26.6060 
G01 X-34.9350 Y26.4804 
G01 X-34.9840 Y26.3621 
G01 X-35.0551 Y26.2556 
G01 X-35.1456 Y26.1651 
G01 X-35.2521 Y26.0940 
G01 X-35.3704 Y26.0450 
G01 X-35.4960 Y26.0200 
G01 X-35.6240 Y26.0200 
G01 X-35.7496 Y26.0450 
G01 X-35.8679 Y26.0940 
G01 X-35.9744 Y26.1651 
G01 X-36.0649 Y26.2556 
G01 X-36.1360 Y26.3621 
G01 X-36.1850 Y26.4804 
G01 X-36.2100 Y26.6060 
G01 X-36.2100 Y26.7340 
G01 X-36.1850 Y26.8596 
G01 X-36.1414 Y26.9649 
G01 X-36.1414 Y28.5183 
G01 X-36.1628 Y28.5397 
G01 X-36.2590 Y28.6836 
G01 X-36.3252 Y28.8436 
G01 X-36.3590 Y29.0134 
G00 Z2.0000 
G00 X-34.3590 Y29.0134 
G01 Z-0.1500 F100.00 
G01 X-34.3590 Y29.1866 F208.00 
G01 X-34.3252 Y29.3564 
G01 X-34.2590 Y29.5164 
G01 X-34.1628 Y29.6603 
G01 X-34.0403 Y29.7828 
G01 X-33.8964 Y29.8790 
G01 X-33.7364 Y29.9452 
G01 X-33.5666 Y29.9790 
G01 X-33.3934 Y29.9790 
G01 X-33.2236 Y29.9452 
G01 X-33.0636 Y29.8790 
G01 X-32.9197 Y29.7828 
G01 X-32.7972 Y29.6603 
G01 X-32.7010 Y29.5164 
G01 X-32.6348 Y29.3564 
G01 X-32.6010 Y29.1866 
G01 X-32.6010 Y29.0134 
G01 X-32.6348 Y28.8436 
G01 X-32.7010 Y28.6836 
G01 X-32.7972 Y28.5397 
G01 X-32.9197 Y28.4172 
G01 X-33.0636 Y28.3210 
G01 X-33.2236 Y28.2548 
G01 X-33.3934 Y28.2210 
G01 X-33.5666 Y28.2210 
G01 X-33.7364 Y28.2548 
G01 X-33.8964 Y28.3210 
G01 X-34.0403 Y28.4172 
G01 X-34.1628 Y28.5397 
G01 X-34.2590 Y28.6836 
G01 X-34.3252 Y28.8436 
G01 X-34.3590 Y29.0134 
G00 Z2.0000 
G00 X-44.5036 Y12.9955 
G01 Z-0.1500 F100.00 
G01 X-44.5036 Y11.2869 F208.00 
G01 X-44.5396 Y11.1059 
G01 X-44.6102 Y10.9354 
G01 X-44.7128 Y10.7819 
G01 X-44.8433 Y10.6514 
G01 X-44.9968 Y10.5488 
G01 X-45.1673 Y10.4782 
G01 X-45.3483 Y10.4422 
G01 X-45.5329 Y10.4422 
G01 X-45.7139 Y10.4782 
G01 X-45.8844 Y10.5488 
G01 X-46.0379 Y10.6514 
G01 X-46.1684 Y10.7819 
G01 X-46.2710 Y10.9354 
G01 X-46.3416 Y11.1059 
G01 X-46.3776 Y11.2869 
G01 X-46.3776 Y12.9955 
G01 X-46.3416 Y13.1765 
G01 X-46.2710 Y13.3470 
G01 X-46.1684 Y13.5005 
G01 X-46.0379 Y13.6310 
G01 X-45.8844 Y13.7336 
G01 X-45.7139 Y13.8042 
G01 X-45.5329 Y13.8402 
G01 X-45.3483 Y13.8402 
G01 X-45.1673 Y13.8042 
G01 X-44.9968 Y13.7336 
G01 X-44.8433 Y13.6310 
G01 X-44.7128 Y13.5005 
G01 X-44.6102 Y13.3470 
G01 X-44.5396 Y13.1765 
G01 X-44.5036 Y12.9955 
G00 Z2.0000 
G00 X-39.9824 Y12.9955 
G01 Z-0.1500 F100.00 
G01 X-39.9824 Y11.2869 F208.00 
G01 X-40.0184 Y11.1059 
G01 X-40.0890 Y10.9354 
G01 X-40.1916 Y10.7819 
G01 X-40.3221 Y10.6514 
G01 X-40.4756 Y10.5488 
G01 X-40.6461 Y10.4782 
G01 X-40.8271 Y10.4422 
G01 X-41.0117 Y10.4422 
G01 X-41.1927 Y10.4782 
G01 X-41.3632 Y10.5488 
G01 X-41.5167 Y10.6514 
G01 X-41.6472 Y10.7819 
G01 X-41.7498 Y10.9354 
G01 X-41.8204 Y11.1059 
G01 X-41.8564 Y11.2869 
G01 X-41.8564 Y12.9955 
G01 X-41.8204 Y13.1765 
G01 X-41.7498 Y13.3470 
G01 X-41.6472 Y13.5005 
G01 X-41.5167 Y13.6310 
G01 X-41.3632 Y13.7336 
G01 X-41.1927 Y13.8042 
G01 X-41.0117 Y13.8402 
G01 X-40.8271 Y13.8402 
G01 X-40.6461 Y13.8042 
G01 X-40.4756 Y13.7336 
G01 X-40.3221 Y13.6310 
G01 X-40.1916 Y13.5005 
G01 X-40.0890 Y13.3470 
G01 X-40.0184 Y13.1765 
G01 X-39.9824 Y12.9955 
G00 Z2.0000 
G00 X-14.8990 Y7.5285 
G01 Z-0.1500 F100.00 
G01 X-14.8990 Y7.7115 F208.00 
G01 X-14.8633 Y7.8910 
G01 X-14.7933 Y8.0600 
G01 X-14.6916 Y8.2122 
G01 X-14.5622 Y8.3416 
G01 X-14.4100 Y8.4433 
G01 X-14.2410 Y8.5133 
G01 X-14.0615 Y8.5490 
G01 X-13.8785 Y8.5490 
G01 X-13.6990 Y8.5133 
G01 X-13.5300 Y8.4433 
G01 X-13.3778 Y8.3416 
G01 X-13.2484 Y8.2122 
G01 X-13.1467 Y8.0600 
G01 X-13.0767 Y7.8910 
G01 X-13.0410 Y7.7115 
G01 X-13.0410 Y7.5285 
G01 X-13.0767 Y7.3490 
G01 X-13.1467 Y7.1800 
G01 X-13.2484 Y7.0278 
G01 X-13.3778 Y6.8984 
G01 X-13.5300 Y6.7967 
G01 X-13.6990 Y6.7267 
G01 X-13.8785 Y6.6910 
G01 X-14.0615 Y6.6910 
G01 X-14.2410 Y6.7267 
G01 X-14.4100 Y6.7967 
G01 X-14.5622 Y6.8984 
G01 X-14.6916 Y7.0278 
G01 X-14.7933 Y7.1800 
G01 X-14.8633 Y7.3490 
G01 X-14.8990 Y7.5285 
G00 Z2.0000 
G00 X-9.8190 Y7.5285 
G01 Z-0.1500 F100.00 
G01 X-9.8190 Y7.7115 F208.00 
G01 X-9.7833 Y7.8910 
G01 X-9.7133 Y8.0600 
G01 X-9.6116 Y8.2122 
G01 X-9.4822 Y8.3416 
G01 X-9.3300 Y8.4433 
G01 X-9.1610 Y8.5133 
G01 X-8.9815 Y8.5490 
G01 X-8.7985 Y8.5490 
G01 X-8.6190 Y8.5133 
G01 X-8.4500 Y8.4433 
G01 X-8.2978 Y8.3416 
G01 X-8.1684 Y8.2122 
G01 X-8.0667 Y8.0600 
G01 X-7.9967 Y7.8910 
G01 X-7.9610 Y7.7115 
G01 X-7.9610 Y7.5285 
G01 X-7.9967 Y7.3490 
G01 X-8.0667 Y7.1800 
G01 X-8.1684 Y7.0278 
G01 X-8.2978 Y6.8984 
G01 X-8.4500 Y6.7967 
G01 X-8.6190 Y6.7267 
G01 X-8.7985 Y6.6910 
G01 X-8.9815 Y6.6910 
G01 X-9.1610 Y6.7267 
G01 X-9.3300 Y6.7967 
G01 X-9.4822 Y6.8984 
G01 X-9.6116 Y7.0278 
G01 X-9.7133 Y7.1800 
G01 X-9.7833 Y7.3490 
G01 X-9.8190 Y7.5285 
G00 Z2.0000 
G00 X-12.3590 Y7.5285 
G01 Z-0.1500 F100.00 
G01 X-12.3590 Y7.7115 F208.00 
G01 X-12.3233 Y7.8910 
G01 X-12.2533 Y8.0600 
G01 X-12.1516 Y8.2122 
G01 X-12.0222 Y8.3416 
G01 X-11.8700 Y8.4433 
G01 X-11.7010 Y8.5133 
G01 X-11.5215 Y8.5490 
G01 X-11.3385 Y8.5490 
G01 X-11.1590 Y8.5133 
G01 X-10.9900 Y8.4433 
G01 X-10.8378 Y8.3416 
G01 X-10.7084 Y8.2122 
G01 X-10.6067 Y8.0600 
G01 X-10.5367 Y7.8910 
G01 X-10.5010 Y7.7115 
G01 X-10.5010 Y7.5285 
G01 X-10.5367 Y7.3490 
G01 X-10.6067 Y7.1800 
G01 X-10.7084 Y7.0278 
G01 X-10.8378 Y6.8984 
G01 X-10.9900 Y6.7967 
G01 X-11.1590 Y6.7267 
G01 X-11.3385 Y6.6910 
G01 X-11.5215 Y6.6910 
G01 X-11.7010 Y6.7267 
G01 X-11.8700 Y6.7967 
G01 X-12.0222 Y6.8984 
G01 X-12.1516 Y7.0278 
G01 X-12.2533 Y7.1800 
G01 X-12.3233 Y7.3490 
G01 X-12.3590 Y7.5285 
G00 Z2.0000 
G00 X-17.4390 Y7.5285 
G01 Z-0.1500 F100.00 
G01 X-17.4390 Y7.7115 F208.00 
G01 X-17.4033 Y7.8910 
G01 X-17.3333 Y8.0600 
G01 X-17.2316 Y8.2122 
G01 X-17.1022 Y8.3416 
G01 X-16.9500 Y8.4433 
G01 X-16.7810 Y8.5133 
G01 X-16.6015 Y8.5490 
G01 X-16.4185 Y8.5490 
G01 X-16.2390 Y8.5133 
G01 X-16.0700 Y8.4433 
G01 X-15.9178 Y8.3416 
G01 X-15.7884 Y8.2122 
G01 X-15.6867 Y8.0600 
G01 X-15.6167 Y7.8910 
G01 X-15.5810 Y7.7115 
G01 X-15.5810 Y7.5285 
G01 X-15.6167 Y7.3490 
G01 X-15.6867 Y7.1800 
G01 X-15.7884 Y7.0278 
G01 X-15.9178 Y6.8984 
G01 X-16.0700 Y6.7967 
G01 X-16.2390 Y6.7267 
G01 X-16.4185 Y6.6910 
G01 X-16.6015 Y6.6910 
G01 X-16.7810 Y6.7267 
G01 X-16.9500 Y6.7967 
G01 X-17.1022 Y6.8984 
G01 X-17.2316 Y7.0278 
G01 X-17.3333 Y7.1800 
G01 X-17.4033 Y7.3490 
G01 X-17.4390 Y7.5285 
G00 Z2.0000 
G00 X-19.9790 Y7.5285 
G01 Z-0.1500 F100.00 
G01 X-19.9790 Y7.7115 F208.00 
G01 X-19.9433 Y7.8910 
G01 X-19.8733 Y8.0600 
G01 X-19.7716 Y8.2122 
G01 X-19.6422 Y8.3416 
G01 X-19.6314 Y8.3488 
G01 X-19.6314 Y9.8651 
G01 X-19.6750 Y9.9704 
G01 X-19.7000 Y10.0960 
G01 X-19.7000 Y10.2240 
G01 X-19.6750 Y10.3496 
G01 X-19.6260 Y10.4679 
G01 X-19.5549 Y10.5744 
G01 X-19.4643 Y10.6649 
G01 X-19.3579 Y10.7360 
G01 X-19.2396 Y10.7850 
G01 X-19.1140 Y10.8100 
G01 X-18.9860 Y10.8100 
G01 X-18.8604 Y10.7850 
G01 X-18.7421 Y10.7360 
G01 X-18.6356 Y10.6649 
G01 X-18.5451 Y10.5744 
G01 X-18.4740 Y10.4679 
G01 X-18.4250 Y10.3496 
G01 X-18.4000 Y10.2240 
G01 X-18.4000 Y10.0960 
G01 X-18.4250 Y9.9704 
G01 X-18.4686 Y9.8651 
G01 X-18.4686 Y8.3488 
G01 X-18.4578 Y8.3416 
G01 X-18.3284 Y8.2122 
G01 X-18.2267 Y8.0600 
G01 X-18.1567 Y7.8910 
G01 X-18.1210 Y7.7115 
G01 X-18.1210 Y7.5285 
G01 X-18.1567 Y7.3490 
G01 X-18.2267 Y7.1800 
G01 X-18.3284 Y7.0278 
G01 X-18.4578 Y6.8984 
G01 X-18.6100 Y6.7967 
G01 X-18.7790 Y6.7267 
G01 X-18.9585 Y6.6910 
G01 X-19.1415 Y6.6910 
G01 X-19.3210 Y6.7267 
G01 X-19.4900 Y6.7967 
G01 X-19.6422 Y6.8984 
G01 X-19.7716 Y7.0278 
G01 X-19.8733 Y7.1800 
G01 X-19.9433 Y7.3490 
G01 X-19.9790 Y7.5285 
G00 Z2.0000 
G00 X-27.5990 Y7.5285 
G01 Z-0.1500 F100.00 
G01 X-27.5990 Y7.7115 F208.00 
G01 X-27.5633 Y7.8910 
G01 X-27.4933 Y8.0600 
G01 X-27.3916 Y8.2122 
G01 X-27.2622 Y8.3416 
G01 X-27.2514 Y8.3488 
G01 X-27.2514 Y9.5600 
G01 X-27.5054 Y9.8140 
G01 X-27.5054 Y10.5060 
G01 X-27.0160 Y10.9954 
G01 X-26.3240 Y10.9954 
G01 X-25.8346 Y10.5060 
G01 X-25.8346 Y9.8140 
G01 X-26.0886 Y9.5600 
G01 X-26.0886 Y8.3488 
G01 X-26.0778 Y8.3416 
G01 X-25.9484 Y8.2122 
G01 X-25.8467 Y8.0600 
G01 X-25.7767 Y7.8910 
G01 X-25.7410 Y7.7115 
G01 X-25.7410 Y7.5285 
G01 X-25.7767 Y7.3490 
G01 X-25.8467 Y7.1800 
G01 X-25.9484 Y7.0278 
G01 X-26.0778 Y6.8984 
G01 X-26.2300 Y6.7967 
G01 X-26.3990 Y6.7267 
G01 X-26.5785 Y6.6910 
G01 X-26.7615 Y6.6910 
G01 X-26.9410 Y6.7267 
G01 X-27.1100 Y6.7967 
G01 X-27.2622 Y6.8984 
G01 X-27.3916 Y7.0278 
G01 X-27.4933 Y7.1800 
G01 X-27.5633 Y7.3490 
G01 X-27.5990 Y7.5285 
G00 Z2.0000 
G00 X-32.6790 Y7.5285 
G01 Z-0.1500 F100.00 
G01 X-32.6790 Y7.7115 F208.00 
G01 X-32.6433 Y7.8910 
G01 X-32.5733 Y8.0600 
G01 X-32.4716 Y8.2122 
G01 X-32.3422 Y8.3416 
G01 X-32.1900 Y8.4433 
G01 X-32.0210 Y8.5133 
G01 X-31.8415 Y8.5490 
G01 X-31.6585 Y8.5490 
G01 X-31.4790 Y8.5133 
G01 X-31.3100 Y8.4433 
G01 X-31.1578 Y8.3416 
G01 X-31.0284 Y8.2122 
G01 X-30.9267 Y8.0600 
G01 X-30.8567 Y7.8910 
G01 X-30.8210 Y7.7115 
G01 X-30.8210 Y7.5285 
G01 X-30.8567 Y7.3490 
G01 X-30.9267 Y7.1800 
G01 X-31.0284 Y7.0278 
G01 X-31.1578 Y6.8984 
G01 X-31.3100 Y6.7967 
G01 X-31.4790 Y6.7267 
G01 X-31.6585 Y6.6910 
G01 X-31.8415 Y6.6910 
G01 X-32.0210 Y6.7267 
G01 X-32.1900 Y6.7967 
G01 X-32.3422 Y6.8984 
G01 X-32.4716 Y7.0278 
G01 X-32.5733 Y7.1800 
G01 X-32.6433 Y7.3490 
G01 X-32.6790 Y7.5285 
G00 Z2.0000 
G00 X-35.2190 Y7.5285 
G01 Z-0.1500 F100.00 
G01 X-35.2190 Y7.7115 F208.00 
G01 X-35.1833 Y7.8910 
G01 X-35.1133 Y8.0600 
G01 X-35.0116 Y8.2122 
G01 X-34.8822 Y8.3416 
G01 X-34.7300 Y8.4433 
G01 X-34.5610 Y8.5133 
G01 X-34.3815 Y8.5490 
G01 X-34.1985 Y8.5490 
G01 X-34.0190 Y8.5133 
G01 X-33.8500 Y8.4433 
G01 X-33.6978 Y8.3416 
G01 X-33.5684 Y8.2122 
G01 X-33.4667 Y8.0600 
G01 X-33.3967 Y7.8910 
G01 X-33.3610 Y7.7115 
G01 X-33.3610 Y7.5285 
G01 X-33.3967 Y7.3490 
G01 X-33.4667 Y7.1800 
G01 X-33.5684 Y7.0278 
G01 X-33.6978 Y6.8984 
G01 X-33.8500 Y6.7967 
G01 X-34.0190 Y6.7267 
G01 X-34.1985 Y6.6910 
G01 X-34.3815 Y6.6910 
G01 X-34.3942 Y6.6935 
G01 X-34.9786 Y6.1092 
G01 X-34.9786 Y5.5815 
G01 X-35.0009 Y5.4692 
G01 X-35.0448 Y5.3634 
G01 X-35.1084 Y5.2682 
G01 X-35.1894 Y5.1872 
G01 X-35.2846 Y5.1236 
G01 X-35.3904 Y5.0797 
G01 X-35.5027 Y5.0574 
G01 X-39.9824 Y5.0574 
G01 X-39.9824 Y4.7845 
G01 X-40.0184 Y4.6035 
G01 X-40.0890 Y4.4330 
G01 X-40.1916 Y4.2795 
G01 X-40.3221 Y4.1490 
G01 X-40.4756 Y4.0464 
G01 X-40.6461 Y3.9758 
G01 X-40.8271 Y3.9398 
G01 X-41.0117 Y3.9398 
G01 X-41.1927 Y3.9758 
G01 X-41.3632 Y4.0464 
G01 X-41.5167 Y4.1490 
G01 X-41.6472 Y4.2795 
G01 X-41.7498 Y4.4330 
G01 X-41.8204 Y4.6035 
G01 X-41.8564 Y4.7845 
G01 X-41.8564 Y6.4931 
G01 X-41.8204 Y6.6741 
G01 X-41.7498 Y6.8446 
G01 X-41.6472 Y6.9981 
G01 X-41.5167 Y7.1286 
G01 X-41.3632 Y7.2312 
G01 X-41.1927 Y7.3018 
G01 X-41.0117 Y7.3378 
G01 X-40.8271 Y7.3378 
G01 X-40.6461 Y7.3018 
G01 X-40.4756 Y7.2312 
G01 X-40.3221 Y7.1286 
G01 X-40.1916 Y6.9981 
G01 X-40.0890 Y6.8446 
G01 X-40.0184 Y6.6741 
G01 X-39.9824 Y6.4931 
G01 X-39.9824 Y6.2202 
G01 X-36.1414 Y6.2202 
G01 X-36.1414 Y6.4073 
G01 X-36.1191 Y6.5196 
G01 X-36.0752 Y6.6254 
G01 X-36.0116 Y6.7206 
G01 X-35.9306 Y6.8016 
G01 X-35.2165 Y7.5158 
G01 X-35.2190 Y7.5285 
G00 Z2.0000 
G00 X-37.7590 Y7.5285 
G01 Z-0.1500 F100.00 
G01 X-37.7590 Y7.7115 F208.00 
G01 X-37.7233 Y7.8910 
G01 X-37.6533 Y8.0600 
G01 X-37.5516 Y8.2122 
G01 X-37.4222 Y8.3416 
G01 X-37.2700 Y8.4433 
G01 X-37.1010 Y8.5133 
G01 X-36.9215 Y8.5490 
G01 X-36.7385 Y8.5490 
G01 X-36.5590 Y8.5133 
G01 X-36.3900 Y8.4433 
G01 X-36.2378 Y8.3416 
G01 X-36.1084 Y8.2122 
G01 X-36.0067 Y8.0600 
G01 X-35.9367 Y7.8910 
G01 X-35.9010 Y7.7115 
G01 X-35.9010 Y7.5285 
G01 X-35.9367 Y7.3490 
G01 X-36.0067 Y7.1800 
G01 X-36.1084 Y7.0278 
G01 X-36.2378 Y6.8984 
G01 X-36.3900 Y6.7967 
G01 X-36.5590 Y6.7267 
G01 X-36.7385 Y6.6910 
G01 X-36.9215 Y6.6910 
G01 X-37.1010 Y6.7267 
G01 X-37.2700 Y6.7967 
G01 X-37.4222 Y6.8984 
G01 X-37.5516 Y7.0278 
G01 X-37.6533 Y7.1800 
G01 X-37.7233 Y7.3490 
G01 X-37.7590 Y7.5285 
G00 Z2.0000 
G00 X-21.2490 Y20.2285 
G01 Z-0.1500 F100.00 
G01 X-21.2490 Y20.4115 F208.00 
G01 X-21.2133 Y20.5910 
G01 X-21.1433 Y20.7600 
G01 X-21.0416 Y20.9122 
G01 X-20.9122 Y21.0416 
G01 X-20.7600 Y21.1433 
G01 X-20.5910 Y21.2133 
G01 X-20.4115 Y21.2490 
G01 X-20.2285 Y21.2490 
G01 X-20.0490 Y21.2133 
G01 X-19.8800 Y21.1433 
G01 X-19.7278 Y21.0416 
G01 X-19.5984 Y20.9122 
G01 X-19.4967 Y20.7600 
G01 X-19.4267 Y20.5910 
G01 X-19.3910 Y20.4115 
G01 X-19.3910 Y20.2285 
G01 X-19.4267 Y20.0490 
G01 X-19.4967 Y19.8800 
G01 X-19.5984 Y19.7278 
G01 X-19.7278 Y19.5984 
G01 X-19.8800 Y19.4967 
G01 X-20.0490 Y19.4267 
G01 X-20.2285 Y19.3910 
G01 X-20.4115 Y19.3910 
G01 X-20.5910 Y19.4267 
G01 X-20.7600 Y19.4967 
G01 X-20.9122 Y19.5984 
G01 X-21.0416 Y19.7278 
G01 X-21.1433 Y19.8800 
G01 X-21.2133 Y20.0490 
G01 X-21.2490 Y20.2285 
G00 Z2.0000 
G00 X-18.7090 Y20.2285 
G01 Z-0.1500 F100.00 
G01 X-18.7090 Y20.4115 F208.00 
G01 X-18.6733 Y20.5910 
G01 X-18.6033 Y20.7600 
G01 X-18.5016 Y20.9122 
G01 X-18.3722 Y21.0416 
G01 X-18.2200 Y21.1433 
G01 X-18.0510 Y21.2133 
G01 X-17.8715 Y21.2490 
G01 X-17.6885 Y21.2490 
G01 X-17.5090 Y21.2133 
G01 X-17.3400 Y21.1433 
G01 X-17.1878 Y21.0416 
G01 X-17.0584 Y20.9122 
G01 X-16.9567 Y20.7600 
G01 X-16.8867 Y20.5910 
G01 X-16.8510 Y20.4115 
G01 X-16.8510 Y20.2285 
G01 X-16.8867 Y20.0490 
G01 X-16.9567 Y19.8800 
G01 X-17.0584 Y19.7278 
G01 X-17.1878 Y19.5984 
G01 X-17.3400 Y19.4967 
G01 X-17.5090 Y19.4267 
G01 X-17.6885 Y19.3910 
G01 X-17.8715 Y19.3910 
G01 X-18.0510 Y19.4267 
G01 X-18.2200 Y19.4967 
G01 X-18.3722 Y19.5984 
G01 X-18.5016 Y19.7278 
G01 X-18.6033 Y19.8800 
G01 X-18.6733 Y20.0490 
G01 X-18.7090 Y20.2285 
G00 Z2.0000 
G00 X-7.2790 Y8.7985 
G01 Z-0.1500 F100.00 
G01 X-7.2790 Y8.9815 F208.00 
G01 X-7.2433 Y9.1610 
G01 X-7.1733 Y9.3300 
G01 X-7.0716 Y9.4822 
G01 X-6.9422 Y9.6116 
G01 X-6.7900 Y9.7133 
G01 X-6.6210 Y9.7833 
G01 X-6.4415 Y9.8190 
G01 X-6.2585 Y9.8190 
G01 X-6.0790 Y9.7833 
G01 X-5.9100 Y9.7133 
G01 X-5.7578 Y9.6116 
G01 X-5.6284 Y9.4822 
G01 X-5.5267 Y9.3300 
G01 X-5.4567 Y9.1610 
G01 X-5.4210 Y8.9815 
G01 X-5.4210 Y8.7985 
G01 X-5.4567 Y8.6190 
G01 X-5.5267 Y8.4500 
G01 X-5.6284 Y8.2978 
G01 X-5.7578 Y8.1684 
G01 X-5.9100 Y8.0667 
G01 X-6.0790 Y7.9967 
G01 X-6.2585 Y7.9610 
G01 X-6.4415 Y7.9610 
G01 X-6.6210 Y7.9967 
G01 X-6.7900 Y8.0667 
G01 X-6.9422 Y8.1684 
G01 X-7.0716 Y8.2978 
G01 X-7.1733 Y8.4500 
G01 X-7.2433 Y8.6190 
G01 X-7.2790 Y8.7985 
G00 Z2.0000 
G00 X-7.2790 Y11.3385 
G01 Z-0.1500 F100.00 
G01 X-7.2790 Y11.5215 F208.00 
G01 X-7.2433 Y11.7010 
G01 X-7.1733 Y11.8700 
G01 X-7.0716 Y12.0222 
G01 X-6.9422 Y12.1516 
G01 X-6.7900 Y12.2533 
G01 X-6.6210 Y12.3233 
G01 X-6.4415 Y12.3590 
G01 X-6.2585 Y12.3590 
G01 X-6.0790 Y12.3233 
G01 X-5.9100 Y12.2533 
G01 X-5.7578 Y12.1516 
G01 X-5.6284 Y12.0222 
G01 X-5.5267 Y11.8700 
G01 X-5.4567 Y11.7010 
G01 X-5.4210 Y11.5215 
G01 X-5.4210 Y11.3385 
G01 X-5.4567 Y11.1590 
G01 X-5.5267 Y10.9900 
G01 X-5.6284 Y10.8378 
G01 X-5.7578 Y10.7084 
G01 X-5.9100 Y10.6067 
G01 X-6.0790 Y10.5367 
G01 X-6.2585 Y10.5010 
G01 X-6.4415 Y10.5010 
G01 X-6.6210 Y10.5367 
G01 X-6.7900 Y10.6067 
G01 X-6.9422 Y10.7084 
G01 X-7.0716 Y10.8378 
G01 X-7.1733 Y10.9900 
G01 X-7.2433 Y11.1590 
G01 X-7.2790 Y11.3385 
G00 Z2.0000 
G00 X-7.2790 Y13.8785 
G01 Z-0.1500 F100.00 
G01 X-7.2790 Y14.0615 F208.00 
G01 X-7.2433 Y14.2410 
G01 X-7.1733 Y14.4100 
G01 X-7.0716 Y14.5622 
G01 X-6.9422 Y14.6916 
G01 X-6.7900 Y14.7933 
G01 X-6.6210 Y14.8633 
G01 X-6.4415 Y14.8990 
G01 X-6.2585 Y14.8990 
G01 X-6.0790 Y14.8633 
G01 X-5.9100 Y14.7933 
G01 X-5.7578 Y14.6916 
G01 X-5.6284 Y14.5622 
G01 X-5.5267 Y14.4100 
G01 X-5.4567 Y14.2410 
G01 X-5.4210 Y14.0615 
G01 X-5.4210 Y13.8785 
G01 X-5.4567 Y13.6990 
G01 X-5.5267 Y13.5300 
G01 X-5.6284 Y13.3778 
G01 X-5.7578 Y13.2484 
G01 X-5.9100 Y13.1467 
G01 X-6.0790 Y13.0767 
G01 X-6.2585 Y13.0410 
G01 X-6.4415 Y13.0410 
G01 X-6.6210 Y13.0767 
G01 X-6.7900 Y13.1467 
G01 X-6.9422 Y13.2484 
G01 X-7.0716 Y13.3778 
G01 X-7.1733 Y13.5300 
G01 X-7.2433 Y13.6990 
G01 X-7.2790 Y13.8785 
G00 Z2.0000 
G00 X-7.2790 Y16.4185 
G01 Z-0.1500 F100.00 
G01 X-7.2790 Y16.6015 F208.00 
G01 X-7.2433 Y16.7810 
G01 X-7.1733 Y16.9500 
G01 X-7.0716 Y17.1022 
G01 X-6.9422 Y17.2316 
G01 X-6.7900 Y17.3333 
G01 X-6.6210 Y17.4033 
G01 X-6.4415 Y17.4390 
G01 X-6.2585 Y17.4390 
G01 X-6.0790 Y17.4033 
G01 X-5.9100 Y17.3333 
G01 X-5.7578 Y17.2316 
G01 X-5.6284 Y17.1022 
G01 X-5.5267 Y16.9500 
G01 X-5.4567 Y16.7810 
G01 X-5.4210 Y16.6015 
G01 X-5.4210 Y16.4185 
G01 X-5.4567 Y16.2390 
G01 X-5.5267 Y16.0700 
G01 X-5.6284 Y15.9178 
G01 X-5.7578 Y15.7884 
G01 X-5.9100 Y15.6867 
G01 X-6.0790 Y15.6167 
G01 X-6.2585 Y15.5810 
G01 X-6.4415 Y15.5810 
G01 X-6.6210 Y15.6167 
G01 X-6.7900 Y15.6867 
G01 X-6.9422 Y15.7884 
G01 X-7.0716 Y15.9178 
G01 X-7.1733 Y16.0700 
G01 X-7.2433 Y16.2390 
G01 X-7.2790 Y16.4185 
G00 Z2.0000 
G00 X-7.2790 Y18.9585 
G01 Z-0.1500 F100.00 
G01 X-7.2790 Y19.1415 F208.00 
G01 X-7.2433 Y19.3210 
G01 X-7.1733 Y19.4900 
G01 X-7.0716 Y19.6422 
G01 X-6.9422 Y19.7716 
G01 X-6.7900 Y19.8733 
G01 X-6.6210 Y19.9433 
G01 X-6.4415 Y19.9790 
G01 X-6.2585 Y19.9790 
G01 X-6.0790 Y19.9433 
G01 X-5.9100 Y19.8733 
G01 X-5.7578 Y19.7716 
G01 X-5.6284 Y19.6422 
G01 X-5.5267 Y19.4900 
G01 X-5.4567 Y19.3210 
G01 X-5.4210 Y19.1415 
G01 X-5.4210 Y18.9585 
G01 X-5.4567 Y18.7790 
G01 X-5.5267 Y18.6100 
G01 X-5.6284 Y18.4578 
G01 X-5.7578 Y18.3284 
G01 X-5.9100 Y18.2267 
G01 X-6.0790 Y18.1567 
G01 X-6.2585 Y18.1210 
G01 X-6.4415 Y18.1210 
G01 X-6.6210 Y18.1567 
G01 X-6.7900 Y18.2267 
G01 X-6.9422 Y18.3284 
G01 X-7.0716 Y18.4578 
G01 X-7.1733 Y18.6100 
G01 X-7.2433 Y18.7790 
G01 X-7.2790 Y18.9585 
G00 Z2.0000 
G00 X-7.2790 Y21.4985 
G01 Z-0.1500 F100.00 
G01 X-7.2790 Y21.6815 F208.00 
G01 X-7.2433 Y21.8610 
G01 X-7.1733 Y22.0300 
G01 X-7.0716 Y22.1822 
G01 X-6.9422 Y22.3116 
G01 X-6.7900 Y22.4133 
G01 X-6.6210 Y22.4833 
G01 X-6.4415 Y22.5190 
G01 X-6.2585 Y22.5190 
G01 X-6.0790 Y22.4833 
G01 X-5.9100 Y22.4133 
G01 X-5.7578 Y22.3116 
G01 X-5.6284 Y22.1822 
G01 X-5.5267 Y22.0300 
G01 X-5.4567 Y21.8610 
G01 X-5.4210 Y21.6815 
G01 X-5.4210 Y21.4985 
G01 X-5.4567 Y21.3190 
G01 X-5.5267 Y21.1500 
G01 X-5.6284 Y20.9978 
G01 X-5.7578 Y20.8684 
G01 X-5.9100 Y20.7667 
G01 X-6.0790 Y20.6967 
G01 X-6.2585 Y20.6610 
G01 X-6.4415 Y20.6610 
G01 X-6.6210 Y20.6967 
G01 X-6.7900 Y20.7667 
G01 X-6.9422 Y20.8684 
G01 X-7.0716 Y20.9978 
G01 X-7.1733 Y21.1500 
G01 X-7.2433 Y21.3190 
G01 X-7.2790 Y21.4985 
G00 Z2.0000 
G00 X-37.7590 Y15.1485 
G01 Z-0.1500 F100.00 
G01 X-37.7590 Y15.3315 F208.00 
G01 X-37.7233 Y15.5110 
G01 X-37.6533 Y15.6800 
G01 X-37.5516 Y15.8322 
G01 X-37.4222 Y15.9616 
G01 X-37.2700 Y16.0633 
G01 X-37.1010 Y16.1333 
G01 X-36.9215 Y16.1690 
G01 X-36.7385 Y16.1690 
G01 X-36.5590 Y16.1333 
G01 X-36.3900 Y16.0633 
G01 X-36.2378 Y15.9616 
G01 X-36.1084 Y15.8322 
G01 X-36.0067 Y15.6800 
G01 X-35.9367 Y15.5110 
G01 X-35.9010 Y15.3315 
G01 X-35.9010 Y15.1485 
G01 X-35.9367 Y14.9690 
G01 X-36.0067 Y14.8000 
G01 X-36.1084 Y14.6478 
G01 X-36.2378 Y14.5184 
G01 X-36.3900 Y14.4167 
G01 X-36.5590 Y14.3467 
G01 X-36.7385 Y14.3110 
G01 X-36.9215 Y14.3110 
G01 X-37.1010 Y14.3467 
G01 X-37.2700 Y14.4167 
G01 X-37.4222 Y14.5184 
G01 X-37.5516 Y14.6478 
G01 X-37.6533 Y14.8000 
G01 X-37.7233 Y14.9690 
G01 X-37.7590 Y15.1485 
G00 Z2.0000 
G00 X-37.7590 Y17.6885 
G01 Z-0.1500 F100.00 
G01 X-37.7590 Y17.8715 F208.00 
G01 X-37.7233 Y18.0510 
G01 X-37.6533 Y18.2200 
G01 X-37.5516 Y18.3722 
G01 X-37.4222 Y18.5016 
G01 X-37.2700 Y18.6033 
G01 X-37.1010 Y18.6733 
G01 X-36.9215 Y18.7090 
G01 X-36.7385 Y18.7090 
G01 X-36.5590 Y18.6733 
G01 X-36.3900 Y18.6033 
G01 X-36.2378 Y18.5016 
G01 X-36.1084 Y18.3722 
G01 X-36.0067 Y18.2200 
G01 X-35.9367 Y18.0510 
G01 X-35.9010 Y17.8715 
G01 X-35.9010 Y17.6885 
G01 X-35.9367 Y17.5090 
G01 X-36.0067 Y17.3400 
G01 X-36.1084 Y17.1878 
G01 X-36.2378 Y17.0584 
G01 X-36.3900 Y16.9567 
G01 X-36.5590 Y16.8867 
G01 X-36.7385 Y16.8510 
G01 X-36.9215 Y16.8510 
G01 X-37.1010 Y16.8867 
G01 X-37.2700 Y16.9567 
G01 X-37.4222 Y17.0584 
G01 X-37.5516 Y17.1878 
G01 X-37.6533 Y17.3400 
G01 X-37.7233 Y17.5090 
G01 X-37.7590 Y17.6885 
G00 Z2.0000 
G00 X-37.7590 Y20.2285 
G01 Z-0.1500 F100.00 
G01 X-37.7590 Y20.4115 F208.00 
G01 X-37.7233 Y20.5910 
G01 X-37.6533 Y20.7600 
G01 X-37.5516 Y20.9122 
G01 X-37.4222 Y21.0416 
G01 X-37.2700 Y21.1433 
G01 X-37.1010 Y21.2133 
G01 X-36.9215 Y21.2490 
G01 X-36.7385 Y21.2490 
G01 X-36.5590 Y21.2133 
G01 X-36.3900 Y21.1433 
G01 X-36.2378 Y21.0416 
G01 X-36.1084 Y20.9122 
G01 X-36.0067 Y20.7600 
G01 X-35.9367 Y20.5910 
G01 X-35.9010 Y20.4115 
G01 X-35.9010 Y20.2285 
G01 X-35.9367 Y20.0490 
G01 X-36.0067 Y19.8800 
G01 X-36.1084 Y19.7278 
G01 X-36.2378 Y19.5984 
G01 X-36.3900 Y19.4967 
G01 X-36.5590 Y19.4267 
G01 X-36.7385 Y19.3910 
G01 X-36.9215 Y19.3910 
G01 X-37.1010 Y19.4267 
G01 X-37.2700 Y19.4967 
G01 X-37.4222 Y19.5984 
G01 X-37.5516 Y19.7278 
G01 X-37.6533 Y19.8800 
G01 X-37.7233 Y20.0490 
G01 X-37.7590 Y20.2285 
G00 Z2.0000 
G00 X-14.8990 Y22.7685 
G01 Z-0.1500 F100.00 
G01 X-14.8990 Y22.9515 F208.00 
G01 X-14.8633 Y23.1310 
G01 X-14.7933 Y23.3000 
G01 X-14.6916 Y23.4522 
G01 X-14.5622 Y23.5816 
G01 X-14.4100 Y23.6833 
G01 X-14.2410 Y23.7533 
G01 X-14.0615 Y23.7890 
G01 X-13.8785 Y23.7890 
G01 X-13.6990 Y23.7533 
G01 X-13.5300 Y23.6833 
G01 X-13.3778 Y23.5816 
G01 X-13.2484 Y23.4522 
G01 X-13.1467 Y23.3000 
G01 X-13.0767 Y23.1310 
G01 X-13.0410 Y22.9515 
G01 X-13.0410 Y22.7685 
G01 X-13.0767 Y22.5890 
G01 X-13.1467 Y22.4200 
G01 X-13.2484 Y22.2678 
G01 X-13.3778 Y22.1384 
G01 X-13.5300 Y22.0367 
G01 X-13.6990 Y21.9667 
G01 X-13.8785 Y21.9310 
G01 X-14.0615 Y21.9310 
G01 X-14.2410 Y21.9667 
G01 X-14.4100 Y22.0367 
G01 X-14.5622 Y22.1384 
G01 X-14.6916 Y22.2678 
G01 X-14.7933 Y22.4200 
G01 X-14.8633 Y22.5890 
G01 X-14.8990 Y22.7685 
G00 Z2.0000 
G00 X-19.9790 Y22.7685 
G01 Z-0.1500 F100.00 
G01 X-19.9790 Y22.9515 F208.00 
G01 X-19.9433 Y23.1310 
G01 X-19.8733 Y23.3000 
G01 X-19.7716 Y23.4522 
G01 X-19.6422 Y23.5816 
G01 X-19.4900 Y23.6833 
G01 X-19.3210 Y23.7533 
G01 X-19.1415 Y23.7890 
G01 X-18.9585 Y23.7890 
G01 X-18.7790 Y23.7533 
G01 X-18.6100 Y23.6833 
G01 X-18.4578 Y23.5816 
G01 X-18.3284 Y23.4522 
G01 X-18.2267 Y23.3000 
G01 X-18.1567 Y23.1310 
G01 X-18.1210 Y22.9515 
G01 X-18.1210 Y22.7685 
G01 X-18.1567 Y22.5890 
G01 X-18.2267 Y22.4200 
G01 X-18.3284 Y22.2678 
G01 X-18.4578 Y22.1384 
G01 X-18.6100 Y22.0367 
G01 X-18.7790 Y21.9667 
G01 X-18.9585 Y21.9310 
G01 X-19.1415 Y21.9310 
G01 X-19.3210 Y21.9667 
G01 X-19.4900 Y22.0367 
G01 X-19.6422 Y22.1384 
G01 X-19.7716 Y22.2678 
G01 X-19.8733 Y22.4200 
G01 X-19.9433 Y22.5890 
G01 X-19.9790 Y22.7685 
G00 Z2.0000 
G00 X-22.5190 Y22.7685 
G01 Z-0.1500 F100.00 
G01 X-22.5190 Y22.9515 F208.00 
G01 X-22.4833 Y23.1310 
G01 X-22.4133 Y23.3000 
G01 X-22.3116 Y23.4522 
G01 X-22.1822 Y23.5816 
G01 X-22.0300 Y23.6833 
G01 X-21.8610 Y23.7533 
G01 X-21.6815 Y23.7890 
G01 X-21.4985 Y23.7890 
G01 X-21.3190 Y23.7533 
G01 X-21.1500 Y23.6833 
G01 X-20.9978 Y23.5816 
G01 X-20.8684 Y23.4522 
G01 X-20.7667 Y23.3000 
G01 X-20.6967 Y23.1310 
G01 X-20.6610 Y22.9515 
G01 X-20.6610 Y22.7685 
G01 X-20.6967 Y22.5890 
G01 X-20.7667 Y22.4200 
G01 X-20.8684 Y22.2678 
G01 X-20.9978 Y22.1384 
G01 X-21.1500 Y22.0367 
G01 X-21.3190 Y21.9667 
G01 X-21.4985 Y21.9310 
G01 X-21.6815 Y21.9310 
G01 X-21.8610 Y21.9667 
G01 X-22.0300 Y22.0367 
G01 X-22.1822 Y22.1384 
G01 X-22.3116 Y22.2678 
G01 X-22.4133 Y22.4200 
G01 X-22.4833 Y22.5890 
G01 X-22.5190 Y22.7685 
G00 Z2.0000 
G00 X-25.0590 Y22.7685 
G01 Z-0.1500 F100.00 
G01 X-25.0590 Y22.9515 F208.00 
G01 X-25.0233 Y23.1310 
G01 X-24.9533 Y23.3000 
G01 X-24.8516 Y23.4522 
G01 X-24.7222 Y23.5816 
G01 X-24.5700 Y23.6833 
G01 X-24.4010 Y23.7533 
G01 X-24.2215 Y23.7890 
G01 X-24.0385 Y23.7890 
G01 X-23.8590 Y23.7533 
G01 X-23.6900 Y23.6833 
G01 X-23.5378 Y23.5816 
G01 X-23.4084 Y23.4522 
G01 X-23.3067 Y23.3000 
G01 X-23.2367 Y23.1310 
G01 X-23.2010 Y22.9515 
G01 X-23.2010 Y22.7685 
G01 X-23.2367 Y22.5890 
G01 X-23.3067 Y22.4200 
G01 X-23.4084 Y22.2678 
G01 X-23.5378 Y22.1384 
G01 X-23.5486 Y22.1312 
G01 X-23.5486 Y20.6149 
G01 X-23.5050 Y20.5096 
G01 X-23.4800 Y20.3840 
G01 X-23.4800 Y20.2560 
G01 X-23.5050 Y20.1304 
G01 X-23.5540 Y20.0121 
G01 X-23.6251 Y19.9056 
G01 X-23.7156 Y19.8151 
G01 X-23.8221 Y19.7440 
G01 X-23.9404 Y19.6950 
G01 X-24.0660 Y19.6700 
G01 X-24.1940 Y19.6700 
G01 X-24.3196 Y19.6950 
G01 X-24.4379 Y19.7440 
G01 X-24.5444 Y19.8151 
G01 X-24.6349 Y19.9056 
G01 X-24.7060 Y20.0121 
G01 X-24.7550 Y20.1304 
G01 X-24.7800 Y20.2560 
G01 X-24.7800 Y20.3840 
G01 X-24.7550 Y20.5096 
G01 X-24.7114 Y20.6149 
G01 X-24.7114 Y22.1312 
G01 X-24.7222 Y22.1384 
G01 X-24.8516 Y22.2678 
G01 X-24.9533 Y22.4200 
G01 X-25.0233 Y22.5890 
G01 X-25.0590 Y22.7685 
G00 Z2.0000 
G00 X-30.1390 Y22.7685 
G01 Z-0.1500 F100.00 
G01 X-30.1390 Y22.9515 F208.00 
G01 X-30.1033 Y23.1310 
G01 X-30.0614 Y23.2321 
G01 X-30.0614 Y28.4383 
G01 X-30.1628 Y28.5397 
G01 X-30.2590 Y28.6836 
G01 X-30.3252 Y28.8436 
G01 X-30.3590 Y29.0134 
G01 X-30.3590 Y29.1866 
G01 X-30.3252 Y29.3564 
G01 X-30.2590 Y29.5164 
G01 X-30.1628 Y29.6603 
G01 X-30.0403 Y29.7828 
G01 X-29.8964 Y29.8790 
G01 X-29.7364 Y29.9452 
G01 X-29.5666 Y29.9790 
G01 X-29.3934 Y29.9790 
G01 X-29.2236 Y29.9452 
G01 X-29.0636 Y29.8790 
G01 X-28.9197 Y29.7828 
G01 X-28.7972 Y29.6603 
G01 X-28.7010 Y29.5164 
G01 X-28.6348 Y29.3564 
G01 X-28.6010 Y29.1866 
G01 X-28.6010 Y29.0134 
G01 X-28.6348 Y28.8436 
G01 X-28.7010 Y28.6836 
G01 X-28.7972 Y28.5397 
G01 X-28.8986 Y28.4383 
G01 X-28.8986 Y23.7366 
G01 X-28.7700 Y23.6833 
G01 X-28.6178 Y23.5816 
G01 X-28.4884 Y23.4522 
G01 X-28.3867 Y23.3000 
G01 X-28.3167 Y23.1310 
G01 X-28.2810 Y22.9515 
G01 X-28.2810 Y22.7685 
G01 X-28.3167 Y22.5890 
G01 X-28.3867 Y22.4200 
G01 X-28.4884 Y22.2678 
G01 X-28.6178 Y22.1384 
G01 X-28.7700 Y22.0367 
G01 X-28.9390 Y21.9667 
G01 X-29.1185 Y21.9310 
G01 X-29.3015 Y21.9310 
G01 X-29.4810 Y21.9667 
G01 X-29.6500 Y22.0367 
G01 X-29.8022 Y22.1384 
G01 X-29.9316 Y22.2678 
G01 X-30.0333 Y22.4200 
G01 X-30.1033 Y22.5890 
G01 X-30.1390 Y22.7685 
G00 Z2.0000 
G00 X-32.6790 Y22.7685 
G01 Z-0.1500 F100.00 
G01 X-32.6790 Y22.9515 F208.00 
G01 X-32.6433 Y23.1310 
G01 X-32.5733 Y23.3000 
G01 X-32.4716 Y23.4522 
G01 X-32.3422 Y23.5816 
G01 X-32.1900 Y23.6833 
G01 X-32.0614 Y23.7366 
G01 X-32.0614 Y28.4383 
G01 X-32.1628 Y28.5397 
G01 X-32.2590 Y28.6836 
G01 X-32.3252 Y28.8436 
G01 X-32.3590 Y29.0134 
G01 X-32.3590 Y29.1866 
G01 X-32.3252 Y29.3564 
G01 X-32.2590 Y29.5164 
G01 X-32.1628 Y29.6603 
G01 X-32.0403 Y29.7828 
G01 X-31.8964 Y29.8790 
G01 X-31.7364 Y29.9452 
G01 X-31.5666 Y29.9790 
G01 X-31.3934 Y29.9790 
G01 X-31.2236 Y29.9452 
G01 X-31.0636 Y29.8790 
G01 X-30.9197 Y29.7828 
G01 X-30.7972 Y29.6603 
G01 X-30.7010 Y29.5164 
G01 X-30.6348 Y29.3564 
G01 X-30.6010 Y29.1866 
G01 X-30.6010 Y29.0134 
G01 X-30.6348 Y28.8436 
G01 X-30.7010 Y28.6836 
G01 X-30.7972 Y28.5397 
G01 X-30.8986 Y28.4383 
G01 X-30.8986 Y23.2321 
G01 X-30.8567 Y23.1310 
G01 X-30.8210 Y22.9515 
G01 X-30.8210 Y22.7685 
G01 X-30.8567 Y22.5890 
G01 X-30.9267 Y22.4200 
G01 X-31.0284 Y22.2678 
G01 X-31.1578 Y22.1384 
G01 X-31.3100 Y22.0367 
G01 X-31.4790 Y21.9667 
G01 X-31.6585 Y21.9310 
G01 X-31.8415 Y21.9310 
G01 X-32.0210 Y21.9667 
G01 X-32.1900 Y22.0367 
G01 X-32.3422 Y22.1384 
G01 X-32.4716 Y22.2678 
G01 X-32.5733 Y22.4200 
G01 X-32.6433 Y22.5890 
G01 X-32.6790 Y22.7685 
G00 Z2.0000 
G00 X-35.2190 Y22.7685 
G01 Z-0.1500 F100.00 
G01 X-35.2190 Y22.9515 F208.00 
G01 X-35.1833 Y23.1310 
G01 X-35.1133 Y23.3000 
G01 X-35.0116 Y23.4522 
G01 X-34.8822 Y23.5816 
G01 X-34.8714 Y23.5888 
G01 X-34.8714 Y25.1051 
G01 X-34.9150 Y25.2104 
G01 X-34.9400 Y25.3360 
G01 X-34.9400 Y25.4640 
G01 X-34.9150 Y25.5896 
G01 X-34.8660 Y25.7079 
G01 X-34.7949 Y25.8144 
G01 X-34.7044 Y25.9049 
G01 X-34.5979 Y25.9760 
G01 X-34.4796 Y26.0250 
G01 X-34.3540 Y26.0500 
G01 X-34.2260 Y26.0500 
G01 X-34.1004 Y26.0250 
G01 X-33.9821 Y25.9760 
G01 X-33.8756 Y25.9049 
G01 X-33.7851 Y25.8144 
G01 X-33.7140 Y25.7079 
G01 X-33.6650 Y25.5896 
G01 X-33.6400 Y25.4640 
G01 X-33.6400 Y25.3360 
G01 X-33.6650 Y25.2104 
G01 X-33.7086 Y25.1051 
G01 X-33.7086 Y23.5888 
G01 X-33.6978 Y23.5816 
G01 X-33.5684 Y23.4522 
G01 X-33.4667 Y23.3000 
G01 X-33.3967 Y23.1310 
G01 X-33.3610 Y22.9515 
G01 X-33.3610 Y22.7685 
G01 X-33.3967 Y22.5890 
G01 X-33.4667 Y22.4200 
G01 X-33.5684 Y22.2678 
G01 X-33.6978 Y22.1384 
G01 X-33.8500 Y22.0367 
G01 X-34.0190 Y21.9667 
G01 X-34.1985 Y21.9310 
G01 X-34.3815 Y21.9310 
G01 X-34.5610 Y21.9667 
G01 X-34.7300 Y22.0367 
G01 X-34.8822 Y22.1384 
G01 X-35.0116 Y22.2678 
G01 X-35.1133 Y22.4200 
G01 X-35.1833 Y22.5890 
G01 X-35.2190 Y22.7685 
G00 Z2.0000 
G00 X-6.6960 Y42.7454 
G01 Z-0.1500 F100.00 
G01 X-6.0040 Y42.7454 F208.00 
G01 X-5.5146 Y42.2560 
G01 X-5.5146 Y41.5640 
G01 X-6.0040 Y41.0746 
G01 X-6.6960 Y41.0746 
G01 X-6.9500 Y41.3286 
G01 X-10.8486 Y41.3286 
G01 X-10.8486 Y32.9427 
G01 X-10.1755 Y32.2696 
G01 X-10.1755 Y31.2304 
G01 X-10.8486 Y30.5573 
G01 X-10.8486 Y23.5888 
G01 X-10.8378 Y23.5816 
G01 X-10.7084 Y23.4522 
G01 X-10.6067 Y23.3000 
G01 X-10.5367 Y23.1310 
G01 X-10.5010 Y22.9515 
G01 X-10.5010 Y22.7685 
G01 X-10.5367 Y22.5890 
G01 X-10.6067 Y22.4200 
G01 X-10.7084 Y22.2678 
G01 X-10.8378 Y22.1384 
G01 X-10.9900 Y22.0367 
G01 X-11.1590 Y21.9667 
G01 X-11.3385 Y21.9310 
G01 X-11.5215 Y21.9310 
G01 X-11.7010 Y21.9667 
G01 X-11.8700 Y22.0367 
G01 X-12.0222 Y22.1384 
G01 X-12.1516 Y22.2678 
G01 X-12.2533 Y22.4200 
G01 X-12.3233 Y22.5890 
G01 X-12.3590 Y22.7685 
G01 X-12.3590 Y22.9515 
G01 X-12.3233 Y23.1310 
G01 X-12.2533 Y23.3000 
G01 X-12.1516 Y23.4522 
G01 X-12.0222 Y23.5816 
G01 X-12.0114 Y23.5888 
G01 X-12.0114 Y30.5573 
G01 X-12.6227 Y31.1686 
G01 X-24.8986 Y31.1686 
G01 X-24.8986 Y29.7617 
G01 X-24.7972 Y29.6603 
G01 X-24.7010 Y29.5164 
G01 X-24.6348 Y29.3564 
G01 X-24.6010 Y29.1866 
G01 X-24.6010 Y29.0134 
G01 X-24.6348 Y28.8436 
G01 X-24.7010 Y28.6836 
G01 X-24.7972 Y28.5397 
G01 X-24.9197 Y28.4172 
G01 X-25.0636 Y28.3210 
G01 X-25.2236 Y28.2548 
G01 X-25.3934 Y28.2210 
G01 X-25.5666 Y28.2210 
G01 X-25.7364 Y28.2548 
G01 X-25.8964 Y28.3210 
G01 X-26.0403 Y28.4172 
G01 X-26.1628 Y28.5397 
G01 X-26.2590 Y28.6836 
G01 X-26.3252 Y28.8436 
G01 X-26.3590 Y29.0134 
G01 X-26.3590 Y29.1866 
G01 X-26.3252 Y29.3564 
G01 X-26.2590 Y29.5164 
G01 X-26.1628 Y29.6603 
G01 X-26.0614 Y29.7617 
G01 X-26.0614 Y31.1686 
G01 X-46.4086 Y31.1686 
G01 X-46.4086 Y24.3604 
G01 X-46.3927 Y24.3498 
G01 X-46.2622 Y24.2193 
G01 X-46.1596 Y24.0658 
G01 X-46.0890 Y23.8953 
G01 X-46.0530 Y23.7143 
G01 X-46.0530 Y22.0057 
G01 X-46.0890 Y21.8247 
G01 X-46.1596 Y21.6542 
G01 X-46.2622 Y21.5007 
G01 X-46.3927 Y21.3702 
G01 X-46.5462 Y21.2676 
G01 X-46.7167 Y21.1970 
G01 X-46.8977 Y21.1610 
G01 X-47.0823 Y21.1610 
G01 X-47.2633 Y21.1970 
G01 X-47.4338 Y21.2676 
G01 X-47.5873 Y21.3702 
G01 X-47.6224 Y21.4053 
G01 X-47.6786 Y21.3492 
G01 X-47.6786 Y6.2202 
G01 X-46.3776 Y6.2202 
G01 X-46.3776 Y6.4931 
G01 X-46.3416 Y6.6741 
G01 X-46.2710 Y6.8446 
G01 X-46.1684 Y6.9981 
G01 X-46.0379 Y7.1286 
G01 X-45.8844 Y7.2312 
G01 X-45.7139 Y7.3018 
G01 X-45.5329 Y7.3378 
G01 X-45.3483 Y7.3378 
G01 X-45.1673 Y7.3018 
G01 X-44.9968 Y7.2312 
G01 X-44.8433 Y7.1286 
G01 X-44.7128 Y6.9981 
G01 X-44.6102 Y6.8446 
G01 X-44.5396 Y6.6741 
G01 X-44.5036 Y6.4931 
G01 X-44.5036 Y4.7845 
G01 X-44.5396 Y4.6035 
G01 X-44.6102 Y4.4330 
G01 X-44.7128 Y4.2795 
G01 X-44.8433 Y4.1490 
G01 X-44.9968 Y4.0464 
G01 X-45.1673 Y3.9758 
G01 X-45.3483 Y3.9398 
G01 X-45.5329 Y3.9398 
G01 X-45.7139 Y3.9758 
G01 X-45.8844 Y4.0464 
G01 X-46.0379 Y4.1490 
G01 X-46.1684 Y4.2795 
G01 X-46.2710 Y4.4330 
G01 X-46.3416 Y4.6035 
G01 X-46.3776 Y4.7845 
G01 X-46.3776 Y5.0574 
G01 X-48.0750 Y5.0574 
G01 X-48.1873 Y5.0797 
G01 X-48.2931 Y5.1236 
G01 X-48.3883 Y5.1872 
G01 X-48.4693 Y5.2682 
G01 X-48.6306 Y5.4295 
G01 X-48.7116 Y5.5105 
G01 X-48.7752 Y5.6057 
G01 X-48.8191 Y5.7115 
G01 X-48.8414 Y5.8238 
G01 X-48.8414 Y21.6473 
G01 X-48.8191 Y21.7596 
G01 X-48.7752 Y21.8654 
G01 X-48.7116 Y21.9606 
G01 X-48.6306 Y22.0416 
G01 X-47.9270 Y22.7452 
G01 X-47.9270 Y23.7143 
G01 X-47.8910 Y23.8953 
G01 X-47.8204 Y24.0658 
G01 X-47.7178 Y24.2193 
G01 X-47.5873 Y24.3498 
G01 X-47.5714 Y24.3604 
G01 X-47.5714 Y36.5996 
G01 X-47.5873 Y36.6102 
G01 X-47.7178 Y36.7407 
G01 X-47.8204 Y36.8942 
G01 X-47.8910 Y37.0647 
G01 X-47.9270 Y37.2457 
G01 X-47.9270 Y38.9543 
G01 X-47.8910 Y39.1353 
G01 X-47.8204 Y39.3058 
G01 X-47.7178 Y39.4593 
G01 X-47.5873 Y39.5898 
G01 X-47.4338 Y39.6924 
G01 X-47.2633 Y39.7630 
G01 X-47.0823 Y39.7990 
G01 X-46.8977 Y39.7990 
G01 X-46.7167 Y39.7630 
G01 X-46.5462 Y39.6924 
G01 X-46.3927 Y39.5898 
G01 X-46.2622 Y39.4593 
G01 X-46.1596 Y39.3058 
G01 X-46.0890 Y39.1353 
G01 X-46.0530 Y38.9543 
G01 X-46.0530 Y37.2457 
G01 X-46.0890 Y37.0647 
G01 X-46.1596 Y36.8942 
G01 X-46.2622 Y36.7407 
G01 X-46.3927 Y36.6102 
G01 X-46.4086 Y36.5996 
G01 X-46.4086 Y32.3314 
G01 X-12.6227 Y32.3314 
G01 X-12.0114 Y32.9427 
G01 X-12.0114 Y41.9673 
G01 X-11.9891 Y42.0796 
G01 X-11.9452 Y42.1854 
G01 X-11.8816 Y42.2806 
G01 X-11.8006 Y42.3616 
G01 X-11.7054 Y42.4252 
G01 X-11.5996 Y42.4691 
G01 X-11.4873 Y42.4914 
G01 X-6.9500 Y42.4914 
G01 X-6.6960 Y42.7454 
G00 Z2.0000 
G00 X-43.5130 Y38.9543 
G01 Z-0.1500 F100.00 
G01 X-43.5130 Y37.2457 F208.00 
G01 X-43.5490 Y37.0647 
G01 X-43.6196 Y36.8942 
G01 X-43.7222 Y36.7407 
G01 X-43.8527 Y36.6102 
G01 X-44.0062 Y36.5076 
G01 X-44.1767 Y36.4370 
G01 X-44.3577 Y36.4010 
G01 X-44.5423 Y36.4010 
G01 X-44.7233 Y36.4370 
G01 X-44.8938 Y36.5076 
G01 X-45.0473 Y36.6102 
G01 X-45.1778 Y36.7407 
G01 X-45.2804 Y36.8942 
G01 X-45.3510 Y37.0647 
G01 X-45.3870 Y37.2457 
G01 X-45.3870 Y38.9543 
G01 X-45.3510 Y39.1353 
G01 X-45.2804 Y39.3058 
G01 X-45.1778 Y39.4593 
G01 X-45.0473 Y39.5898 
G01 X-45.0314 Y39.6004 
G01 X-45.0314 Y41.3286 
G01 X-50.2186 Y41.3286 
G01 X-50.2186 Y3.1214 
G01 X-29.7914 Y3.1214 
G01 X-29.7914 Y6.8912 
G01 X-29.8022 Y6.8984 
G01 X-29.9316 Y7.0278 
G01 X-30.0333 Y7.1800 
G01 X-30.1033 Y7.3490 
G01 X-30.1390 Y7.5285 
G01 X-30.1390 Y7.7115 
G01 X-30.1033 Y7.8910 
G01 X-30.0333 Y8.0600 
G01 X-29.9316 Y8.2122 
G01 X-29.8022 Y8.3416 
G01 X-29.6500 Y8.4433 
G01 X-29.4810 Y8.5133 
G01 X-29.3015 Y8.5490 
G01 X-29.1185 Y8.5490 
G01 X-28.9390 Y8.5133 
G01 X-28.7700 Y8.4433 
G01 X-28.6178 Y8.3416 
G01 X-28.4884 Y8.2122 
G01 X-28.3867 Y8.0600 
G01 X-28.3167 Y7.8910 
G01 X-28.2810 Y7.7115 
G01 X-28.2810 Y7.5285 
G01 X-28.3167 Y7.3490 
G01 X-28.3867 Y7.1800 
G01 X-28.4884 Y7.0278 
G01 X-28.6178 Y6.8984 
G01 X-28.6286 Y6.8912 
G01 X-28.6286 Y2.4827 
G01 X-28.6509 Y2.3704 
G01 X-28.6948 Y2.2646 
G01 X-28.7584 Y2.1694 
G01 X-28.8394 Y2.0884 
G01 X-28.9346 Y2.0248 
G01 X-29.0404 Y1.9809 
G01 X-29.1527 Y1.9586 
G01 X-50.8573 Y1.9586 
G01 X-50.9696 Y1.9809 
G01 X-51.0754 Y2.0248 
G01 X-51.1706 Y2.0884 
G01 X-51.2516 Y2.1694 
G01 X-51.3152 Y2.2646 
G01 X-51.3591 Y2.3704 
G01 X-51.3814 Y2.4827 
G01 X-51.3814 Y41.9673 
G01 X-51.3591 Y42.0796 
G01 X-51.3152 Y42.1854 
G01 X-51.2516 Y42.2806 
G01 X-51.1706 Y42.3616 
G01 X-51.0754 Y42.4252 
G01 X-50.9696 Y42.4691 
G01 X-50.8573 Y42.4914 
G01 X-44.3927 Y42.4914 
G01 X-44.2804 Y42.4691 
G01 X-44.1746 Y42.4252 
G01 X-44.0794 Y42.3616 
G01 X-43.9984 Y42.2806 
G01 X-43.9348 Y42.1854 
G01 X-43.8909 Y42.0796 
G01 X-43.8686 Y41.9673 
G01 X-43.8686 Y39.6004 
G01 X-43.8527 Y39.5898 
G01 X-43.7222 Y39.4593 
G01 X-43.6196 Y39.3058 
G01 X-43.5490 Y39.1353 
G01 X-43.5130 Y38.9543 
G00 Z2.0000 
G00 X-40.9730 Y38.9543 
G01 Z-0.1500 F100.00 
G01 X-40.9730 Y37.2457 F208.00 
G01 X-41.0090 Y37.0647 
G01 X-41.0796 Y36.8942 
G01 X-41.1822 Y36.7407 
G01 X-41.3127 Y36.6102 
G01 X-41.3286 Y36.5996 
G01 X-41.3286 Y35.8549 
G01 X-41.2850 Y35.7496 
G01 X-41.2600 Y35.6240 
G01 X-41.2600 Y35.4960 
G01 X-41.2850 Y35.3704 
G01 X-41.3340 Y35.2521 
G01 X-41.4051 Y35.1456 
G01 X-41.4956 Y35.0551 
G01 X-41.6021 Y34.9840 
G01 X-41.7204 Y34.9350 
G01 X-41.8460 Y34.9100 
G01 X-41.9740 Y34.9100 
G01 X-42.0996 Y34.9350 
G01 X-42.2179 Y34.9840 
G01 X-42.3244 Y35.0551 
G01 X-42.4149 Y35.1456 
G01 X-42.4860 Y35.2521 
G01 X-42.5350 Y35.3704 
G01 X-42.5600 Y35.4960 
G01 X-42.5600 Y35.6240 
G01 X-42.5350 Y35.7496 
G01 X-42.4914 Y35.8549 
G01 X-42.4914 Y36.5996 
G01 X-42.5073 Y36.6102 
G01 X-42.6378 Y36.7407 
G01 X-42.7404 Y36.8942 
G01 X-42.8110 Y37.0647 
G01 X-42.8470 Y37.2457 
G01 X-42.8470 Y38.9543 
G01 X-42.8110 Y39.1353 
G01 X-42.7404 Y39.3058 
G01 X-42.6378 Y39.4593 
G01 X-42.5073 Y39.5898 
G01 X-42.3538 Y39.6924 
G01 X-42.1833 Y39.7630 
G01 X-42.0023 Y39.7990 
G01 X-41.8177 Y39.7990 
G01 X-41.6367 Y39.7630 
G01 X-41.4662 Y39.6924 
G01 X-41.3127 Y39.5898 
G01 X-41.1822 Y39.4593 
G01 X-41.0796 Y39.3058 
G01 X-41.0090 Y39.1353 
G01 X-40.9730 Y38.9543 
G00 Z2.0000 
G00 X-16.1754 Y19.9325 
G01 Z-0.1500 F100.00 
G01 X-16.1754 Y20.7075 F208.00 
G01 X-15.9214 Y20.9615 
G01 X-15.9214 Y21.3078 
G01 X-16.4446 Y21.8310 
G01 X-16.6113 Y21.8310 
G01 X-16.8101 Y21.8705 
G01 X-16.9974 Y21.9481 
G01 X-17.1659 Y22.0607 
G01 X-17.3093 Y22.2041 
G01 X-17.4219 Y22.3726 
G01 X-17.4995 Y22.5599 
G01 X-17.5390 Y22.7586 
G01 X-17.5390 Y22.9613 
G01 X-17.4995 Y23.1601 
G01 X-17.4219 Y23.3474 
G01 X-17.3093 Y23.5159 
G01 X-17.1914 Y23.6338 
G01 X-17.1914 Y28.5286 
G01 X-22.6844 Y28.5286 
G01 X-22.7196 Y28.4759 
G01 X-22.7986 Y28.3969 
G01 X-22.7986 Y25.9829 
G01 X-22.8248 Y25.8512 
G01 X-22.8762 Y25.7272 
G01 X-22.9507 Y25.6156 
G01 X-23.6956 Y24.8707 
G01 X-23.8072 Y24.7962 
G01 X-23.9312 Y24.7448 
G01 X-24.0629 Y24.7186 
G01 X-24.1971 Y24.7186 
G01 X-24.3288 Y24.7448 
G01 X-24.4528 Y24.7962 
G01 X-24.5644 Y24.8707 
G01 X-24.6593 Y24.9656 
G01 X-24.7338 Y25.0772 
G01 X-24.7852 Y25.2012 
G01 X-24.8114 Y25.3329 
G01 X-24.8114 Y25.4671 
G01 X-24.7852 Y25.5988 
G01 X-24.7338 Y25.7228 
G01 X-24.6593 Y25.8344 
G01 X-24.1614 Y26.3322 
G01 X-24.1614 Y28.3969 
G01 X-24.2404 Y28.4759 
G01 X-24.3476 Y28.6363 
G01 X-24.4214 Y28.8144 
G01 X-24.4590 Y29.0036 
G01 X-24.4590 Y29.1964 
G01 X-24.4214 Y29.3856 
G01 X-24.3476 Y29.5637 
G01 X-24.2404 Y29.7241 
G01 X-24.1041 Y29.8604 
G01 X-23.9437 Y29.9676 
G01 X-23.7656 Y30.0414 
G01 X-23.5764 Y30.0790 
G01 X-23.3836 Y30.0790 
G01 X-23.1944 Y30.0414 
G01 X-23.0163 Y29.9676 
G01 X-22.9023 Y29.8914 
G01 X-16.4429 Y29.8914 
G01 X-16.3112 Y29.8652 
G01 X-16.1872 Y29.8138 
G01 X-16.0756 Y29.7393 
G01 X-15.9807 Y29.6444 
G01 X-15.9062 Y29.5328 
G01 X-15.8548 Y29.4088 
G01 X-15.8286 Y29.2771 
G01 X-15.8286 Y23.6338 
G01 X-15.7107 Y23.5159 
G01 X-15.5981 Y23.3474 
G01 X-15.5205 Y23.1601 
G01 X-15.4810 Y22.9613 
G01 X-15.4810 Y22.7946 
G01 X-14.8056 Y22.1193 
G01 X-14.7107 Y22.0244 
G01 X-14.6362 Y21.9128 
G01 X-14.5848 Y21.7888 
G01 X-14.5586 Y21.6571 
G01 X-14.5586 Y20.9615 
G01 X-14.3046 Y20.7075 
G01 X-14.3046 Y19.9325 
G01 X-14.8525 Y19.3846 
G01 X-15.6275 Y19.3846 
G01 X-16.1754 Y19.9325 
G00 Z2.0000 
G00 X-10.2250 Y16.7438 
G01 Z-0.1500 F100.00 
G01 X-10.2437 Y16.6739 F208.00 
G01 X-10.2799 Y16.6111 
G01 X-10.3311 Y16.5599 
G01 X-10.3939 Y16.5237 
G01 X-10.4638 Y16.5050 
G01 X-12.1362 Y16.5050 
G01 X-12.2061 Y16.5237 
G01 X-12.2689 Y16.5599 
G01 X-12.3201 Y16.6111 
G01 X-12.3563 Y16.6739 
G01 X-12.3750 Y16.7438 
G01 X-12.3750 Y18.8162 
G01 X-12.3563 Y18.8861 
G01 X-12.3201 Y18.9489 
G01 X-12.2689 Y19.0001 
G01 X-12.2061 Y19.0363 
G01 X-12.1362 Y19.0550 
G01 X-10.8414 Y19.0550 
G01 X-10.8414 Y21.6571 
G01 X-10.8152 Y21.7888 
G01 X-10.7638 Y21.9128 
G01 X-10.6893 Y22.0244 
G01 X-10.5944 Y22.1193 
G01 X-9.9190 Y22.7946 
G01 X-9.9190 Y22.9613 
G01 X-9.8795 Y23.1601 
G01 X-9.8019 Y23.3474 
G01 X-9.6893 Y23.5159 
G01 X-9.5714 Y23.6338 
G01 X-9.5714 Y25.4359 
G01 X-10.2445 Y26.1089 
G01 X-10.2445 Y27.2310 
G01 X-9.4511 Y28.0245 
G01 X-8.3289 Y28.0245 
G01 X-7.5355 Y27.2310 
G01 X-7.5355 Y26.1089 
G01 X-8.2086 Y25.4359 
G01 X-8.2086 Y23.6338 
G01 X-8.0907 Y23.5159 
G01 X-7.9781 Y23.3474 
G01 X-7.9005 Y23.1601 
G01 X-7.8610 Y22.9613 
G01 X-7.8610 Y22.7586 
G01 X-7.9005 Y22.5599 
G01 X-7.9781 Y22.3726 
G01 X-8.0907 Y22.2041 
G01 X-8.2340 Y22.0607 
G01 X-8.4026 Y21.9481 
G01 X-8.5899 Y21.8705 
G01 X-8.7887 Y21.8310 
G01 X-8.9554 Y21.8310 
G01 X-9.4786 Y21.3078 
G01 X-9.4786 Y17.7129 
G01 X-9.5048 Y17.5812 
G01 X-9.5562 Y17.4572 
G01 X-9.6307 Y17.3456 
G01 X-9.7256 Y17.2507 
G01 X-9.8372 Y17.1761 
G01 X-9.9612 Y17.1248 
G01 X-10.0929 Y17.0986 
G01 X-10.2250 Y17.0986 
G01 X-10.2250 Y16.7438 
G00 Z2.0000 
G00 X-13.0250 Y18.8162 
G01 Z-0.1500 F100.00 
G01 X-13.0250 Y16.7438 F208.00 
G01 X-13.0437 Y16.6739 
G01 X-13.0799 Y16.6111 
G01 X-13.1311 Y16.5599 
G01 X-13.1939 Y16.5237 
G01 X-13.2638 Y16.5050 
G01 X-14.9362 Y16.5050 
G01 X-15.0061 Y16.5237 
G01 X-15.0689 Y16.5599 
G01 X-15.1201 Y16.6111 
G01 X-15.1563 Y16.6739 
G01 X-15.1750 Y16.7438 
G01 X-15.1750 Y17.0986 
G01 X-26.0285 Y17.0986 
G01 X-26.2825 Y16.8446 
G01 X-27.0575 Y16.8446 
G01 X-27.6054 Y17.3925 
G01 X-27.6054 Y18.1675 
G01 X-27.3514 Y18.4215 
G01 X-27.3514 Y22.0862 
G01 X-27.4693 Y22.2041 
G01 X-27.5819 Y22.3726 
G01 X-27.6595 Y22.5599 
G01 X-27.6990 Y22.7586 
G01 X-27.6990 Y22.9613 
G01 X-27.6595 Y23.1601 
G01 X-27.5819 Y23.3474 
G01 X-27.4693 Y23.5159 
G01 X-27.3259 Y23.6593 
G01 X-27.1574 Y23.7719 
G01 X-26.9701 Y23.8495 
G01 X-26.7713 Y23.8890 
G01 X-26.5687 Y23.8890 
G01 X-26.3698 Y23.8495 
G01 X-26.1826 Y23.7719 
G01 X-26.0141 Y23.6593 
G01 X-25.8707 Y23.5159 
G01 X-25.7581 Y23.3474 
G01 X-25.6805 Y23.1601 
G01 X-25.6410 Y22.9613 
G01 X-25.6410 Y22.7586 
G01 X-25.6805 Y22.5599 
G01 X-25.7581 Y22.3726 
G01 X-25.8707 Y22.2041 
G01 X-25.9886 Y22.0862 
G01 X-25.9886 Y18.4614 
G01 X-15.1750 Y18.4614 
G01 X-15.1750 Y18.8162 
G01 X-15.1563 Y18.8861 
G01 X-15.1201 Y18.9489 
G01 X-15.0689 Y19.0001 
G01 X-15.0061 Y19.0363 
G01 X-14.9362 Y19.0550 
G01 X-13.2638 Y19.0550 
G01 X-13.1939 Y19.0363 
G01 X-13.1311 Y19.0001 
G01 X-13.0799 Y18.9489 
G01 X-13.0437 Y18.8861 
G01 X-13.0250 Y18.8162 
G00 Z2.0000 
G00 X-7.3862 Y30.5450 
G01 Z-0.1500 F100.00 
G01 X-7.4561 Y30.5637 F208.00 
G01 X-7.5189 Y30.5999 
G01 X-7.5701 Y30.6511 
G01 X-7.6063 Y30.7139 
G01 X-7.6250 Y30.7838 
G01 X-7.6250 Y32.4562 
G01 X-7.6063 Y32.5261 
G01 X-7.5701 Y32.5889 
G01 X-7.5189 Y32.6401 
G01 X-7.4561 Y32.6763 
G01 X-7.3862 Y32.6950 
G01 X-5.3138 Y32.6950 
G01 X-5.2439 Y32.6763 
G01 X-5.1811 Y32.6401 
G01 X-5.1299 Y32.5889 
G01 X-5.0937 Y32.5261 
G01 X-5.0750 Y32.4562 
G01 X-5.0750 Y31.1614 
G01 X-2.4729 Y31.1614 
G01 X-2.3412 Y31.1352 
G01 X-2.2172 Y31.0838 
G01 X-2.1056 Y31.0093 
G01 X-2.0107 Y30.9144 
G01 X-1.9362 Y30.8028 
G01 X-1.8848 Y30.6788 
G01 X-1.8586 Y30.5471 
G01 X-1.8586 Y2.4729 
G01 X-1.8848 Y2.3412 
G01 X-1.9362 Y2.2172 
G01 X-2.0107 Y2.1056 
G01 X-2.1056 Y2.0107 
G01 X-2.2172 Y1.9362 
G01 X-2.3412 Y1.8848 
G01 X-2.4729 Y1.8586 
G01 X-24.1971 Y1.8586 
G01 X-24.3288 Y1.8848 
G01 X-24.4528 Y1.9362 
G01 X-24.5644 Y2.0107 
G01 X-24.6593 Y2.1056 
G01 X-24.7338 Y2.2172 
G01 X-24.7852 Y2.3412 
G01 X-24.8114 Y2.4729 
G01 X-24.8114 Y6.8462 
G01 X-24.9293 Y6.9641 
G01 X-25.0419 Y7.1326 
G01 X-25.1195 Y7.3199 
G01 X-25.1590 Y7.5187 
G01 X-25.1590 Y7.7213 
G01 X-25.1195 Y7.9201 
G01 X-25.0419 Y8.1074 
G01 X-24.9293 Y8.2759 
G01 X-24.7859 Y8.4193 
G01 X-24.6174 Y8.5319 
G01 X-24.4301 Y8.6095 
G01 X-24.2313 Y8.6490 
G01 X-24.0287 Y8.6490 
G01 X-23.8299 Y8.6095 
G01 X-23.6426 Y8.5319 
G01 X-23.4741 Y8.4193 
G01 X-23.3307 Y8.2759 
G01 X-23.2181 Y8.1074 
G01 X-23.1405 Y7.9201 
G01 X-23.1010 Y7.7213 
G01 X-23.1010 Y7.5187 
G01 X-23.1405 Y7.3199 
G01 X-23.2181 Y7.1326 
G01 X-23.3307 Y6.9641 
G01 X-23.4486 Y6.8462 
G01 X-23.4486 Y3.2214 
G01 X-3.2214 Y3.2214 
G01 X-3.2214 Y29.7986 
G01 X-6.4171 Y29.7986 
G01 X-6.5488 Y29.8248 
G01 X-6.6728 Y29.8762 
G01 X-6.7844 Y29.9507 
G01 X-6.8793 Y30.0456 
G01 X-6.9538 Y30.1572 
G01 X-7.0052 Y30.2812 
G01 X-7.0314 Y30.4129 
G01 X-7.0314 Y30.5450 
G01 X-7.3862 Y30.5450 
G00 Z2.0000 
G00 X-5.3138 Y33.3450 
G01 Z-0.1500 F100.00 
G01 X-7.3862 Y33.3450 F208.00 
G01 X-7.4561 Y33.3637 
G01 X-7.5189 Y33.3999 
G01 X-7.5701 Y33.4511 
G01 X-7.6063 Y33.5139 
G01 X-7.6250 Y33.5838 
G01 X-7.6250 Y35.2562 
G01 X-7.6063 Y35.3261 
G01 X-7.5701 Y35.3889 
G01 X-7.5189 Y35.4401 
G01 X-7.4561 Y35.4763 
G01 X-7.3862 Y35.4950 
G01 X-7.0314 Y35.4950 
G01 X-7.0314 Y38.7285 
G01 X-7.2854 Y38.9825 
G01 X-7.2854 Y39.7575 
G01 X-6.7375 Y40.3054 
G01 X-5.9625 Y40.3054 
G01 X-5.4146 Y39.7575 
G01 X-5.4146 Y38.9825 
G01 X-5.6686 Y38.7285 
G01 X-5.6686 Y35.4950 
G01 X-5.3138 Y35.4950 
G01 X-5.2439 Y35.4763 
G01 X-5.1811 Y35.4401 
G01 X-5.1299 Y35.3889 
G01 X-5.0937 Y35.3261 
G01 X-5.0750 Y35.2562 
G01 X-5.0750 Y33.5838 
G01 X-5.0937 Y33.5139 
G01 X-5.1299 Y33.4511 
G01 X-5.1811 Y33.3999 
G01 X-5.2439 Y33.3637 
G01 X-5.3138 Y33.3450 
G00 Z2.0000 
G00 X-43.4130 Y23.7036 
G01 Z-0.1500 F100.00 
G01 X-43.4130 Y22.0164 F208.00 
G01 X-43.4385 Y21.8552 
G01 X-43.4890 Y21.6999 
G01 X-43.5631 Y21.5545 
G01 X-43.6590 Y21.4224 
G01 X-43.7686 Y21.3129 
G01 X-43.7686 Y19.3322 
G01 X-37.8178 Y13.3814 
G01 X-15.8815 Y13.3814 
G01 X-15.6275 Y13.6354 
G01 X-14.8525 Y13.6354 
G01 X-14.3046 Y13.0875 
G01 X-14.3046 Y12.3125 
G01 X-14.8525 Y11.7646 
G01 X-15.6275 Y11.7646 
G01 X-15.8815 Y12.0186 
G01 X-20.9086 Y12.0186 
G01 X-20.9086 Y8.3938 
G01 X-20.7907 Y8.2759 
G01 X-20.6781 Y8.1074 
G01 X-20.6005 Y7.9201 
G01 X-20.5610 Y7.7213 
G01 X-20.5610 Y7.5187 
G01 X-20.6005 Y7.3199 
G01 X-20.6781 Y7.1326 
G01 X-20.7907 Y6.9641 
G01 X-20.9341 Y6.8207 
G01 X-21.1026 Y6.7081 
G01 X-21.2899 Y6.6305 
G01 X-21.4886 Y6.5910 
G01 X-21.6913 Y6.5910 
G01 X-21.8901 Y6.6305 
G01 X-22.0774 Y6.7081 
G01 X-22.2459 Y6.8207 
G01 X-22.3893 Y6.9641 
G01 X-22.5019 Y7.1326 
G01 X-22.5795 Y7.3199 
G01 X-22.6190 Y7.5187 
G01 X-22.6190 Y7.7213 
G01 X-22.5795 Y7.9201 
G01 X-22.5019 Y8.1074 
G01 X-22.3893 Y8.2759 
G01 X-22.2714 Y8.3938 
G01 X-22.2714 Y12.0186 
G01 X-38.1671 Y12.0186 
G01 X-38.2988 Y12.0448 
G01 X-38.4228 Y12.0961 
G01 X-38.5344 Y12.1707 
G01 X-44.8844 Y18.5207 
G01 X-44.9793 Y18.6156 
G01 X-45.0538 Y18.7272 
G01 X-45.1052 Y18.8512 
G01 X-45.1314 Y18.9829 
G01 X-45.1314 Y21.3129 
G01 X-45.2410 Y21.4224 
G01 X-45.3369 Y21.5545 
G01 X-45.4110 Y21.6999 
G01 X-45.4615 Y21.8552 
G01 X-45.4870 Y22.0164 
G01 X-45.4870 Y23.7036 
G01 X-45.4615 Y23.8648 
G01 X-45.4110 Y24.0201 
G01 X-45.3369 Y24.1655 
G01 X-45.2410 Y24.2976 
G01 X-45.1256 Y24.4130 
G01 X-44.9935 Y24.5089 
G01 X-44.8481 Y24.5830 
G01 X-44.6928 Y24.6335 
G01 X-44.5316 Y24.6590 
G01 X-44.3684 Y24.6590 
G01 X-44.2072 Y24.6335 
G01 X-44.0519 Y24.5830 
G01 X-43.9065 Y24.5089 
G01 X-43.7744 Y24.4130 
G01 X-43.6590 Y24.2976 
G01 X-43.5631 Y24.1655 
G01 X-43.4890 Y24.0201 
G01 X-43.4385 Y23.8648 
G01 X-43.4130 Y23.7036 
G00 Z2.0000 
G00 X-40.8730 Y23.7036 
G01 Z-0.1500 F100.00 
G01 X-40.8730 Y22.0164 F208.00 
G01 X-40.8985 Y21.8552 
G01 X-40.9490 Y21.6999 
G01 X-41.0231 Y21.5545 
G01 X-41.1190 Y21.4224 
G01 X-41.2344 Y21.3070 
G01 X-41.3665 Y21.2111 
G01 X-41.5119 Y21.1370 
G01 X-41.6672 Y21.0865 
G01 X-41.8284 Y21.0610 
G01 X-41.9916 Y21.0610 
G01 X-42.1528 Y21.0865 
G01 X-42.3081 Y21.1370 
G01 X-42.4535 Y21.2111 
G01 X-42.5856 Y21.3070 
G01 X-42.7010 Y21.4224 
G01 X-42.7969 Y21.5545 
G01 X-42.8710 Y21.6999 
G01 X-42.9215 Y21.8552 
G01 X-42.9470 Y22.0164 
G01 X-42.9470 Y23.7036 
G01 X-42.9215 Y23.8648 
G01 X-42.8710 Y24.0201 
G01 X-42.7969 Y24.1655 
G01 X-42.7010 Y24.2976 
G01 X-42.5914 Y24.4071 
G01 X-42.5914 Y25.1058 
G01 X-42.6236 Y25.1835 
G01 X-42.6521 Y25.3269 
G01 X-42.6521 Y25.4731 
G01 X-42.6236 Y25.6165 
G01 X-42.5676 Y25.7515 
G01 X-42.4864 Y25.8731 
G01 X-42.3831 Y25.9764 
G01 X-42.2615 Y26.0576 
G01 X-42.1265 Y26.1136 
G01 X-41.9831 Y26.1421 
G01 X-41.8369 Y26.1421 
G01 X-41.6935 Y26.1136 
G01 X-41.5585 Y26.0576 
G01 X-41.4369 Y25.9764 
G01 X-41.3336 Y25.8731 
G01 X-41.2524 Y25.7515 
G01 X-41.1964 Y25.6165 
G01 X-41.1679 Y25.4731 
G01 X-41.1679 Y25.3269 
G01 X-41.1964 Y25.1835 
G01 X-41.2286 Y25.1058 
G01 X-41.2286 Y24.4071 
G01 X-41.1190 Y24.2976 
G01 X-41.0231 Y24.1655 
G01 X-40.9490 Y24.0201 
G01 X-40.8985 Y23.8648 
G01 X-40.8730 Y23.7036 
G00 Z2.0000 
G00 X-35.0800 Y47.0134 
G01 Z-0.1500 F100.00 
G01 X-35.0800 Y47.1866 F208.00 
G01 X-35.0529 Y47.3576 
G01 X-34.9994 Y47.5223 
G01 X-34.9208 Y47.6765 
G01 X-34.8190 Y47.8166 
G01 X-34.6966 Y47.9390 
G01 X-34.5565 Y48.0408 
G01 X-34.4023 Y48.1194 
G01 X-34.2376 Y48.1729 
G01 X-34.0666 Y48.2000 
G01 X-33.8934 Y48.2000 
G01 X-33.7224 Y48.1729 
G01 X-33.5577 Y48.1194 
G01 X-33.4035 Y48.0408 
G01 X-33.2634 Y47.9390 
G01 X-33.1410 Y47.8166 
G01 X-33.0392 Y47.6765 
G01 X-32.9606 Y47.5223 
G01 X-32.9071 Y47.3576 
G01 X-32.8800 Y47.1866 
G01 X-32.8800 Y47.0134 
G01 X-32.9071 Y46.8424 
G01 X-32.9606 Y46.6777 
G01 X-33.0392 Y46.5235 
G01 X-33.1410 Y46.3834 
G01 X-33.2634 Y46.2610 
G01 X-33.4035 Y46.1592 
G01 X-33.5577 Y46.0806 
G01 X-33.7224 Y46.0271 
G01 X-33.8934 Y46.0000 
G01 X-34.0666 Y46.0000 
G01 X-34.2376 Y46.0271 
G01 X-34.4023 Y46.0806 
G01 X-34.5565 Y46.1592 
G01 X-34.6966 Y46.2610 
G01 X-34.8190 Y46.3834 
G01 X-34.9208 Y46.5235 
G01 X-34.9994 Y46.6777 
G01 X-35.0529 Y46.8424 
G01 X-35.0800 Y47.0134 
G00 Z2.0000 
G00 X-30.0800 Y47.0134 
G01 Z-0.1500 F100.00 
G01 X-30.0800 Y47.1866 F208.00 
G01 X-30.0529 Y47.3576 
G01 X-29.9994 Y47.5223 
G01 X-29.9208 Y47.6765 
G01 X-29.8190 Y47.8166 
G01 X-29.6966 Y47.9390 
G01 X-29.5565 Y48.0408 
G01 X-29.4023 Y48.1194 
G01 X-29.2376 Y48.1729 
G01 X-29.0666 Y48.2000 
G01 X-28.8934 Y48.2000 
G01 X-28.7224 Y48.1729 
G01 X-28.5577 Y48.1194 
G01 X-28.4035 Y48.0408 
G01 X-28.2634 Y47.9390 
G01 X-28.1410 Y47.8166 
G01 X-28.0392 Y47.6765 
G01 X-27.9606 Y47.5223 
G01 X-27.9071 Y47.3576 
G01 X-27.8800 Y47.1866 
G01 X-27.8800 Y47.0134 
G01 X-27.9071 Y46.8424 
G01 X-27.9606 Y46.6777 
G01 X-28.0392 Y46.5235 
G01 X-28.1410 Y46.3834 
G01 X-28.2634 Y46.2610 
G01 X-28.4035 Y46.1592 
G01 X-28.5577 Y46.0806 
G01 X-28.7224 Y46.0271 
G01 X-28.8934 Y46.0000 
G01 X-29.0666 Y46.0000 
G01 X-29.2376 Y46.0271 
G01 X-29.4023 Y46.0806 
G01 X-29.5565 Y46.1592 
G01 X-29.6966 Y46.2610 
G01 X-29.8190 Y46.3834 
G01 X-29.9208 Y46.5235 
G01 X-29.9994 Y46.6777 
G01 X-30.0529 Y46.8424 
G01 X-30.0800 Y47.0134 
G00 Z2.0000 
G00 X-32.5800 Y47.0134 
G01 Z-0.1500 F100.00 
G01 X-32.5800 Y47.1866 F208.00 
G01 X-32.5529 Y47.3576 
G01 X-32.4994 Y47.5223 
G01 X-32.4208 Y47.6765 
G01 X-32.3190 Y47.8166 
G01 X-32.1966 Y47.9390 
G01 X-32.0565 Y48.0408 
G01 X-31.9023 Y48.1194 
G01 X-31.7376 Y48.1729 
G01 X-31.5666 Y48.2000 
G01 X-31.3934 Y48.2000 
G01 X-31.2224 Y48.1729 
G01 X-31.0577 Y48.1194 
G01 X-30.9035 Y48.0408 
G01 X-30.7634 Y47.9390 
G01 X-30.6410 Y47.8166 
G01 X-30.5392 Y47.6765 
G01 X-30.4606 Y47.5223 
G01 X-30.4071 Y47.3576 
G01 X-30.3800 Y47.1866 
G01 X-30.3800 Y47.0134 
G01 X-30.4071 Y46.8424 
G01 X-30.4606 Y46.6777 
G01 X-30.5392 Y46.5235 
G01 X-30.6410 Y46.3834 
G01 X-30.7634 Y46.2610 
G01 X-30.9035 Y46.1592 
G01 X-31.0577 Y46.0806 
G01 X-31.2224 Y46.0271 
G01 X-31.3934 Y46.0000 
G01 X-31.5666 Y46.0000 
G01 X-31.7376 Y46.0271 
G01 X-31.9023 Y46.0806 
G01 X-32.0565 Y46.1592 
G01 X-32.1966 Y46.2610 
G01 X-32.3190 Y46.3834 
G01 X-32.4208 Y46.5235 
G01 X-32.4994 Y46.6777 
G01 X-32.5529 Y46.8424 
G01 X-32.5800 Y47.0134 
G00 Z2.0000 
G00 X-38.4590 Y29.1964 
G01 Z-0.1500 F100.00 
G01 X-38.4214 Y29.3856 F208.00 
G01 X-38.3476 Y29.5637 
G01 X-38.2404 Y29.7241 
G01 X-38.1041 Y29.8604 
G01 X-37.9437 Y29.9676 
G01 X-37.7656 Y30.0414 
G01 X-37.5764 Y30.0790 
G01 X-37.3836 Y30.0790 
G01 X-37.1944 Y30.0414 
G01 X-37.0163 Y29.9676 
G01 X-36.8559 Y29.8604 
G01 X-36.7196 Y29.7241 
G01 X-36.6124 Y29.5637 
G01 X-36.5386 Y29.3856 
G01 X-36.5010 Y29.1964 
G01 X-36.5010 Y29.0036 
G01 X-36.5386 Y28.8144 
G01 X-36.6124 Y28.6363 
G01 X-36.7196 Y28.4759 
G01 X-36.8559 Y28.3396 
G01 X-37.0163 Y28.2324 
G01 X-37.1944 Y28.1586 
G01 X-37.3836 Y28.1210 
G01 X-37.4186 Y28.1210 
G01 X-37.4186 Y24.4122 
G01 X-36.8954 Y23.8890 
G01 X-36.7287 Y23.8890 
G01 X-36.5299 Y23.8495 
G01 X-36.3426 Y23.7719 
G01 X-36.1741 Y23.6593 
G01 X-36.0307 Y23.5159 
G01 X-35.9181 Y23.3474 
G01 X-35.8405 Y23.1601 
G01 X-35.8010 Y22.9613 
G01 X-35.8010 Y22.7586 
G01 X-35.8405 Y22.5599 
G01 X-35.9181 Y22.3726 
G01 X-36.0307 Y22.2041 
G01 X-36.1741 Y22.0607 
G01 X-36.3426 Y21.9481 
G01 X-36.5299 Y21.8705 
G01 X-36.7287 Y21.8310 
G01 X-36.9313 Y21.8310 
G01 X-37.1301 Y21.8705 
G01 X-37.3174 Y21.9481 
G01 X-37.4859 Y22.0607 
G01 X-37.6293 Y22.2041 
G01 X-37.7419 Y22.3726 
G01 X-37.8195 Y22.5599 
G01 X-37.8590 Y22.7586 
G01 X-37.8590 Y22.9254 
G01 X-38.5344 Y23.6007 
G01 X-38.6293 Y23.6956 
G01 X-38.7038 Y23.8072 
G01 X-38.7552 Y23.9312 
G01 X-38.7814 Y24.0629 
G01 X-38.7814 Y28.5471 
G01 X-38.7552 Y28.6788 
G01 X-38.7038 Y28.8028 
G01 X-38.6293 Y28.9144 
G01 X-38.4590 Y29.0846 
G01 X-38.4590 Y29.1964 
G00 Z2.0000 
G00 X-28.4590 Y29.0036 
G01 Z-0.1500 F100.00 
G01 X-28.4590 Y29.1964 F208.00 
G01 X-28.4214 Y29.3856 
G01 X-28.3476 Y29.5637 
G01 X-28.2404 Y29.7241 
G01 X-28.1041 Y29.8604 
G01 X-27.9437 Y29.9676 
G01 X-27.7656 Y30.0414 
G01 X-27.5764 Y30.0790 
G01 X-27.3836 Y30.0790 
G01 X-27.1944 Y30.0414 
G01 X-27.0163 Y29.9676 
G01 X-26.8559 Y29.8604 
G01 X-26.7196 Y29.7241 
G01 X-26.6124 Y29.5637 
G01 X-26.5386 Y29.3856 
G01 X-26.5010 Y29.1964 
G01 X-26.5010 Y29.0036 
G01 X-26.5386 Y28.8144 
G01 X-26.6124 Y28.6363 
G01 X-26.7196 Y28.4759 
G01 X-26.7986 Y28.3969 
G01 X-26.7986 Y27.7622 
G01 X-26.4108 Y27.3744 
G01 X-26.3147 Y27.3346 
G01 X-26.1919 Y27.2526 
G01 X-26.0874 Y27.1481 
G01 X-26.0054 Y27.0253 
G01 X-25.9488 Y26.8888 
G01 X-25.9200 Y26.7439 
G01 X-25.9200 Y26.5961 
G01 X-25.9488 Y26.4512 
G01 X-26.0054 Y26.3147 
G01 X-26.0874 Y26.1919 
G01 X-26.1919 Y26.0874 
G01 X-26.3147 Y26.0054 
G01 X-26.4512 Y25.9488 
G01 X-26.5961 Y25.9200 
G01 X-26.7439 Y25.9200 
G01 X-26.8888 Y25.9488 
G01 X-27.0253 Y26.0054 
G01 X-27.1481 Y26.0874 
G01 X-27.2526 Y26.1919 
G01 X-27.3346 Y26.3147 
G01 X-27.3744 Y26.4108 
G01 X-28.0093 Y27.0456 
G01 X-28.0838 Y27.1572 
G01 X-28.1352 Y27.2812 
G01 X-28.1614 Y27.4129 
G01 X-28.1614 Y28.3969 
G01 X-28.2404 Y28.4759 
G01 X-28.3476 Y28.6363 
G01 X-28.4214 Y28.8144 
G01 X-28.4590 Y29.0036 
G00 Z2.0000 
G00 X-36.4590 Y29.0036 
G01 Z-0.1500 F100.00 
G01 X-36.4590 Y29.1964 F208.00 
G01 X-36.4214 Y29.3856 
G01 X-36.3476 Y29.5637 
G01 X-36.2404 Y29.7241 
G01 X-36.1041 Y29.8604 
G01 X-35.9437 Y29.9676 
G01 X-35.7656 Y30.0414 
G01 X-35.5764 Y30.0790 
G01 X-35.3836 Y30.0790 
G01 X-35.1944 Y30.0414 
G01 X-35.0163 Y29.9676 
G01 X-34.8559 Y29.8604 
G01 X-34.7196 Y29.7241 
G01 X-34.6124 Y29.5637 
G01 X-34.5386 Y29.3856 
G01 X-34.5010 Y29.1964 
G01 X-34.5010 Y29.0036 
G01 X-34.5386 Y28.8144 
G01 X-34.6124 Y28.6363 
G01 X-34.7196 Y28.4759 
G01 X-34.8559 Y28.3396 
G01 X-34.8786 Y28.3244 
G01 X-34.8786 Y26.9848 
G01 X-34.8388 Y26.8888 
G01 X-34.8100 Y26.7439 
G01 X-34.8100 Y26.5961 
G01 X-34.8388 Y26.4512 
G01 X-34.8954 Y26.3147 
G01 X-34.9774 Y26.1919 
G01 X-35.0819 Y26.0874 
G01 X-35.2047 Y26.0054 
G01 X-35.3412 Y25.9488 
G01 X-35.4861 Y25.9200 
G01 X-35.6339 Y25.9200 
G01 X-35.7788 Y25.9488 
G01 X-35.9153 Y26.0054 
G01 X-36.0381 Y26.0874 
G01 X-36.1426 Y26.1919 
G01 X-36.2246 Y26.3147 
G01 X-36.2812 Y26.4512 
G01 X-36.3100 Y26.5961 
G01 X-36.3100 Y26.7439 
G01 X-36.2812 Y26.8888 
G01 X-36.2414 Y26.9848 
G01 X-36.2414 Y28.4774 
G01 X-36.3476 Y28.6363 
G01 X-36.4214 Y28.8144 
G01 X-36.4590 Y29.0036 
G00 Z2.0000 
G00 X-34.4590 Y29.0036 
G01 Z-0.1500 F100.00 
G01 X-34.4590 Y29.1964 F208.00 
G01 X-34.4214 Y29.3856 
G01 X-34.3476 Y29.5637 
G01 X-34.2404 Y29.7241 
G01 X-34.1041 Y29.8604 
G01 X-33.9437 Y29.9676 
G01 X-33.7656 Y30.0414 
G01 X-33.5764 Y30.0790 
G01 X-33.3836 Y30.0790 
G01 X-33.1944 Y30.0414 
G01 X-33.0163 Y29.9676 
G01 X-32.8559 Y29.8604 
G01 X-32.7196 Y29.7241 
G01 X-32.6124 Y29.5637 
G01 X-32.5386 Y29.3856 
G01 X-32.5010 Y29.1964 
G01 X-32.5010 Y29.0036 
G01 X-32.5386 Y28.8144 
G01 X-32.6124 Y28.6363 
G01 X-32.7196 Y28.4759 
G01 X-32.8559 Y28.3396 
G01 X-33.0163 Y28.2324 
G01 X-33.1944 Y28.1586 
G01 X-33.3836 Y28.1210 
G01 X-33.5764 Y28.1210 
G01 X-33.7656 Y28.1586 
G01 X-33.9437 Y28.2324 
G01 X-34.1041 Y28.3396 
G01 X-34.2404 Y28.4759 
G01 X-34.3476 Y28.6363 
G01 X-34.4214 Y28.8144 
G01 X-34.4590 Y29.0036 
G00 Z2.0000 
G00 X-44.4036 Y12.9848 
G01 Z-0.1500 F100.00 
G01 X-44.4036 Y11.2976 F208.00 
G01 X-44.4291 Y11.1364 
G01 X-44.4796 Y10.9811 
G01 X-44.5537 Y10.8357 
G01 X-44.6496 Y10.7036 
G01 X-44.7650 Y10.5882 
G01 X-44.8971 Y10.4923 
G01 X-45.0425 Y10.4182 
G01 X-45.1978 Y10.3677 
G01 X-45.3590 Y10.3422 
G01 X-45.5222 Y10.3422 
G01 X-45.6834 Y10.3677 
G01 X-45.8387 Y10.4182 
G01 X-45.9841 Y10.4923 
G01 X-46.1162 Y10.5882 
G01 X-46.2316 Y10.7036 
G01 X-46.3275 Y10.8357 
G01 X-46.4016 Y10.9811 
G01 X-46.4521 Y11.1364 
G01 X-46.4776 Y11.2976 
G01 X-46.4776 Y12.9848 
G01 X-46.4521 Y13.1460 
G01 X-46.4016 Y13.3013 
G01 X-46.3275 Y13.4467 
G01 X-46.2316 Y13.5788 
G01 X-46.1162 Y13.6942 
G01 X-45.9841 Y13.7901 
G01 X-45.8387 Y13.8642 
G01 X-45.6834 Y13.9147 
G01 X-45.5222 Y13.9402 
G01 X-45.3590 Y13.9402 
G01 X-45.1978 Y13.9147 
G01 X-45.0425 Y13.8642 
G01 X-44.8971 Y13.7901 
G01 X-44.7650 Y13.6942 
G01 X-44.6496 Y13.5788 
G01 X-44.5537 Y13.4467 
G01 X-44.4796 Y13.3013 
G01 X-44.4291 Y13.1460 
G01 X-44.4036 Y12.9848 
G00 Z2.0000 
G00 X-39.8824 Y12.9848 
G01 Z-0.1500 F100.00 
G01 X-39.8824 Y11.2976 F208.00 
G01 X-39.9079 Y11.1364 
G01 X-39.9584 Y10.9811 
G01 X-40.0325 Y10.8357 
G01 X-40.1284 Y10.7036 
G01 X-40.2438 Y10.5882 
G01 X-40.3759 Y10.4923 
G01 X-40.5213 Y10.4182 
G01 X-40.6766 Y10.3677 
G01 X-40.8378 Y10.3422 
G01 X-41.0010 Y10.3422 
G01 X-41.1622 Y10.3677 
G01 X-41.3175 Y10.4182 
G01 X-41.4629 Y10.4923 
G01 X-41.5950 Y10.5882 
G01 X-41.7104 Y10.7036 
G01 X-41.8063 Y10.8357 
G01 X-41.8804 Y10.9811 
G01 X-41.9309 Y11.1364 
G01 X-41.9564 Y11.2976 
G01 X-41.9564 Y12.9848 
G01 X-41.9309 Y13.1460 
G01 X-41.8804 Y13.3013 
G01 X-41.8063 Y13.4467 
G01 X-41.7104 Y13.5788 
G01 X-41.5950 Y13.6942 
G01 X-41.4629 Y13.7901 
G01 X-41.3175 Y13.8642 
G01 X-41.1622 Y13.9147 
G01 X-41.0010 Y13.9402 
G01 X-40.8378 Y13.9402 
G01 X-40.6766 Y13.9147 
G01 X-40.5213 Y13.8642 
G01 X-40.3759 Y13.7901 
G01 X-40.2438 Y13.6942 
G01 X-40.1284 Y13.5788 
G01 X-40.0325 Y13.4467 
G01 X-39.9584 Y13.3013 
G01 X-39.9079 Y13.1460 
G01 X-39.8824 Y12.9848 
G00 Z2.0000 
G00 X-14.9990 Y7.5187 
G01 Z-0.1500 F100.00 
G01 X-14.9990 Y7.7213 F208.00 
G01 X-14.9595 Y7.9201 
G01 X-14.8819 Y8.1074 
G01 X-14.7693 Y8.2759 
G01 X-14.6259 Y8.4193 
G01 X-14.4574 Y8.5319 
G01 X-14.2701 Y8.6095 
G01 X-14.0713 Y8.6490 
G01 X-13.8687 Y8.6490 
G01 X-13.6699 Y8.6095 
G01 X-13.4826 Y8.5319 
G01 X-13.3140 Y8.4193 
G01 X-13.1707 Y8.2759 
G01 X-13.0581 Y8.1074 
G01 X-12.9805 Y7.9201 
G01 X-12.9410 Y7.7213 
G01 X-12.9410 Y7.5187 
G01 X-12.9805 Y7.3199 
G01 X-13.0581 Y7.1326 
G01 X-13.1707 Y6.9641 
G01 X-13.3140 Y6.8207 
G01 X-13.4826 Y6.7081 
G01 X-13.6699 Y6.6305 
G01 X-13.8687 Y6.5910 
G01 X-14.0713 Y6.5910 
G01 X-14.2701 Y6.6305 
G01 X-14.4574 Y6.7081 
G01 X-14.6259 Y6.8207 
G01 X-14.7693 Y6.9641 
G01 X-14.8819 Y7.1326 
G01 X-14.9595 Y7.3199 
G01 X-14.9990 Y7.5187 
G00 Z2.0000 
G00 X-9.9190 Y7.5187 
G01 Z-0.1500 F100.00 
G01 X-9.9190 Y7.7213 F208.00 
G01 X-9.8795 Y7.9201 
G01 X-9.8019 Y8.1074 
G01 X-9.6893 Y8.2759 
G01 X-9.5459 Y8.4193 
G01 X-9.3774 Y8.5319 
G01 X-9.1901 Y8.6095 
G01 X-8.9913 Y8.6490 
G01 X-8.7887 Y8.6490 
G01 X-8.5899 Y8.6095 
G01 X-8.4026 Y8.5319 
G01 X-8.2340 Y8.4193 
G01 X-8.0907 Y8.2759 
G01 X-7.9781 Y8.1074 
G01 X-7.9005 Y7.9201 
G01 X-7.8610 Y7.7213 
G01 X-7.8610 Y7.5187 
G01 X-7.9005 Y7.3199 
G01 X-7.9781 Y7.1326 
G01 X-8.0907 Y6.9641 
G01 X-8.2340 Y6.8207 
G01 X-8.4026 Y6.7081 
G01 X-8.5899 Y6.6305 
G01 X-8.7887 Y6.5910 
G01 X-8.9913 Y6.5910 
G01 X-9.1901 Y6.6305 
G01 X-9.3774 Y6.7081 
G01 X-9.5459 Y6.8207 
G01 X-9.6893 Y6.9641 
G01 X-9.8019 Y7.1326 
G01 X-9.8795 Y7.3199 
G01 X-9.9190 Y7.5187 
G00 Z2.0000 
G00 X-12.4590 Y7.5187 
G01 Z-0.1500 F100.00 
G01 X-12.4590 Y7.7213 F208.00 
G01 X-12.4195 Y7.9201 
G01 X-12.3419 Y8.1074 
G01 X-12.2293 Y8.2759 
G01 X-12.0859 Y8.4193 
G01 X-11.9174 Y8.5319 
G01 X-11.7301 Y8.6095 
G01 X-11.5313 Y8.6490 
G01 X-11.3286 Y8.6490 
G01 X-11.1299 Y8.6095 
G01 X-10.9426 Y8.5319 
G01 X-10.7741 Y8.4193 
G01 X-10.6307 Y8.2759 
G01 X-10.5181 Y8.1074 
G01 X-10.4405 Y7.9201 
G01 X-10.4010 Y7.7213 
G01 X-10.4010 Y7.5187 
G01 X-10.4405 Y7.3199 
G01 X-10.5181 Y7.1326 
G01 X-10.6307 Y6.9641 
G01 X-10.7741 Y6.8207 
G01 X-10.9426 Y6.7081 
G01 X-11.1299 Y6.6305 
G01 X-11.3286 Y6.5910 
G01 X-11.5313 Y6.5910 
G01 X-11.7301 Y6.6305 
G01 X-11.9174 Y6.7081 
G01 X-12.0859 Y6.8207 
G01 X-12.2293 Y6.9641 
G01 X-12.3419 Y7.1326 
G01 X-12.4195 Y7.3199 
G01 X-12.4590 Y7.5187 
G00 Z2.0000 
G00 X-17.5390 Y7.5187 
G01 Z-0.1500 F100.00 
G01 X-17.5390 Y7.7213 F208.00 
G01 X-17.4995 Y7.9201 
G01 X-17.4219 Y8.1074 
G01 X-17.3093 Y8.2759 
G01 X-17.1659 Y8.4193 
G01 X-16.9974 Y8.5319 
G01 X-16.8101 Y8.6095 
G01 X-16.6113 Y8.6490 
G01 X-16.4087 Y8.6490 
G01 X-16.2098 Y8.6095 
G01 X-16.0226 Y8.5319 
G01 X-15.8541 Y8.4193 
G01 X-15.7107 Y8.2759 
G01 X-15.5981 Y8.1074 
G01 X-15.5205 Y7.9201 
G01 X-15.4810 Y7.7213 
G01 X-15.4810 Y7.5187 
G01 X-15.5205 Y7.3199 
G01 X-15.5981 Y7.1326 
G01 X-15.7107 Y6.9641 
G01 X-15.8541 Y6.8207 
G01 X-16.0226 Y6.7081 
G01 X-16.2098 Y6.6305 
G01 X-16.4087 Y6.5910 
G01 X-16.6113 Y6.5910 
G01 X-16.8101 Y6.6305 
G01 X-16.9974 Y6.7081 
G01 X-17.1659 Y6.8207 
G01 X-17.3093 Y6.9641 
G01 X-17.4219 Y7.1326 
G01 X-17.4995 Y7.3199 
G01 X-17.5390 Y7.5187 
G00 Z2.0000 
G00 X-20.0790 Y7.5187 
G01 Z-0.1500 F100.00 
G01 X-20.0790 Y7.7213 F208.00 
G01 X-20.0395 Y7.9201 
G01 X-19.9619 Y8.1074 
G01 X-19.8493 Y8.2759 
G01 X-19.7314 Y8.3938 
G01 X-19.7314 Y9.8452 
G01 X-19.7712 Y9.9412 
G01 X-19.8000 Y10.0861 
G01 X-19.8000 Y10.2339 
G01 X-19.7712 Y10.3788 
G01 X-19.7146 Y10.5153 
G01 X-19.6326 Y10.6381 
G01 X-19.5281 Y10.7426 
G01 X-19.4053 Y10.8246 
G01 X-19.2688 Y10.8812 
G01 X-19.1239 Y10.9100 
G01 X-18.9761 Y10.9100 
G01 X-18.8312 Y10.8812 
G01 X-18.6947 Y10.8246 
G01 X-18.5719 Y10.7426 
G01 X-18.4674 Y10.6381 
G01 X-18.3854 Y10.5153 
G01 X-18.3288 Y10.3788 
G01 X-18.3000 Y10.2339 
G01 X-18.3000 Y10.0861 
G01 X-18.3288 Y9.9412 
G01 X-18.3686 Y9.8452 
G01 X-18.3686 Y8.3938 
G01 X-18.2507 Y8.2759 
G01 X-18.1381 Y8.1074 
G01 X-18.0605 Y7.9201 
G01 X-18.0210 Y7.7213 
G01 X-18.0210 Y7.5187 
G01 X-18.0605 Y7.3199 
G01 X-18.1381 Y7.1326 
G01 X-18.2507 Y6.9641 
G01 X-18.3941 Y6.8207 
G01 X-18.5626 Y6.7081 
G01 X-18.7499 Y6.6305 
G01 X-18.9487 Y6.5910 
G01 X-19.1513 Y6.5910 
G01 X-19.3501 Y6.6305 
G01 X-19.5374 Y6.7081 
G01 X-19.7059 Y6.8207 
G01 X-19.8493 Y6.9641 
G01 X-19.9619 Y7.1326 
G01 X-20.0395 Y7.3199 
G01 X-20.0790 Y7.5187 
G00 Z2.0000 
G00 X-27.6990 Y7.5187 
G01 Z-0.1500 F100.00 
G01 X-27.6990 Y7.7213 F208.00 
G01 X-27.6595 Y7.9201 
G01 X-27.5819 Y8.1074 
G01 X-27.4693 Y8.2759 
G01 X-27.3514 Y8.3938 
G01 X-27.3514 Y9.5185 
G01 X-27.6054 Y9.7725 
G01 X-27.6054 Y10.5475 
G01 X-27.0575 Y11.0954 
G01 X-26.2825 Y11.0954 
G01 X-25.7346 Y10.5475 
G01 X-25.7346 Y9.7725 
G01 X-25.9886 Y9.5185 
G01 X-25.9886 Y8.3938 
G01 X-25.8707 Y8.2759 
G01 X-25.7581 Y8.1074 
G01 X-25.6805 Y7.9201 
G01 X-25.6410 Y7.7213 
G01 X-25.6410 Y7.5187 
G01 X-25.6805 Y7.3199 
G01 X-25.7581 Y7.1326 
G01 X-25.8707 Y6.9641 
G01 X-26.0141 Y6.8207 
G01 X-26.1826 Y6.7081 
G01 X-26.3698 Y6.6305 
G01 X-26.5687 Y6.5910 
G01 X-26.7713 Y6.5910 
G01 X-26.9701 Y6.6305 
G01 X-27.1574 Y6.7081 
G01 X-27.3259 Y6.8207 
G01 X-27.4693 Y6.9641 
G01 X-27.5819 Y7.1326 
G01 X-27.6595 Y7.3199 
G01 X-27.6990 Y7.5187 
G00 Z2.0000 
G00 X-32.7790 Y7.5187 
G01 Z-0.1500 F100.00 
G01 X-32.7790 Y7.7213 F208.00 
G01 X-32.7395 Y7.9201 
G01 X-32.6619 Y8.1074 
G01 X-32.5493 Y8.2759 
G01 X-32.4059 Y8.4193 
G01 X-32.2374 Y8.5319 
G01 X-32.0501 Y8.6095 
G01 X-31.8513 Y8.6490 
G01 X-31.6486 Y8.6490 
G01 X-31.4499 Y8.6095 
G01 X-31.2626 Y8.5319 
G01 X-31.0941 Y8.4193 
G01 X-30.9507 Y8.2759 
G01 X-30.8381 Y8.1074 
G01 X-30.7605 Y7.9201 
G01 X-30.7210 Y7.7213 
G01 X-30.7210 Y7.5187 
G01 X-30.7605 Y7.3199 
G01 X-30.8381 Y7.1326 
G01 X-30.9507 Y6.9641 
G01 X-31.0941 Y6.8207 
G01 X-31.2626 Y6.7081 
G01 X-31.4499 Y6.6305 
G01 X-31.6486 Y6.5910 
G01 X-31.8513 Y6.5910 
G01 X-32.0501 Y6.6305 
G01 X-32.2374 Y6.7081 
G01 X-32.4059 Y6.8207 
G01 X-32.5493 Y6.9641 
G01 X-32.6619 Y7.1326 
G01 X-32.7395 Y7.3199 
G01 X-32.7790 Y7.5187 
G00 Z2.0000 
G00 X-35.3190 Y7.7213 
G01 Z-0.1500 F100.00 
G01 X-35.2795 Y7.9201 F208.00 
G01 X-35.2019 Y8.1074 
G01 X-35.0893 Y8.2759 
G01 X-34.9459 Y8.4193 
G01 X-34.7774 Y8.5319 
G01 X-34.5901 Y8.6095 
G01 X-34.3913 Y8.6490 
G01 X-34.1887 Y8.6490 
G01 X-33.9899 Y8.6095 
G01 X-33.8026 Y8.5319 
G01 X-33.6341 Y8.4193 
G01 X-33.4907 Y8.2759 
G01 X-33.3781 Y8.1074 
G01 X-33.3005 Y7.9201 
G01 X-33.2610 Y7.7213 
G01 X-33.2610 Y7.5187 
G01 X-33.3005 Y7.3199 
G01 X-33.3781 Y7.1326 
G01 X-33.4907 Y6.9641 
G01 X-33.6341 Y6.8207 
G01 X-33.8026 Y6.7081 
G01 X-33.9899 Y6.6305 
G01 X-34.1887 Y6.5910 
G01 X-34.3554 Y6.5910 
G01 X-34.8786 Y6.0678 
G01 X-34.8786 Y5.5717 
G01 X-34.9048 Y5.4400 
G01 X-34.9562 Y5.3160 
G01 X-35.0307 Y5.2044 
G01 X-35.1256 Y5.1095 
G01 X-35.2372 Y5.0350 
G01 X-35.3612 Y4.9836 
G01 X-35.4929 Y4.9574 
G01 X-39.8824 Y4.9574 
G01 X-39.8824 Y4.7952 
G01 X-39.9079 Y4.6340 
G01 X-39.9584 Y4.4787 
G01 X-40.0325 Y4.3333 
G01 X-40.1284 Y4.2012 
G01 X-40.2438 Y4.0858 
G01 X-40.3759 Y3.9899 
G01 X-40.5213 Y3.9158 
G01 X-40.6766 Y3.8653 
G01 X-40.8378 Y3.8398 
G01 X-41.0010 Y3.8398 
G01 X-41.1622 Y3.8653 
G01 X-41.3175 Y3.9158 
G01 X-41.4629 Y3.9899 
G01 X-41.5950 Y4.0858 
G01 X-41.7104 Y4.2012 
G01 X-41.8063 Y4.3333 
G01 X-41.8804 Y4.4787 
G01 X-41.9309 Y4.6340 
G01 X-41.9564 Y4.7952 
G01 X-41.9564 Y6.4824 
G01 X-41.9309 Y6.6436 
G01 X-41.8804 Y6.7989 
G01 X-41.8063 Y6.9443 
G01 X-41.7104 Y7.0764 
G01 X-41.5950 Y7.1918 
G01 X-41.4629 Y7.2877 
G01 X-41.3175 Y7.3618 
G01 X-41.1622 Y7.4123 
G01 X-41.0010 Y7.4378 
G01 X-40.8378 Y7.4378 
G01 X-40.6766 Y7.4123 
G01 X-40.5213 Y7.3618 
G01 X-40.3759 Y7.2877 
G01 X-40.2438 Y7.1918 
G01 X-40.1284 Y7.0764 
G01 X-40.0325 Y6.9443 
G01 X-39.9584 Y6.7989 
G01 X-39.9079 Y6.6436 
G01 X-39.8824 Y6.4824 
G01 X-39.8824 Y6.3202 
G01 X-36.2414 Y6.3202 
G01 X-36.2414 Y6.4171 
G01 X-36.2152 Y6.5488 
G01 X-36.1638 Y6.6728 
G01 X-36.0893 Y6.7844 
G01 X-35.9944 Y6.8793 
G01 X-35.3190 Y7.5546 
G01 X-35.3190 Y7.7213 
G00 Z2.0000 
G00 X-37.8590 Y7.5187 
G01 Z-0.1500 F100.00 
G01 X-37.8590 Y7.7213 F208.00 
G01 X-37.8195 Y7.9201 
G01 X-37.7419 Y8.1074 
G01 X-37.6293 Y8.2759 
G01 X-37.4859 Y8.4193 
G01 X-37.3174 Y8.5319 
G01 X-37.1301 Y8.6095 
G01 X-36.9313 Y8.6490 
G01 X-36.7287 Y8.6490 
G01 X-36.5299 Y8.6095 
G01 X-36.3426 Y8.5319 
G01 X-36.1741 Y8.4193 
G01 X-36.0307 Y8.2759 
G01 X-35.9181 Y8.1074 
G01 X-35.8405 Y7.9201 
G01 X-35.8010 Y7.7213 
G01 X-35.8010 Y7.5187 
G01 X-35.8405 Y7.3199 
G01 X-35.9181 Y7.1326 
G01 X-36.0307 Y6.9641 
G01 X-36.1741 Y6.8207 
G01 X-36.3426 Y6.7081 
G01 X-36.5299 Y6.6305 
G01 X-36.7287 Y6.5910 
G01 X-36.9313 Y6.5910 
G01 X-37.1301 Y6.6305 
G01 X-37.3174 Y6.7081 
G01 X-37.4859 Y6.8207 
G01 X-37.6293 Y6.9641 
G01 X-37.7419 Y7.1326 
G01 X-37.8195 Y7.3199 
G01 X-37.8590 Y7.5187 
G00 Z2.0000 
G00 X-21.3490 Y20.2187 
G01 Z-0.1500 F100.00 
G01 X-21.3490 Y20.4213 F208.00 
G01 X-21.3095 Y20.6201 
G01 X-21.2319 Y20.8074 
G01 X-21.1193 Y20.9759 
G01 X-20.9759 Y21.1193 
G01 X-20.8074 Y21.2319 
G01 X-20.6201 Y21.3095 
G01 X-20.4213 Y21.3490 
G01 X-20.2187 Y21.3490 
G01 X-20.0199 Y21.3095 
G01 X-19.8326 Y21.2319 
G01 X-19.6640 Y21.1193 
G01 X-19.5207 Y20.9759 
G01 X-19.4081 Y20.8074 
G01 X-19.3305 Y20.6201 
G01 X-19.2910 Y20.4213 
G01 X-19.2910 Y20.2187 
G01 X-19.3305 Y20.0199 
G01 X-19.4081 Y19.8326 
G01 X-19.5207 Y19.6640 
G01 X-19.6640 Y19.5207 
G01 X-19.8326 Y19.4081 
G01 X-20.0199 Y19.3305 
G01 X-20.2187 Y19.2910 
G01 X-20.4213 Y19.2910 
G01 X-20.6201 Y19.3305 
G01 X-20.8074 Y19.4081 
G01 X-20.9759 Y19.5207 
G01 X-21.1193 Y19.6640 
G01 X-21.2319 Y19.8326 
G01 X-21.3095 Y20.0199 
G01 X-21.3490 Y20.2187 
G00 Z2.0000 
G00 X-18.8090 Y20.2187 
G01 Z-0.1500 F100.00 
G01 X-18.8090 Y20.4213 F208.00 
G01 X-18.7695 Y20.6201 
G01 X-18.6919 Y20.8074 
G01 X-18.5793 Y20.9759 
G01 X-18.4359 Y21.1193 
G01 X-18.2674 Y21.2319 
G01 X-18.0801 Y21.3095 
G01 X-17.8813 Y21.3490 
G01 X-17.6787 Y21.3490 
G01 X-17.4799 Y21.3095 
G01 X-17.2926 Y21.2319 
G01 X-17.1241 Y21.1193 
G01 X-16.9807 Y20.9759 
G01 X-16.8681 Y20.8074 
G01 X-16.7905 Y20.6201 
G01 X-16.7510 Y20.4213 
G01 X-16.7510 Y20.2187 
G01 X-16.7905 Y20.0199 
G01 X-16.8681 Y19.8326 
G01 X-16.9807 Y19.6640 
G01 X-17.1241 Y19.5207 
G01 X-17.2926 Y19.4081 
G01 X-17.4799 Y19.3305 
G01 X-17.6787 Y19.2910 
G01 X-17.8813 Y19.2910 
G01 X-18.0801 Y19.3305 
G01 X-18.2674 Y19.4081 
G01 X-18.4359 Y19.5207 
G01 X-18.5793 Y19.6640 
G01 X-18.6919 Y19.8326 
G01 X-18.7695 Y20.0199 
G01 X-18.8090 Y20.2187 
G00 Z2.0000 
G00 X-7.3790 Y8.7887 
G01 Z-0.1500 F100.00 
G01 X-7.3790 Y8.9913 F208.00 
G01 X-7.3395 Y9.1901 
G01 X-7.2619 Y9.3774 
G01 X-7.1493 Y9.5459 
G01 X-7.0059 Y9.6893 
G01 X-6.8374 Y9.8019 
G01 X-6.6501 Y9.8795 
G01 X-6.4513 Y9.9190 
G01 X-6.2487 Y9.9190 
G01 X-6.0499 Y9.8795 
G01 X-5.8626 Y9.8019 
G01 X-5.6940 Y9.6893 
G01 X-5.5507 Y9.5459 
G01 X-5.4381 Y9.3774 
G01 X-5.3605 Y9.1901 
G01 X-5.3210 Y8.9913 
G01 X-5.3210 Y8.7887 
G01 X-5.3605 Y8.5899 
G01 X-5.4381 Y8.4026 
G01 X-5.5507 Y8.2340 
G01 X-5.6940 Y8.0907 
G01 X-5.8626 Y7.9781 
G01 X-6.0499 Y7.9005 
G01 X-6.2487 Y7.8610 
G01 X-6.4513 Y7.8610 
G01 X-6.6501 Y7.9005 
G01 X-6.8374 Y7.9781 
G01 X-7.0059 Y8.0907 
G01 X-7.1493 Y8.2340 
G01 X-7.2619 Y8.4026 
G01 X-7.3395 Y8.5899 
G01 X-7.3790 Y8.7887 
G00 Z2.0000 
G00 X-7.3790 Y11.3286 
G01 Z-0.1500 F100.00 
G01 X-7.3790 Y11.5313 F208.00 
G01 X-7.3395 Y11.7301 
G01 X-7.2619 Y11.9174 
G01 X-7.1493 Y12.0859 
G01 X-7.0059 Y12.2293 
G01 X-6.8374 Y12.3419 
G01 X-6.6501 Y12.4195 
G01 X-6.4513 Y12.4590 
G01 X-6.2487 Y12.4590 
G01 X-6.0499 Y12.4195 
G01 X-5.8626 Y12.3419 
G01 X-5.6940 Y12.2293 
G01 X-5.5507 Y12.0859 
G01 X-5.4381 Y11.9174 
G01 X-5.3605 Y11.7301 
G01 X-5.3210 Y11.5313 
G01 X-5.3210 Y11.3286 
G01 X-5.3605 Y11.1299 
G01 X-5.4381 Y10.9426 
G01 X-5.5507 Y10.7741 
G01 X-5.6940 Y10.6307 
G01 X-5.8626 Y10.5181 
G01 X-6.0499 Y10.4405 
G01 X-6.2487 Y10.4010 
G01 X-6.4513 Y10.4010 
G01 X-6.6501 Y10.4405 
G01 X-6.8374 Y10.5181 
G01 X-7.0059 Y10.6307 
G01 X-7.1493 Y10.7741 
G01 X-7.2619 Y10.9426 
G01 X-7.3395 Y11.1299 
G01 X-7.3790 Y11.3286 
G00 Z2.0000 
G00 X-7.3790 Y13.8687 
G01 Z-0.1500 F100.00 
G01 X-7.3790 Y14.0713 F208.00 
G01 X-7.3395 Y14.2701 
G01 X-7.2619 Y14.4574 
G01 X-7.1493 Y14.6259 
G01 X-7.0059 Y14.7693 
G01 X-6.8374 Y14.8819 
G01 X-6.6501 Y14.9595 
G01 X-6.4513 Y14.9990 
G01 X-6.2487 Y14.9990 
G01 X-6.0499 Y14.9595 
G01 X-5.8626 Y14.8819 
G01 X-5.6940 Y14.7693 
G01 X-5.5507 Y14.6259 
G01 X-5.4381 Y14.4574 
G01 X-5.3605 Y14.2701 
G01 X-5.3210 Y14.0713 
G01 X-5.3210 Y13.8687 
G01 X-5.3605 Y13.6699 
G01 X-5.4381 Y13.4826 
G01 X-5.5507 Y13.3140 
G01 X-5.6940 Y13.1707 
G01 X-5.8626 Y13.0581 
G01 X-6.0499 Y12.9805 
G01 X-6.2487 Y12.9410 
G01 X-6.4513 Y12.9410 
G01 X-6.6501 Y12.9805 
G01 X-6.8374 Y13.0581 
G01 X-7.0059 Y13.1707 
G01 X-7.1493 Y13.3140 
G01 X-7.2619 Y13.4826 
G01 X-7.3395 Y13.6699 
G01 X-7.3790 Y13.8687 
G00 Z2.0000 
G00 X-7.3790 Y16.4087 
G01 Z-0.1500 F100.00 
G01 X-7.3790 Y16.6113 F208.00 
G01 X-7.3395 Y16.8101 
G01 X-7.2619 Y16.9974 
G01 X-7.1493 Y17.1659 
G01 X-7.0059 Y17.3093 
G01 X-6.8374 Y17.4219 
G01 X-6.6501 Y17.4995 
G01 X-6.4513 Y17.5390 
G01 X-6.2487 Y17.5390 
G01 X-6.0499 Y17.4995 
G01 X-5.8626 Y17.4219 
G01 X-5.6940 Y17.3093 
G01 X-5.5507 Y17.1659 
G01 X-5.4381 Y16.9974 
G01 X-5.3605 Y16.8101 
G01 X-5.3210 Y16.6113 
G01 X-5.3210 Y16.4087 
G01 X-5.3605 Y16.2098 
G01 X-5.4381 Y16.0226 
G01 X-5.5507 Y15.8541 
G01 X-5.6940 Y15.7107 
G01 X-5.8626 Y15.5981 
G01 X-6.0499 Y15.5205 
G01 X-6.2487 Y15.4810 
G01 X-6.4513 Y15.4810 
G01 X-6.6501 Y15.5205 
G01 X-6.8374 Y15.5981 
G01 X-7.0059 Y15.7107 
G01 X-7.1493 Y15.8541 
G01 X-7.2619 Y16.0226 
G01 X-7.3395 Y16.2098 
G01 X-7.3790 Y16.4087 
G00 Z2.0000 
G00 X-7.3790 Y18.9487 
G01 Z-0.1500 F100.00 
G01 X-7.3790 Y19.1513 F208.00 
G01 X-7.3395 Y19.3501 
G01 X-7.2619 Y19.5374 
G01 X-7.1493 Y19.7059 
G01 X-7.0059 Y19.8493 
G01 X-6.8374 Y19.9619 
G01 X-6.6501 Y20.0395 
G01 X-6.4513 Y20.0790 
G01 X-6.2487 Y20.0790 
G01 X-6.0499 Y20.0395 
G01 X-5.8626 Y19.9619 
G01 X-5.6940 Y19.8493 
G01 X-5.5507 Y19.7059 
G01 X-5.4381 Y19.5374 
G01 X-5.3605 Y19.3501 
G01 X-5.3210 Y19.1513 
G01 X-5.3210 Y18.9487 
G01 X-5.3605 Y18.7499 
G01 X-5.4381 Y18.5626 
G01 X-5.5507 Y18.3941 
G01 X-5.6940 Y18.2507 
G01 X-5.8626 Y18.1381 
G01 X-6.0499 Y18.0605 
G01 X-6.2487 Y18.0210 
G01 X-6.4513 Y18.0210 
G01 X-6.6501 Y18.0605 
G01 X-6.8374 Y18.1381 
G01 X-7.0059 Y18.2507 
G01 X-7.1493 Y18.3941 
G01 X-7.2619 Y18.5626 
G01 X-7.3395 Y18.7499 
G01 X-7.3790 Y18.9487 
G00 Z2.0000 
G00 X-7.3790 Y21.4886 
G01 Z-0.1500 F100.00 
G01 X-7.3790 Y21.6913 F208.00 
G01 X-7.3395 Y21.8901 
G01 X-7.2619 Y22.0774 
G01 X-7.1493 Y22.2459 
G01 X-7.0059 Y22.3893 
G01 X-6.8374 Y22.5019 
G01 X-6.6501 Y22.5795 
G01 X-6.4513 Y22.6190 
G01 X-6.2487 Y22.6190 
G01 X-6.0499 Y22.5795 
G01 X-5.8626 Y22.5019 
G01 X-5.6940 Y22.3893 
G01 X-5.5507 Y22.2459 
G01 X-5.4381 Y22.0774 
G01 X-5.3605 Y21.8901 
G01 X-5.3210 Y21.6913 
G01 X-5.3210 Y21.4886 
G01 X-5.3605 Y21.2899 
G01 X-5.4381 Y21.1026 
G01 X-5.5507 Y20.9341 
G01 X-5.6940 Y20.7907 
G01 X-5.8626 Y20.6781 
G01 X-6.0499 Y20.6005 
G01 X-6.2487 Y20.5610 
G01 X-6.4513 Y20.5610 
G01 X-6.6501 Y20.6005 
G01 X-6.8374 Y20.6781 
G01 X-7.0059 Y20.7907 
G01 X-7.1493 Y20.9341 
G01 X-7.2619 Y21.1026 
G01 X-7.3395 Y21.2899 
G01 X-7.3790 Y21.4886 
G00 Z2.0000 
G00 X-37.8590 Y15.1387 
G01 Z-0.1500 F100.00 
G01 X-37.8590 Y15.3413 F208.00 
G01 X-37.8195 Y15.5401 
G01 X-37.7419 Y15.7274 
G01 X-37.6293 Y15.8959 
G01 X-37.4859 Y16.0393 
G01 X-37.3174 Y16.1519 
G01 X-37.1301 Y16.2295 
G01 X-36.9313 Y16.2690 
G01 X-36.7287 Y16.2690 
G01 X-36.5299 Y16.2295 
G01 X-36.3426 Y16.1519 
G01 X-36.1741 Y16.0393 
G01 X-36.0307 Y15.8959 
G01 X-35.9181 Y15.7274 
G01 X-35.8405 Y15.5401 
G01 X-35.8010 Y15.3413 
G01 X-35.8010 Y15.1387 
G01 X-35.8405 Y14.9398 
G01 X-35.9181 Y14.7526 
G01 X-36.0307 Y14.5841 
G01 X-36.1741 Y14.4407 
G01 X-36.3426 Y14.3281 
G01 X-36.5299 Y14.2505 
G01 X-36.7287 Y14.2110 
G01 X-36.9313 Y14.2110 
G01 X-37.1301 Y14.2505 
G01 X-37.3174 Y14.3281 
G01 X-37.4859 Y14.4407 
G01 X-37.6293 Y14.5841 
G01 X-37.7419 Y14.7526 
G01 X-37.8195 Y14.9398 
G01 X-37.8590 Y15.1387 
G00 Z2.0000 
G00 X-37.8590 Y17.6787 
G01 Z-0.1500 F100.00 
G01 X-37.8590 Y17.8813 F208.00 
G01 X-37.8195 Y18.0801 
G01 X-37.7419 Y18.2674 
G01 X-37.6293 Y18.4359 
G01 X-37.4859 Y18.5793 
G01 X-37.3174 Y18.6919 
G01 X-37.1301 Y18.7695 
G01 X-36.9313 Y18.8090 
G01 X-36.7287 Y18.8090 
G01 X-36.5299 Y18.7695 
G01 X-36.3426 Y18.6919 
G01 X-36.1741 Y18.5793 
G01 X-36.0307 Y18.4359 
G01 X-35.9181 Y18.2674 
G01 X-35.8405 Y18.0801 
G01 X-35.8010 Y17.8813 
G01 X-35.8010 Y17.6787 
G01 X-35.8405 Y17.4799 
G01 X-35.9181 Y17.2926 
G01 X-36.0307 Y17.1241 
G01 X-36.1741 Y16.9807 
G01 X-36.3426 Y16.8681 
G01 X-36.5299 Y16.7905 
G01 X-36.7287 Y16.7510 
G01 X-36.9313 Y16.7510 
G01 X-37.1301 Y16.7905 
G01 X-37.3174 Y16.8681 
G01 X-37.4859 Y16.9807 
G01 X-37.6293 Y17.1241 
G01 X-37.7419 Y17.2926 
G01 X-37.8195 Y17.4799 
G01 X-37.8590 Y17.6787 
G00 Z2.0000 
G00 X-37.8590 Y20.2187 
G01 Z-0.1500 F100.00 
G01 X-37.8590 Y20.4213 F208.00 
G01 X-37.8195 Y20.6201 
G01 X-37.7419 Y20.8074 
G01 X-37.6293 Y20.9759 
G01 X-37.4859 Y21.1193 
G01 X-37.3174 Y21.2319 
G01 X-37.1301 Y21.3095 
G01 X-36.9313 Y21.3490 
G01 X-36.7287 Y21.3490 
G01 X-36.5299 Y21.3095 
G01 X-36.3426 Y21.2319 
G01 X-36.1741 Y21.1193 
G01 X-36.0307 Y20.9759 
G01 X-35.9181 Y20.8074 
G01 X-35.8405 Y20.6201 
G01 X-35.8010 Y20.4213 
G01 X-35.8010 Y20.2187 
G01 X-35.8405 Y20.0199 
G01 X-35.9181 Y19.8326 
G01 X-36.0307 Y19.6640 
G01 X-36.1741 Y19.5207 
G01 X-36.3426 Y19.4081 
G01 X-36.5299 Y19.3305 
G01 X-36.7287 Y19.2910 
G01 X-36.9313 Y19.2910 
G01 X-37.1301 Y19.3305 
G01 X-37.3174 Y19.4081 
G01 X-37.4859 Y19.5207 
G01 X-37.6293 Y19.6640 
G01 X-37.7419 Y19.8326 
G01 X-37.8195 Y20.0199 
G01 X-37.8590 Y20.2187 
G00 Z2.0000 
G00 X-14.9990 Y22.7586 
G01 Z-0.1500 F100.00 
G01 X-14.9990 Y22.9613 F208.00 
G01 X-14.9595 Y23.1601 
G01 X-14.8819 Y23.3474 
G01 X-14.7693 Y23.5159 
G01 X-14.6259 Y23.6593 
G01 X-14.4574 Y23.7719 
G01 X-14.2701 Y23.8495 
G01 X-14.0713 Y23.8890 
G01 X-13.8687 Y23.8890 
G01 X-13.6699 Y23.8495 
G01 X-13.4826 Y23.7719 
G01 X-13.3140 Y23.6593 
G01 X-13.1707 Y23.5159 
G01 X-13.0581 Y23.3474 
G01 X-12.9805 Y23.1601 
G01 X-12.9410 Y22.9613 
G01 X-12.9410 Y22.7586 
G01 X-12.9805 Y22.5599 
G01 X-13.0581 Y22.3726 
G01 X-13.1707 Y22.2041 
G01 X-13.3140 Y22.0607 
G01 X-13.4826 Y21.9481 
G01 X-13.6699 Y21.8705 
G01 X-13.8687 Y21.8310 
G01 X-14.0713 Y21.8310 
G01 X-14.2701 Y21.8705 
G01 X-14.4574 Y21.9481 
G01 X-14.6259 Y22.0607 
G01 X-14.7693 Y22.2041 
G01 X-14.8819 Y22.3726 
G01 X-14.9595 Y22.5599 
G01 X-14.9990 Y22.7586 
G00 Z2.0000 
G00 X-20.0790 Y22.7586 
G01 Z-0.1500 F100.00 
G01 X-20.0790 Y22.9613 F208.00 
G01 X-20.0395 Y23.1601 
G01 X-19.9619 Y23.3474 
G01 X-19.8493 Y23.5159 
G01 X-19.7059 Y23.6593 
G01 X-19.5374 Y23.7719 
G01 X-19.3501 Y23.8495 
G01 X-19.1513 Y23.8890 
G01 X-18.9487 Y23.8890 
G01 X-18.7499 Y23.8495 
G01 X-18.5626 Y23.7719 
G01 X-18.3941 Y23.6593 
G01 X-18.2507 Y23.5159 
G01 X-18.1381 Y23.3474 
G01 X-18.0605 Y23.1601 
G01 X-18.0210 Y22.9613 
G01 X-18.0210 Y22.7586 
G01 X-18.0605 Y22.5599 
G01 X-18.1381 Y22.3726 
G01 X-18.2507 Y22.2041 
G01 X-18.3941 Y22.0607 
G01 X-18.5626 Y21.9481 
G01 X-18.7499 Y21.8705 
G01 X-18.9487 Y21.8310 
G01 X-19.1513 Y21.8310 
G01 X-19.3501 Y21.8705 
G01 X-19.5374 Y21.9481 
G01 X-19.7059 Y22.0607 
G01 X-19.8493 Y22.2041 
G01 X-19.9619 Y22.3726 
G01 X-20.0395 Y22.5599 
G01 X-20.0790 Y22.7586 
G00 Z2.0000 
G00 X-22.6190 Y22.7586 
G01 Z-0.1500 F100.00 
G01 X-22.6190 Y22.9613 F208.00 
G01 X-22.5795 Y23.1601 
G01 X-22.5019 Y23.3474 
G01 X-22.3893 Y23.5159 
G01 X-22.2459 Y23.6593 
G01 X-22.0774 Y23.7719 
G01 X-21.8901 Y23.8495 
G01 X-21.6913 Y23.8890 
G01 X-21.4886 Y23.8890 
G01 X-21.2899 Y23.8495 
G01 X-21.1026 Y23.7719 
G01 X-20.9341 Y23.6593 
G01 X-20.7907 Y23.5159 
G01 X-20.6781 Y23.3474 
G01 X-20.6005 Y23.1601 
G01 X-20.5610 Y22.9613 
G01 X-20.5610 Y22.7586 
G01 X-20.6005 Y22.5599 
G01 X-20.6781 Y22.3726 
G01 X-20.7907 Y22.2041 
G01 X-20.9341 Y22.0607 
G01 X-21.1026 Y21.9481 
G01 X-21.2899 Y21.8705 
G01 X-21.4886 Y21.8310 
G01 X-21.6913 Y21.8310 
G01 X-21.8901 Y21.8705 
G01 X-22.0774 Y21.9481 
G01 X-22.2459 Y22.0607 
G01 X-22.3893 Y22.2041 
G01 X-22.5019 Y22.3726 
G01 X-22.5795 Y22.5599 
G01 X-22.6190 Y22.7586 
G00 Z2.0000 
G00 X-25.1590 Y22.7586 
G01 Z-0.1500 F100.00 
G01 X-25.1590 Y22.9613 F208.00 
G01 X-25.1195 Y23.1601 
G01 X-25.0419 Y23.3474 
G01 X-24.9293 Y23.5159 
G01 X-24.7859 Y23.6593 
G01 X-24.6174 Y23.7719 
G01 X-24.4301 Y23.8495 
G01 X-24.2313 Y23.8890 
G01 X-24.0287 Y23.8890 
G01 X-23.8299 Y23.8495 
G01 X-23.6426 Y23.7719 
G01 X-23.4741 Y23.6593 
G01 X-23.3307 Y23.5159 
G01 X-23.2181 Y23.3474 
G01 X-23.1405 Y23.1601 
G01 X-23.1010 Y22.9613 
G01 X-23.1010 Y22.7586 
G01 X-23.1405 Y22.5599 
G01 X-23.2181 Y22.3726 
G01 X-23.3307 Y22.2041 
G01 X-23.4486 Y22.0862 
G01 X-23.4486 Y20.6348 
G01 X-23.4088 Y20.5388 
G01 X-23.3800 Y20.3939 
G01 X-23.3800 Y20.2461 
G01 X-23.4088 Y20.1012 
G01 X-23.4654 Y19.9647 
G01 X-23.5474 Y19.8419 
G01 X-23.6519 Y19.7374 
G01 X-23.7747 Y19.6554 
G01 X-23.9112 Y19.5988 
G01 X-24.0561 Y19.5700 
G01 X-24.2039 Y19.5700 
G01 X-24.3488 Y19.5988 
G01 X-24.4853 Y19.6554 
G01 X-24.6081 Y19.7374 
G01 X-24.7126 Y19.8419 
G01 X-24.7946 Y19.9647 
G01 X-24.8512 Y20.1012 
G01 X-24.8800 Y20.2461 
G01 X-24.8800 Y20.3939 
G01 X-24.8512 Y20.5388 
G01 X-24.8114 Y20.6348 
G01 X-24.8114 Y22.0862 
G01 X-24.9293 Y22.2041 
G01 X-25.0419 Y22.3726 
G01 X-25.1195 Y22.5599 
G01 X-25.1590 Y22.7586 
G00 Z2.0000 
G00 X-30.2390 Y22.7586 
G01 Z-0.1500 F100.00 
G01 X-30.2390 Y22.9613 F208.00 
G01 X-30.1995 Y23.1601 
G01 X-30.1614 Y23.2520 
G01 X-30.1614 Y28.3969 
G01 X-30.2404 Y28.4759 
G01 X-30.3476 Y28.6363 
G01 X-30.4214 Y28.8144 
G01 X-30.4590 Y29.0036 
G01 X-30.4590 Y29.1964 
G01 X-30.4214 Y29.3856 
G01 X-30.3476 Y29.5637 
G01 X-30.2404 Y29.7241 
G01 X-30.1041 Y29.8604 
G01 X-29.9437 Y29.9676 
G01 X-29.7656 Y30.0414 
G01 X-29.5764 Y30.0790 
G01 X-29.3836 Y30.0790 
G01 X-29.1944 Y30.0414 
G01 X-29.0163 Y29.9676 
G01 X-28.8559 Y29.8604 
G01 X-28.7196 Y29.7241 
G01 X-28.6124 Y29.5637 
G01 X-28.5386 Y29.3856 
G01 X-28.5010 Y29.1964 
G01 X-28.5010 Y29.0036 
G01 X-28.5386 Y28.8144 
G01 X-28.6124 Y28.6363 
G01 X-28.7196 Y28.4759 
G01 X-28.7986 Y28.3969 
G01 X-28.7986 Y23.8034 
G01 X-28.7226 Y23.7719 
G01 X-28.5541 Y23.6593 
G01 X-28.4107 Y23.5159 
G01 X-28.2981 Y23.3474 
G01 X-28.2205 Y23.1601 
G01 X-28.1810 Y22.9613 
G01 X-28.1810 Y22.7586 
G01 X-28.2205 Y22.5599 
G01 X-28.2981 Y22.3726 
G01 X-28.4107 Y22.2041 
G01 X-28.5541 Y22.0607 
G01 X-28.7226 Y21.9481 
G01 X-28.9099 Y21.8705 
G01 X-29.1087 Y21.8310 
G01 X-29.3113 Y21.8310 
G01 X-29.5101 Y21.8705 
G01 X-29.6974 Y21.9481 
G01 X-29.8659 Y22.0607 
G01 X-30.0093 Y22.2041 
G01 X-30.1219 Y22.3726 
G01 X-30.1995 Y22.5599 
G01 X-30.2390 Y22.7586 
G00 Z2.0000 
G00 X-32.7790 Y22.7586 
G01 Z-0.1500 F100.00 
G01 X-32.7790 Y22.9613 F208.00 
G01 X-32.7395 Y23.1601 
G01 X-32.6619 Y23.3474 
G01 X-32.5493 Y23.5159 
G01 X-32.4059 Y23.6593 
G01 X-32.2374 Y23.7719 
G01 X-32.1614 Y23.8034 
G01 X-32.1614 Y28.3969 
G01 X-32.2404 Y28.4759 
G01 X-32.3476 Y28.6363 
G01 X-32.4214 Y28.8144 
G01 X-32.4590 Y29.0036 
G01 X-32.4590 Y29.1964 
G01 X-32.4214 Y29.3856 
G01 X-32.3476 Y29.5637 
G01 X-32.2404 Y29.7241 
G01 X-32.1041 Y29.8604 
G01 X-31.9437 Y29.9676 
G01 X-31.7656 Y30.0414 
G01 X-31.5764 Y30.0790 
G01 X-31.3836 Y30.0790 
G01 X-31.1944 Y30.0414 
G01 X-31.0163 Y29.9676 
G01 X-30.8559 Y29.8604 
G01 X-30.7196 Y29.7241 
G01 X-30.6124 Y29.5637 
G01 X-30.5386 Y29.3856 
G01 X-30.5010 Y29.1964 
G01 X-30.5010 Y29.0036 
G01 X-30.5386 Y28.8144 
G01 X-30.6124 Y28.6363 
G01 X-30.7196 Y28.4759 
G01 X-30.7986 Y28.3969 
G01 X-30.7986 Y23.2520 
G01 X-30.7605 Y23.1601 
G01 X-30.7210 Y22.9613 
G01 X-30.7210 Y22.7586 
G01 X-30.7605 Y22.5599 
G01 X-30.8381 Y22.3726 
G01 X-30.9507 Y22.2041 
G01 X-31.0941 Y22.0607 
G01 X-31.2626 Y21.9481 
G01 X-31.4499 Y21.8705 
G01 X-31.6486 Y21.8310 
G01 X-31.8513 Y21.8310 
G01 X-32.0501 Y21.8705 
G01 X-32.2374 Y21.9481 
G01 X-32.4059 Y22.0607 
G01 X-32.5493 Y22.2041 
G01 X-32.6619 Y22.3726 
G01 X-32.7395 Y22.5599 
G01 X-32.7790 Y22.7586 
G00 Z2.0000 
G00 X-35.3190 Y22.7586 
G01 Z-0.1500 F100.00 
G01 X-35.3190 Y22.9613 F208.00 
G01 X-35.2795 Y23.1601 
G01 X-35.2019 Y23.3474 
G01 X-35.0893 Y23.5159 
G01 X-34.9714 Y23.6338 
G01 X-34.9714 Y25.0852 
G01 X-35.0112 Y25.1812 
G01 X-35.0400 Y25.3261 
G01 X-35.0400 Y25.4739 
G01 X-35.0112 Y25.6188 
G01 X-34.9546 Y25.7553 
G01 X-34.8726 Y25.8781 
G01 X-34.7681 Y25.9826 
G01 X-34.6453 Y26.0646 
G01 X-34.5088 Y26.1212 
G01 X-34.3639 Y26.1500 
G01 X-34.2161 Y26.1500 
G01 X-34.0712 Y26.1212 
G01 X-33.9347 Y26.0646 
