(.../Documents/EAGLE/ulps/pcb-gcode.ulp)
(Copyright 2005 - 2012 by John Johnson)
(See readme.txt for licensing terms.)
(This file generated from the board:)
(.../projects/Wemos_MHZ19/Wemos_MHZ19.brd)
(Current profile is .../EAGLE/ulps/profiles/generic.pp  )
(This file generated 05.01.21 13:59)
(Settings from pcb-machine.h)
(  Tool Size)
(0.1500 )
(Z Axis Settings)
(  High     Up        Down     Drill)
(20.4000 	2.0000 	-0.1500 	-1.9000 )
(spindle on time = 3.0000)
(milling depth = -1.3000)
(text depth = -0.1000)
(tool change at 0.0000 0.0000 20.4000 )
(feed rate xy = F208.00 )
(feed rate z  = F100.00 )
(Settings from pcb-defaults.h)
(isolate min = 0.1000)
(isolate max = 0.5000)
(isolate step = 0.1000)
(Generated bottom outlines, bottom drill, )
(Unit of measure: mm)
(Metric Mode)
G21
(Absolute Coordinates)
G90
G00 X0.0000 Y0.0000 
M03
G04 P3.000000
G00 Z2.0000 
G00 X-4.7390 Y11.3385 
G01 Z-0.1500 F100.00 
G01 X-4.7390 Y11.5215 F208.00 
G01 X-4.7033 Y11.7010 
G01 X-4.6333 Y11.8700 
G01 X-4.5316 Y12.0222 
G01 X-4.4022 Y12.1516 
G01 X-4.2500 Y12.2533 
G01 X-4.0810 Y12.3233 
G01 X-3.9015 Y12.3590 
G01 X-3.7185 Y12.3590 
G01 X-3.5390 Y12.3233 
G01 X-3.3700 Y12.2533 
G01 X-3.2178 Y12.1516 
G01 X-3.0884 Y12.0222 
G01 X-3.0812 Y12.0114 
G01 X-2.6351 Y12.0114 
G01 X-2.5228 Y11.9891 
G01 X-2.4170 Y11.9452 
G01 X-2.3218 Y11.8816 
G01 X-2.2408 Y11.8006 
G01 X-1.0518 Y10.6116 
G01 X-0.9708 Y10.5306 
G01 X-0.9072 Y10.4354 
G01 X-0.8633 Y10.3296 
G01 X-0.8410 Y10.2173 
G01 X-0.8410 Y1.3651 
G01 X-0.8633 Y1.2528 
G01 X-0.9072 Y1.1470 
G01 X-0.9708 Y1.0518 
G01 X-1.0518 Y0.9708 
G01 X-1.1470 Y0.9072 
G01 X-1.2528 Y0.8633 
G01 X-1.3651 Y0.8410 
G01 X-31.8073 Y0.8410 
G01 X-31.9196 Y0.8633 
G01 X-32.0254 Y0.9072 
G01 X-32.1206 Y0.9708 
G01 X-32.8366 Y1.6868 
G01 X-32.9002 Y1.7820 
G01 X-32.9441 Y1.8878 
G01 X-32.9664 Y2.0001 
G01 X-32.9664 Y3.0812 
G01 X-32.9772 Y3.0884 
G01 X-33.1066 Y3.2178 
G01 X-33.2083 Y3.3700 
G01 X-33.2783 Y3.5390 
G01 X-33.3140 Y3.7185 
G01 X-33.3140 Y3.9015 
G01 X-33.2783 Y4.0810 
G01 X-33.2083 Y4.2500 
G01 X-33.1066 Y4.4022 
G01 X-32.9772 Y4.5316 
G01 X-32.8250 Y4.6333 
G01 X-32.6560 Y4.7033 
G01 X-32.4765 Y4.7390 
G01 X-32.2935 Y4.7390 
G01 X-32.1140 Y4.7033 
G01 X-31.9450 Y4.6333 
G01 X-31.7928 Y4.5316 
G01 X-31.6634 Y4.4022 
G01 X-31.5617 Y4.2500 
G01 X-31.4917 Y4.0810 
G01 X-31.4560 Y3.9015 
G01 X-31.4560 Y3.7185 
G01 X-31.4917 Y3.5390 
G01 X-31.5617 Y3.3700 
G01 X-31.6634 Y3.2178 
G01 X-31.7928 Y3.0884 
G01 X-31.8036 Y3.0812 
G01 X-31.8036 Y2.2982 
G01 X-31.5092 Y2.0038 
G01 X-2.0038 Y2.0038 
G01 X-2.0038 Y9.9192 
G01 X-2.9332 Y10.8486 
G01 X-3.0812 Y10.8486 
G01 X-3.0884 Y10.8378 
G01 X-3.2178 Y10.7084 
G01 X-3.3700 Y10.6067 
G01 X-3.5390 Y10.5367 
G01 X-3.7185 Y10.5010 
G01 X-3.9015 Y10.5010 
G01 X-4.0810 Y10.5367 
G01 X-4.2500 Y10.6067 
G01 X-4.4022 Y10.7084 
G01 X-4.5316 Y10.8378 
G01 X-4.6333 Y10.9900 
G01 X-4.7033 Y11.1590 
G01 X-4.7390 Y11.3385 
G00 Z2.0000 
G00 X-4.7390 Y8.1012 
G01 Z-0.1500 F100.00 
G01 X-4.7390 Y8.3086 F208.00 
G01 X-16.5673 Y8.3086 
G01 X-16.6796 Y8.3309 
G01 X-16.7854 Y8.3748 
G01 X-16.8806 Y8.4384 
G01 X-18.1506 Y9.7084 
G01 X-18.2316 Y9.7894 
G01 X-18.2952 Y9.8846 
G01 X-18.3391 Y9.9904 
G01 X-18.3614 Y10.1027 
G01 X-18.3614 Y20.0792 
G01 X-19.2908 Y21.0086 
G01 X-29.2673 Y21.0086 
G01 X-29.3796 Y21.0309 
G01 X-29.4854 Y21.0748 
G01 X-29.5806 Y21.1384 
G01 X-29.6616 Y21.2194 
G01 X-29.8450 Y21.4028 
G01 X-32.4386 Y18.8092 
G01 X-32.4386 Y15.4808 
G01 X-31.5092 Y14.5514 
G01 X-30.7104 Y14.5514 
G01 X-30.6998 Y14.5673 
G01 X-30.5693 Y14.6978 
G01 X-30.4158 Y14.8004 
G01 X-30.2453 Y14.8710 
G01 X-30.0643 Y14.9070 
G01 X-28.3557 Y14.9070 
G01 X-28.1747 Y14.8710 
G01 X-28.0042 Y14.8004 
G01 X-27.8507 Y14.6978 
G01 X-27.7202 Y14.5673 
G01 X-27.6176 Y14.4138 
G01 X-27.5470 Y14.2433 
G01 X-27.5110 Y14.0623 
G01 X-27.5110 Y13.8777 
G01 X-27.5470 Y13.6967 
G01 X-27.6176 Y13.5262 
G01 X-27.7202 Y13.3727 
G01 X-27.8507 Y13.2422 
G01 X-28.0042 Y13.1396 
G01 X-28.1747 Y13.0690 
G01 X-28.3557 Y13.0330 
G01 X-30.0643 Y13.0330 
G01 X-30.2453 Y13.0690 
G01 X-30.4158 Y13.1396 
G01 X-30.5693 Y13.2422 
G01 X-30.6998 Y13.3727 
G01 X-30.7104 Y13.3886 
G01 X-31.8073 Y13.3886 
G01 X-31.9196 Y13.4109 
G01 X-32.0254 Y13.4548 
G01 X-32.1206 Y13.5184 
G01 X-33.4716 Y14.8694 
G01 X-33.5352 Y14.9646 
G01 X-33.5791 Y15.0704 
G01 X-33.6014 Y15.1827 
G01 X-33.6014 Y19.1073 
G01 X-33.5791 Y19.2196 
G01 X-33.5352 Y19.3254 
G01 X-33.4716 Y19.4206 
G01 X-33.3906 Y19.5016 
G01 X-30.4264 Y22.4658 
G01 X-30.4264 Y25.9412 
G01 X-30.4372 Y25.9484 
G01 X-30.5666 Y26.0778 
G01 X-30.6683 Y26.2300 
G01 X-30.7383 Y26.3990 
G01 X-30.7740 Y26.5785 
G01 X-30.7740 Y26.7615 
G01 X-30.7383 Y26.9410 
G01 X-30.6683 Y27.1100 
G01 X-30.5666 Y27.2622 
G01 X-30.4372 Y27.3916 
G01 X-30.2850 Y27.4933 
G01 X-30.1160 Y27.5633 
G01 X-29.9365 Y27.5990 
G01 X-29.7535 Y27.5990 
G01 X-29.5740 Y27.5633 
G01 X-29.4050 Y27.4933 
G01 X-29.2528 Y27.3916 
G01 X-29.1234 Y27.2622 
G01 X-29.0217 Y27.1100 
G01 X-28.9517 Y26.9410 
G01 X-28.9160 Y26.7615 
G01 X-28.9160 Y26.5785 
G01 X-28.9517 Y26.3990 
G01 X-29.0217 Y26.2300 
G01 X-29.1234 Y26.0778 
G01 X-29.2528 Y25.9484 
G01 X-29.2636 Y25.9412 
G01 X-29.2636 Y22.4658 
G01 X-28.9692 Y22.1714 
G01 X-18.9927 Y22.1714 
G01 X-18.8804 Y22.1491 
G01 X-18.7746 Y22.1052 
G01 X-18.6794 Y22.0416 
G01 X-18.5984 Y21.9606 
G01 X-17.3284 Y20.6906 
G01 X-17.2648 Y20.5954 
G01 X-17.2209 Y20.4896 
G01 X-17.1986 Y20.3773 
G01 X-17.1986 Y10.4008 
G01 X-16.2692 Y9.4714 
G01 X-4.7390 Y9.4714 
G01 X-4.7390 Y9.6788 
G01 X-4.7124 Y9.7431 
G01 X-4.6631 Y9.7924 
G01 X-4.5988 Y9.8190 
G01 X-3.0212 Y9.8190 
G01 X-2.9569 Y9.7924 
G01 X-2.9076 Y9.7431 
G01 X-2.8810 Y9.6788 
G01 X-2.8810 Y8.1012 
G01 X-2.9076 Y8.0369 
G01 X-2.9569 Y7.9876 
G01 X-3.0212 Y7.9610 
G01 X-4.5988 Y7.9610 
G01 X-4.6631 Y7.9876 
G01 X-4.7124 Y8.0369 
G01 X-4.7390 Y8.1012 
G00 Z2.0000 
G00 X-33.3140 Y26.5785 
G01 Z-0.1500 F100.00 
G01 X-33.3140 Y26.7615 F208.00 
G01 X-33.2783 Y26.9410 
G01 X-33.2083 Y27.1100 
G01 X-33.1066 Y27.2622 
G01 X-32.9772 Y27.3916 
G01 X-32.8250 Y27.4933 
G01 X-32.6560 Y27.5633 
G01 X-32.4765 Y27.5990 
G01 X-32.2935 Y27.5990 
G01 X-32.1140 Y27.5633 
G01 X-31.9450 Y27.4933 
G01 X-31.7928 Y27.3916 
G01 X-31.6634 Y27.2622 
G01 X-31.5617 Y27.1100 
G01 X-31.4917 Y26.9410 
G01 X-31.4560 Y26.7615 
G01 X-31.4560 Y26.5785 
G01 X-31.4917 Y26.3990 
G01 X-31.5617 Y26.2300 
G01 X-31.6634 Y26.0778 
G01 X-31.7928 Y25.9484 
G01 X-31.9450 Y25.8467 
G01 X-32.1140 Y25.7767 
G01 X-32.2935 Y25.7410 
G01 X-32.4765 Y25.7410 
G01 X-32.4892 Y25.7435 
G01 X-34.3436 Y23.8892 
G01 X-34.3436 Y14.8458 
G01 X-31.5092 Y12.0114 
G01 X-30.7104 Y12.0114 
G01 X-30.6998 Y12.0273 
G01 X-30.5693 Y12.1578 
G01 X-30.4158 Y12.2604 
G01 X-30.2453 Y12.3310 
G01 X-30.0643 Y12.3670 
G01 X-28.3557 Y12.3670 
G01 X-28.1747 Y12.3310 
G01 X-28.0042 Y12.2604 
G01 X-27.8507 Y12.1578 
G01 X-27.7202 Y12.0273 
G01 X-27.6176 Y11.8738 
G01 X-27.5470 Y11.7033 
G01 X-27.5110 Y11.5223 
G01 X-27.5110 Y11.3377 
G01 X-27.5470 Y11.1567 
G01 X-27.6176 Y10.9862 
G01 X-27.7202 Y10.8327 
G01 X-27.8507 Y10.7022 
G01 X-28.0042 Y10.5996 
G01 X-28.1747 Y10.5290 
G01 X-28.3557 Y10.4930 
G01 X-30.0643 Y10.4930 
G01 X-30.2453 Y10.5290 
G01 X-30.4158 Y10.5996 
G01 X-30.5693 Y10.7022 
G01 X-30.6998 Y10.8327 
G01 X-30.7104 Y10.8486 
G01 X-31.8073 Y10.8486 
G01 X-31.9196 Y10.8709 
G01 X-32.0254 Y10.9148 
G01 X-32.1206 Y10.9784 
G01 X-32.2016 Y11.0594 
G01 X-35.3766 Y14.2344 
G01 X-35.4402 Y14.3296 
G01 X-35.4841 Y14.4354 
G01 X-35.5064 Y14.5477 
G01 X-35.5064 Y24.1873 
G01 X-35.4841 Y24.2996 
G01 X-35.4402 Y24.4054 
G01 X-35.3766 Y24.5006 
G01 X-35.2956 Y24.5816 
G01 X-33.3115 Y26.5658 
G01 X-33.3140 Y26.5785 
G00 Z2.0000 
G00 X-15.5340 Y26.5785 
G01 Z-0.1500 F100.00 
G01 X-15.5340 Y26.7615 F208.00 
G01 X-15.4983 Y26.9410 
G01 X-15.4283 Y27.1100 
G01 X-15.3266 Y27.2622 
G01 X-15.1972 Y27.3916 
G01 X-15.0450 Y27.4933 
G01 X-14.8760 Y27.5633 
G01 X-14.6965 Y27.5990 
G01 X-14.5135 Y27.5990 
G01 X-14.3340 Y27.5633 
G01 X-14.1650 Y27.4933 
G01 X-14.0128 Y27.3916 
G01 X-13.8834 Y27.2622 
G01 X-13.7817 Y27.1100 
G01 X-13.7117 Y26.9410 
G01 X-13.6760 Y26.7615 
G01 X-13.6760 Y26.5785 
G01 X-13.7117 Y26.3990 
G01 X-13.7817 Y26.2300 
G01 X-13.8834 Y26.0778 
G01 X-14.0128 Y25.9484 
G01 X-14.1650 Y25.8467 
G01 X-14.3340 Y25.7767 
G01 X-14.5135 Y25.7410 
G01 X-14.6965 Y25.7410 
G01 X-14.8760 Y25.7767 
G01 X-15.0450 Y25.8467 
G01 X-15.1972 Y25.9484 
G01 X-15.3266 Y26.0778 
G01 X-15.4283 Y26.2300 
G01 X-15.4983 Y26.3990 
G01 X-15.5340 Y26.5785 
G00 Z2.0000 
G00 X-18.0740 Y26.5785 
G01 Z-0.1500 F100.00 
G01 X-18.0740 Y26.7615 F208.00 
G01 X-18.0383 Y26.9410 
G01 X-17.9683 Y27.1100 
G01 X-17.8666 Y27.2622 
G01 X-17.7372 Y27.3916 
G01 X-17.5850 Y27.4933 
G01 X-17.4160 Y27.5633 
G01 X-17.2365 Y27.5990 
G01 X-17.0535 Y27.5990 
G01 X-16.8740 Y27.5633 
G01 X-16.7050 Y27.4933 
G01 X-16.5528 Y27.3916 
G01 X-16.4234 Y27.2622 
G01 X-16.3217 Y27.1100 
G01 X-16.2517 Y26.9410 
G01 X-16.2160 Y26.7615 
G01 X-16.2160 Y26.5785 
G01 X-16.2517 Y26.3990 
G01 X-16.3217 Y26.2300 
G01 X-16.4234 Y26.0778 
G01 X-16.5528 Y25.9484 
G01 X-16.7050 Y25.8467 
G01 X-16.8740 Y25.7767 
G01 X-17.0535 Y25.7410 
G01 X-17.2365 Y25.7410 
G01 X-17.4160 Y25.7767 
G01 X-17.5850 Y25.8467 
G01 X-17.7372 Y25.9484 
G01 X-17.8666 Y26.0778 
G01 X-17.9683 Y26.2300 
G01 X-18.0383 Y26.3990 
G01 X-18.0740 Y26.5785 
G00 Z2.0000 
G00 X-23.1540 Y26.5785 
G01 Z-0.1500 F100.00 
G01 X-23.1540 Y26.7615 F208.00 
G01 X-23.1183 Y26.9410 
G01 X-23.0483 Y27.1100 
G01 X-22.9466 Y27.2622 
G01 X-22.8172 Y27.3916 
G01 X-22.8064 Y27.3988 
G01 X-22.8064 Y28.6323 
G01 X-22.7841 Y28.7446 
G01 X-22.7402 Y28.8504 
G01 X-22.6766 Y28.9456 
G01 X-22.5956 Y29.0266 
G01 X-21.9606 Y29.6616 
G01 X-21.8654 Y29.7252 
G01 X-21.7596 Y29.7691 
G01 X-21.6473 Y29.7914 
G01 X-2.6351 Y29.7914 
G01 X-2.5228 Y29.7691 
G01 X-2.4170 Y29.7252 
G01 X-2.3218 Y29.6616 
G01 X-2.2408 Y29.5806 
G01 X-2.1772 Y29.4854 
G01 X-2.1333 Y29.3796 
G01 X-2.1110 Y29.2673 
G01 X-2.1110 Y17.5703 
G01 X-2.1333 Y17.4580 
G01 X-2.1772 Y17.3522 
G01 X-2.2408 Y17.2570 
G01 X-2.3218 Y17.1760 
G01 X-2.8835 Y16.6142 
G01 X-2.8810 Y16.6015 
G01 X-2.8810 Y16.4185 
G01 X-2.9167 Y16.2390 
G01 X-2.9867 Y16.0700 
G01 X-3.0884 Y15.9178 
G01 X-3.2178 Y15.7884 
G01 X-3.3700 Y15.6867 
G01 X-3.5390 Y15.6167 
G01 X-3.7185 Y15.5810 
G01 X-3.9015 Y15.5810 
G01 X-4.0810 Y15.6167 
G01 X-4.2500 Y15.6867 
G01 X-4.4022 Y15.7884 
G01 X-4.4986 Y15.8848 
G01 X-4.4986 Y14.5952 
G01 X-4.4022 Y14.6916 
G01 X-4.2500 Y14.7933 
G01 X-4.0810 Y14.8633 
G01 X-3.9015 Y14.8990 
G01 X-3.7185 Y14.8990 
G01 X-3.5390 Y14.8633 
G01 X-3.3700 Y14.7933 
G01 X-3.2178 Y14.6916 
G01 X-3.0884 Y14.5622 
G01 X-2.9867 Y14.4100 
G01 X-2.9167 Y14.2410 
G01 X-2.8810 Y14.0615 
G01 X-2.8810 Y13.8785 
G01 X-2.9167 Y13.6990 
G01 X-2.9867 Y13.5300 
G01 X-3.0884 Y13.3778 
G01 X-3.2178 Y13.2484 
G01 X-3.3700 Y13.1467 
G01 X-3.5390 Y13.0767 
G01 X-3.7185 Y13.0410 
G01 X-3.9015 Y13.0410 
G01 X-4.0810 Y13.0767 
G01 X-4.2500 Y13.1467 
G01 X-4.4022 Y13.2484 
G01 X-4.5316 Y13.3778 
G01 X-4.5388 Y13.3886 
G01 X-5.1373 Y13.3886 
G01 X-5.2496 Y13.4109 
G01 X-5.3554 Y13.4548 
G01 X-5.4506 Y13.5184 
G01 X-5.5316 Y13.5994 
G01 X-5.5952 Y13.6946 
G01 X-5.6391 Y13.8004 
G01 X-5.6614 Y13.9127 
G01 X-5.6614 Y22.2786 
G01 X-16.5673 Y22.2786 
G01 X-16.6796 Y22.3009 
G01 X-16.7854 Y22.3448 
G01 X-16.8806 Y22.4084 
G01 X-16.9616 Y22.4894 
G01 X-20.4541 Y25.9819 
G01 X-20.5177 Y26.0771 
G01 X-20.5616 Y26.1829 
G01 X-20.5839 Y26.2952 
G01 X-20.5839 Y26.4098 
G01 X-20.5822 Y26.4185 
G01 X-20.6140 Y26.5785 
G01 X-20.6140 Y26.7615 
G01 X-20.5783 Y26.9410 
G01 X-20.5083 Y27.1100 
G01 X-20.4066 Y27.2622 
G01 X-20.2772 Y27.3916 
G01 X-20.1250 Y27.4933 
G01 X-19.9560 Y27.5633 
G01 X-19.7765 Y27.5990 
G01 X-19.5935 Y27.5990 
G01 X-19.4140 Y27.5633 
G01 X-19.2450 Y27.4933 
G01 X-19.0928 Y27.3916 
G01 X-18.9634 Y27.2622 
G01 X-18.8617 Y27.1100 
G01 X-18.7917 Y26.9410 
G01 X-18.7560 Y26.7615 
G01 X-18.7560 Y26.5785 
G01 X-18.7917 Y26.3990 
G01 X-18.8617 Y26.2300 
G01 X-18.9402 Y26.1125 
G01 X-16.2692 Y23.4414 
G01 X-5.0227 Y23.4414 
G01 X-4.9104 Y23.4191 
G01 X-4.8046 Y23.3752 
G01 X-4.7094 Y23.3116 
G01 X-4.6284 Y23.2306 
G01 X-4.5648 Y23.1354 
G01 X-4.5209 Y23.0296 
G01 X-4.4986 Y22.9173 
G01 X-4.4986 Y17.1352 
G01 X-4.4022 Y17.2316 
G01 X-4.2500 Y17.3333 
G01 X-4.0810 Y17.4033 
G01 X-3.9015 Y17.4390 
G01 X-3.7185 Y17.4390 
G01 X-3.7058 Y17.4365 
G01 X-3.2738 Y17.8684 
G01 X-3.2738 Y28.6286 
G01 X-21.3492 Y28.6286 
G01 X-21.6436 Y28.3342 
G01 X-21.6436 Y27.3988 
G01 X-21.6328 Y27.3916 
G01 X-21.5034 Y27.2622 
G01 X-21.4017 Y27.1100 
G01 X-21.3317 Y26.9410 
G01 X-21.2960 Y26.7615 
G01 X-21.2960 Y26.5785 
G01 X-21.3317 Y26.3990 
G01 X-21.4017 Y26.2300 
G01 X-21.5034 Y26.0778 
G01 X-21.6328 Y25.9484 
G01 X-21.7850 Y25.8467 
G01 X-21.9540 Y25.7767 
G01 X-22.1335 Y25.7410 
G01 X-22.3165 Y25.7410 
G01 X-22.4960 Y25.7767 
G01 X-22.6650 Y25.8467 
G01 X-22.8172 Y25.9484 
G01 X-22.9466 Y26.0778 
G01 X-23.0483 Y26.2300 
G01 X-23.1183 Y26.3990 
G01 X-23.1540 Y26.5785 
G00 Z2.0000 
G00 X-25.6940 Y26.5785 
G01 Z-0.1500 F100.00 
G01 X-25.6940 Y26.7615 F208.00 
G01 X-25.6583 Y26.9410 
G01 X-25.5883 Y27.1100 
G01 X-25.4866 Y27.2622 
G01 X-25.3572 Y27.3916 
G01 X-25.2050 Y27.4933 
G01 X-25.0360 Y27.5633 
G01 X-24.8565 Y27.5990 
G01 X-24.6735 Y27.5990 
G01 X-24.4940 Y27.5633 
G01 X-24.3250 Y27.4933 
G01 X-24.1728 Y27.3916 
G01 X-24.0434 Y27.2622 
G01 X-23.9417 Y27.1100 
G01 X-23.8717 Y26.9410 
G01 X-23.8360 Y26.7615 
G01 X-23.8360 Y26.5785 
G01 X-23.8717 Y26.3990 
G01 X-23.9417 Y26.2300 
G01 X-24.0434 Y26.0778 
G01 X-24.1728 Y25.9484 
G01 X-24.3250 Y25.8467 
G01 X-24.4940 Y25.7767 
G01 X-24.6735 Y25.7410 
G01 X-24.8565 Y25.7410 
G01 X-25.0360 Y25.7767 
G01 X-25.2050 Y25.8467 
G01 X-25.3572 Y25.9484 
G01 X-25.4866 Y26.0778 
G01 X-25.5883 Y26.2300 
G01 X-25.6583 Y26.3990 
G01 X-25.6940 Y26.5785 
G00 Z2.0000 
G00 X-28.2340 Y26.5785 
G01 Z-0.1500 F100.00 
G01 X-28.2340 Y26.7615 F208.00 
G01 X-28.1983 Y26.9410 
G01 X-28.1283 Y27.1100 
G01 X-28.0266 Y27.2622 
G01 X-27.8972 Y27.3916 
G01 X-27.7450 Y27.4933 
G01 X-27.5760 Y27.5633 
G01 X-27.3965 Y27.5990 
G01 X-27.2135 Y27.5990 
G01 X-27.0340 Y27.5633 
G01 X-26.8650 Y27.4933 
G01 X-26.7128 Y27.3916 
G01 X-26.5834 Y27.2622 
G01 X-26.4817 Y27.1100 
G01 X-26.4117 Y26.9410 
G01 X-26.3760 Y26.7615 
G01 X-26.3760 Y26.5785 
G01 X-26.4117 Y26.3990 
G01 X-26.4817 Y26.2300 
G01 X-26.5834 Y26.0778 
G01 X-26.7128 Y25.9484 
G01 X-26.8650 Y25.8467 
G01 X-27.0340 Y25.7767 
G01 X-27.2135 Y25.7410 
G01 X-27.3965 Y25.7410 
G01 X-27.5760 Y25.7767 
G01 X-27.7450 Y25.8467 
G01 X-27.8972 Y25.9484 
G01 X-28.0266 Y26.0778 
G01 X-28.1283 Y26.2300 
G01 X-28.1983 Y26.3990 
G01 X-28.2340 Y26.5785 
G00 Z2.0000 
G00 X-15.5340 Y3.7185 
G01 Z-0.1500 F100.00 
G01 X-15.5340 Y3.9015 F208.00 
G01 X-15.4983 Y4.0810 
G01 X-15.4283 Y4.2500 
G01 X-15.3266 Y4.4022 
G01 X-15.1972 Y4.5316 
G01 X-15.0450 Y4.6333 
G01 X-14.8760 Y4.7033 
G01 X-14.6965 Y4.7390 
G01 X-14.5135 Y4.7390 
G01 X-14.3340 Y4.7033 
G01 X-14.1650 Y4.6333 
G01 X-14.0128 Y4.5316 
G01 X-13.8834 Y4.4022 
G01 X-13.7817 Y4.2500 
G01 X-13.7117 Y4.0810 
G01 X-13.6760 Y3.9015 
G01 X-13.6760 Y3.7185 
G01 X-13.7117 Y3.5390 
G01 X-13.7817 Y3.3700 
G01 X-13.8834 Y3.2178 
G01 X-14.0128 Y3.0884 
G01 X-14.1650 Y2.9867 
G01 X-14.3340 Y2.9167 
G01 X-14.5135 Y2.8810 
G01 X-14.6965 Y2.8810 
G01 X-14.8760 Y2.9167 
G01 X-15.0450 Y2.9867 
G01 X-15.1972 Y3.0884 
G01 X-15.3266 Y3.2178 
G01 X-15.4283 Y3.3700 
G01 X-15.4983 Y3.5390 
G01 X-15.5340 Y3.7185 
G00 Z2.0000 
G00 X-18.0740 Y3.7185 
G01 Z-0.1500 F100.00 
G01 X-18.0740 Y3.9015 F208.00 
G01 X-18.0383 Y4.0810 
G01 X-17.9683 Y4.2500 
G01 X-17.8666 Y4.4022 
G01 X-17.7372 Y4.5316 
G01 X-17.5850 Y4.6333 
G01 X-17.4160 Y4.7033 
G01 X-17.2365 Y4.7390 
G01 X-17.0535 Y4.7390 
G01 X-16.8740 Y4.7033 
G01 X-16.7050 Y4.6333 
G01 X-16.5528 Y4.5316 
G01 X-16.4234 Y4.4022 
G01 X-16.3217 Y4.2500 
G01 X-16.2517 Y4.0810 
G01 X-16.2160 Y3.9015 
G01 X-16.2160 Y3.7185 
G01 X-16.2517 Y3.5390 
G01 X-16.3217 Y3.3700 
G01 X-16.4234 Y3.2178 
G01 X-16.5528 Y3.0884 
G01 X-16.7050 Y2.9867 
G01 X-16.8740 Y2.9167 
G01 X-17.0535 Y2.8810 
G01 X-17.2365 Y2.8810 
G01 X-17.4160 Y2.9167 
G01 X-17.5850 Y2.9867 
G01 X-17.7372 Y3.0884 
G01 X-17.8666 Y3.2178 
G01 X-17.9683 Y3.3700 
G01 X-18.0383 Y3.5390 
G01 X-18.0740 Y3.7185 
G00 Z2.0000 
G00 X-20.6140 Y3.7185 
G01 Z-0.1500 F100.00 
G01 X-20.6140 Y3.9015 F208.00 
G01 X-20.5783 Y4.0810 
G01 X-20.5083 Y4.2500 
G01 X-20.4066 Y4.4022 
G01 X-20.2772 Y4.5316 
G01 X-20.1250 Y4.6333 
G01 X-19.9560 Y4.7033 
G01 X-19.7765 Y4.7390 
G01 X-19.5935 Y4.7390 
G01 X-19.4140 Y4.7033 
G01 X-19.2450 Y4.6333 
G01 X-19.0928 Y4.5316 
G01 X-18.9634 Y4.4022 
G01 X-18.8617 Y4.2500 
G01 X-18.7917 Y4.0810 
G01 X-18.7560 Y3.9015 
G01 X-18.7560 Y3.7185 
G01 X-18.7917 Y3.5390 
G01 X-18.8617 Y3.3700 
G01 X-18.9634 Y3.2178 
G01 X-19.0928 Y3.0884 
G01 X-19.2450 Y2.9867 
G01 X-19.4140 Y2.9167 
G01 X-19.5935 Y2.8810 
G01 X-19.7765 Y2.8810 
G01 X-19.9560 Y2.9167 
G01 X-20.1250 Y2.9867 
G01 X-20.2772 Y3.0884 
G01 X-20.4066 Y3.2178 
G01 X-20.5083 Y3.3700 
G01 X-20.5783 Y3.5390 
G01 X-20.6140 Y3.7185 
G00 Z2.0000 
G00 X-23.1540 Y3.7185 
G01 Z-0.1500 F100.00 
G01 X-23.1540 Y3.9015 F208.00 
G01 X-23.1183 Y4.0810 
G01 X-23.0483 Y4.2500 
G01 X-22.9466 Y4.4022 
G01 X-22.8172 Y4.5316 
G01 X-22.8064 Y4.5388 
G01 X-22.8064 Y18.1742 
G01 X-23.1008 Y18.4686 
G01 X-27.7096 Y18.4686 
G01 X-27.7202 Y18.4527 
G01 X-27.8507 Y18.3222 
G01 X-28.0042 Y18.2196 
G01 X-28.1747 Y18.1490 
G01 X-28.3557 Y18.1130 
G01 X-30.0643 Y18.1130 
G01 X-30.2453 Y18.1490 
G01 X-30.4158 Y18.2196 
G01 X-30.5693 Y18.3222 
G01 X-30.6998 Y18.4527 
G01 X-30.8024 Y18.6062 
G01 X-30.8730 Y18.7767 
G01 X-30.9090 Y18.9577 
G01 X-30.9090 Y19.1423 
G01 X-30.8730 Y19.3233 
G01 X-30.8024 Y19.4938 
G01 X-30.6998 Y19.6473 
G01 X-30.5693 Y19.7778 
G01 X-30.4158 Y19.8804 
G01 X-30.2453 Y19.9510 
G01 X-30.0643 Y19.9870 
G01 X-28.3557 Y19.9870 
G01 X-28.1747 Y19.9510 
G01 X-28.0042 Y19.8804 
G01 X-27.8507 Y19.7778 
G01 X-27.7202 Y19.6473 
G01 X-27.7096 Y19.6314 
G01 X-22.8027 Y19.6314 
G01 X-22.6904 Y19.6091 
G01 X-22.5846 Y19.5652 
G01 X-22.4894 Y19.5016 
G01 X-21.8544 Y18.8666 
G01 X-21.7734 Y18.7856 
G01 X-21.7098 Y18.6904 
G01 X-21.6659 Y18.5846 
G01 X-21.6436 Y18.4723 
G01 X-21.6436 Y4.5388 
G01 X-21.6328 Y4.5316 
G01 X-21.5034 Y4.4022 
G01 X-21.4017 Y4.2500 
G01 X-21.3317 Y4.0810 
G01 X-21.2960 Y3.9015 
G01 X-21.2960 Y3.7185 
G01 X-21.3317 Y3.5390 
G01 X-21.4017 Y3.3700 
G01 X-21.5034 Y3.2178 
G01 X-21.6328 Y3.0884 
G01 X-21.7850 Y2.9867 
G01 X-21.9540 Y2.9167 
G01 X-22.1335 Y2.8810 
G01 X-22.3165 Y2.8810 
G01 X-22.4960 Y2.9167 
G01 X-22.6650 Y2.9867 
G01 X-22.8172 Y3.0884 
G01 X-22.9466 Y3.2178 
G01 X-23.0483 Y3.3700 
G01 X-23.1183 Y3.5390 
G01 X-23.1540 Y3.7185 
G00 Z2.0000 
G00 X-28.2340 Y3.7185 
G01 Z-0.1500 F100.00 
G01 X-28.2340 Y3.9015 F208.00 
G01 X-28.1983 Y4.0810 
G01 X-28.1283 Y4.2500 
G01 X-28.0266 Y4.4022 
G01 X-27.8972 Y4.5316 
G01 X-27.7450 Y4.6333 
G01 X-27.5760 Y4.7033 
G01 X-27.3965 Y4.7390 
G01 X-27.2135 Y4.7390 
G01 X-27.0340 Y4.7033 
G01 X-26.8650 Y4.6333 
G01 X-26.7128 Y4.5316 
G01 X-26.5834 Y4.4022 
G01 X-26.4817 Y4.2500 
G01 X-26.4117 Y4.0810 
G01 X-26.3760 Y3.9015 
G01 X-26.3760 Y3.7185 
G01 X-26.4117 Y3.5390 
G01 X-26.4817 Y3.3700 
G01 X-26.5834 Y3.2178 
G01 X-26.7128 Y3.0884 
G01 X-26.8650 Y2.9867 
G01 X-27.0340 Y2.9167 
G01 X-27.2135 Y2.8810 
G01 X-27.3965 Y2.8810 
G01 X-27.5760 Y2.9167 
G01 X-27.7450 Y2.9867 
G01 X-27.8972 Y3.0884 
G01 X-28.0266 Y3.2178 
G01 X-28.1283 Y3.3700 
G01 X-28.1983 Y3.5390 
G01 X-28.2340 Y3.7185 
G00 Z2.0000 
G00 X-30.7740 Y3.7185 
G01 Z-0.1500 F100.00 
G01 X-30.7740 Y3.9015 F208.00 
G01 X-30.7383 Y4.0810 
G01 X-30.6683 Y4.2500 
G01 X-30.5666 Y4.4022 
G01 X-30.4372 Y4.5316 
G01 X-30.2850 Y4.6333 
G01 X-30.1160 Y4.7033 
G01 X-29.9365 Y4.7390 
G01 X-29.7535 Y4.7390 
G01 X-29.5740 Y4.7033 
G01 X-29.4050 Y4.6333 
G01 X-29.2528 Y4.5316 
G01 X-29.1234 Y4.4022 
G01 X-29.0217 Y4.2500 
G01 X-28.9517 Y4.0810 
G01 X-28.9160 Y3.9015 
G01 X-28.9160 Y3.7185 
G01 X-28.9517 Y3.5390 
G01 X-29.0217 Y3.3700 
G01 X-29.1234 Y3.2178 
G01 X-29.2528 Y3.0884 
G01 X-29.4050 Y2.9867 
G01 X-29.5740 Y2.9167 
G01 X-29.7535 Y2.8810 
G01 X-29.9365 Y2.8810 
G01 X-30.1160 Y2.9167 
G01 X-30.2850 Y2.9867 
G01 X-30.4372 Y3.0884 
G01 X-30.5666 Y3.2178 
G01 X-30.6683 Y3.3700 
G01 X-30.7383 Y3.5390 
G01 X-30.7740 Y3.7185 
G00 Z2.0000 
G00 X-30.0643 Y17.4470 
G01 Z-0.1500 F100.00 
G01 X-28.3557 Y17.4470 F208.00 
G01 X-28.1747 Y17.4110 
G01 X-28.0042 Y17.3404 
G01 X-27.8507 Y17.2378 
G01 X-27.7202 Y17.1073 
G01 X-27.7096 Y17.0914 
G01 X-25.3427 Y17.0914 
G01 X-25.2304 Y17.0691 
G01 X-25.1246 Y17.0252 
G01 X-25.0294 Y16.9616 
G01 X-24.3944 Y16.3266 
G01 X-24.3134 Y16.2456 
G01 X-24.2498 Y16.1504 
G01 X-24.2059 Y16.0446 
G01 X-24.1836 Y15.9323 
G01 X-24.1836 Y4.5388 
G01 X-24.1728 Y4.5316 
G01 X-24.0434 Y4.4022 
G01 X-23.9417 Y4.2500 
G01 X-23.8717 Y4.0810 
G01 X-23.8360 Y3.9015 
G01 X-23.8360 Y3.7185 
G01 X-23.8717 Y3.5390 
G01 X-23.9417 Y3.3700 
G01 X-24.0434 Y3.2178 
G01 X-24.1728 Y3.0884 
G01 X-24.3250 Y2.9867 
G01 X-24.4940 Y2.9167 
G01 X-24.6735 Y2.8810 
G01 X-24.8565 Y2.8810 
G01 X-25.0360 Y2.9167 
G01 X-25.2050 Y2.9867 
G01 X-25.3572 Y3.0884 
G01 X-25.4866 Y3.2178 
G01 X-25.5883 Y3.3700 
G01 X-25.6583 Y3.5390 
G01 X-25.6940 Y3.7185 
G01 X-25.6940 Y3.9015 
G01 X-25.6583 Y4.0810 
G01 X-25.5883 Y4.2500 
G01 X-25.4866 Y4.4022 
G01 X-25.3572 Y4.5316 
G01 X-25.3464 Y4.5388 
G01 X-25.3464 Y15.6342 
G01 X-25.6408 Y15.9286 
G01 X-27.7096 Y15.9286 
G01 X-27.7202 Y15.9127 
G01 X-27.8507 Y15.7822 
G01 X-28.0042 Y15.6796 
G01 X-28.1747 Y15.6090 
G01 X-28.3557 Y15.5730 
G01 X-30.0643 Y15.5730 
G01 X-30.2453 Y15.6090 
G01 X-30.4158 Y15.6796 
G01 X-30.5693 Y15.7822 
G01 X-30.6998 Y15.9127 
G01 X-30.8024 Y16.0662 
G01 X-30.8730 Y16.2367 
G01 X-30.9090 Y16.4177 
G01 X-30.9090 Y16.6023 
G01 X-30.8730 Y16.7833 
G01 X-30.8024 Y16.9538 
G01 X-30.6998 Y17.1073 
G01 X-30.5693 Y17.2378 
G01 X-30.4158 Y17.3404 
G01 X-30.2453 Y17.4110 
G01 X-30.0643 Y17.4470 
G00 Z2.0000 
G00 X-4.8390 Y11.3286 
G01 Z-0.1500 F100.00 
G01 X-4.8390 Y11.5313 F208.00 
G01 X-4.7995 Y11.7301 
G01 X-4.7219 Y11.9174 
G01 X-4.6093 Y12.0859 
G01 X-4.4659 Y12.2293 
G01 X-4.2974 Y12.3419 
G01 X-4.1101 Y12.4195 
G01 X-3.9113 Y12.4590 
G01 X-3.7087 Y12.4590 
G01 X-3.5099 Y12.4195 
G01 X-3.3226 Y12.3419 
G01 X-3.1541 Y12.2293 
G01 X-3.0362 Y12.1114 
G01 X-2.6253 Y12.1114 
G01 X-2.4936 Y12.0852 
G01 X-2.3696 Y12.0338 
G01 X-2.2580 Y11.9593 
G01 X-2.1631 Y11.8644 
G01 X-0.9880 Y10.6893 
G01 X-0.8931 Y10.5944 
G01 X-0.8185 Y10.4828 
G01 X-0.7672 Y10.3588 
G01 X-0.7410 Y10.2271 
G01 X-0.7410 Y1.3553 
G01 X-0.7672 Y1.2236 
G01 X-0.8185 Y1.0996 
G01 X-0.8931 Y0.9880 
G01 X-0.9880 Y0.8931 
G01 X-1.0996 Y0.8185 
G01 X-1.2236 Y0.7672 
G01 X-1.3553 Y0.7410 
G01 X-31.8171 Y0.7410 
G01 X-31.9488 Y0.7672 
G01 X-32.0728 Y0.8185 
G01 X-32.1844 Y0.8931 
G01 X-32.9143 Y1.6230 
G01 X-32.9888 Y1.7346 
G01 X-33.0402 Y1.8586 
G01 X-33.0664 Y1.9903 
G01 X-33.0664 Y3.0362 
G01 X-33.1843 Y3.1541 
G01 X-33.2969 Y3.3226 
G01 X-33.3745 Y3.5099 
G01 X-33.4140 Y3.7087 
G01 X-33.4140 Y3.9113 
G01 X-33.3745 Y4.1101 
G01 X-33.2969 Y4.2974 
G01 X-33.1843 Y4.4659 
G01 X-33.0409 Y4.6093 
G01 X-32.8724 Y4.7219 
G01 X-32.6851 Y4.7995 
G01 X-32.4863 Y4.8390 
G01 X-32.2837 Y4.8390 
G01 X-32.0849 Y4.7995 
G01 X-31.8976 Y4.7219 
G01 X-31.7291 Y4.6093 
G01 X-31.5857 Y4.4659 
G01 X-31.4731 Y4.2974 
G01 X-31.3955 Y4.1101 
G01 X-31.3560 Y3.9113 
G01 X-31.3560 Y3.7087 
G01 X-31.3955 Y3.5099 
G01 X-31.4731 Y3.3226 
G01 X-31.5857 Y3.1541 
G01 X-31.7036 Y3.0362 
G01 X-31.7036 Y2.3396 
G01 X-31.4678 Y2.1038 
G01 X-2.1038 Y2.1038 
G01 X-2.1038 Y9.8778 
G01 X-2.9746 Y10.7486 
G01 X-3.0362 Y10.7486 
G01 X-3.1541 Y10.6307 
G01 X-3.3226 Y10.5181 
G01 X-3.5099 Y10.4405 
G01 X-3.7087 Y10.4010 
G01 X-3.9113 Y10.4010 
G01 X-4.1101 Y10.4405 
G01 X-4.2974 Y10.5181 
G01 X-4.4659 Y10.6307 
G01 X-4.6093 Y10.7741 
G01 X-4.7219 Y10.9426 
G01 X-4.7995 Y11.1299 
G01 X-4.8390 Y11.3286 
G00 Z2.0000 
G00 X-4.8390 Y8.0998 
G01 Z-0.1500 F100.00 
G01 X-4.8390 Y8.2086 F208.00 
G01 X-16.5771 Y8.2086 
G01 X-16.7088 Y8.2348 
G01 X-16.8328 Y8.2862 
G01 X-16.9444 Y8.3607 
G01 X-18.2144 Y9.6307 
G01 X-18.3093 Y9.7256 
G01 X-18.3838 Y9.8372 
G01 X-18.4352 Y9.9612 
G01 X-18.4614 Y10.0929 
G01 X-18.4614 Y20.0378 
G01 X-19.3322 Y20.9086 
G01 X-29.2771 Y20.9086 
G01 X-29.4088 Y20.9348 
G01 X-29.5328 Y20.9862 
G01 X-29.6444 Y21.0607 
G01 X-29.7393 Y21.1556 
G01 X-29.8450 Y21.2614 
G01 X-32.3386 Y18.7678 
G01 X-32.3386 Y15.5222 
G01 X-31.4678 Y14.6514 
G01 X-30.7571 Y14.6514 
G01 X-30.6476 Y14.7610 
G01 X-30.5155 Y14.8569 
G01 X-30.3701 Y14.9310 
G01 X-30.2148 Y14.9815 
G01 X-30.0536 Y15.0070 
G01 X-28.3664 Y15.0070 
G01 X-28.2052 Y14.9815 
G01 X-28.0499 Y14.9310 
G01 X-27.9045 Y14.8569 
G01 X-27.7724 Y14.7610 
G01 X-27.6570 Y14.6456 
G01 X-27.5611 Y14.5135 
G01 X-27.4870 Y14.3681 
G01 X-27.4365 Y14.2128 
G01 X-27.4110 Y14.0516 
G01 X-27.4110 Y13.8884 
G01 X-27.4365 Y13.7272 
G01 X-27.4870 Y13.5719 
G01 X-27.5611 Y13.4265 
G01 X-27.6570 Y13.2944 
G01 X-27.7724 Y13.1790 
G01 X-27.9045 Y13.0831 
G01 X-28.0499 Y13.0090 
G01 X-28.2052 Y12.9585 
G01 X-28.3664 Y12.9330 
G01 X-30.0536 Y12.9330 
G01 X-30.2148 Y12.9585 
G01 X-30.3701 Y13.0090 
G01 X-30.5155 Y13.0831 
G01 X-30.6476 Y13.1790 
G01 X-30.7571 Y13.2886 
G01 X-31.8171 Y13.2886 
G01 X-31.9488 Y13.3148 
G01 X-32.0728 Y13.3662 
G01 X-32.1844 Y13.4407 
G01 X-33.5493 Y14.8056 
G01 X-33.6238 Y14.9172 
G01 X-33.6752 Y15.0412 
G01 X-33.7014 Y15.1729 
G01 X-33.7014 Y19.1171 
G01 X-33.6752 Y19.2488 
G01 X-33.6238 Y19.3728 
G01 X-33.5493 Y19.4844 
G01 X-33.4544 Y19.5793 
G01 X-30.5264 Y22.5072 
G01 X-30.5264 Y25.8962 
G01 X-30.6443 Y26.0141 
G01 X-30.7569 Y26.1826 
G01 X-30.8345 Y26.3698 
G01 X-30.8740 Y26.5687 
G01 X-30.8740 Y26.7713 
G01 X-30.8345 Y26.9701 
G01 X-30.7569 Y27.1574 
G01 X-30.6443 Y27.3259 
G01 X-30.5009 Y27.4693 
G01 X-30.3324 Y27.5819 
G01 X-30.1451 Y27.6595 
G01 X-29.9463 Y27.6990 
G01 X-29.7437 Y27.6990 
G01 X-29.5449 Y27.6595 
G01 X-29.3576 Y27.5819 
G01 X-29.1891 Y27.4693 
G01 X-29.0457 Y27.3259 
G01 X-28.9331 Y27.1574 
G01 X-28.8555 Y26.9701 
G01 X-28.8160 Y26.7713 
G01 X-28.8160 Y26.5687 
G01 X-28.8555 Y26.3698 
G01 X-28.9331 Y26.1826 
G01 X-29.0457 Y26.0141 
G01 X-29.1636 Y25.8962 
G01 X-29.1636 Y22.5072 
G01 X-28.9278 Y22.2714 
G01 X-18.9829 Y22.2714 
G01 X-18.8512 Y22.2452 
G01 X-18.7272 Y22.1938 
G01 X-18.6156 Y22.1193 
G01 X-18.5207 Y22.0244 
G01 X-17.2507 Y20.7544 
G01 X-17.1761 Y20.6428 
G01 X-17.1248 Y20.5188 
G01 X-17.0986 Y20.3871 
G01 X-17.0986 Y10.4422 
G01 X-16.2278 Y9.5714 
G01 X-4.8390 Y9.5714 
G01 X-4.8390 Y9.6802 
G01 X-4.8203 Y9.7501 
G01 X-4.7841 Y9.8129 
G01 X-4.7329 Y9.8641 
G01 X-4.6701 Y9.9003 
G01 X-4.6002 Y9.9190 
G01 X-3.0198 Y9.9190 
G01 X-2.9499 Y9.9003 
G01 X-2.8871 Y9.8641 
G01 X-2.8359 Y9.8129 
G01 X-2.7997 Y9.7501 
G01 X-2.7810 Y9.6802 
G01 X-2.7810 Y8.0998 
G01 X-2.7997 Y8.0299 
G01 X-2.8359 Y7.9671 
G01 X-2.8871 Y7.9159 
G01 X-2.9499 Y7.8797 
G01 X-3.0198 Y7.8610 
G01 X-4.6002 Y7.8610 
G01 X-4.6701 Y7.8797 
G01 X-4.7329 Y7.9159 
G01 X-4.7841 Y7.9671 
G01 X-4.8203 Y8.0299 
G01 X-4.8390 Y8.0998 
G00 Z2.0000 
G00 X-33.4140 Y26.7713 
G01 Z-0.1500 F100.00 
G01 X-33.3745 Y26.9701 F208.00 
G01 X-33.2969 Y27.1574 
G01 X-33.1843 Y27.3259 
G01 X-33.0409 Y27.4693 
G01 X-32.8724 Y27.5819 
G01 X-32.6851 Y27.6595 
G01 X-32.4863 Y27.6990 
G01 X-32.2837 Y27.6990 
G01 X-32.0849 Y27.6595 
G01 X-31.8976 Y27.5819 
G01 X-31.7291 Y27.4693 
G01 X-31.5857 Y27.3259 
G01 X-31.4731 Y27.1574 
G01 X-31.3955 Y26.9701 
G01 X-31.3560 Y26.7713 
G01 X-31.3560 Y26.5687 
G01 X-31.3955 Y26.3698 
G01 X-31.4731 Y26.1826 
G01 X-31.5857 Y26.0141 
G01 X-31.7291 Y25.8707 
G01 X-31.8976 Y25.7581 
G01 X-32.0849 Y25.6805 
G01 X-32.2837 Y25.6410 
G01 X-32.4504 Y25.6410 
G01 X-34.2436 Y23.8478 
G01 X-34.2436 Y14.8872 
G01 X-31.4678 Y12.1114 
G01 X-30.7571 Y12.1114 
G01 X-30.6476 Y12.2210 
G01 X-30.5155 Y12.3169 
G01 X-30.3701 Y12.3910 
G01 X-30.2148 Y12.4415 
G01 X-30.0536 Y12.4670 
G01 X-28.3664 Y12.4670 
G01 X-28.2052 Y12.4415 
G01 X-28.0499 Y12.3910 
G01 X-27.9045 Y12.3169 
G01 X-27.7724 Y12.2210 
G01 X-27.6570 Y12.1056 
G01 X-27.5611 Y11.9735 
G01 X-27.4870 Y11.8281 
G01 X-27.4365 Y11.6728 
G01 X-27.4110 Y11.5116 
G01 X-27.4110 Y11.3484 
G01 X-27.4365 Y11.1872 
G01 X-27.4870 Y11.0319 
G01 X-27.5611 Y10.8865 
G01 X-27.6570 Y10.7544 
G01 X-27.7724 Y10.6390 
G01 X-27.9045 Y10.5431 
G01 X-28.0499 Y10.4690 
G01 X-28.2052 Y10.4185 
G01 X-28.3664 Y10.3930 
G01 X-30.0536 Y10.3930 
G01 X-30.2148 Y10.4185 
G01 X-30.3701 Y10.4690 
G01 X-30.5155 Y10.5431 
G01 X-30.6476 Y10.6390 
G01 X-30.7571 Y10.7486 
G01 X-31.8171 Y10.7486 
G01 X-31.9488 Y10.7748 
G01 X-32.0728 Y10.8262 
G01 X-32.1844 Y10.9007 
G01 X-32.2793 Y10.9956 
G01 X-35.4543 Y14.1706 
G01 X-35.5288 Y14.2822 
G01 X-35.5802 Y14.4062 
G01 X-35.6064 Y14.5379 
G01 X-35.6064 Y24.1971 
G01 X-35.5802 Y24.3288 
G01 X-35.5288 Y24.4528 
G01 X-35.4543 Y24.5644 
G01 X-35.3594 Y24.6593 
G01 X-33.4140 Y26.6046 
G01 X-33.4140 Y26.7713 
G00 Z2.0000 
G00 X-15.6340 Y26.5687 
G01 Z-0.1500 F100.00 
G01 X-15.6340 Y26.7713 F208.00 
G01 X-15.5945 Y26.9701 
G01 X-15.5169 Y27.1574 
G01 X-15.4043 Y27.3259 
G01 X-15.2609 Y27.4693 
G01 X-15.0924 Y27.5819 
G01 X-14.9051 Y27.6595 
G01 X-14.7063 Y27.6990 
G01 X-14.5037 Y27.6990 
G01 X-14.3049 Y27.6595 
G01 X-14.1176 Y27.5819 
G01 X-13.9491 Y27.4693 
G01 X-13.8057 Y27.3259 
G01 X-13.6931 Y27.1574 
G01 X-13.6155 Y26.9701 
G01 X-13.5760 Y26.7713 
G01 X-13.5760 Y26.5687 
G01 X-13.6155 Y26.3698 
G01 X-13.6931 Y26.1826 
G01 X-13.8057 Y26.0141 
G01 X-13.9491 Y25.8707 
G01 X-14.1176 Y25.7581 
G01 X-14.3049 Y25.6805 
G01 X-14.5037 Y25.6410 
G01 X-14.7063 Y25.6410 
G01 X-14.9051 Y25.6805 
G01 X-15.0924 Y25.7581 
G01 X-15.2609 Y25.8707 
G01 X-15.4043 Y26.0141 
G01 X-15.5169 Y26.1826 
G01 X-15.5945 Y26.3698 
G01 X-15.6340 Y26.5687 
G00 Z2.0000 
G00 X-18.1740 Y26.5687 
G01 Z-0.1500 F100.00 
G01 X-18.1740 Y26.7713 F208.00 
G01 X-18.1345 Y26.9701 
G01 X-18.0569 Y27.1574 
G01 X-17.9443 Y27.3259 
G01 X-17.8009 Y27.4693 
G01 X-17.6324 Y27.5819 
G01 X-17.4451 Y27.6595 
G01 X-17.2463 Y27.6990 
G01 X-17.0436 Y27.6990 
G01 X-16.8449 Y27.6595 
G01 X-16.6576 Y27.5819 
G01 X-16.4891 Y27.4693 
G01 X-16.3457 Y27.3259 
G01 X-16.2331 Y27.1574 
G01 X-16.1555 Y26.9701 
G01 X-16.1160 Y26.7713 
G01 X-16.1160 Y26.5687 
G01 X-16.1555 Y26.3698 
G01 X-16.2331 Y26.1826 
G01 X-16.3457 Y26.0141 
G01 X-16.4891 Y25.8707 
G01 X-16.6576 Y25.7581 
G01 X-16.8449 Y25.6805 
G01 X-17.0436 Y25.6410 
G01 X-17.2463 Y25.6410 
G01 X-17.4451 Y25.6805 
G01 X-17.6324 Y25.7581 
G01 X-17.8009 Y25.8707 
G01 X-17.9443 Y26.0141 
G01 X-18.0569 Y26.1826 
G01 X-18.1345 Y26.3698 
G01 X-18.1740 Y26.5687 
G00 Z2.0000 
G00 X-23.2540 Y26.5687 
G01 Z-0.1500 F100.00 
G01 X-23.2540 Y26.7713 F208.00 
G01 X-23.2145 Y26.9701 
G01 X-23.1369 Y27.1574 
G01 X-23.0243 Y27.3259 
G01 X-22.9064 Y27.4438 
G01 X-22.9064 Y28.6421 
G01 X-22.8802 Y28.7738 
G01 X-22.8288 Y28.8978 
G01 X-22.7543 Y29.0094 
G01 X-22.6594 Y29.1043 
G01 X-22.0244 Y29.7393 
G01 X-21.9128 Y29.8138 
G01 X-21.7888 Y29.8652 
G01 X-21.6571 Y29.8914 
G01 X-2.6253 Y29.8914 
G01 X-2.4936 Y29.8652 
G01 X-2.3696 Y29.8138 
G01 X-2.2580 Y29.7393 
G01 X-2.1631 Y29.6444 
G01 X-2.0886 Y29.5328 
G01 X-2.0372 Y29.4088 
G01 X-2.0110 Y29.2771 
G01 X-2.0110 Y17.5605 
G01 X-2.0372 Y17.4288 
G01 X-2.0886 Y17.3048 
G01 X-2.1631 Y17.1932 
G01 X-2.2580 Y17.0983 
G01 X-2.7810 Y16.5754 
G01 X-2.7810 Y16.4087 
G01 X-2.8205 Y16.2098 
G01 X-2.8981 Y16.0226 
G01 X-3.0107 Y15.8541 
G01 X-3.1541 Y15.7107 
G01 X-3.3226 Y15.5981 
G01 X-3.5099 Y15.5205 
G01 X-3.7087 Y15.4810 
G01 X-3.9113 Y15.4810 
G01 X-4.1101 Y15.5205 
G01 X-4.2974 Y15.5981 
G01 X-4.3986 Y15.6657 
G01 X-4.3986 Y14.8143 
G01 X-4.2974 Y14.8819 
G01 X-4.1101 Y14.9595 
G01 X-3.9113 Y14.9990 
G01 X-3.7087 Y14.9990 
G01 X-3.5099 Y14.9595 
G01 X-3.3226 Y14.8819 
G01 X-3.1541 Y14.7693 
G01 X-3.0107 Y14.6259 
G01 X-2.8981 Y14.4574 
G01 X-2.8205 Y14.2701 
G01 X-2.7810 Y14.0713 
G01 X-2.7810 Y13.8687 
G01 X-2.8205 Y13.6699 
G01 X-2.8981 Y13.4826 
G01 X-3.0107 Y13.3140 
G01 X-3.1541 Y13.1707 
G01 X-3.3226 Y13.0581 
G01 X-3.5099 Y12.9805 
G01 X-3.7087 Y12.9410 
G01 X-3.9113 Y12.9410 
G01 X-4.1101 Y12.9805 
G01 X-4.2974 Y13.0581 
G01 X-4.4659 Y13.1707 
G01 X-4.5838 Y13.2886 
G01 X-5.1471 Y13.2886 
G01 X-5.2788 Y13.3148 
G01 X-5.4028 Y13.3662 
G01 X-5.5144 Y13.4407 
G01 X-5.6093 Y13.5356 
G01 X-5.6838 Y13.6472 
G01 X-5.7352 Y13.7712 
G01 X-5.7614 Y13.9029 
G01 X-5.7614 Y22.1786 
G01 X-16.5771 Y22.1786 
G01 X-16.7088 Y22.2048 
G01 X-16.8328 Y22.2562 
G01 X-16.9444 Y22.3307 
G01 X-17.0393 Y22.4256 
G01 X-20.5318 Y25.9181 
G01 X-20.6063 Y26.0297 
G01 X-20.6577 Y26.1537 
G01 X-20.6839 Y26.2854 
G01 X-20.6839 Y26.4173 
G01 X-20.7140 Y26.5687 
G01 X-20.7140 Y26.7713 
G01 X-20.6745 Y26.9701 
G01 X-20.5969 Y27.1574 
G01 X-20.4843 Y27.3259 
G01 X-20.3409 Y27.4693 
G01 X-20.1724 Y27.5819 
G01 X-19.9851 Y27.6595 
G01 X-19.7863 Y27.6990 
G01 X-19.5837 Y27.6990 
G01 X-19.3849 Y27.6595 
G01 X-19.1976 Y27.5819 
G01 X-19.0291 Y27.4693 
G01 X-18.8857 Y27.3259 
G01 X-18.7731 Y27.1574 
G01 X-18.6955 Y26.9701 
G01 X-18.6560 Y26.7713 
G01 X-18.6560 Y26.5687 
G01 X-18.6955 Y26.3698 
G01 X-18.7731 Y26.1826 
G01 X-18.8115 Y26.1251 
G01 X-16.2278 Y23.5414 
G01 X-5.0129 Y23.5414 
G01 X-4.8812 Y23.5152 
G01 X-4.7572 Y23.4638 
G01 X-4.6456 Y23.3893 
G01 X-4.5507 Y23.2944 
G01 X-4.4762 Y23.1828 
G01 X-4.4248 Y23.0588 
G01 X-4.3986 Y22.9271 
G01 X-4.3986 Y17.3543 
G01 X-4.2974 Y17.4219 
G01 X-4.1101 Y17.4995 
G01 X-3.9113 Y17.5390 
G01 X-3.7446 Y17.5390 
G01 X-3.3738 Y17.9098 
G01 X-3.3738 Y28.5286 
G01 X-21.3078 Y28.5286 
G01 X-21.5436 Y28.2928 
G01 X-21.5436 Y27.4438 
G01 X-21.4257 Y27.3259 
G01 X-21.3131 Y27.1574 
G01 X-21.2355 Y26.9701 
G01 X-21.1960 Y26.7713 
G01 X-21.1960 Y26.5687 
G01 X-21.2355 Y26.3698 
G01 X-21.3131 Y26.1826 
G01 X-21.4257 Y26.0141 
G01 X-21.5691 Y25.8707 
G01 X-21.7376 Y25.7581 
G01 X-21.9248 Y25.6805 
G01 X-22.1237 Y25.6410 
G01 X-22.3263 Y25.6410 
G01 X-22.5251 Y25.6805 
G01 X-22.7124 Y25.7581 
G01 X-22.8809 Y25.8707 
G01 X-23.0243 Y26.0141 
G01 X-23.1369 Y26.1826 
G01 X-23.2145 Y26.3698 
G01 X-23.2540 Y26.5687 
G00 Z2.0000 
G00 X-25.7940 Y26.5687 
G01 Z-0.1500 F100.00 
G01 X-25.7940 Y26.7713 F208.00 
G01 X-25.7545 Y26.9701 
G01 X-25.6769 Y27.1574 
G01 X-25.5643 Y27.3259 
G01 X-25.4209 Y27.4693 
G01 X-25.2524 Y27.5819 
G01 X-25.0651 Y27.6595 
G01 X-24.8663 Y27.6990 
G01 X-24.6637 Y27.6990 
G01 X-24.4649 Y27.6595 
G01 X-24.2776 Y27.5819 
G01 X-24.1090 Y27.4693 
G01 X-23.9657 Y27.3259 
G01 X-23.8531 Y27.1574 
G01 X-23.7755 Y26.9701 
G01 X-23.7360 Y26.7713 
G01 X-23.7360 Y26.5687 
G01 X-23.7755 Y26.3698 
G01 X-23.8531 Y26.1826 
G01 X-23.9657 Y26.0141 
G01 X-24.1090 Y25.8707 
G01 X-24.2776 Y25.7581 
G01 X-24.4649 Y25.6805 
G01 X-24.6637 Y25.6410 
G01 X-24.8663 Y25.6410 
G01 X-25.0651 Y25.6805 
G01 X-25.2524 Y25.7581 
G01 X-25.4209 Y25.8707 
G01 X-25.5643 Y26.0141 
G01 X-25.6769 Y26.1826 
G01 X-25.7545 Y26.3698 
G01 X-25.7940 Y26.5687 
G00 Z2.0000 
G00 X-28.3340 Y26.5687 
G01 Z-0.1500 F100.00 
G01 X-28.3340 Y26.7713 F208.00 
G01 X-28.2945 Y26.9701 
G01 X-28.2169 Y27.1574 
G01 X-28.1043 Y27.3259 
G01 X-27.9609 Y27.4693 
G01 X-27.7924 Y27.5819 
G01 X-27.6051 Y27.6595 
G01 X-27.4063 Y27.6990 
G01 X-27.2036 Y27.6990 
G01 X-27.0049 Y27.6595 
G01 X-26.8176 Y27.5819 
G01 X-26.6491 Y27.4693 
G01 X-26.5057 Y27.3259 
G01 X-26.3931 Y27.1574 
G01 X-26.3155 Y26.9701 
G01 X-26.2760 Y26.7713 
G01 X-26.2760 Y26.5687 
G01 X-26.3155 Y26.3698 
G01 X-26.3931 Y26.1826 
G01 X-26.5057 Y26.0141 
G01 X-26.6491 Y25.8707 
G01 X-26.8176 Y25.7581 
G01 X-27.0049 Y25.6805 
G01 X-27.2036 Y25.6410 
G01 X-27.4063 Y25.6410 
G01 X-27.6051 Y25.6805 
G01 X-27.7924 Y25.7581 
G01 X-27.9609 Y25.8707 
G01 X-28.1043 Y26.0141 
G01 X-28.2169 Y26.1826 
G01 X-28.2945 Y26.3698 
G01 X-28.3340 Y26.5687 
G00 Z2.0000 
G00 X-15.6340 Y3.7087 
G01 Z-0.1500 F100.00 
G01 X-15.6340 Y3.9113 F208.00 
G01 X-15.5945 Y4.1101 
G01 X-15.5169 Y4.2974 
G01 X-15.4043 Y4.4659 
G01 X-15.2609 Y4.6093 
G01 X-15.0924 Y4.7219 
G01 X-14.9051 Y4.7995 
G01 X-14.7063 Y4.8390 
G01 X-14.5037 Y4.8390 
G01 X-14.3049 Y4.7995 
G01 X-14.1176 Y4.7219 
G01 X-13.9491 Y4.6093 
G01 X-13.8057 Y4.4659 
G01 X-13.6931 Y4.2974 
G01 X-13.6155 Y4.1101 
G01 X-13.5760 Y3.9113 
G01 X-13.5760 Y3.7087 
G01 X-13.6155 Y3.5099 
G01 X-13.6931 Y3.3226 
G01 X-13.8057 Y3.1541 
G01 X-13.9491 Y3.0107 
G01 X-14.1176 Y2.8981 
G01 X-14.3049 Y2.8205 
G01 X-14.5037 Y2.7810 
G01 X-14.7063 Y2.7810 
G01 X-14.9051 Y2.8205 
G01 X-15.0924 Y2.8981 
G01 X-15.2609 Y3.0107 
G01 X-15.4043 Y3.1541 
G01 X-15.5169 Y3.3226 
G01 X-15.5945 Y3.5099 
G01 X-15.6340 Y3.7087 
G00 Z2.0000 
G00 X-18.1740 Y3.7087 
G01 Z-0.1500 F100.00 
G01 X-18.1740 Y3.9113 F208.00 
G01 X-18.1345 Y4.1101 
G01 X-18.0569 Y4.2974 
G01 X-17.9443 Y4.4659 
G01 X-17.8009 Y4.6093 
G01 X-17.6324 Y4.7219 
G01 X-17.4451 Y4.7995 
G01 X-17.2463 Y4.8390 
G01 X-17.0436 Y4.8390 
G01 X-16.8449 Y4.7995 
G01 X-16.6576 Y4.7219 
G01 X-16.4891 Y4.6093 
G01 X-16.3457 Y4.4659 
G01 X-16.2331 Y4.2974 
G01 X-16.1555 Y4.1101 
G01 X-16.1160 Y3.9113 
G01 X-16.1160 Y3.7087 
G01 X-16.1555 Y3.5099 
G01 X-16.2331 Y3.3226 
G01 X-16.3457 Y3.1541 
G01 X-16.4891 Y3.0107 
G01 X-16.6576 Y2.8981 
G01 X-16.8449 Y2.8205 
G01 X-17.0436 Y2.7810 
G01 X-17.2463 Y2.7810 
G01 X-17.4451 Y2.8205 
G01 X-17.6324 Y2.8981 
G01 X-17.8009 Y3.0107 
G01 X-17.9443 Y3.1541 
G01 X-18.0569 Y3.3226 
G01 X-18.1345 Y3.5099 
G01 X-18.1740 Y3.7087 
G00 Z2.0000 
G00 X-20.7140 Y3.7087 
G01 Z-0.1500 F100.00 
G01 X-20.7140 Y3.9113 F208.00 
G01 X-20.6745 Y4.1101 
G01 X-20.5969 Y4.2974 
G01 X-20.4843 Y4.4659 
G01 X-20.3409 Y4.6093 
G01 X-20.1724 Y4.7219 
G01 X-19.9851 Y4.7995 
G01 X-19.7863 Y4.8390 
G01 X-19.5837 Y4.8390 
G01 X-19.3849 Y4.7995 
G01 X-19.1976 Y4.7219 
G01 X-19.0291 Y4.6093 
G01 X-18.8857 Y4.4659 
G01 X-18.7731 Y4.2974 
G01 X-18.6955 Y4.1101 
G01 X-18.6560 Y3.9113 
G01 X-18.6560 Y3.7087 
G01 X-18.6955 Y3.5099 
G01 X-18.7731 Y3.3226 
G01 X-18.8857 Y3.1541 
G01 X-19.0291 Y3.0107 
G01 X-19.1976 Y2.8981 
G01 X-19.3849 Y2.8205 
G01 X-19.5837 Y2.7810 
G01 X-19.7863 Y2.7810 
G01 X-19.9851 Y2.8205 
G01 X-20.1724 Y2.8981 
G01 X-20.3409 Y3.0107 
G01 X-20.4843 Y3.1541 
G01 X-20.5969 Y3.3226 
G01 X-20.6745 Y3.5099 
G01 X-20.7140 Y3.7087 
G00 Z2.0000 
G00 X-23.2540 Y3.7087 
G01 Z-0.1500 F100.00 
G01 X-23.2540 Y3.9113 F208.00 
G01 X-23.2145 Y4.1101 
G01 X-23.1369 Y4.2974 
G01 X-23.0243 Y4.4659 
G01 X-22.9064 Y4.5838 
G01 X-22.9064 Y18.1328 
G01 X-23.1422 Y18.3686 
G01 X-27.6629 Y18.3686 
G01 X-27.7724 Y18.2590 
G01 X-27.9045 Y18.1631 
G01 X-28.0499 Y18.0890 
G01 X-28.2052 Y18.0385 
G01 X-28.3664 Y18.0130 
G01 X-30.0536 Y18.0130 
G01 X-30.2148 Y18.0385 
G01 X-30.3701 Y18.0890 
G01 X-30.5155 Y18.1631 
G01 X-30.6476 Y18.2590 
G01 X-30.7630 Y18.3744 
G01 X-30.8589 Y18.5065 
G01 X-30.9330 Y18.6519 
G01 X-30.9835 Y18.8072 
G01 X-31.0090 Y18.9684 
G01 X-31.0090 Y19.1316 
G01 X-30.9835 Y19.2928 
G01 X-30.9330 Y19.4481 
G01 X-30.8589 Y19.5935 
G01 X-30.7630 Y19.7256 
G01 X-30.6476 Y19.8410 
G01 X-30.5155 Y19.9369 
G01 X-30.3701 Y20.0110 
G01 X-30.2148 Y20.0615 
G01 X-30.0536 Y20.0870 
G01 X-28.3664 Y20.0870 
G01 X-28.2052 Y20.0615 
G01 X-28.0499 Y20.0110 
G01 X-27.9045 Y19.9369 
G01 X-27.7724 Y19.8410 
G01 X-27.6629 Y19.7314 
G01 X-22.7929 Y19.7314 
G01 X-22.6612 Y19.7052 
G01 X-22.5372 Y19.6538 
G01 X-22.4256 Y19.5793 
G01 X-21.7906 Y18.9443 
G01 X-21.6957 Y18.8494 
G01 X-21.6212 Y18.7378 
G01 X-21.5698 Y18.6138 
G01 X-21.5436 Y18.4821 
G01 X-21.5436 Y4.5838 
G01 X-21.4257 Y4.4659 
G01 X-21.3131 Y4.2974 
G01 X-21.2355 Y4.1101 
G01 X-21.1960 Y3.9113 
G01 X-21.1960 Y3.7087 
G01 X-21.2355 Y3.5099 
G01 X-21.3131 Y3.3226 
G01 X-21.4257 Y3.1541 
G01 X-21.5691 Y3.0107 
G01 X-21.7376 Y2.8981 
G01 X-21.9248 Y2.8205 
G01 X-22.1237 Y2.7810 
G01 X-22.3263 Y2.7810 
G01 X-22.5251 Y2.8205 
G01 X-22.7124 Y2.8981 
G01 X-22.8809 Y3.0107 
G01 X-23.0243 Y3.1541 
G01 X-23.1369 Y3.3226 
G01 X-23.2145 Y3.5099 
G01 X-23.2540 Y3.7087 
G00 Z2.0000 
G00 X-28.3340 Y3.7087 
G01 Z-0.1500 F100.00 
G01 X-28.3340 Y3.9113 F208.00 
G01 X-28.2945 Y4.1101 
G01 X-28.2169 Y4.2974 
G01 X-28.1043 Y4.4659 
G01 X-27.9609 Y4.6093 
G01 X-27.7924 Y4.7219 
G01 X-27.6051 Y4.7995 
G01 X-27.4063 Y4.8390 
G01 X-27.2036 Y4.8390 
G01 X-27.0049 Y4.7995 
G01 X-26.8176 Y4.7219 
G01 X-26.6491 Y4.6093 
G01 X-26.5057 Y4.4659 
G01 X-26.3931 Y4.2974 
G01 X-26.3155 Y4.1101 
G01 X-26.2760 Y3.9113 
G01 X-26.2760 Y3.7087 
G01 X-26.3155 Y3.5099 
G01 X-26.3931 Y3.3226 
G01 X-26.5057 Y3.1541 
G01 X-26.6491 Y3.0107 
G01 X-26.8176 Y2.8981 
G01 X-27.0049 Y2.8205 
G01 X-27.2036 Y2.7810 
G01 X-27.4063 Y2.7810 
G01 X-27.6051 Y2.8205 
G01 X-27.7924 Y2.8981 
G01 X-27.9609 Y3.0107 
G01 X-28.1043 Y3.1541 
G01 X-28.2169 Y3.3226 
G01 X-28.2945 Y3.5099 
G01 X-28.3340 Y3.7087 
G00 Z2.0000 
G00 X-30.8740 Y3.7087 
G01 Z-0.1500 F100.00 
G01 X-30.8740 Y3.9113 F208.00 
G01 X-30.8345 Y4.1101 
G01 X-30.7569 Y4.2974 
G01 X-30.6443 Y4.4659 
G01 X-30.5009 Y4.6093 
G01 X-30.3324 Y4.7219 
G01 X-30.1451 Y4.7995 
G01 X-29.9463 Y4.8390 
G01 X-29.7437 Y4.8390 
G01 X-29.5449 Y4.7995 
G01 X-29.3576 Y4.7219 
G01 X-29.1891 Y4.6093 
G01 X-29.0457 Y4.4659 
G01 X-28.9331 Y4.2974 
G01 X-28.8555 Y4.1101 
G01 X-28.8160 Y3.9113 
G01 X-28.8160 Y3.7087 
G01 X-28.8555 Y3.5099 
G01 X-28.9331 Y3.3226 
G01 X-29.0457 Y3.1541 
G01 X-29.1891 Y3.0107 
G01 X-29.3576 Y2.8981 
G01 X-29.5449 Y2.8205 
G01 X-29.7437 Y2.7810 
G01 X-29.9463 Y2.7810 
G01 X-30.1451 Y2.8205 
G01 X-30.3324 Y2.8981 
G01 X-30.5009 Y3.0107 
G01 X-30.6443 Y3.1541 
G01 X-30.7569 Y3.3226 
G01 X-30.8345 Y3.5099 
G01 X-30.8740 Y3.7087 
G00 Z2.0000 
G00 X-30.0536 Y17.5470 
G01 Z-0.1500 F100.00 
G01 X-28.3664 Y17.5470 F208.00 
G01 X-28.2052 Y17.5215 
G01 X-28.0499 Y17.4710 
G01 X-27.9045 Y17.3969 
G01 X-27.7724 Y17.3010 
G01 X-27.6629 Y17.1914 
G01 X-25.3329 Y17.1914 
G01 X-25.2012 Y17.1652 
G01 X-25.0772 Y17.1138 
G01 X-24.9656 Y17.0393 
G01 X-24.3306 Y16.4043 
G01 X-24.2357 Y16.3094 
G01 X-24.1612 Y16.1978 
G01 X-24.1098 Y16.0738 
G01 X-24.0836 Y15.9421 
G01 X-24.0836 Y4.5838 
G01 X-23.9657 Y4.4659 
G01 X-23.8531 Y4.2974 
G01 X-23.7755 Y4.1101 
G01 X-23.7360 Y3.9113 
G01 X-23.7360 Y3.7087 
G01 X-23.7755 Y3.5099 
G01 X-23.8531 Y3.3226 
G01 X-23.9657 Y3.1541 
G01 X-24.1090 Y3.0107 
G01 X-24.2776 Y2.8981 
G01 X-24.4649 Y2.8205 
G01 X-24.6637 Y2.7810 
G01 X-24.8663 Y2.7810 
G01 X-25.0651 Y2.8205 
G01 X-25.2524 Y2.8981 
G01 X-25.4209 Y3.0107 
G01 X-25.5643 Y3.1541 
G01 X-25.6769 Y3.3226 
G01 X-25.7545 Y3.5099 
G01 X-25.7940 Y3.7087 
G01 X-25.7940 Y3.9113 
G01 X-25.7545 Y4.1101 
G01 X-25.6769 Y4.2974 
G01 X-25.5643 Y4.4659 
G01 X-25.4464 Y4.5838 
G01 X-25.4464 Y15.5928 
G01 X-25.6822 Y15.8286 
G01 X-27.6629 Y15.8286 
G01 X-27.7724 Y15.7190 
G01 X-27.9045 Y15.6231 
G01 X-28.0499 Y15.5490 
G01 X-28.2052 Y15.4985 
G01 X-28.3664 Y15.4730 
G01 X-30.0536 Y15.4730 
G01 X-30.2148 Y15.4985 
G01 X-30.3701 Y15.5490 
G01 X-30.5155 Y15.6231 
G01 X-30.6476 Y15.7190 
G01 X-30.7630 Y15.8344 
G01 X-30.8589 Y15.9665 
G01 X-30.9330 Y16.1119 
G01 X-30.9835 Y16.2672 
G01 X-31.0090 Y16.4284 
G01 X-31.0090 Y16.5916 
G01 X-30.9835 Y16.7528 
G01 X-30.9330 Y16.9081 
G01 X-30.8589 Y17.0535 
G01 X-30.7630 Y17.1856 
G01 X-30.6476 Y17.3010 
G01 X-30.5155 Y17.3969 
G01 X-30.3701 Y17.4710 
G01 X-30.2148 Y17.5215 
G01 X-30.0536 Y17.5470 
G00 Z2.0000 
G00 X-4.9390 Y11.3411 
G01 Z-0.1500 F100.00 
G01 X-4.9390 Y11.5189 F208.00 
G01 X-4.9112 Y11.6944 
G01 X-4.8563 Y11.8634 
G01 X-4.7756 Y12.0217 
G01 X-4.6711 Y12.1655 
G01 X-4.5455 Y12.2912 
G01 X-4.4017 Y12.3956 
G01 X-4.2434 Y12.4763 
G01 X-4.0744 Y12.5312 
G01 X-3.8989 Y12.5590 
G01 X-3.7211 Y12.5590 
G01 X-3.5456 Y12.5312 
G01 X-3.3766 Y12.4763 
G01 X-3.2183 Y12.3956 
G01 X-3.0745 Y12.2912 
G01 X-2.9948 Y12.2114 
G01 X-2.6154 Y12.2114 
G01 X-2.4645 Y12.1814 
G01 X-2.3223 Y12.1225 
G01 X-2.1943 Y12.0370 
G01 X-2.0854 Y11.9281 
G01 X-0.9243 Y10.7670 
G01 X-0.8154 Y10.6581 
G01 X-0.7299 Y10.5301 
G01 X-0.6710 Y10.3879 
G01 X-0.6410 Y10.2370 
G01 X-0.6410 Y1.3454 
G01 X-0.6710 Y1.1945 
G01 X-0.7299 Y1.0523 
G01 X-0.8154 Y0.9243 
G01 X-0.9243 Y0.8154 
G01 X-1.0523 Y0.7299 
G01 X-1.1945 Y0.6710 
G01 X-1.3454 Y0.6410 
G01 X-31.8270 Y0.6410 
G01 X-31.9779 Y0.6710 
G01 X-32.1201 Y0.7299 
G01 X-32.2481 Y0.8154 
G01 X-32.9920 Y1.5593 
G01 X-33.0775 Y1.6873 
G01 X-33.1364 Y1.8295 
G01 X-33.1664 Y1.9804 
G01 X-33.1664 Y2.9948 
G01 X-33.2462 Y3.0745 
G01 X-33.3506 Y3.2183 
G01 X-33.4313 Y3.3766 
G01 X-33.4862 Y3.5456 
G01 X-33.5140 Y3.7211 
G01 X-33.5140 Y3.8989 
G01 X-33.4862 Y4.0744 
G01 X-33.4313 Y4.2434 
G01 X-33.3506 Y4.4017 
G01 X-33.2462 Y4.5455 
G01 X-33.1205 Y4.6711 
G01 X-32.9767 Y4.7756 
G01 X-32.8184 Y4.8563 
G01 X-32.6494 Y4.9112 
G01 X-32.4739 Y4.9390 
G01 X-32.2961 Y4.9390 
G01 X-32.1206 Y4.9112 
G01 X-31.9516 Y4.8563 
G01 X-31.7933 Y4.7756 
G01 X-31.6495 Y4.6711 
G01 X-31.5238 Y4.5455 
G01 X-31.4194 Y4.4017 
G01 X-31.3387 Y4.2434 
G01 X-31.2838 Y4.0744 
G01 X-31.2560 Y3.8989 
G01 X-31.2560 Y3.7211 
G01 X-31.2838 Y3.5456 
G01 X-31.3387 Y3.3766 
G01 X-31.4194 Y3.2183 
G01 X-31.5238 Y3.0745 
G01 X-31.6036 Y2.9948 
G01 X-31.6036 Y2.3811 
G01 X-31.4263 Y2.2038 
G01 X-2.2038 Y2.2038 
G01 X-2.2038 Y9.8363 
G01 X-3.0054 Y10.6379 
G01 X-3.0745 Y10.5688 
G01 X-3.2183 Y10.4644 
G01 X-3.3766 Y10.3837 
G01 X-3.5456 Y10.3288 
G01 X-3.7211 Y10.3010 
G01 X-3.8989 Y10.3010 
G01 X-4.0744 Y10.3288 
G01 X-4.2434 Y10.3837 
G01 X-4.4017 Y10.4644 
G01 X-4.5455 Y10.5688 
G01 X-4.6711 Y10.6945 
G01 X-4.7756 Y10.8383 
G01 X-4.8563 Y10.9966 
G01 X-4.9112 Y11.1656 
G01 X-4.9390 Y11.3411 
G00 Z2.0000 
G00 X-4.9390 Y8.0866 
G01 Z-0.1500 F100.00 
G01 X-4.9390 Y8.1086 F208.00 
G01 X-16.5870 Y8.1086 
G01 X-16.7379 Y8.1386 
G01 X-16.8801 Y8.1975 
G01 X-17.0081 Y8.2830 
G01 X-18.2781 Y9.5530 
G01 X-18.3870 Y9.6619 
G01 X-18.4725 Y9.7899 
G01 X-18.5314 Y9.9321 
G01 X-18.5614 Y10.0830 
G01 X-18.5614 Y19.9963 
G01 X-19.3737 Y20.8086 
G01 X-29.2870 Y20.8086 
G01 X-29.4379 Y20.8386 
G01 X-29.5801 Y20.8975 
G01 X-29.7081 Y20.9830 
G01 X-29.8170 Y21.0919 
G01 X-29.8450 Y21.1199 
G01 X-32.2386 Y18.7263 
G01 X-32.2386 Y15.5637 
G01 X-31.4263 Y14.7514 
G01 X-30.7986 Y14.7514 
G01 X-30.7127 Y14.8373 
G01 X-30.5679 Y14.9424 
G01 X-30.4085 Y15.0237 
G01 X-30.2382 Y15.0790 
G01 X-30.0615 Y15.1070 
G01 X-28.3585 Y15.1070 
G01 X-28.1818 Y15.0790 
G01 X-28.0115 Y15.0237 
G01 X-27.8521 Y14.9424 
G01 X-27.7073 Y14.8373 
G01 X-27.5807 Y14.7107 
G01 X-27.4756 Y14.5659 
G01 X-27.3943 Y14.4065 
G01 X-27.3390 Y14.2362 
G01 X-27.3110 Y14.0595 
G01 X-27.3110 Y13.8805 
G01 X-27.3390 Y13.7038 
G01 X-27.3943 Y13.5335 
G01 X-27.4756 Y13.3741 
G01 X-27.5807 Y13.2293 
G01 X-27.7073 Y13.1027 
G01 X-27.8521 Y12.9976 
G01 X-28.0115 Y12.9163 
G01 X-28.1818 Y12.8610 
G01 X-28.3585 Y12.8330 
G01 X-30.0615 Y12.8330 
G01 X-30.2382 Y12.8610 
G01 X-30.4085 Y12.9163 
G01 X-30.5679 Y12.9976 
G01 X-30.7127 Y13.1027 
G01 X-30.7986 Y13.1886 
G01 X-31.8270 Y13.1886 
G01 X-31.9779 Y13.2186 
G01 X-32.1201 Y13.2775 
G01 X-32.2481 Y13.3630 
G01 X-33.6270 Y14.7419 
G01 X-33.7125 Y14.8699 
G01 X-33.7714 Y15.0121 
G01 X-33.8014 Y15.1630 
G01 X-33.8014 Y19.1270 
G01 X-33.7714 Y19.2779 
G01 X-33.7125 Y19.4201 
G01 X-33.6270 Y19.5481 
G01 X-33.5181 Y19.6570 
G01 X-30.6264 Y22.5487 
G01 X-30.6264 Y25.8548 
G01 X-30.7062 Y25.9345 
G01 X-30.8106 Y26.0783 
G01 X-30.8913 Y26.2366 
G01 X-30.9462 Y26.4056 
G01 X-30.9740 Y26.5811 
G01 X-30.9740 Y26.7589 
G01 X-30.9462 Y26.9344 
G01 X-30.8913 Y27.1034 
G01 X-30.8106 Y27.2617 
G01 X-30.7062 Y27.4055 
G01 X-30.5805 Y27.5312 
G01 X-30.4367 Y27.6356 
G01 X-30.2784 Y27.7163 
G01 X-30.1094 Y27.7712 
G01 X-29.9339 Y27.7990 
G01 X-29.7561 Y27.7990 
G01 X-29.5806 Y27.7712 
G01 X-29.4116 Y27.7163 
G01 X-29.2533 Y27.6356 
G01 X-29.1095 Y27.5312 
G01 X-28.9838 Y27.4055 
G01 X-28.8794 Y27.2617 
G01 X-28.7987 Y27.1034 
G01 X-28.7438 Y26.9344 
G01 X-28.7160 Y26.7589 
G01 X-28.7160 Y26.5811 
G01 X-28.7438 Y26.4056 
G01 X-28.7987 Y26.2366 
G01 X-28.8794 Y26.0783 
G01 X-28.9838 Y25.9345 
G01 X-29.0636 Y25.8548 
G01 X-29.0636 Y22.5487 
G01 X-28.8863 Y22.3714 
G01 X-18.9730 Y22.3714 
G01 X-18.8221 Y22.3414 
G01 X-18.6799 Y22.2825 
G01 X-18.5519 Y22.1970 
G01 X-18.4430 Y22.0881 
G01 X-17.1730 Y20.8181 
G01 X-17.0875 Y20.6901 
G01 X-17.0286 Y20.5479 
G01 X-16.9986 Y20.3970 
G01 X-16.9986 Y10.4837 
G01 X-16.1863 Y9.6714 
G01 X-4.9390 Y9.6714 
G01 X-4.9390 Y9.6934 
G01 X-4.9134 Y9.7887 
G01 X-4.8641 Y9.8743 
G01 X-4.7943 Y9.9441 
G01 X-4.7087 Y9.9934 
G01 X-4.6134 Y10.0190 
G01 X-3.0066 Y10.0190 
G01 X-2.9113 Y9.9934 
G01 X-2.8257 Y9.9441 
G01 X-2.7559 Y9.8743 
G01 X-2.7066 Y9.7887 
G01 X-2.6810 Y9.6934 
G01 X-2.6810 Y8.0866 
G01 X-2.7066 Y7.9913 
G01 X-2.7559 Y7.9057 
G01 X-2.8257 Y7.8359 
G01 X-2.9113 Y7.7866 
G01 X-3.0066 Y7.7610 
G01 X-4.6134 Y7.7610 
G01 X-4.7087 Y7.7866 
G01 X-4.7943 Y7.8359 
G01 X-4.8641 Y7.9057 
G01 X-4.9134 Y7.9913 
G01 X-4.9390 Y8.0866 
G00 Z2.0000 
G00 X-15.7340 Y26.5811 
G01 Z-0.1500 F100.00 
G01 X-15.7340 Y26.7589 F208.00 
G01 X-15.7062 Y26.9344 
G01 X-15.6513 Y27.1034 
G01 X-15.5706 Y27.2617 
G01 X-15.4662 Y27.4055 
G01 X-15.3405 Y27.5312 
G01 X-15.1967 Y27.6356 
G01 X-15.0384 Y27.7163 
G01 X-14.8694 Y27.7712 
G01 X-14.6939 Y27.7990 
G01 X-14.5161 Y27.7990 
G01 X-14.3406 Y27.7712 
G01 X-14.1716 Y27.7163 
G01 X-14.0133 Y27.6356 
G01 X-13.8695 Y27.5312 
G01 X-13.7438 Y27.4055 
G01 X-13.6394 Y27.2617 
G01 X-13.5587 Y27.1034 
G01 X-13.5038 Y26.9344 
G01 X-13.4760 Y26.7589 
G01 X-13.4760 Y26.5811 
G01 X-13.5038 Y26.4056 
G01 X-13.5587 Y26.2366 
G01 X-13.6394 Y26.0783 
G01 X-13.7438 Y25.9345 
G01 X-13.8695 Y25.8088 
G01 X-14.0133 Y25.7044 
G01 X-14.1716 Y25.6237 
G01 X-14.3406 Y25.5688 
G01 X-14.5161 Y25.5410 
G01 X-14.6939 Y25.5410 
G01 X-14.8694 Y25.5688 
G01 X-15.0384 Y25.6237 
G01 X-15.1967 Y25.7044 
G01 X-15.3405 Y25.8088 
G01 X-15.4662 Y25.9345 
G01 X-15.5706 Y26.0783 
G01 X-15.6513 Y26.2366 
G01 X-15.7062 Y26.4056 
G01 X-15.7340 Y26.5811 
G00 Z2.0000 
G00 X-18.2740 Y26.5811 
G01 Z-0.1500 F100.00 
G01 X-18.2740 Y26.7589 F208.00 
G01 X-18.2462 Y26.9344 
G01 X-18.1913 Y27.1034 
G01 X-18.1106 Y27.2617 
G01 X-18.0062 Y27.4055 
G01 X-17.8805 Y27.5312 
G01 X-17.7367 Y27.6356 
G01 X-17.5784 Y27.7163 
G01 X-17.4094 Y27.7712 
G01 X-17.2339 Y27.7990 
G01 X-17.0561 Y27.7990 
G01 X-16.8806 Y27.7712 
G01 X-16.7116 Y27.7163 
G01 X-16.5533 Y27.6356 
G01 X-16.4095 Y27.5312 
G01 X-16.2838 Y27.4055 
G01 X-16.1794 Y27.2617 
G01 X-16.0987 Y27.1034 
G01 X-16.0438 Y26.9344 
G01 X-16.0160 Y26.7589 
G01 X-16.0160 Y26.5811 
G01 X-16.0438 Y26.4056 
G01 X-16.0987 Y26.2366 
G01 X-16.1794 Y26.0783 
G01 X-16.2838 Y25.9345 
G01 X-16.4095 Y25.8088 
G01 X-16.5533 Y25.7044 
G01 X-16.7116 Y25.6237 
G01 X-16.8806 Y25.5688 
G01 X-17.0561 Y25.5410 
G01 X-17.2339 Y25.5410 
G01 X-17.4094 Y25.5688 
G01 X-17.5784 Y25.6237 
G01 X-17.7367 Y25.7044 
G01 X-17.8805 Y25.8088 
G01 X-18.0062 Y25.9345 
G01 X-18.1106 Y26.0783 
G01 X-18.1913 Y26.2366 
G01 X-18.2462 Y26.4056 
G01 X-18.2740 Y26.5811 
G00 Z2.0000 
G00 X-20.8140 Y26.5811 
G01 Z-0.1500 F100.00 
G01 X-20.8140 Y26.7589 F208.00 
G01 X-20.7862 Y26.9344 
G01 X-20.7313 Y27.1034 
G01 X-20.6506 Y27.2617 
G01 X-20.5462 Y27.4055 
G01 X-20.4205 Y27.5312 
G01 X-20.2767 Y27.6356 
G01 X-20.1184 Y27.7163 
G01 X-19.9494 Y27.7712 
G01 X-19.7739 Y27.7990 
G01 X-19.5961 Y27.7990 
G01 X-19.4206 Y27.7712 
G01 X-19.2516 Y27.7163 
G01 X-19.0933 Y27.6356 
G01 X-18.9495 Y27.5312 
G01 X-18.8238 Y27.4055 
G01 X-18.7194 Y27.2617 
G01 X-18.6387 Y27.1034 
G01 X-18.5838 Y26.9344 
G01 X-18.5560 Y26.7589 
G01 X-18.5560 Y26.5811 
G01 X-18.5838 Y26.4056 
G01 X-18.6387 Y26.2366 
G01 X-18.6869 Y26.1420 
G01 X-16.1863 Y23.6414 
G01 X-5.0030 Y23.6414 
G01 X-4.8521 Y23.6114 
G01 X-4.7099 Y23.5525 
G01 X-4.5819 Y23.4670 
G01 X-4.4730 Y23.3581 
G01 X-4.3875 Y23.2301 
G01 X-4.3286 Y23.0879 
G01 X-4.2986 Y22.9370 
G01 X-4.2986 Y17.5281 
G01 X-4.2434 Y17.5563 
G01 X-4.0744 Y17.6112 
G01 X-3.8989 Y17.6390 
G01 X-3.7861 Y17.6390 
G01 X-3.4738 Y17.9513 
G01 X-3.4738 Y28.4286 
G01 X-21.2663 Y28.4286 
G01 X-21.4436 Y28.2513 
G01 X-21.4436 Y27.4852 
G01 X-21.3638 Y27.4055 
G01 X-21.2594 Y27.2617 
G01 X-21.1787 Y27.1034 
G01 X-21.1238 Y26.9344 
G01 X-21.0960 Y26.7589 
G01 X-21.0960 Y26.5811 
G01 X-21.1238 Y26.4056 
G01 X-21.1787 Y26.2366 
G01 X-21.2594 Y26.0783 
G01 X-21.3638 Y25.9345 
G01 X-21.4895 Y25.8088 
G01 X-21.6333 Y25.7044 
G01 X-21.7916 Y25.6237 
G01 X-21.9606 Y25.5688 
G01 X-22.1361 Y25.5410 
G01 X-22.3139 Y25.5410 
G01 X-22.4894 Y25.5688 
G01 X-22.6584 Y25.6237 
G01 X-22.8167 Y25.7044 
G01 X-22.9605 Y25.8088 
G01 X-23.0861 Y25.9345 
G01 X-23.1906 Y26.0783 
G01 X-23.2713 Y26.2366 
G01 X-23.3262 Y26.4056 
G01 X-23.3540 Y26.5811 
G01 X-23.3540 Y26.7589 
G01 X-23.3262 Y26.9344 
G01 X-23.2713 Y27.1034 
G01 X-23.1906 Y27.2617 
G01 X-23.0861 Y27.4055 
G01 X-23.0064 Y27.4852 
G01 X-23.0064 Y28.6520 
G01 X-22.9764 Y28.8029 
G01 X-22.9175 Y28.9451 
G01 X-22.8320 Y29.0731 
G01 X-22.7231 Y29.1820 
G01 X-22.0881 Y29.8170 
G01 X-21.9601 Y29.9025 
G01 X-21.8179 Y29.9614 
G01 X-21.6670 Y29.9914 
G01 X-2.6154 Y29.9914 
G01 X-2.4645 Y29.9614 
G01 X-2.3223 Y29.9025 
G01 X-2.1943 Y29.8170 
G01 X-2.0854 Y29.7081 
G01 X-1.9999 Y29.5801 
G01 X-1.9410 Y29.4379 
G01 X-1.9110 Y29.2870 
G01 X-1.9110 Y17.5506 
G01 X-1.9410 Y17.3997 
G01 X-1.9999 Y17.2575 
G01 X-2.0854 Y17.1295 
G01 X-2.1943 Y17.0206 
G01 X-2.6810 Y16.5339 
G01 X-2.6810 Y16.4211 
G01 X-2.7088 Y16.2456 
G01 X-2.7637 Y16.0766 
G01 X-2.8444 Y15.9183 
G01 X-2.9488 Y15.7745 
G01 X-3.0745 Y15.6488 
G01 X-3.2183 Y15.5444 
G01 X-3.3766 Y15.4637 
G01 X-3.5456 Y15.4088 
G01 X-3.7211 Y15.3810 
G01 X-3.8989 Y15.3810 
G01 X-4.0744 Y15.4088 
G01 X-4.2434 Y15.4637 
G01 X-4.2986 Y15.4919 
G01 X-4.2986 Y14.9881 
G01 X-4.2434 Y15.0163 
G01 X-4.0744 Y15.0712 
G01 X-3.8989 Y15.0990 
G01 X-3.7211 Y15.0990 
G01 X-3.5456 Y15.0712 
G01 X-3.3766 Y15.0163 
G01 X-3.2183 Y14.9356 
G01 X-3.0745 Y14.8312 
G01 X-2.9488 Y14.7055 
G01 X-2.8444 Y14.5617 
G01 X-2.7637 Y14.4034 
G01 X-2.7088 Y14.2344 
G01 X-2.6810 Y14.0589 
G01 X-2.6810 Y13.8811 
G01 X-2.7088 Y13.7056 
G01 X-2.7637 Y13.5366 
G01 X-2.8444 Y13.3783 
G01 X-2.9488 Y13.2345 
G01 X-3.0745 Y13.1088 
G01 X-3.2183 Y13.0044 
G01 X-3.3766 Y12.9237 
G01 X-3.5456 Y12.8688 
G01 X-3.7211 Y12.8410 
G01 X-3.8989 Y12.8410 
G01 X-4.0744 Y12.8688 
G01 X-4.2434 Y12.9237 
G01 X-4.4017 Y13.0044 
G01 X-4.5455 Y13.1088 
G01 X-4.6252 Y13.1886 
G01 X-5.1570 Y13.1886 
G01 X-5.3079 Y13.2186 
G01 X-5.4501 Y13.2775 
G01 X-5.5781 Y13.3630 
G01 X-5.6870 Y13.4719 
G01 X-5.7725 Y13.5999 
G01 X-5.8314 Y13.7421 
G01 X-5.8614 Y13.8930 
G01 X-5.8614 Y22.0786 
G01 X-16.5870 Y22.0786 
G01 X-16.7379 Y22.1086 
G01 X-16.8801 Y22.1675 
G01 X-17.0081 Y22.2530 
G01 X-17.1169 Y22.3619 
G01 X-20.6095 Y25.8544 
G01 X-20.6950 Y25.9824 
G01 X-20.7539 Y26.1246 
G01 X-20.7839 Y26.2755 
G01 X-20.7839 Y26.3985 
G01 X-20.7862 Y26.4056 
G01 X-20.8140 Y26.5811 
G00 Z2.0000 
G00 X-25.8940 Y26.5811 
G01 Z-0.1500 F100.00 
G01 X-25.8940 Y26.7589 F208.00 
G01 X-25.8662 Y26.9344 
G01 X-25.8113 Y27.1034 
G01 X-25.7306 Y27.2617 
G01 X-25.6262 Y27.4055 
G01 X-25.5005 Y27.5312 
G01 X-25.3567 Y27.6356 
G01 X-25.1984 Y27.7163 
G01 X-25.0294 Y27.7712 
G01 X-24.8539 Y27.7990 
G01 X-24.6761 Y27.7990 
G01 X-24.5006 Y27.7712 
G01 X-24.3316 Y27.7163 
G01 X-24.1733 Y27.6356 
G01 X-24.0295 Y27.5312 
G01 X-23.9038 Y27.4055 
G01 X-23.7994 Y27.2617 
G01 X-23.7187 Y27.1034 
G01 X-23.6638 Y26.9344 
G01 X-23.6360 Y26.7589 
G01 X-23.6360 Y26.5811 
G01 X-23.6638 Y26.4056 
G01 X-23.7187 Y26.2366 
G01 X-23.7994 Y26.0783 
G01 X-23.9038 Y25.9345 
G01 X-24.0295 Y25.8088 
G01 X-24.1733 Y25.7044 
G01 X-24.3316 Y25.6237 
G01 X-24.5006 Y25.5688 
G01 X-24.6761 Y25.5410 
G01 X-24.8539 Y25.5410 
G01 X-25.0294 Y25.5688 
G01 X-25.1984 Y25.6237 
G01 X-25.3567 Y25.7044 
G01 X-25.5005 Y25.8088 
G01 X-25.6262 Y25.9345 
G01 X-25.7306 Y26.0783 
G01 X-25.8113 Y26.2366 
G01 X-25.8662 Y26.4056 
G01 X-25.8940 Y26.5811 
G00 Z2.0000 
G00 X-28.4340 Y26.5811 
G01 Z-0.1500 F100.00 
G01 X-28.4340 Y26.7589 F208.00 
G01 X-28.4062 Y26.9344 
G01 X-28.3513 Y27.1034 
G01 X-28.2706 Y27.2617 
G01 X-28.1662 Y27.4055 
G01 X-28.0405 Y27.5312 
G01 X-27.8967 Y27.6356 
G01 X-27.7384 Y27.7163 
G01 X-27.5694 Y27.7712 
G01 X-27.3939 Y27.7990 
G01 X-27.2161 Y27.7990 
G01 X-27.0406 Y27.7712 
G01 X-26.8716 Y27.7163 
G01 X-26.7133 Y27.6356 
G01 X-26.5695 Y27.5312 
G01 X-26.4438 Y27.4055 
G01 X-26.3394 Y27.2617 
G01 X-26.2587 Y27.1034 
G01 X-26.2038 Y26.9344 
G01 X-26.1760 Y26.7589 
G01 X-26.1760 Y26.5811 
G01 X-26.2038 Y26.4056 
G01 X-26.2587 Y26.2366 
G01 X-26.3394 Y26.0783 
G01 X-26.4438 Y25.9345 
G01 X-26.5695 Y25.8088 
G01 X-26.7133 Y25.7044 
G01 X-26.8716 Y25.6237 
G01 X-27.0406 Y25.5688 
G01 X-27.2161 Y25.5410 
G01 X-27.3939 Y25.5410 
G01 X-27.5694 Y25.5688 
G01 X-27.7384 Y25.6237 
G01 X-27.8967 Y25.7044 
G01 X-28.0405 Y25.8088 
G01 X-28.1662 Y25.9345 
G01 X-28.2706 Y26.0783 
G01 X-28.3513 Y26.2366 
G01 X-28.4062 Y26.4056 
G01 X-28.4340 Y26.5811 
G00 Z2.0000 
G00 X-15.7340 Y3.7211 
G01 Z-0.1500 F100.00 
G01 X-15.7340 Y3.8989 F208.00 
G01 X-15.7062 Y4.0744 
G01 X-15.6513 Y4.2434 
G01 X-15.5706 Y4.4017 
G01 X-15.4662 Y4.5455 
G01 X-15.3405 Y4.6711 
G01 X-15.1967 Y4.7756 
G01 X-15.0384 Y4.8563 
G01 X-14.8694 Y4.9112 
G01 X-14.6939 Y4.9390 
G01 X-14.5161 Y4.9390 
G01 X-14.3406 Y4.9112 
G01 X-14.1716 Y4.8563 
G01 X-14.0133 Y4.7756 
G01 X-13.8695 Y4.6711 
G01 X-13.7438 Y4.5455 
G01 X-13.6394 Y4.4017 
G01 X-13.5587 Y4.2434 
G01 X-13.5038 Y4.0744 
G01 X-13.4760 Y3.8989 
G01 X-13.4760 Y3.7211 
G01 X-13.5038 Y3.5456 
G01 X-13.5587 Y3.3766 
G01 X-13.6394 Y3.2183 
G01 X-13.7438 Y3.0745 
G01 X-13.8695 Y2.9488 
G01 X-14.0133 Y2.8444 
G01 X-14.1716 Y2.7637 
G01 X-14.3406 Y2.7088 
G01 X-14.5161 Y2.6810 
G01 X-14.6939 Y2.6810 
G01 X-14.8694 Y2.7088 
G01 X-15.0384 Y2.7637 
G01 X-15.1967 Y2.8444 
G01 X-15.3405 Y2.9488 
G01 X-15.4662 Y3.0745 
G01 X-15.5706 Y3.2183 
G01 X-15.6513 Y3.3766 
G01 X-15.7062 Y3.5456 
G01 X-15.7340 Y3.7211 
G00 Z2.0000 
G00 X-18.2740 Y3.7211 
G01 Z-0.1500 F100.00 
G01 X-18.2740 Y3.8989 F208.00 
G01 X-18.2462 Y4.0744 
G01 X-18.1913 Y4.2434 
G01 X-18.1106 Y4.4017 
G01 X-18.0062 Y4.5455 
G01 X-17.8805 Y4.6711 
G01 X-17.7367 Y4.7756 
G01 X-17.5784 Y4.8563 
G01 X-17.4094 Y4.9112 
G01 X-17.2339 Y4.9390 
G01 X-17.0561 Y4.9390 
G01 X-16.8806 Y4.9112 
G01 X-16.7116 Y4.8563 
G01 X-16.5533 Y4.7756 
G01 X-16.4095 Y4.6711 
G01 X-16.2838 Y4.5455 
G01 X-16.1794 Y4.4017 
G01 X-16.0987 Y4.2434 
G01 X-16.0438 Y4.0744 
G01 X-16.0160 Y3.8989 
G01 X-16.0160 Y3.7211 
G01 X-16.0438 Y3.5456 
G01 X-16.0987 Y3.3766 
G01 X-16.1794 Y3.2183 
G01 X-16.2838 Y3.0745 
G01 X-16.4095 Y2.9488 
G01 X-16.5533 Y2.8444 
G01 X-16.7116 Y2.7637 
G01 X-16.8806 Y2.7088 
G01 X-17.0561 Y2.6810 
G01 X-17.2339 Y2.6810 
G01 X-17.4094 Y2.7088 
G01 X-17.5784 Y2.7637 
G01 X-17.7367 Y2.8444 
G01 X-17.8805 Y2.9488 
G01 X-18.0062 Y3.0745 
G01 X-18.1106 Y3.2183 
G01 X-18.1913 Y3.3766 
G01 X-18.2462 Y3.5456 
G01 X-18.2740 Y3.7211 
G00 Z2.0000 
G00 X-20.8140 Y3.7211 
G01 Z-0.1500 F100.00 
G01 X-20.8140 Y3.8989 F208.00 
G01 X-20.7862 Y4.0744 
G01 X-20.7313 Y4.2434 
G01 X-20.6506 Y4.4017 
G01 X-20.5462 Y4.5455 
G01 X-20.4205 Y4.6711 
G01 X-20.2767 Y4.7756 
G01 X-20.1184 Y4.8563 
G01 X-19.9494 Y4.9112 
G01 X-19.7739 Y4.9390 
G01 X-19.5961 Y4.9390 
G01 X-19.4206 Y4.9112 
G01 X-19.2516 Y4.8563 
G01 X-19.0933 Y4.7756 
G01 X-18.9495 Y4.6711 
G01 X-18.8238 Y4.5455 
G01 X-18.7194 Y4.4017 
G01 X-18.6387 Y4.2434 
G01 X-18.5838 Y4.0744 
G01 X-18.5560 Y3.8989 
G01 X-18.5560 Y3.7211 
G01 X-18.5838 Y3.5456 
G01 X-18.6387 Y3.3766 
G01 X-18.7194 Y3.2183 
G01 X-18.8238 Y3.0745 
G01 X-18.9495 Y2.9488 
G01 X-19.0933 Y2.8444 
G01 X-19.2516 Y2.7637 
G01 X-19.4206 Y2.7088 
G01 X-19.5961 Y2.6810 
G01 X-19.7739 Y2.6810 
G01 X-19.9494 Y2.7088 
G01 X-20.1184 Y2.7637 
G01 X-20.2767 Y2.8444 
G01 X-20.4205 Y2.9488 
G01 X-20.5462 Y3.0745 
G01 X-20.6506 Y3.2183 
G01 X-20.7313 Y3.3766 
G01 X-20.7862 Y3.5456 
G01 X-20.8140 Y3.7211 
G00 Z2.0000 
G00 X-23.3540 Y3.7211 
G01 Z-0.1500 F100.00 
G01 X-23.3540 Y3.8989 F208.00 
G01 X-23.3262 Y4.0744 
G01 X-23.2713 Y4.2434 
G01 X-23.1906 Y4.4017 
G01 X-23.0861 Y4.5455 
G01 X-23.0064 Y4.6252 
G01 X-23.0064 Y18.0913 
G01 X-23.1837 Y18.2686 
G01 X-27.6214 Y18.2686 
G01 X-27.7073 Y18.1827 
G01 X-27.8521 Y18.0776 
G01 X-28.0115 Y17.9963 
G01 X-28.1818 Y17.9410 
G01 X-28.3585 Y17.9130 
G01 X-30.0615 Y17.9130 
G01 X-30.2382 Y17.9410 
G01 X-30.4085 Y17.9963 
G01 X-30.5679 Y18.0776 
G01 X-30.7127 Y18.1827 
G01 X-30.8393 Y18.3093 
G01 X-30.9444 Y18.4541 
G01 X-31.0257 Y18.6135 
G01 X-31.0810 Y18.7838 
G01 X-31.1090 Y18.9605 
G01 X-31.1090 Y19.1395 
G01 X-31.0810 Y19.3162 
G01 X-31.0257 Y19.4865 
G01 X-30.9444 Y19.6459 
G01 X-30.8393 Y19.7907 
G01 X-30.7127 Y19.9173 
G01 X-30.5679 Y20.0224 
G01 X-30.4085 Y20.1037 
G01 X-30.2382 Y20.1590 
G01 X-30.0615 Y20.1870 
G01 X-28.3585 Y20.1870 
G01 X-28.1818 Y20.1590 
G01 X-28.0115 Y20.1037 
G01 X-27.8521 Y20.0224 
G01 X-27.7073 Y19.9173 
G01 X-27.6214 Y19.8314 
G01 X-22.7830 Y19.8314 
G01 X-22.6321 Y19.8014 
G01 X-22.4899 Y19.7425 
G01 X-22.3619 Y19.6570 
G01 X-21.7269 Y19.0220 
G01 X-21.6180 Y18.9131 
G01 X-21.5325 Y18.7851 
G01 X-21.4736 Y18.6429 
G01 X-21.4436 Y18.4920 
G01 X-21.4436 Y4.6252 
G01 X-21.3638 Y4.5455 
G01 X-21.2594 Y4.4017 
G01 X-21.1787 Y4.2434 
G01 X-21.1238 Y4.0744 
G01 X-21.0960 Y3.8989 
G01 X-21.0960 Y3.7211 
G01 X-21.1238 Y3.5456 
G01 X-21.1787 Y3.3766 
G01 X-21.2594 Y3.2183 
G01 X-21.3638 Y3.0745 
G01 X-21.4895 Y2.9488 
G01 X-21.6333 Y2.8444 
G01 X-21.7916 Y2.7637 
G01 X-21.9606 Y2.7088 
G01 X-22.1361 Y2.6810 
G01 X-22.3139 Y2.6810 
G01 X-22.4894 Y2.7088 
G01 X-22.6584 Y2.7637 
G01 X-22.8167 Y2.8444 
G01 X-22.9605 Y2.9488 
G01 X-23.0861 Y3.0745 
G01 X-23.1906 Y3.2183 
G01 X-23.2713 Y3.3766 
G01 X-23.3262 Y3.5456 
G01 X-23.3540 Y3.7211 
G00 Z2.0000 
G00 X-28.4340 Y3.7211 
G01 Z-0.1500 F100.00 
G01 X-28.4340 Y3.8989 F208.00 
G01 X-28.4062 Y4.0744 
G01 X-28.3513 Y4.2434 
G01 X-28.2706 Y4.4017 
G01 X-28.1662 Y4.5455 
G01 X-28.0405 Y4.6711 
G01 X-27.8967 Y4.7756 
G01 X-27.7384 Y4.8563 
G01 X-27.5694 Y4.9112 
G01 X-27.3939 Y4.9390 
G01 X-27.2161 Y4.9390 
G01 X-27.0406 Y4.9112 
G01 X-26.8716 Y4.8563 
G01 X-26.7133 Y4.7756 
G01 X-26.5695 Y4.6711 
G01 X-26.4438 Y4.5455 
G01 X-26.3394 Y4.4017 
G01 X-26.2587 Y4.2434 
G01 X-26.2038 Y4.0744 
G01 X-26.1760 Y3.8989 
G01 X-26.1760 Y3.7211 
G01 X-26.2038 Y3.5456 
G01 X-26.2587 Y3.3766 
G01 X-26.3394 Y3.2183 
G01 X-26.4438 Y3.0745 
G01 X-26.5695 Y2.9488 
G01 X-26.7133 Y2.8444 
G01 X-26.8716 Y2.7637 
G01 X-27.0406 Y2.7088 
G01 X-27.2161 Y2.6810 
G01 X-27.3939 Y2.6810 
G01 X-27.5694 Y2.7088 
G01 X-27.7384 Y2.7637 
G01 X-27.8967 Y2.8444 
G01 X-28.0405 Y2.9488 
G01 X-28.1662 Y3.0745 
G01 X-28.2706 Y3.2183 
G01 X-28.3513 Y3.3766 
G01 X-28.4062 Y3.5456 
G01 X-28.4340 Y3.7211 
G00 Z2.0000 
G00 X-30.9740 Y3.7211 
G01 Z-0.1500 F100.00 
G01 X-30.9740 Y3.8989 F208.00 
G01 X-30.9462 Y4.0744 
G01 X-30.8913 Y4.2434 
G01 X-30.8106 Y4.4017 
G01 X-30.7062 Y4.5455 
G01 X-30.5805 Y4.6711 
G01 X-30.4367 Y4.7756 
G01 X-30.2784 Y4.8563 
G01 X-30.1094 Y4.9112 
G01 X-29.9339 Y4.9390 
G01 X-29.7561 Y4.9390 
G01 X-29.5806 Y4.9112 
G01 X-29.4116 Y4.8563 
G01 X-29.2533 Y4.7756 
G01 X-29.1095 Y4.6711 
G01 X-28.9838 Y4.5455 
G01 X-28.8794 Y4.4017 
G01 X-28.7987 Y4.2434 
G01 X-28.7438 Y4.0744 
G01 X-28.7160 Y3.8989 
G01 X-28.7160 Y3.7211 
G01 X-28.7438 Y3.5456 
G01 X-28.7987 Y3.3766 
G01 X-28.8794 Y3.2183 
G01 X-28.9838 Y3.0745 
G01 X-29.1095 Y2.9488 
G01 X-29.2533 Y2.8444 
G01 X-29.4116 Y2.7637 
G01 X-29.5806 Y2.7088 
G01 X-29.7561 Y2.6810 
G01 X-29.9339 Y2.6810 
G01 X-30.1094 Y2.7088 
G01 X-30.2784 Y2.7637 
G01 X-30.4367 Y2.8444 
G01 X-30.5805 Y2.9488 
G01 X-30.7062 Y3.0745 
G01 X-30.8106 Y3.2183 
G01 X-30.8913 Y3.3766 
G01 X-30.9462 Y3.5456 
G01 X-30.9740 Y3.7211 
G00 Z2.0000 
G00 X-30.0615 Y12.5670 
G01 Z-0.1500 F100.00 
G01 X-28.3585 Y12.5670 F208.00 
G01 X-28.1818 Y12.5390 
G01 X-28.0115 Y12.4837 
G01 X-27.8521 Y12.4024 
G01 X-27.7073 Y12.2973 
G01 X-27.5807 Y12.1707 
G01 X-27.4756 Y12.0259 
G01 X-27.3943 Y11.8665 
G01 X-27.3390 Y11.6962 
G01 X-27.3110 Y11.5195 
G01 X-27.3110 Y11.3405 
G01 X-27.3390 Y11.1638 
G01 X-27.3943 Y10.9935 
G01 X-27.4756 Y10.8341 
G01 X-27.5807 Y10.6893 
G01 X-27.7073 Y10.5627 
G01 X-27.8521 Y10.4576 
G01 X-28.0115 Y10.3763 
G01 X-28.1818 Y10.3210 
G01 X-28.3585 Y10.2930 
G01 X-30.0615 Y10.2930 
G01 X-30.2382 Y10.3210 
G01 X-30.4085 Y10.3763 
G01 X-30.5679 Y10.4576 
G01 X-30.7127 Y10.5627 
G01 X-30.7986 Y10.6486 
G01 X-31.8270 Y10.6486 
G01 X-31.9779 Y10.6786 
G01 X-32.1201 Y10.7375 
G01 X-32.2481 Y10.8230 
G01 X-32.3570 Y10.9319 
G01 X-35.5320 Y14.1069 
G01 X-35.6175 Y14.2349 
G01 X-35.6764 Y14.3771 
G01 X-35.7064 Y14.5280 
G01 X-35.7064 Y24.2070 
G01 X-35.6764 Y24.3579 
G01 X-35.6175 Y24.5001 
G01 X-35.5320 Y24.6281 
G01 X-35.4231 Y24.7370 
G01 X-33.5140 Y26.6461 
G01 X-33.5140 Y26.7589 
G01 X-33.4862 Y26.9344 
G01 X-33.4313 Y27.1034 
G01 X-33.3506 Y27.2617 
G01 X-33.2462 Y27.4055 
G01 X-33.1205 Y27.5312 
G01 X-32.9767 Y27.6356 
G01 X-32.8184 Y27.7163 
G01 X-32.6494 Y27.7712 
G01 X-32.4739 Y27.7990 
G01 X-32.2961 Y27.7990 
G01 X-32.1206 Y27.7712 
G01 X-31.9516 Y27.7163 
G01 X-31.7933 Y27.6356 
G01 X-31.6495 Y27.5312 
G01 X-31.5238 Y27.4055 
G01 X-31.4194 Y27.2617 
G01 X-31.3387 Y27.1034 
G01 X-31.2838 Y26.9344 
G01 X-31.2560 Y26.7589 
G01 X-31.2560 Y26.5811 
G01 X-31.2838 Y26.4056 
G01 X-31.3387 Y26.2366 
G01 X-31.4194 Y26.0783 
G01 X-31.5238 Y25.9345 
G01 X-31.6495 Y25.8088 
G01 X-31.7933 Y25.7044 
G01 X-31.9516 Y25.6237 
G01 X-32.1206 Y25.5688 
G01 X-32.2961 Y25.5410 
G01 X-32.4089 Y25.5410 
G01 X-34.1436 Y23.8063 
G01 X-34.1436 Y14.9287 
G01 X-31.4263 Y12.2114 
G01 X-30.7986 Y12.2114 
G01 X-30.7127 Y12.2973 
G01 X-30.5679 Y12.4024 
G01 X-30.4085 Y12.4837 
G01 X-30.2382 Y12.5390 
G01 X-30.0615 Y12.5670 
G00 Z2.0000 
G00 X-30.0615 Y17.6470 
G01 Z-0.1500 F100.00 
G01 X-28.3585 Y17.6470 F208.00 
G01 X-28.1818 Y17.6190 
G01 X-28.0115 Y17.5637 
G01 X-27.8521 Y17.4824 
G01 X-27.7073 Y17.3773 
G01 X-27.6214 Y17.2914 
G01 X-25.3230 Y17.2914 
G01 X-25.1721 Y17.2614 
G01 X-25.0299 Y17.2025 
G01 X-24.9019 Y17.1169 
G01 X-24.2669 Y16.4820 
G01 X-24.1580 Y16.3731 
G01 X-24.0725 Y16.2451 
G01 X-24.0136 Y16.1029 
G01 X-23.9836 Y15.9520 
G01 X-23.9836 Y4.6252 
G01 X-23.9038 Y4.5455 
G01 X-23.7994 Y4.4017 
G01 X-23.7187 Y4.2434 
G01 X-23.6638 Y4.0744 
G01 X-23.6360 Y3.8989 
G01 X-23.6360 Y3.7211 
G01 X-23.6638 Y3.5456 
G01 X-23.7187 Y3.3766 
G01 X-23.7994 Y3.2183 
G01 X-23.9038 Y3.0745 
G01 X-24.0295 Y2.9488 
G01 X-24.1733 Y2.8444 
G01 X-24.3316 Y2.7637 
G01 X-24.5006 Y2.7088 
G01 X-24.6761 Y2.6810 
G01 X-24.8539 Y2.6810 
G01 X-25.0294 Y2.7088 
G01 X-25.1984 Y2.7637 
G01 X-25.3567 Y2.8444 
G01 X-25.5005 Y2.9488 
G01 X-25.6262 Y3.0745 
G01 X-25.7306 Y3.2183 
G01 X-25.8113 Y3.3766 
G01 X-25.8662 Y3.5456 
G01 X-25.8940 Y3.7211 
G01 X-25.8940 Y3.8989 
G01 X-25.8662 Y4.0744 
G01 X-25.8113 Y4.2434 
G01 X-25.7306 Y4.4017 
G01 X-25.6262 Y4.5455 
G01 X-25.5464 Y4.6252 
G01 X-25.5464 Y15.5513 
G01 X-25.7237 Y15.7286 
G01 X-27.6214 Y15.7286 
G01 X-27.7073 Y15.6427 
G01 X-27.8521 Y15.5376 
G01 X-28.0115 Y15.4563 
G01 X-28.1818 Y15.4010 
G01 X-28.3585 Y15.3730 
G01 X-30.0615 Y15.3730 
G01 X-30.2382 Y15.4010 
G01 X-30.4085 Y15.4563 
G01 X-30.5679 Y15.5376 
G01 X-30.7127 Y15.6427 
G01 X-30.8393 Y15.7693 
G01 X-30.9444 Y15.9141 
G01 X-31.0257 Y16.0735 
G01 X-31.0810 Y16.2438 
G01 X-31.1090 Y16.4205 
G01 X-31.1090 Y16.5995 
G01 X-31.0810 Y16.7762 
G01 X-31.0257 Y16.9465 
G01 X-30.9444 Y17.1059 
G01 X-30.8393 Y17.2507 
G01 X-30.7127 Y17.3773 
G01 X-30.5679 Y17.4824 
G01 X-30.4085 Y17.5637 
G01 X-30.2382 Y17.6190 
G01 X-30.0615 Y17.6470 
G00 Z2.0000 
G00 X-5.0390 Y11.3333 
G01 Z-0.1500 F100.00 
G01 X-5.0390 Y11.5267 F208.00 
G01 X-5.0087 Y11.7178 
G01 X-4.9490 Y11.9018 
G01 X-4.8611 Y12.0741 
G01 X-4.7474 Y12.2306 
G01 X-4.6106 Y12.3674 
G01 X-4.4541 Y12.4811 
G01 X-4.2818 Y12.5690 
G01 X-4.0978 Y12.6287 
G01 X-3.9067 Y12.6590 
G01 X-3.7133 Y12.6590 
G01 X-3.5222 Y12.6287 
G01 X-3.3382 Y12.5690 
G01 X-3.1659 Y12.4811 
G01 X-3.0094 Y12.3674 
G01 X-2.9533 Y12.3114 
G01 X-2.6056 Y12.3114 
G01 X-2.4353 Y12.2775 
G01 X-2.2749 Y12.2111 
G01 X-2.1305 Y12.1146 
G01 X-2.0078 Y11.9919 
G01 X-0.8605 Y10.8446 
G01 X-0.7378 Y10.7219 
G01 X-0.6413 Y10.5775 
G01 X-0.5749 Y10.4171 
G01 X-0.5410 Y10.2468 
G01 X-0.5410 Y1.3356 
G01 X-0.5749 Y1.1653 
G01 X-0.6413 Y1.0049 
G01 X-0.7378 Y0.8605 
G01 X-0.8605 Y0.7378 
G01 X-1.0049 Y0.6413 
G01 X-1.1653 Y0.5749 
G01 X-1.3356 Y0.5410 
G01 X-31.8368 Y0.5410 
G01 X-32.0071 Y0.5749 
G01 X-32.1675 Y0.6413 
G01 X-32.3119 Y0.7378 
G01 X-33.0696 Y1.4955 
G01 X-33.1661 Y1.6399 
G01 X-33.2325 Y1.8003 
G01 X-33.2664 Y1.9706 
G01 X-33.2664 Y2.9533 
G01 X-33.3224 Y3.0094 
G01 X-33.4361 Y3.1659 
G01 X-33.5240 Y3.3382 
G01 X-33.5837 Y3.5222 
G01 X-33.6140 Y3.7133 
G01 X-33.6140 Y3.9067 
G01 X-33.5837 Y4.0978 
G01 X-33.5240 Y4.2818 
G01 X-33.4361 Y4.4541 
G01 X-33.3224 Y4.6106 
G01 X-33.1856 Y4.7474 
G01 X-33.0291 Y4.8611 
G01 X-32.8568 Y4.9490 
G01 X-32.6728 Y5.0087 
G01 X-32.4817 Y5.0390 
G01 X-32.2883 Y5.0390 
G01 X-32.0972 Y5.0087 
G01 X-31.9132 Y4.9490 
G01 X-31.7409 Y4.8611 
G01 X-31.5844 Y4.7474 
G01 X-31.4476 Y4.6106 
G01 X-31.3339 Y4.4541 
G01 X-31.2460 Y4.2818 
G01 X-31.1863 Y4.0978 
G01 X-31.1560 Y3.9067 
G01 X-31.1560 Y3.7133 
G01 X-31.1863 Y3.5222 
G01 X-31.2460 Y3.3382 
G01 X-31.3339 Y3.1659 
G01 X-31.4476 Y3.0094 
G01 X-31.5036 Y2.9533 
G01 X-31.5036 Y2.4225 
G01 X-31.3849 Y2.3038 
G01 X-2.3038 Y2.3038 
G01 X-2.3038 Y9.7949 
G01 X-3.0054 Y10.4965 
G01 X-3.0094 Y10.4926 
G01 X-3.1659 Y10.3789 
G01 X-3.3382 Y10.2910 
G01 X-3.5222 Y10.2313 
G01 X-3.7133 Y10.2010 
G01 X-3.9067 Y10.2010 
G01 X-4.0978 Y10.2313 
G01 X-4.2818 Y10.2910 
G01 X-4.4541 Y10.3789 
G01 X-4.6106 Y10.4926 
G01 X-4.7474 Y10.6294 
G01 X-4.8611 Y10.7859 
G01 X-4.9490 Y10.9582 
G01 X-5.0087 Y11.1422 
G01 X-5.0390 Y11.3333 
G00 Z2.0000 
G00 X-5.0066 Y9.8273 
G01 Z-0.1500 F100.00 
G01 X-4.9441 Y9.9357 F208.00 
G01 X-4.8557 Y10.0241 
G01 X-4.7473 Y10.0866 
G01 X-4.6265 Y10.1190 
G01 X-2.9935 Y10.1190 
G01 X-2.8727 Y10.0866 
G01 X-2.7643 Y10.0241 
G01 X-2.6759 Y9.9357 
G01 X-2.6134 Y9.8273 
G01 X-2.5810 Y9.7065 
G01 X-2.5810 Y8.0735 
G01 X-2.6134 Y7.9527 
G01 X-2.6759 Y7.8443 
G01 X-2.7643 Y7.7559 
G01 X-2.8727 Y7.6934 
G01 X-2.9935 Y7.6610 
G01 X-4.6265 Y7.6610 
G01 X-4.7473 Y7.6934 
G01 X-4.8557 Y7.7559 
G01 X-4.9441 Y7.8443 
G01 X-5.0066 Y7.9527 
G01 X-5.0216 Y8.0086 
G01 X-16.5968 Y8.0086 
G01 X-16.7671 Y8.0425 
G01 X-16.9275 Y8.1089 
G01 X-17.0719 Y8.2054 
G01 X-18.3419 Y9.4754 
G01 X-18.4646 Y9.5981 
G01 X-18.5611 Y9.7425 
G01 X-18.6275 Y9.9029 
G01 X-18.6614 Y10.0732 
G01 X-18.6614 Y19.9549 
G01 X-19.4151 Y20.7086 
G01 X-29.2968 Y20.7086 
G01 X-29.4671 Y20.7425 
G01 X-29.6275 Y20.8089 
G01 X-29.7719 Y20.9054 
G01 X-29.8450 Y20.9785 
G01 X-32.1386 Y18.6849 
G01 X-32.1386 Y15.6051 
G01 X-31.3849 Y14.8514 
G01 X-30.8400 Y14.8514 
G01 X-30.7779 Y14.9135 
G01 X-30.6203 Y15.0280 
G01 X-30.4468 Y15.1164 
G01 X-30.2617 Y15.1765 
G01 X-30.0694 Y15.2070 
G01 X-28.3506 Y15.2070 
G01 X-28.1583 Y15.1765 
G01 X-27.9732 Y15.1164 
G01 X-27.7997 Y15.0280 
G01 X-27.6421 Y14.9135 
G01 X-27.5045 Y14.7759 
G01 X-27.3900 Y14.6183 
G01 X-27.3016 Y14.4448 
G01 X-27.2415 Y14.2597 
G01 X-27.2110 Y14.0674 
G01 X-27.2110 Y13.8726 
G01 X-27.2415 Y13.6803 
G01 X-27.3016 Y13.4952 
G01 X-27.3900 Y13.3217 
G01 X-27.5045 Y13.1641 
G01 X-27.6421 Y13.0265 
G01 X-27.7997 Y12.9120 
G01 X-27.9732 Y12.8236 
G01 X-28.1583 Y12.7635 
G01 X-28.3506 Y12.7330 
G01 X-30.0694 Y12.7330 
G01 X-30.2617 Y12.7635 
G01 X-30.4468 Y12.8236 
G01 X-30.6203 Y12.9120 
G01 X-30.7779 Y13.0265 
G01 X-30.8400 Y13.0886 
G01 X-31.8368 Y13.0886 
G01 X-32.0071 Y13.1225 
G01 X-32.1675 Y13.1889 
G01 X-32.3119 Y13.2854 
G01 X-33.7046 Y14.6781 
G01 X-33.8011 Y14.8225 
G01 X-33.8675 Y14.9829 
G01 X-33.9014 Y15.1532 
G01 X-33.9014 Y19.1368 
G01 X-33.8675 Y19.3071 
G01 X-33.8011 Y19.4675 
G01 X-33.7046 Y19.6119 
G01 X-33.5819 Y19.7346 
G01 X-30.7264 Y22.5901 
G01 X-30.7264 Y25.8133 
G01 X-30.7824 Y25.8694 
G01 X-30.8961 Y26.0259 
G01 X-30.9840 Y26.1982 
G01 X-31.0437 Y26.3822 
G01 X-31.0740 Y26.5733 
G01 X-31.0740 Y26.7667 
G01 X-31.0437 Y26.9578 
G01 X-30.9840 Y27.1418 
G01 X-30.8961 Y27.3141 
G01 X-30.7824 Y27.4706 
G01 X-30.6456 Y27.6074 
G01 X-30.4891 Y27.7211 
G01 X-30.3168 Y27.8090 
G01 X-30.1328 Y27.8687 
G01 X-29.9417 Y27.8990 
G01 X-29.7483 Y27.8990 
G01 X-29.5572 Y27.8687 
G01 X-29.3732 Y27.8090 
G01 X-29.2009 Y27.7211 
G01 X-29.0444 Y27.6074 
G01 X-28.9076 Y27.4706 
G01 X-28.7939 Y27.3141 
G01 X-28.7060 Y27.1418 
G01 X-28.6463 Y26.9578 
G01 X-28.6160 Y26.7667 
G01 X-28.6160 Y26.5733 
G01 X-28.6463 Y26.3822 
G01 X-28.7060 Y26.1982 
G01 X-28.7939 Y26.0259 
G01 X-28.9076 Y25.8694 
G01 X-28.9636 Y25.8133 
G01 X-28.9636 Y22.5901 
G01 X-28.8449 Y22.4714 
G01 X-18.9632 Y22.4714 
G01 X-18.7929 Y22.4375 
G01 X-18.6325 Y22.3711 
G01 X-18.4881 Y22.2746 
G01 X-18.3654 Y22.1519 
G01 X-17.0954 Y20.8819 
G01 X-16.9989 Y20.7375 
G01 X-16.9325 Y20.5771 
G01 X-16.8986 Y20.4068 
G01 X-16.8986 Y10.5251 
G01 X-16.1449 Y9.7714 
G01 X-5.0216 Y9.7714 
G01 X-5.0066 Y9.8273 
G00 Z2.0000 
G00 X-15.8340 Y26.5733 
G01 Z-0.1500 F100.00 
G01 X-15.8340 Y26.7667 F208.00 
G01 X-15.8037 Y26.9578 
G01 X-15.7440 Y27.1418 
G01 X-15.6561 Y27.3141 
G01 X-15.5424 Y27.4706 
G01 X-15.4056 Y27.6074 
G01 X-15.2491 Y27.7211 
G01 X-15.0768 Y27.8090 
G01 X-14.8928 Y27.8687 
G01 X-14.7017 Y27.8990 
G01 X-14.5083 Y27.8990 
G01 X-14.3172 Y27.8687 
G01 X-14.1332 Y27.8090 
G01 X-13.9609 Y27.7211 
G01 X-13.8044 Y27.6074 
G01 X-13.6676 Y27.4706 
G01 X-13.5539 Y27.3141 
G01 X-13.4660 Y27.1418 
G01 X-13.4063 Y26.9578 
G01 X-13.3760 Y26.7667 
G01 X-13.3760 Y26.5733 
G01 X-13.4063 Y26.3822 
G01 X-13.4660 Y26.1982 
G01 X-13.5539 Y26.0259 
G01 X-13.6676 Y25.8694 
G01 X-13.8044 Y25.7326 
G01 X-13.9609 Y25.6189 
G01 X-14.1332 Y25.5310 
G01 X-14.3172 Y25.4713 
G01 X-14.5083 Y25.4410 
G01 X-14.7017 Y25.4410 
G01 X-14.8928 Y25.4713 
G01 X-15.0768 Y25.5310 
G01 X-15.2491 Y25.6189 
G01 X-15.4056 Y25.7326 
G01 X-15.5424 Y25.8694 
G01 X-15.6561 Y26.0259 
G01 X-15.7440 Y26.1982 
G01 X-15.8037 Y26.3822 
G01 X-15.8340 Y26.5733 
G00 Z2.0000 
G00 X-18.3740 Y26.5733 
G01 Z-0.1500 F100.00 
G01 X-18.3740 Y26.7667 F208.00 
G01 X-18.3437 Y26.9578 
G01 X-18.2840 Y27.1418 
G01 X-18.1961 Y27.3141 
G01 X-18.0824 Y27.4706 
G01 X-17.9456 Y27.6074 
G01 X-17.7891 Y27.7211 
G01 X-17.6168 Y27.8090 
G01 X-17.4328 Y27.8687 
G01 X-17.2417 Y27.8990 
G01 X-17.0483 Y27.8990 
G01 X-16.8572 Y27.8687 
G01 X-16.6732 Y27.8090 
G01 X-16.5009 Y27.7211 
G01 X-16.3444 Y27.6074 
G01 X-16.2076 Y27.4706 
G01 X-16.0939 Y27.3141 
G01 X-16.0060 Y27.1418 
G01 X-15.9463 Y26.9578 
G01 X-15.9160 Y26.7667 
G01 X-15.9160 Y26.5733 
G01 X-15.9463 Y26.3822 
G01 X-16.0060 Y26.1982 
G01 X-16.0939 Y26.0259 
G01 X-16.2076 Y25.8694 
G01 X-16.3444 Y25.7326 
G01 X-16.5009 Y25.6189 
G01 X-16.6732 Y25.5310 
G01 X-16.8572 Y25.4713 
G01 X-17.0483 Y25.4410 
G01 X-17.2417 Y25.4410 
G01 X-17.4328 Y25.4713 
G01 X-17.6168 Y25.5310 
G01 X-17.7891 Y25.6189 
G01 X-17.9456 Y25.7326 
G01 X-18.0824 Y25.8694 
G01 X-18.1961 Y26.0259 
G01 X-18.2840 Y26.1982 
G01 X-18.3437 Y26.3822 
G01 X-18.3740 Y26.5733 
G00 Z2.0000 
G00 X-20.9140 Y26.5733 
G01 Z-0.1500 F100.00 
G01 X-20.9140 Y26.7667 F208.00 
G01 X-20.8837 Y26.9578 
G01 X-20.8240 Y27.1418 
G01 X-20.7361 Y27.3141 
G01 X-20.6224 Y27.4706 
G01 X-20.4856 Y27.6074 
G01 X-20.3291 Y27.7211 
G01 X-20.1568 Y27.8090 
G01 X-19.9728 Y27.8687 
G01 X-19.7817 Y27.8990 
G01 X-19.5883 Y27.8990 
G01 X-19.3972 Y27.8687 
G01 X-19.2132 Y27.8090 
G01 X-19.0409 Y27.7211 
G01 X-18.8844 Y27.6074 
G01 X-18.7476 Y27.4706 
G01 X-18.6339 Y27.3141 
G01 X-18.5460 Y27.1418 
G01 X-18.4863 Y26.9578 
G01 X-18.4560 Y26.7667 
G01 X-18.4560 Y26.5733 
G01 X-18.4863 Y26.3822 
G01 X-18.5460 Y26.1982 
G01 X-18.5648 Y26.1613 
G01 X-16.1449 Y23.7414 
G01 X-4.9932 Y23.7414 
G01 X-4.8229 Y23.7075 
G01 X-4.6625 Y23.6411 
G01 X-4.5181 Y23.5446 
G01 X-4.3954 Y23.4219 
G01 X-4.2989 Y23.2775 
G01 X-4.2325 Y23.1171 
G01 X-4.1986 Y22.9468 
G01 X-4.1986 Y17.6760 
G01 X-4.0978 Y17.7087 
G01 X-3.9067 Y17.7390 
G01 X-3.8275 Y17.7390 
G01 X-3.5738 Y17.9927 
G01 X-3.5738 Y28.3286 
G01 X-21.2249 Y28.3286 
G01 X-21.3436 Y28.2099 
G01 X-21.3436 Y27.5267 
G01 X-21.2876 Y27.4706 
G01 X-21.1739 Y27.3141 
G01 X-21.0860 Y27.1418 
G01 X-21.0263 Y26.9578 
G01 X-20.9960 Y26.7667 
G01 X-20.9960 Y26.5733 
G01 X-21.0263 Y26.3822 
G01 X-21.0860 Y26.1982 
G01 X-21.1739 Y26.0259 
G01 X-21.2876 Y25.8694 
G01 X-21.4244 Y25.7326 
G01 X-21.5809 Y25.6189 
G01 X-21.7532 Y25.5310 
G01 X-21.9372 Y25.4713 
G01 X-22.1283 Y25.4410 
G01 X-22.3217 Y25.4410 
G01 X-22.5128 Y25.4713 
G01 X-22.6968 Y25.5310 
G01 X-22.8691 Y25.6189 
G01 X-23.0256 Y25.7326 
G01 X-23.1624 Y25.8694 
G01 X-23.2761 Y26.0259 
G01 X-23.3640 Y26.1982 
G01 X-23.4237 Y26.3822 
G01 X-23.4540 Y26.5733 
G01 X-23.4540 Y26.7667 
G01 X-23.4237 Y26.9578 
G01 X-23.3640 Y27.1418 
G01 X-23.2761 Y27.3141 
G01 X-23.1624 Y27.4706 
G01 X-23.1064 Y27.5267 
G01 X-23.1064 Y28.6618 
G01 X-23.0725 Y28.8321 
G01 X-23.0061 Y28.9925 
G01 X-22.9096 Y29.1369 
G01 X-22.7869 Y29.2596 
G01 X-22.1519 Y29.8946 
G01 X-22.0075 Y29.9911 
G01 X-21.8471 Y30.0575 
G01 X-21.6768 Y30.0914 
G01 X-2.6056 Y30.0914 
G01 X-2.4353 Y30.0575 
G01 X-2.2749 Y29.9911 
G01 X-2.1305 Y29.8946 
G01 X-2.0078 Y29.7719 
G01 X-1.9113 Y29.6275 
G01 X-1.8449 Y29.4671 
G01 X-1.8110 Y29.2968 
G01 X-1.8110 Y17.5408 
G01 X-1.8449 Y17.3705 
G01 X-1.9113 Y17.2101 
G01 X-2.0078 Y17.0657 
G01 X-2.1305 Y16.9430 
G01 X-2.5810 Y16.4925 
G01 X-2.5810 Y16.4133 
G01 X-2.6113 Y16.2222 
G01 X-2.6710 Y16.0382 
G01 X-2.7589 Y15.8659 
G01 X-2.8726 Y15.7094 
G01 X-3.0094 Y15.5726 
G01 X-3.1659 Y15.4589 
G01 X-3.3382 Y15.3710 
G01 X-3.5222 Y15.3113 
G01 X-3.7133 Y15.2810 
G01 X-3.9067 Y15.2810 
G01 X-4.0978 Y15.3113 
G01 X-4.1986 Y15.3440 
G01 X-4.1986 Y15.1360 
G01 X-4.0978 Y15.1687 
G01 X-3.9067 Y15.1990 
G01 X-3.7133 Y15.1990 
G01 X-3.5222 Y15.1687 
G01 X-3.3382 Y15.1090 
G01 X-3.1659 Y15.0211 
G01 X-3.0094 Y14.9074 
G01 X-2.8726 Y14.7706 
G01 X-2.7589 Y14.6141 
G01 X-2.6710 Y14.4418 
G01 X-2.6113 Y14.2578 
G01 X-2.5810 Y14.0667 
G01 X-2.5810 Y13.8733 
G01 X-2.6113 Y13.6822 
G01 X-2.6710 Y13.4982 
G01 X-2.7589 Y13.3259 
G01 X-2.8726 Y13.1694 
G01 X-3.0094 Y13.0326 
G01 X-3.1659 Y12.9189 
G01 X-3.3382 Y12.8310 
G01 X-3.5222 Y12.7713 
G01 X-3.7133 Y12.7410 
G01 X-3.9067 Y12.7410 
G01 X-4.0978 Y12.7713 
G01 X-4.2818 Y12.8310 
G01 X-4.4541 Y12.9189 
G01 X-4.6106 Y13.0326 
G01 X-4.6667 Y13.0886 
G01 X-5.1668 Y13.0886 
G01 X-5.3371 Y13.1225 
G01 X-5.4975 Y13.1889 
G01 X-5.6419 Y13.2854 
G01 X-5.7646 Y13.4081 
G01 X-5.8611 Y13.5525 
G01 X-5.9275 Y13.7129 
G01 X-5.9614 Y13.8832 
G01 X-5.9614 Y21.9786 
G01 X-16.5968 Y21.9786 
G01 X-16.7671 Y22.0125 
G01 X-16.9275 Y22.0789 
G01 X-17.0719 Y22.1754 
G01 X-17.1946 Y22.2981 
G01 X-20.6871 Y25.7906 
G01 X-20.7836 Y25.9350 
G01 X-20.8500 Y26.0954 
G01 X-20.8839 Y26.2657 
G01 X-20.8839 Y26.3832 
G01 X-20.9140 Y26.5733 
G00 Z2.0000 
G00 X-25.9940 Y26.5733 
G01 Z-0.1500 F100.00 
G01 X-25.9940 Y26.7667 F208.00 
G01 X-25.9637 Y26.9578 
G01 X-25.9040 Y27.1418 
G01 X-25.8161 Y27.3141 
G01 X-25.7024 Y27.4706 
G01 X-25.5656 Y27.6074 
G01 X-25.4091 Y27.7211 
G01 X-25.2368 Y27.8090 
G01 X-25.0528 Y27.8687 
G01 X-24.8617 Y27.8990 
G01 X-24.6683 Y27.8990 
G01 X-24.4772 Y27.8687 
G01 X-24.2932 Y27.8090 
G01 X-24.1209 Y27.7211 
G01 X-23.9644 Y27.6074 
G01 X-23.8276 Y27.4706 
G01 X-23.7139 Y27.3141 
G01 X-23.6260 Y27.1418 
G01 X-23.5663 Y26.9578 
G01 X-23.5360 Y26.7667 
G01 X-23.5360 Y26.5733 
G01 X-23.5663 Y26.3822 
G01 X-23.6260 Y26.1982 
G01 X-23.7139 Y26.0259 
G01 X-23.8276 Y25.8694 
G01 X-23.9644 Y25.7326 
G01 X-24.1209 Y25.6189 
G01 X-24.2932 Y25.5310 
G01 X-24.4772 Y25.4713 
G01 X-24.6683 Y25.4410 
G01 X-24.8617 Y25.4410 
G01 X-25.0528 Y25.4713 
G01 X-25.2368 Y25.5310 
G01 X-25.4091 Y25.6189 
G01 X-25.5656 Y25.7326 
G01 X-25.7024 Y25.8694 
G01 X-25.8161 Y26.0259 
G01 X-25.9040 Y26.1982 
G01 X-25.9637 Y26.3822 
G01 X-25.9940 Y26.5733 
G00 Z2.0000 
G00 X-28.5340 Y26.5733 
G01 Z-0.1500 F100.00 
G01 X-28.5340 Y26.7667 F208.00 
G01 X-28.5037 Y26.9578 
G01 X-28.4440 Y27.1418 
G01 X-28.3561 Y27.3141 
G01 X-28.2424 Y27.4706 
G01 X-28.1056 Y27.6074 
G01 X-27.9491 Y27.7211 
G01 X-27.7768 Y27.8090 
G01 X-27.5928 Y27.8687 
G01 X-27.4017 Y27.8990 
G01 X-27.2083 Y27.8990 
G01 X-27.0172 Y27.8687 
G01 X-26.8332 Y27.8090 
G01 X-26.6609 Y27.7211 
G01 X-26.5044 Y27.6074 
G01 X-26.3676 Y27.4706 
G01 X-26.2539 Y27.3141 
G01 X-26.1660 Y27.1418 
G01 X-26.1063 Y26.9578 
G01 X-26.0760 Y26.7667 
G01 X-26.0760 Y26.5733 
G01 X-26.1063 Y26.3822 
G01 X-26.1660 Y26.1982 
G01 X-26.2539 Y26.0259 
G01 X-26.3676 Y25.8694 
G01 X-26.5044 Y25.7326 
G01 X-26.6609 Y25.6189 
G01 X-26.8332 Y25.5310 
G01 X-27.0172 Y25.4713 
G01 X-27.2083 Y25.4410 
G01 X-27.4017 Y25.4410 
G01 X-27.5928 Y25.4713 
G01 X-27.7768 Y25.5310 
G01 X-27.9491 Y25.6189 
G01 X-28.1056 Y25.7326 
G01 X-28.2424 Y25.8694 
G01 X-28.3561 Y26.0259 
G01 X-28.4440 Y26.1982 
G01 X-28.5037 Y26.3822 
G01 X-28.5340 Y26.5733 
G00 Z2.0000 
G00 X-15.8340 Y3.7133 
G01 Z-0.1500 F100.00 
G01 X-15.8340 Y3.9067 F208.00 
G01 X-15.8037 Y4.0978 
G01 X-15.7440 Y4.2818 
G01 X-15.6561 Y4.4541 
G01 X-15.5424 Y4.6106 
G01 X-15.4056 Y4.7474 
G01 X-15.2491 Y4.8611 
G01 X-15.0768 Y4.9490 
G01 X-14.8928 Y5.0087 
G01 X-14.7017 Y5.0390 
G01 X-14.5083 Y5.0390 
G01 X-14.3172 Y5.0087 
G01 X-14.1332 Y4.9490 
G01 X-13.9609 Y4.8611 
G01 X-13.8044 Y4.7474 
G01 X-13.6676 Y4.6106 
G01 X-13.5539 Y4.4541 
G01 X-13.4660 Y4.2818 
G01 X-13.4063 Y4.0978 
G01 X-13.3760 Y3.9067 
G01 X-13.3760 Y3.7133 
G01 X-13.4063 Y3.5222 
G01 X-13.4660 Y3.3382 
G01 X-13.5539 Y3.1659 
G01 X-13.6676 Y3.0094 
G01 X-13.8044 Y2.8726 
G01 X-13.9609 Y2.7589 
G01 X-14.1332 Y2.6710 
G01 X-14.3172 Y2.6113 
G01 X-14.5083 Y2.5810 
G01 X-14.7017 Y2.5810 
G01 X-14.8928 Y2.6113 
G01 X-15.0768 Y2.6710 
G01 X-15.2491 Y2.7589 
G01 X-15.4056 Y2.8726 
G01 X-15.5424 Y3.0094 
G01 X-15.6561 Y3.1659 
G01 X-15.7440 Y3.3382 
G01 X-15.8037 Y3.5222 
G01 X-15.8340 Y3.7133 
G00 Z2.0000 
G00 X-18.3740 Y3.7133 
G01 Z-0.1500 F100.00 
G01 X-18.3740 Y3.9067 F208.00 
G01 X-18.3437 Y4.0978 
G01 X-18.2840 Y4.2818 
G01 X-18.1961 Y4.4541 
G01 X-18.0824 Y4.6106 
G01 X-17.9456 Y4.7474 
G01 X-17.7891 Y4.8611 
G01 X-17.6168 Y4.9490 
G01 X-17.4328 Y5.0087 
G01 X-17.2417 Y5.0390 
G01 X-17.0483 Y5.0390 
G01 X-16.8572 Y5.0087 
G01 X-16.6732 Y4.9490 
G01 X-16.5009 Y4.8611 
G01 X-16.3444 Y4.7474 
G01 X-16.2076 Y4.6106 
G01 X-16.0939 Y4.4541 
G01 X-16.0060 Y4.2818 
G01 X-15.9463 Y4.0978 
G01 X-15.9160 Y3.9067 
G01 X-15.9160 Y3.7133 
G01 X-15.9463 Y3.5222 
G01 X-16.0060 Y3.3382 
G01 X-16.0939 Y3.1659 
G01 X-16.2076 Y3.0094 
G01 X-16.3444 Y2.8726 
G01 X-16.5009 Y2.7589 
G01 X-16.6732 Y2.6710 
G01 X-16.8572 Y2.6113 
G01 X-17.0483 Y2.5810 
G01 X-17.2417 Y2.5810 
G01 X-17.4328 Y2.6113 
G01 X-17.6168 Y2.6710 
G01 X-17.7891 Y2.7589 
G01 X-17.9456 Y2.8726 
G01 X-18.0824 Y3.0094 
G01 X-18.1961 Y3.1659 
G01 X-18.2840 Y3.3382 
G01 X-18.3437 Y3.5222 
G01 X-18.3740 Y3.7133 
G00 Z2.0000 
G00 X-20.9140 Y3.7133 
G01 Z-0.1500 F100.00 
G01 X-20.9140 Y3.9067 F208.00 
G01 X-20.8837 Y4.0978 
G01 X-20.8240 Y4.2818 
G01 X-20.7361 Y4.4541 
G01 X-20.6224 Y4.6106 
G01 X-20.4856 Y4.7474 
G01 X-20.3291 Y4.8611 
G01 X-20.1568 Y4.9490 
G01 X-19.9728 Y5.0087 
G01 X-19.7817 Y5.0390 
G01 X-19.5883 Y5.0390 
G01 X-19.3972 Y5.0087 
G01 X-19.2132 Y4.9490 
G01 X-19.0409 Y4.8611 
G01 X-18.8844 Y4.7474 
G01 X-18.7476 Y4.6106 
G01 X-18.6339 Y4.4541 
G01 X-18.5460 Y4.2818 
G01 X-18.4863 Y4.0978 
G01 X-18.4560 Y3.9067 
G01 X-18.4560 Y3.7133 
G01 X-18.4863 Y3.5222 
G01 X-18.5460 Y3.3382 
G01 X-18.6339 Y3.1659 
G01 X-18.7476 Y3.0094 
G01 X-18.8844 Y2.8726 
G01 X-19.0409 Y2.7589 
G01 X-19.2132 Y2.6710 
G01 X-19.3972 Y2.6113 
G01 X-19.5883 Y2.5810 
G01 X-19.7817 Y2.5810 
G01 X-19.9728 Y2.6113 
G01 X-20.1568 Y2.6710 
G01 X-20.3291 Y2.7589 
G01 X-20.4856 Y2.8726 
G01 X-20.6224 Y3.0094 
G01 X-20.7361 Y3.1659 
G01 X-20.8240 Y3.3382 
G01 X-20.8837 Y3.5222 
G01 X-20.9140 Y3.7133 
G00 Z2.0000 
G00 X-23.4540 Y3.7133 
G01 Z-0.1500 F100.00 
G01 X-23.4540 Y3.9067 F208.00 
G01 X-23.4237 Y4.0978 
G01 X-23.3640 Y4.2818 
G01 X-23.2761 Y4.4541 
G01 X-23.1624 Y4.6106 
G01 X-23.1064 Y4.6667 
G01 X-23.1064 Y18.0499 
G01 X-23.2251 Y18.1686 
G01 X-27.5800 Y18.1686 
G01 X-27.6421 Y18.1065 
G01 X-27.7997 Y17.9920 
G01 X-27.9732 Y17.9036 
G01 X-28.1583 Y17.8435 
G01 X-28.3506 Y17.8130 
G01 X-30.0694 Y17.8130 
G01 X-30.2617 Y17.8435 
G01 X-30.4468 Y17.9036 
G01 X-30.6203 Y17.9920 
G01 X-30.7779 Y18.1065 
G01 X-30.9155 Y18.2441 
G01 X-31.0300 Y18.4017 
G01 X-31.1184 Y18.5752 
G01 X-31.1785 Y18.7603 
G01 X-31.2090 Y18.9526 
G01 X-31.2090 Y19.1474 
G01 X-31.1785 Y19.3397 
G01 X-31.1184 Y19.5248 
G01 X-31.0300 Y19.6983 
G01 X-30.9155 Y19.8559 
G01 X-30.7779 Y19.9935 
G01 X-30.6203 Y20.1080 
G01 X-30.4468 Y20.1964 
G01 X-30.2617 Y20.2565 
G01 X-30.0694 Y20.2870 
G01 X-28.3506 Y20.2870 
G01 X-28.1583 Y20.2565 
G01 X-27.9732 Y20.1964 
G01 X-27.7997 Y20.1080 
G01 X-27.6421 Y19.9935 
G01 X-27.5800 Y19.9314 
G01 X-22.7732 Y19.9314 
G01 X-22.6029 Y19.8975 
G01 X-22.4425 Y19.8311 
G01 X-22.2981 Y19.7346 
G01 X-21.6631 Y19.0996 
G01 X-21.5404 Y18.9769 
G01 X-21.4439 Y18.8325 
G01 X-21.3775 Y18.6721 
G01 X-21.3436 Y18.5018 
G01 X-21.3436 Y4.6667 
G01 X-21.2876 Y4.6106 
G01 X-21.1739 Y4.4541 
G01 X-21.0860 Y4.2818 
G01 X-21.0263 Y4.0978 
G01 X-20.9960 Y3.9067 
G01 X-20.9960 Y3.7133 
G01 X-21.0263 Y3.5222 
G01 X-21.0860 Y3.3382 
G01 X-21.1739 Y3.1659 
G01 X-21.2876 Y3.0094 
G01 X-21.4244 Y2.8726 
G01 X-21.5809 Y2.7589 
G01 X-21.7532 Y2.6710 
G01 X-21.9372 Y2.6113 
G01 X-22.1283 Y2.5810 
G01 X-22.3217 Y2.5810 
G01 X-22.5128 Y2.6113 
G01 X-22.6968 Y2.6710 
G01 X-22.8691 Y2.7589 
G01 X-23.0256 Y2.8726 
G01 X-23.1624 Y3.0094 
G01 X-23.2761 Y3.1659 
G01 X-23.3640 Y3.3382 
G01 X-23.4237 Y3.5222 
G01 X-23.4540 Y3.7133 
G00 Z2.0000 
G00 X-28.5340 Y3.7133 
G01 Z-0.1500 F100.00 
G01 X-28.5340 Y3.9067 F208.00 
G01 X-28.5037 Y4.0978 
G01 X-28.4440 Y4.2818 
G01 X-28.3561 Y4.4541 
G01 X-28.2424 Y4.6106 
G01 X-28.1056 Y4.7474 
G01 X-27.9491 Y4.8611 
G01 X-27.7768 Y4.9490 
G01 X-27.5928 Y5.0087 
G01 X-27.4017 Y5.0390 
G01 X-27.2083 Y5.0390 
G01 X-27.0172 Y5.0087 
G01 X-26.8332 Y4.9490 
G01 X-26.6609 Y4.8611 
G01 X-26.5044 Y4.7474 
G01 X-26.3676 Y4.6106 
G01 X-26.2539 Y4.4541 
G01 X-26.1660 Y4.2818 
G01 X-26.1063 Y4.0978 
G01 X-26.0760 Y3.9067 
G01 X-26.0760 Y3.7133 
G01 X-26.1063 Y3.5222 
G01 X-26.1660 Y3.3382 
G01 X-26.2539 Y3.1659 
G01 X-26.3676 Y3.0094 
G01 X-26.5044 Y2.8726 
G01 X-26.6609 Y2.7589 
G01 X-26.8332 Y2.6710 
G01 X-27.0172 Y2.6113 
G01 X-27.2083 Y2.5810 
G01 X-27.4017 Y2.5810 
G01 X-27.5928 Y2.6113 
G01 X-27.7768 Y2.6710 
G01 X-27.9491 Y2.7589 
G01 X-28.1056 Y2.8726 
G01 X-28.2424 Y3.0094 
G01 X-28.3561 Y3.1659 
G01 X-28.4440 Y3.3382 
G01 X-28.5037 Y3.5222 
G01 X-28.5340 Y3.7133 
G00 Z2.0000 
G00 X-31.0740 Y3.7133 
G01 Z-0.1500 F100.00 
G01 X-31.0740 Y3.9067 F208.00 
G01 X-31.0437 Y4.0978 
G01 X-30.9840 Y4.2818 
G01 X-30.8961 Y4.4541 
G01 X-30.7824 Y4.6106 
G01 X-30.6456 Y4.7474 
G01 X-30.4891 Y4.8611 
G01 X-30.3168 Y4.9490 
G01 X-30.1328 Y5.0087 
G01 X-29.9417 Y5.0390 
G01 X-29.7483 Y5.0390 
G01 X-29.5572 Y5.0087 
G01 X-29.3732 Y4.9490 
G01 X-29.2009 Y4.8611 
G01 X-29.0444 Y4.7474 
G01 X-28.9076 Y4.6106 
G01 X-28.7939 Y4.4541 
G01 X-28.7060 Y4.2818 
G01 X-28.6463 Y4.0978 
G01 X-28.6160 Y3.9067 
G01 X-28.6160 Y3.7133 
G01 X-28.6463 Y3.5222 
G01 X-28.7060 Y3.3382 
G01 X-28.7939 Y3.1659 
G01 X-28.9076 Y3.0094 
G01 X-29.0444 Y2.8726 
G01 X-29.2009 Y2.7589 
G01 X-29.3732 Y2.6710 
G01 X-29.5572 Y2.6113 
G01 X-29.7483 Y2.5810 
G01 X-29.9417 Y2.5810 
G01 X-30.1328 Y2.6113 
G01 X-30.3168 Y2.6710 
G01 X-30.4891 Y2.7589 
G01 X-30.6456 Y2.8726 
G01 X-30.7824 Y3.0094 
G01 X-30.8961 Y3.1659 
G01 X-30.9840 Y3.3382 
G01 X-31.0437 Y3.5222 
G01 X-31.0740 Y3.7133 
G00 Z2.0000 
G00 X-30.0694 Y12.6670 
G01 Z-0.1500 F100.00 
G01 X-28.3506 Y12.6670 F208.00 
G01 X-28.1583 Y12.6365 
G01 X-27.9732 Y12.5764 
G01 X-27.7997 Y12.4880 
G01 X-27.6421 Y12.3735 
G01 X-27.5045 Y12.2359 
G01 X-27.3900 Y12.0783 
G01 X-27.3016 Y11.9048 
G01 X-27.2415 Y11.7197 
G01 X-27.2110 Y11.5274 
G01 X-27.2110 Y11.3326 
G01 X-27.2415 Y11.1403 
G01 X-27.3016 Y10.9552 
G01 X-27.3900 Y10.7817 
G01 X-27.5045 Y10.6241 
G01 X-27.6421 Y10.4865 
G01 X-27.7997 Y10.3720 
G01 X-27.9732 Y10.2836 
G01 X-28.1583 Y10.2235 
G01 X-28.3506 Y10.1930 
G01 X-30.0694 Y10.1930 
G01 X-30.2617 Y10.2235 
G01 X-30.4468 Y10.2836 
G01 X-30.6203 Y10.3720 
G01 X-30.7779 Y10.4865 
G01 X-30.8400 Y10.5486 
G01 X-31.8368 Y10.5486 
G01 X-32.0071 Y10.5825 
G01 X-32.1675 Y10.6489 
G01 X-32.3119 Y10.7454 
G01 X-32.4346 Y10.8681 
G01 X-35.6096 Y14.0431 
G01 X-35.7061 Y14.1875 
G01 X-35.7725 Y14.3479 
G01 X-35.8064 Y14.5182 
G01 X-35.8064 Y24.2168 
G01 X-35.7725 Y24.3871 
G01 X-35.7061 Y24.5475 
G01 X-35.6096 Y24.6919 
G01 X-35.4869 Y24.8146 
G01 X-33.6140 Y26.6875 
G01 X-33.6140 Y26.7667 
G01 X-33.5837 Y26.9578 
G01 X-33.5240 Y27.1418 
G01 X-33.4361 Y27.3141 
G01 X-33.3224 Y27.4706 
G01 X-33.1856 Y27.6074 
G01 X-33.0291 Y27.7211 
G01 X-32.8568 Y27.8090 
G01 X-32.6728 Y27.8687 
G01 X-32.4817 Y27.8990 
G01 X-32.2883 Y27.8990 
G01 X-32.0972 Y27.8687 
G01 X-31.9132 Y27.8090 
G01 X-31.7409 Y27.7211 
G01 X-31.5844 Y27.6074 
G01 X-31.4476 Y27.4706 
G01 X-31.3339 Y27.3141 
G01 X-31.2460 Y27.1418 
G01 X-31.1863 Y26.9578 
G01 X-31.1560 Y26.7667 
G01 X-31.1560 Y26.5733 
G01 X-31.1863 Y26.3822 
G01 X-31.2460 Y26.1982 
G01 X-31.3339 Y26.0259 
G01 X-31.4476 Y25.8694 
G01 X-31.5844 Y25.7326 
G01 X-31.7409 Y25.6189 
G01 X-31.9132 Y25.5310 
G01 X-32.0972 Y25.4713 
G01 X-32.2883 Y25.4410 
G01 X-32.3675 Y25.4410 
G01 X-34.0436 Y23.7649 
G01 X-34.0436 Y14.9701 
G01 X-31.3849 Y12.3114 
G01 X-30.8400 Y12.3114 
G01 X-30.7779 Y12.3735 
G01 X-30.6203 Y12.4880 
G01 X-30.4468 Y12.5764 
G01 X-30.2617 Y12.6365 
G01 X-30.0694 Y12.6670 
G00 Z2.0000 
G00 X-30.0694 Y17.7470 
G01 Z-0.1500 F100.00 
G01 X-28.3506 Y17.7470 F208.00 
G01 X-28.1583 Y17.7165 
G01 X-27.9732 Y17.6564 
G01 X-27.7997 Y17.5680 
G01 X-27.6421 Y17.4535 
G01 X-27.5800 Y17.3914 
G01 X-25.3132 Y17.3914 
G01 X-25.1429 Y17.3575 
G01 X-24.9825 Y17.2911 
G01 X-24.8381 Y17.1946 
G01 X-24.2031 Y16.5596 
G01 X-24.0804 Y16.4369 
G01 X-23.9839 Y16.2925 
G01 X-23.9175 Y16.1321 
G01 X-23.8836 Y15.9618 
G01 X-23.8836 Y4.6667 
G01 X-23.8276 Y4.6106 
G01 X-23.7139 Y4.4541 
G01 X-23.6260 Y4.2818 
G01 X-23.5663 Y4.0978 
G01 X-23.5360 Y3.9067 
G01 X-23.5360 Y3.7133 
G01 X-23.5663 Y3.5222 
G01 X-23.6260 Y3.3382 
G01 X-23.7139 Y3.1659 
G01 X-23.8276 Y3.0094 
G01 X-23.9644 Y2.8726 
G01 X-24.1209 Y2.7589 
G01 X-24.2932 Y2.6710 
G01 X-24.4772 Y2.6113 
G01 X-24.6683 Y2.5810 
G01 X-24.8617 Y2.5810 
G01 X-25.0528 Y2.6113 
G01 X-25.2368 Y2.6710 
G01 X-25.4091 Y2.7589 
G01 X-25.5656 Y2.8726 
G01 X-25.7024 Y3.0094 
G01 X-25.8161 Y3.1659 
G01 X-25.9040 Y3.3382 
G01 X-25.9637 Y3.5222 
G01 X-25.9940 Y3.7133 
G01 X-25.9940 Y3.9067 
G01 X-25.9637 Y4.0978 
G01 X-25.9040 Y4.2818 
G01 X-25.8161 Y4.4541 
G01 X-25.7024 Y4.6106 
G01 X-25.6464 Y4.6667 
G01 X-25.6464 Y15.5099 
G01 X-25.7651 Y15.6286 
G01 X-27.5800 Y15.6286 
G01 X-27.6421 Y15.5665 
G01 X-27.7997 Y15.4520 
G01 X-27.9732 Y15.3636 
G01 X-28.1583 Y15.3035 
G01 X-28.3506 Y15.2730 
G01 X-30.0694 Y15.2730 
G01 X-30.2617 Y15.3035 
G01 X-30.4468 Y15.3636 
G01 X-30.6203 Y15.4520 
G01 X-30.7779 Y15.5665 
G01 X-30.9155 Y15.7041 
G01 X-31.0300 Y15.8617 
G01 X-31.1184 Y16.0352 
G01 X-31.1785 Y16.2203 
G01 X-31.2090 Y16.4126 
G01 X-31.2090 Y16.6074 
G01 X-31.1785 Y16.7997 
G01 X-31.1184 Y16.9848 
G01 X-31.0300 Y17.1583 
G01 X-30.9155 Y17.3159 
G01 X-30.7779 Y17.4535 
G01 X-30.6203 Y17.5680 
G01 X-30.4468 Y17.6564 
G01 X-30.2617 Y17.7165 
G01 X-30.0694 Y17.7470 
G00 Z2.0000 
G00 X-3.1135 Y10.2933 
G01 Z-0.1500 F100.00 
G01 X-3.2594 Y10.2190 F208.00 
G01 X-2.9803 Y10.2190 
G01 X-2.8341 Y10.1798 
G01 X-2.8247 Y10.1744 
G01 X-3.0151 Y10.3648 
G01 X-3.1135 Y10.2933 
G00 Z2.0000 
G00 X-30.8430 Y14.9898 
G01 Z-0.1500 F100.00 
G01 X-30.6727 Y15.1135 F208.00 
G01 X-30.4852 Y15.2090 
G01 X-30.3900 Y15.2400 
G01 X-30.4852 Y15.2710 
G01 X-30.6727 Y15.3665 
G01 X-30.8430 Y15.4902 
G01 X-30.9918 Y15.6390 
G01 X-31.1155 Y15.8093 
G01 X-31.2110 Y15.9968 
G01 X-31.2761 Y16.1969 
G01 X-31.3090 Y16.4048 
G01 X-31.3090 Y16.6152 
G01 X-31.2761 Y16.8231 
G01 X-31.2110 Y17.0232 
G01 X-31.1155 Y17.2107 
G01 X-30.9918 Y17.3810 
G01 X-30.8430 Y17.5298 
G01 X-30.6727 Y17.6535 
G01 X-30.4852 Y17.7490 
G01 X-30.3900 Y17.7800 
G01 X-30.4852 Y17.8110 
G01 X-30.6727 Y17.9065 
G01 X-30.8430 Y18.0302 
G01 X-30.9918 Y18.1790 
G01 X-31.1155 Y18.3493 
G01 X-31.2110 Y18.5368 
G01 X-31.2761 Y18.7369 
G01 X-31.3090 Y18.9448 
G01 X-31.3090 Y19.1552 
G01 X-31.2761 Y19.3631 
G01 X-31.2554 Y19.4267 
G01 X-32.0386 Y18.6435 
G01 X-32.0386 Y15.6465 
G01 X-31.3435 Y14.9514 
G01 X-30.8814 Y14.9514 
G01 X-30.8430 Y14.9898 
G00 Z2.0000 
G00 X-21.2113 Y27.5358 
G01 Z-0.1500 F100.00 
G01 X-21.0883 Y27.3665 F208.00 
G01 X-20.9934 Y27.1802 
G01 X-20.9550 Y27.0621 
G01 X-20.9166 Y27.1802 
G01 X-20.8217 Y27.3665 
G01 X-20.6987 Y27.5358 
G01 X-20.5508 Y27.6837 
G01 X-20.3815 Y27.8067 
G01 X-20.1952 Y27.9016 
G01 X-19.9962 Y27.9663 
G01 X-19.7896 Y27.9990 
G01 X-19.5804 Y27.9990 
G01 X-19.3738 Y27.9663 
G01 X-19.1748 Y27.9016 
G01 X-18.9885 Y27.8067 
G01 X-18.8192 Y27.6837 
G01 X-18.6713 Y27.5358 
G01 X-18.5483 Y27.3665 
G01 X-18.4534 Y27.1802 
G01 X-18.4150 Y27.0621 
G01 X-18.3766 Y27.1802 
G01 X-18.2817 Y27.3665 
G01 X-18.1587 Y27.5358 
G01 X-18.0108 Y27.6837 
G01 X-17.8415 Y27.8067 
G01 X-17.6552 Y27.9016 
G01 X-17.4562 Y27.9663 
G01 X-17.2496 Y27.9990 
G01 X-17.0404 Y27.9990 
G01 X-16.8338 Y27.9663 
G01 X-16.6348 Y27.9016 
G01 X-16.4485 Y27.8067 
G01 X-16.2792 Y27.6837 
G01 X-16.1313 Y27.5358 
G01 X-16.0083 Y27.3665 
G01 X-15.9134 Y27.1802 
G01 X-15.8750 Y27.0621 
G01 X-15.8366 Y27.1802 
G01 X-15.7417 Y27.3665 
G01 X-15.6187 Y27.5358 
G01 X-15.4708 Y27.6837 
G01 X-15.3015 Y27.8067 
G01 X-15.1152 Y27.9016 
G01 X-14.9162 Y27.9663 
G01 X-14.7096 Y27.9990 
G01 X-14.5004 Y27.9990 
G01 X-14.2938 Y27.9663 
G01 X-14.0948 Y27.9016 
G01 X-13.9085 Y27.8067 
G01 X-13.7392 Y27.6837 
G01 X-13.5913 Y27.5358 
G01 X-13.4683 Y27.3665 
G01 X-13.3734 Y27.1802 
G01 X-13.3087 Y26.9812 
G01 X-13.2760 Y26.7746 
G01 X-13.2760 Y26.5654 
G01 X-13.3087 Y26.3588 
G01 X-13.3734 Y26.1598 
G01 X-13.4683 Y25.9734 
G01 X-13.5913 Y25.8042 
G01 X-13.7392 Y25.6563 
G01 X-13.9085 Y25.5333 
G01 X-14.0948 Y25.4384 
G01 X-14.2938 Y25.3737 
G01 X-14.5004 Y25.3410 
G01 X-14.7096 Y25.3410 
G01 X-14.9162 Y25.3737 
G01 X-15.1152 Y25.4384 
G01 X-15.3015 Y25.5333 
G01 X-15.4708 Y25.6563 
G01 X-15.6187 Y25.8042 
G01 X-15.7417 Y25.9734 
G01 X-15.8366 Y26.1598 
G01 X-15.8750 Y26.2779 
G01 X-15.9134 Y26.1598 
G01 X-16.0083 Y25.9734 
G01 X-16.1313 Y25.8042 
G01 X-16.2792 Y25.6563 
G01 X-16.4485 Y25.5333 
G01 X-16.6348 Y25.4384 
G01 X-16.8338 Y25.3737 
G01 X-17.0404 Y25.3410 
G01 X-17.2496 Y25.3410 
G01 X-17.4562 Y25.3737 
G01 X-17.6552 Y25.4384 
G01 X-17.7475 Y25.4854 
G01 X-16.1035 Y23.8414 
G01 X-4.9833 Y23.8414 
G01 X-4.7937 Y23.8037 
G01 X-4.6151 Y23.7297 
G01 X-4.4544 Y23.6223 
G01 X-4.3177 Y23.4856 
G01 X-4.2103 Y23.3249 
G01 X-4.1363 Y23.1463 
G01 X-4.0986 Y22.9567 
G01 X-4.0986 Y17.8099 
G01 X-3.9146 Y17.8390 
G01 X-3.8689 Y17.8390 
G01 X-3.6738 Y18.0341 
G01 X-3.6738 Y28.2286 
G01 X-21.1835 Y28.2286 
G01 X-21.2436 Y28.1685 
G01 X-21.2436 Y27.5681 
G01 X-21.2113 Y27.5358 
G00 Z2.0000 
G00 X-16.6067 Y21.8786 
G01 Z-0.1500 F100.00 
G01 X-16.7963 Y21.9163 F208.00 
G01 X-16.9749 Y21.9903 
G01 X-17.1356 Y22.0977 
G01 X-17.2723 Y22.2344 
G01 X-20.7648 Y25.7269 
G01 X-20.8722 Y25.8876 
G01 X-20.9462 Y26.0662 
G01 X-20.9756 Y26.2144 
G01 X-20.9934 Y26.1598 
G01 X-21.0883 Y25.9734 
G01 X-21.2113 Y25.8042 
G01 X-21.3592 Y25.6563 
G01 X-21.5284 Y25.5333 
G01 X-21.7148 Y25.4384 
G01 X-21.9138 Y25.3737 
G01 X-22.1204 Y25.3410 
G01 X-22.3296 Y25.3410 
G01 X-22.5362 Y25.3737 
G01 X-22.7352 Y25.4384 
G01 X-22.9215 Y25.5333 
G01 X-23.0908 Y25.6563 
G01 X-23.2387 Y25.8042 
G01 X-23.3617 Y25.9734 
G01 X-23.4566 Y26.1598 
G01 X-23.4950 Y26.2779 
G01 X-23.5334 Y26.1598 
G01 X-23.6283 Y25.9734 
G01 X-23.7513 Y25.8042 
G01 X-23.8992 Y25.6563 
G01 X-24.0685 Y25.5333 
G01 X-24.2548 Y25.4384 
G01 X-24.4538 Y25.3737 
G01 X-24.6604 Y25.3410 
G01 X-24.8696 Y25.3410 
G01 X-25.0762 Y25.3737 
G01 X-25.2752 Y25.4384 
G01 X-25.4615 Y25.5333 
G01 X-25.6308 Y25.6563 
G01 X-25.7787 Y25.8042 
G01 X-25.9017 Y25.9734 
G01 X-25.9966 Y26.1598 
G01 X-26.0350 Y26.2779 
G01 X-26.0734 Y26.1598 
G01 X-26.1683 Y25.9734 
G01 X-26.2913 Y25.8042 
G01 X-26.4392 Y25.6563 
G01 X-26.6085 Y25.5333 
G01 X-26.7948 Y25.4384 
G01 X-26.9938 Y25.3737 
G01 X-27.2004 Y25.3410 
G01 X-27.4096 Y25.3410 
G01 X-27.6162 Y25.3737 
G01 X-27.8152 Y25.4384 
G01 X-28.0015 Y25.5333 
G01 X-28.1708 Y25.6563 
G01 X-28.3187 Y25.8042 
G01 X-28.4417 Y25.9734 
G01 X-28.5366 Y26.1598 
G01 X-28.5750 Y26.2779 
G01 X-28.6134 Y26.1598 
G01 X-28.7083 Y25.9734 
G01 X-28.8313 Y25.8042 
G01 X-28.8636 Y25.7719 
G01 X-28.8636 Y22.6315 
G01 X-28.8035 Y22.5714 
G01 X-18.9533 Y22.5714 
G01 X-18.7637 Y22.5337 
G01 X-18.5851 Y22.4597 
G01 X-18.4244 Y22.3523 
G01 X-18.2877 Y22.2156 
G01 X-17.0177 Y20.9456 
G01 X-16.9103 Y20.7849 
G01 X-16.8363 Y20.6063 
G01 X-16.7986 Y20.4167 
G01 X-16.7986 Y10.5665 
G01 X-16.1035 Y9.8714 
G01 X-5.0967 Y9.8714 
G01 X-5.0241 Y9.9971 
G01 X-4.9171 Y10.1041 
G01 X-4.7859 Y10.1798 
G01 X-4.6397 Y10.2190 
G01 X-4.3606 Y10.2190 
G01 X-4.5065 Y10.2933 
G01 X-4.6758 Y10.4163 
G01 X-4.8237 Y10.5642 
G01 X-4.9467 Y10.7335 
G01 X-5.0416 Y10.9198 
G01 X-5.1063 Y11.1188 
G01 X-5.1390 Y11.3254 
G01 X-5.1390 Y11.5346 
G01 X-5.1063 Y11.7412 
G01 X-5.0416 Y11.9402 
G01 X-4.9467 Y12.1265 
G01 X-4.8237 Y12.2958 
G01 X-4.6758 Y12.4437 
G01 X-4.5065 Y12.5667 
G01 X-4.3202 Y12.6616 
G01 X-4.2021 Y12.7000 
G01 X-4.3202 Y12.7384 
G01 X-4.5065 Y12.8333 
G01 X-4.6758 Y12.9563 
G01 X-4.7081 Y12.9886 
G01 X-5.1767 Y12.9886 
G01 X-5.3663 Y13.0263 
G01 X-5.5449 Y13.1003 
G01 X-5.7056 Y13.2077 
G01 X-5.8423 Y13.3444 
G01 X-5.9497 Y13.5051 
G01 X-6.0237 Y13.6837 
G01 X-6.0614 Y13.8733 
G01 X-6.0614 Y21.8786 
G01 X-16.6067 Y21.8786 
G00 Z2.0000 
G00 X-18.3766 Y26.1598 
G01 Z-0.1500 F100.00 
G01 X-18.4150 Y26.2779 F208.00 
G01 X-18.4457 Y26.1836 
G01 X-18.3296 Y26.0675 
G01 X-18.3766 Y26.1598 
G00 Z2.0000 
G00 X-33.8897 Y19.5149 
G01 Z-0.1500 F100.00 
G01 X-33.7823 Y19.6756 F208.00 
G01 X-33.6456 Y19.8123 
G01 X-30.8264 Y22.6315 
G01 X-30.8264 Y25.7719 
G01 X-30.8587 Y25.8042 
G01 X-30.9817 Y25.9734 
G01 X-31.0766 Y26.1598 
G01 X-31.1150 Y26.2779 
G01 X-31.1534 Y26.1598 
G01 X-31.2483 Y25.9734 
G01 X-31.3713 Y25.8042 
G01 X-31.5192 Y25.6563 
G01 X-31.6885 Y25.5333 
G01 X-31.8748 Y25.4384 
G01 X-32.0738 Y25.3737 
G01 X-32.2804 Y25.3410 
G01 X-32.3261 Y25.3410 
G01 X-33.9436 Y23.7235 
G01 X-33.9436 Y19.3847 
G01 X-33.8897 Y19.5149 
G00 Z2.0000 
G00 X-21.2113 Y4.6758 
G01 Z-0.1500 F100.00 
G01 X-21.0883 Y4.5065 F208.00 
G01 X-20.9934 Y4.3202 
G01 X-20.9550 Y4.2021 
G01 X-20.9166 Y4.3202 
G01 X-20.8217 Y4.5065 
G01 X-20.6987 Y4.6758 
G01 X-20.5508 Y4.8237 
G01 X-20.3815 Y4.9467 
G01 X-20.1952 Y5.0416 
G01 X-19.9962 Y5.1063 
G01 X-19.7896 Y5.1390 
G01 X-19.5804 Y5.1390 
G01 X-19.3738 Y5.1063 
G01 X-19.1748 Y5.0416 
G01 X-18.9885 Y4.9467 
G01 X-18.8192 Y4.8237 
G01 X-18.6713 Y4.6758 
G01 X-18.5483 Y4.5065 
G01 X-18.4534 Y4.3202 
G01 X-18.4150 Y4.2021 
G01 X-18.3766 Y4.3202 
G01 X-18.2817 Y4.5065 
G01 X-18.1587 Y4.6758 
G01 X-18.0108 Y4.8237 
G01 X-17.8415 Y4.9467 
G01 X-17.6552 Y5.0416 
G01 X-17.4562 Y5.1063 
G01 X-17.2496 Y5.1390 
G01 X-17.0404 Y5.1390 
G01 X-16.8338 Y5.1063 
G01 X-16.6348 Y5.0416 
G01 X-16.4485 Y4.9467 
G01 X-16.2792 Y4.8237 
G01 X-16.1313 Y4.6758 
G01 X-16.0083 Y4.5065 
G01 X-15.9134 Y4.3202 
G01 X-15.8750 Y4.2021 
G01 X-15.8366 Y4.3202 
G01 X-15.7417 Y4.5065 
G01 X-15.6187 Y4.6758 
G01 X-15.4708 Y4.8237 
G01 X-15.3015 Y4.9467 
G01 X-15.1152 Y5.0416 
G01 X-14.9162 Y5.1063 
G01 X-14.7096 Y5.1390 
G01 X-14.5004 Y5.1390 
G01 X-14.2938 Y5.1063 
G01 X-14.0948 Y5.0416 
G01 X-13.9085 Y4.9467 
G01 X-13.7392 Y4.8237 
G01 X-13.5913 Y4.6758 
G01 X-13.4683 Y4.5065 
G01 X-13.3734 Y4.3202 
G01 X-13.3087 Y4.1212 
G01 X-13.2760 Y3.9146 
G01 X-13.2760 Y3.7054 
G01 X-13.3087 Y3.4988 
G01 X-13.3734 Y3.2998 
G01 X-13.4683 Y3.1135 
G01 X-13.5913 Y2.9442 
G01 X-13.7392 Y2.7963 
G01 X-13.9085 Y2.6733 
G01 X-14.0948 Y2.5784 
G01 X-14.2938 Y2.5137 
G01 X-14.5004 Y2.4810 
G01 X-14.7096 Y2.4810 
G01 X-14.9162 Y2.5137 
G01 X-15.1152 Y2.5784 
G01 X-15.3015 Y2.6733 
G01 X-15.4708 Y2.7963 
G01 X-15.6187 Y2.9442 
