(.../Documents/EAGLE/ulps/pcb-gcode.ulp)
(Copyright 2005 - 2012 by John Johnson)
(See readme.txt for licensing terms.)
(This file generated from the board:)
(.../Teensy_Stromzaehler/Teensy_Stromzaehler.brd)
(Current profile is .../EAGLE/ulps/profiles/generic.pp  )
(This file generated 17.11.20 18:51)
(Settings from pcb-machine.h)
(  Tool Size)
(0.1500 )
(Z Axis Settings)
(  High     Up        Down     Drill)
(20.4000 	2.0000 	-0.1500 	-1.9000 )
(spindle on time = 3.0000)
(milling depth = -1.3000)
(text depth = -0.1000)
(tool change at 0.0000 0.0000 20.4000 )
(feed rate xy = F208.00 )
(feed rate z  = F100.00 )
(Settings from pcb-defaults.h)
(isolate min = 0.1000)
(isolate max = 0.5000)
(isolate step = 0.1000)
(Generated bottom outlines, bottom drill, )
(Unit of measure: mm)
( Tool|       Size       |  Min Sub |  Max Sub |   Count )
( T01  0.350mm 0.0138in 0.0000in 0.0000in )
( T02  0.650mm 0.0256in 0.0000in 0.0000in )
( T03  0.813mm 0.0320in 0.0000in 0.0000in )
( T04  1.000mm 0.0394in 0.0000in 0.0000in )
( T05  1.016mm 0.0400in 0.0000in 0.0000in )
( T06  1.200mm 0.0472in 0.0000in 0.0000in )
( T07  1.616mm 0.0636in 0.0000in 0.0000in )
( T08  3.100mm 0.1220in 0.0000in 0.0000in )
(Metric Mode)
G21
(Absolute Coordinates)
G90
M05
G00 Z20.4000 
G00 X0.0000 Y0.0000 
M06 T01  ; 0.3500 
G00 Z2.0000 
M03
G04 P3.000000
G00 Z2.000000
G00 X-87.6300 Y67.3100 
G01 Z-1.9000 F100.00 
G01 Z2.000000
(R2.0000  P2.000000)
(G00 Z2.000000)
G00 X-87.6300 Y2.5400 
G01 Z-1.900000
G01 Z2.000000
(G00 Z2.000000)
G00 X-2.5400 Y67.3100 
G01 Z-1.900000
G01 Z2.000000
(G00 Z2.000000)
G00 X-2.5400 Y2.5400 
G01 Z-1.900000
G01 Z2.000000
M05
G00 Z20.4000 
M06 T02  ; 0.6500 
G00 Z2.0000 
M03
G04 P3.000000
G00 Z2.000000
G00 X-76.2000 Y25.4000 
G01 Z-1.9000 F100.00 
G01 Z2.000000
(R2.0000  P2.000000)
(G00 Z2.000000)
G00 X-77.4700 Y30.4800 
G01 Z-1.900000
G01 Z2.000000
(G00 Z2.000000)
G00 X-78.7400 Y22.8600 
G01 Z-1.900000
G01 Z2.000000
(G00 Z2.000000)
G00 X-80.0100 Y27.9400 
G01 Z-1.900000
G01 Z2.000000
(G00 Z2.000000)
G00 X-19.0500 Y38.1000 
G01 Z-1.900000
G01 Z2.000000
(G00 Z2.000000)
G00 X-19.0500 Y43.1800 
G01 Z-1.900000
G01 Z2.000000
(G00 Z2.000000)
G00 X-19.0500 Y45.7200 
G01 Z-1.900000
G01 Z2.000000
(G00 Z2.000000)
G00 X-20.3200 Y35.5600 
G01 Z-1.900000
G01 Z2.000000
(G00 Z2.000000)
G00 X-21.5900 Y45.7200 
G01 Z-1.900000
G01 Z2.000000
(G00 Z2.000000)
G00 X-22.8600 Y40.6400 
G01 Z-1.900000
G01 Z2.000000
M05
G00 Z20.4000 
M06 T03  ; 0.8128 
G00 Z2.0000 
M03
G04 P3.000000
G00 Z2.000000
G00 X-38.1000 Y22.8600 
G01 Z-1.9000 F100.00 
G01 Z2.000000
(R2.0000  P2.000000)
(G00 Z2.000000)
G00 X-38.1000 Y25.4000 
G01 Z-1.900000
G01 Z2.000000
(G00 Z2.000000)
G00 X-38.1000 Y27.9400 
G01 Z-1.900000
G01 Z2.000000
(G00 Z2.000000)
G00 X-38.1000 Y30.4800 
G01 Z-1.900000
G01 Z2.000000
(G00 Z2.000000)
G00 X-60.9600 Y38.1000 
G01 Z-1.900000
G01 Z2.000000
(G00 Z2.000000)
G00 X-60.9600 Y40.6400 
G01 Z-1.900000
G01 Z2.000000
(G00 Z2.000000)
G00 X-60.9600 Y43.1800 
G01 Z-1.900000
G01 Z2.000000
(G00 Z2.000000)
G00 X-60.9600 Y45.7200 
G01 Z-1.900000
G01 Z2.000000
(G00 Z2.000000)
G00 X-80.0100 Y38.1000 
G01 Z-1.900000
G01 Z2.000000
(G00 Z2.000000)
G00 X-80.0100 Y40.6400 
G01 Z-1.900000
G01 Z2.000000
(G00 Z2.000000)
G00 X-80.0100 Y43.1800 
G01 Z-1.900000
G01 Z2.000000
(G00 Z2.000000)
G00 X-80.0100 Y45.7200 
G01 Z-1.900000
G01 Z2.000000
(G00 Z2.000000)
G00 X-10.1600 Y22.8600 
G01 Z-1.900000
G01 Z2.000000
(G00 Z2.000000)
G00 X-10.1600 Y25.4000 
G01 Z-1.900000
G01 Z2.000000
(G00 Z2.000000)
G00 X-10.1600 Y27.9400 
G01 Z-1.900000
G01 Z2.000000
(G00 Z2.000000)
G00 X-10.1600 Y30.4800 
G01 Z-1.900000
G01 Z2.000000
M05
G00 Z20.4000 
M06 T04  ; 1.0000 
G00 Z2.0000 
M03
G04 P3.000000
G00 Z2.000000
G00 X-33.0200 Y33.0200 
G01 Z-1.9000 F100.00 
G01 Z2.000000
(R2.0000  P2.000000)
(G00 Z2.000000)
G00 X-33.0200 Y35.5600 
G01 Z-1.900000
G01 Z2.000000
(G00 Z2.000000)
G00 X-33.0200 Y38.1000 
G01 Z-1.900000
G01 Z2.000000
(G00 Z2.000000)
G00 X-33.0200 Y40.6400 
G01 Z-1.900000
G01 Z2.000000
(G00 Z2.000000)
G00 X-33.0200 Y43.1800 
G01 Z-1.900000
G01 Z2.000000
(G00 Z2.000000)
G00 X-33.0200 Y45.7200 
G01 Z-1.900000
G01 Z2.000000
(G00 Z2.000000)
G00 X-33.0200 Y22.8600 
G01 Z-1.900000
G01 Z2.000000
(G00 Z2.000000)
G00 X-33.0200 Y25.4000 
G01 Z-1.900000
G01 Z2.000000
(G00 Z2.000000)
G00 X-33.0200 Y27.9400 
G01 Z-1.900000
G01 Z2.000000
(G00 Z2.000000)
G00 X-33.0200 Y30.4800 
G01 Z-1.900000
G01 Z2.000000
(G00 Z2.000000)
G00 X-64.7700 Y33.0200 
G01 Z-1.900000
G01 Z2.000000
(G00 Z2.000000)
G00 X-64.7700 Y35.5600 
G01 Z-1.900000
G01 Z2.000000
(G00 Z2.000000)
G00 X-64.7700 Y38.1000 
G01 Z-1.900000
G01 Z2.000000
(G00 Z2.000000)
G00 X-64.7700 Y40.6400 
G01 Z-1.900000
G01 Z2.000000
(G00 Z2.000000)
G00 X-64.7700 Y43.1800 
G01 Z-1.900000
G01 Z2.000000
(G00 Z2.000000)
G00 X-64.7700 Y45.7200 
G01 Z-1.900000
G01 Z2.000000
(G00 Z2.000000)
G00 X-64.7700 Y22.8600 
G01 Z-1.900000
G01 Z2.000000
(G00 Z2.000000)
G00 X-64.7700 Y25.4000 
G01 Z-1.900000
G01 Z2.000000
(G00 Z2.000000)
G00 X-64.7700 Y27.9400 
G01 Z-1.900000
G01 Z2.000000
(G00 Z2.000000)
G00 X-64.7700 Y30.4800 
G01 Z-1.900000
G01 Z2.000000
(G00 Z2.000000)
G00 X-83.8200 Y33.0200 
G01 Z-1.900000
G01 Z2.000000
(G00 Z2.000000)
G00 X-83.8200 Y35.5600 
G01 Z-1.900000
G01 Z2.000000
(G00 Z2.000000)
G00 X-83.8200 Y38.1000 
G01 Z-1.900000
G01 Z2.000000
(G00 Z2.000000)
G00 X-83.8200 Y40.6400 
G01 Z-1.900000
G01 Z2.000000
(G00 Z2.000000)
G00 X-83.8200 Y43.1800 
G01 Z-1.900000
G01 Z2.000000
(G00 Z2.000000)
G00 X-83.8200 Y45.7200 
G01 Z-1.900000
G01 Z2.000000
(G00 Z2.000000)
G00 X-83.8200 Y22.8600 
G01 Z-1.900000
G01 Z2.000000
(G00 Z2.000000)
G00 X-83.8200 Y25.4000 
G01 Z-1.900000
G01 Z2.000000
(G00 Z2.000000)
G00 X-83.8200 Y27.9400 
G01 Z-1.900000
G01 Z2.000000
(G00 Z2.000000)
G00 X-83.8200 Y30.4800 
G01 Z-1.900000
G01 Z2.000000
(G00 Z2.000000)
G00 X-13.9700 Y33.0200 
G01 Z-1.900000
G01 Z2.000000
(G00 Z2.000000)
G00 X-13.9700 Y35.5600 
G01 Z-1.900000
G01 Z2.000000
(G00 Z2.000000)
G00 X-13.9700 Y38.1000 
G01 Z-1.900000
G01 Z2.000000
(G00 Z2.000000)
G00 X-13.9700 Y40.6400 
G01 Z-1.900000
G01 Z2.000000
(G00 Z2.000000)
G00 X-13.9700 Y43.1800 
G01 Z-1.900000
G01 Z2.000000
(G00 Z2.000000)
G00 X-13.9700 Y45.7200 
G01 Z-1.900000
G01 Z2.000000
(G00 Z2.000000)
G00 X-13.9700 Y22.8600 
G01 Z-1.900000
G01 Z2.000000
(G00 Z2.000000)
G00 X-13.9700 Y25.4000 
G01 Z-1.900000
G01 Z2.000000
(G00 Z2.000000)
G00 X-13.9700 Y27.9400 
G01 Z-1.900000
G01 Z2.000000
(G00 Z2.000000)
G00 X-13.9700 Y30.4800 
G01 Z-1.900000
G01 Z2.000000
M05
G00 Z20.4000 
M06 T05  ; 1.0160 
G00 Z2.0000 
M03
G04 P3.000000
G00 Z2.000000
G00 X-3.8100 Y33.0200 
G01 Z-1.9000 F100.00 
G01 Z2.000000
(R2.0000  P2.000000)
(G00 Z2.000000)
G00 X-3.8100 Y35.5600 
G01 Z-1.900000
G01 Z2.000000
(G00 Z2.000000)
G00 X-3.8100 Y38.1000 
G01 Z-1.900000
G01 Z2.000000
(G00 Z2.000000)
G00 X-3.8100 Y40.6400 
G01 Z-1.900000
G01 Z2.000000
(G00 Z2.000000)
G00 X-3.8100 Y43.1800 
G01 Z-1.900000
G01 Z2.000000
(G00 Z2.000000)
G00 X-3.8100 Y45.7200 
G01 Z-1.900000
G01 Z2.000000
M05
G00 Z20.4000 
M06 T06  ; 1.2000 
G00 Z2.0000 
M03
G04 P3.000000
G00 Z2.000000
G00 X-31.8300 Y4.9500 
G01 Z-1.9000 F100.00 
G01 Z2.000000
(R2.0000  P2.000000)
(G00 Z2.000000)
G00 X-31.8300 Y2.4500 
G01 Z-1.900000
G01 Z2.000000
(G00 Z2.000000)
G00 X-35.5600 Y58.6300 
G01 Z-1.900000
G01 Z2.000000
(G00 Z2.000000)
G00 X-36.8300 Y9.9500 
G01 Z-1.900000
G01 Z2.000000
(G00 Z2.000000)
G00 X-40.5600 Y63.6300 
G01 Z-1.900000
G01 Z2.000000
(G00 Z2.000000)
G00 X-40.5600 Y66.1300 
G01 Z-1.900000
G01 Z2.000000
(G00 Z2.000000)
G00 X-41.8300 Y4.9500 
G01 Z-1.900000
G01 Z2.000000
(G00 Z2.000000)
G00 X-41.8300 Y2.4500 
G01 Z-1.900000
G01 Z2.000000
(G00 Z2.000000)
G00 X-48.3400 Y63.6300 
G01 Z-1.900000
G01 Z2.000000
(G00 Z2.000000)
G00 X-48.3400 Y66.1300 
G01 Z-1.900000
G01 Z2.000000
(G00 Z2.000000)
G00 X-49.6100 Y4.9500 
G01 Z-1.900000
G01 Z2.000000
(G00 Z2.000000)
G00 X-49.6100 Y2.4500 
G01 Z-1.900000
G01 Z2.000000
(G00 Z2.000000)
G00 X-53.3400 Y58.6300 
G01 Z-1.900000
G01 Z2.000000
(G00 Z2.000000)
G00 X-54.6100 Y9.9500 
G01 Z-1.900000
G01 Z2.000000
(G00 Z2.000000)
G00 X-58.3400 Y63.6300 
G01 Z-1.900000
G01 Z2.000000
(G00 Z2.000000)
G00 X-58.3400 Y66.1300 
G01 Z-1.900000
G01 Z2.000000
(G00 Z2.000000)
G00 X-59.6100 Y4.9500 
G01 Z-1.900000
G01 Z2.000000
(G00 Z2.000000)
G00 X-59.6100 Y2.4500 
G01 Z-1.900000
G01 Z2.000000
(G00 Z2.000000)
G00 X-66.1200 Y63.6300 
G01 Z-1.900000
G01 Z2.000000
(G00 Z2.000000)
G00 X-66.1200 Y66.1300 
G01 Z-1.900000
G01 Z2.000000
(G00 Z2.000000)
G00 X-67.3900 Y4.9500 
G01 Z-1.900000
G01 Z2.000000
(G00 Z2.000000)
G00 X-67.3900 Y2.4500 
G01 Z-1.900000
G01 Z2.000000
(G00 Z2.000000)
G00 X-71.1200 Y58.6300 
G01 Z-1.900000
G01 Z2.000000
(G00 Z2.000000)
G00 X-72.3900 Y9.9500 
G01 Z-1.900000
G01 Z2.000000
(G00 Z2.000000)
G00 X-76.1200 Y63.6300 
G01 Z-1.900000
G01 Z2.000000
(G00 Z2.000000)
G00 X-76.1200 Y66.1300 
G01 Z-1.900000
G01 Z2.000000
(G00 Z2.000000)
G00 X-77.3900 Y4.9500 
G01 Z-1.900000
G01 Z2.000000
(G00 Z2.000000)
G00 X-77.3900 Y2.4500 
G01 Z-1.900000
G01 Z2.000000
(G00 Z2.000000)
G00 X-12.7800 Y63.6300 
G01 Z-1.900000
G01 Z2.000000
(G00 Z2.000000)
G00 X-12.7800 Y66.1300 
G01 Z-1.900000
G01 Z2.000000
(G00 Z2.000000)
G00 X-14.0500 Y4.9500 
G01 Z-1.900000
G01 Z2.000000
(G00 Z2.000000)
G00 X-14.0500 Y2.4500 
G01 Z-1.900000
G01 Z2.000000
(G00 Z2.000000)
G00 X-17.7800 Y58.6300 
G01 Z-1.900000
G01 Z2.000000
(G00 Z2.000000)
G00 X-19.0500 Y9.9500 
G01 Z-1.900000
G01 Z2.000000
(G00 Z2.000000)
G00 X-22.7800 Y63.6300 
G01 Z-1.900000
G01 Z2.000000
(G00 Z2.000000)
G00 X-22.7800 Y66.1300 
G01 Z-1.900000
G01 Z2.000000
(G00 Z2.000000)
G00 X-24.0500 Y4.9500 
G01 Z-1.900000
G01 Z2.000000
(G00 Z2.000000)
G00 X-24.0500 Y2.4500 
G01 Z-1.900000
G01 Z2.000000
(G00 Z2.000000)
G00 X-30.5600 Y63.6300 
G01 Z-1.900000
G01 Z2.000000
(G00 Z2.000000)
G00 X-30.5600 Y66.1300 
G01 Z-1.900000
G01 Z2.000000
M05
G00 Z20.4000 
M06 T07  ; 1.6155 
G00 Z2.0000 
M03
G04 P3.000000
G00 Z2.000000
G00 X-31.8300 Y9.9500 
G01 Z-1.9000 F100.00 
G01 Z2.000000
(R2.0000  P2.000000)
(G00 Z2.000000)
G00 X-33.0600 Y58.6300 
G01 Z-1.900000
G01 Z2.000000
(G00 Z2.000000)
G00 X-34.3300 Y9.9500 
G01 Z-1.900000
G01 Z2.000000
(G00 Z2.000000)
G00 X-35.5600 Y63.6300 
G01 Z-1.900000
G01 Z2.000000
(G00 Z2.000000)
G00 X-36.8300 Y4.9500 
G01 Z-1.900000
G01 Z2.000000
(G00 Z2.000000)
G00 X-38.0600 Y58.6300 
G01 Z-1.900000
G01 Z2.000000
(G00 Z2.000000)
G00 X-39.3300 Y9.9500 
G01 Z-1.900000
G01 Z2.000000
(G00 Z2.000000)
G00 X-40.5600 Y58.6300 
G01 Z-1.900000
G01 Z2.000000
(G00 Z2.000000)
G00 X-41.8300 Y9.9500 
G01 Z-1.900000
G01 Z2.000000
(G00 Z2.000000)
G00 X-48.3400 Y58.6300 
G01 Z-1.900000
G01 Z2.000000
(G00 Z2.000000)
G00 X-49.6100 Y9.9500 
G01 Z-1.900000
G01 Z2.000000
(G00 Z2.000000)
G00 X-50.8400 Y58.6300 
G01 Z-1.900000
G01 Z2.000000
(G00 Z2.000000)
G00 X-52.1100 Y9.9500 
G01 Z-1.900000
G01 Z2.000000
(G00 Z2.000000)
G00 X-53.3400 Y63.6300 
G01 Z-1.900000
G01 Z2.000000
(G00 Z2.000000)
G00 X-54.6100 Y4.9500 
G01 Z-1.900000
G01 Z2.000000
(G00 Z2.000000)
G00 X-55.8400 Y58.6300 
G01 Z-1.900000
G01 Z2.000000
(G00 Z2.000000)
G00 X-57.1100 Y9.9500 
G01 Z-1.900000
G01 Z2.000000
(G00 Z2.000000)
G00 X-58.3400 Y58.6300 
G01 Z-1.900000
G01 Z2.000000
(G00 Z2.000000)
G00 X-59.6100 Y9.9500 
G01 Z-1.900000
G01 Z2.000000
(G00 Z2.000000)
G00 X-66.1200 Y58.6300 
G01 Z-1.900000
G01 Z2.000000
(G00 Z2.000000)
G00 X-67.3900 Y9.9500 
G01 Z-1.900000
G01 Z2.000000
(G00 Z2.000000)
G00 X-68.6200 Y58.6300 
G01 Z-1.900000
G01 Z2.000000
(G00 Z2.000000)
G00 X-69.8900 Y9.9500 
G01 Z-1.900000
G01 Z2.000000
(G00 Z2.000000)
G00 X-71.1200 Y63.6300 
G01 Z-1.900000
G01 Z2.000000
(G00 Z2.000000)
G00 X-72.3900 Y4.9500 
G01 Z-1.900000
G01 Z2.000000
(G00 Z2.000000)
G00 X-73.6200 Y58.6300 
G01 Z-1.900000
G01 Z2.000000
(G00 Z2.000000)
G00 X-74.8900 Y9.9500 
G01 Z-1.900000
G01 Z2.000000
(G00 Z2.000000)
G00 X-76.1200 Y58.6300 
G01 Z-1.900000
G01 Z2.000000
(G00 Z2.000000)
G00 X-77.3900 Y9.9500 
G01 Z-1.900000
G01 Z2.000000
(G00 Z2.000000)
G00 X-12.7800 Y58.6300 
G01 Z-1.900000
G01 Z2.000000
(G00 Z2.000000)
G00 X-14.0500 Y9.9500 
G01 Z-1.900000
G01 Z2.000000
(G00 Z2.000000)
G00 X-15.2800 Y58.6300 
G01 Z-1.900000
G01 Z2.000000
(G00 Z2.000000)
G00 X-16.5500 Y9.9500 
G01 Z-1.900000
G01 Z2.000000
(G00 Z2.000000)
G00 X-17.7800 Y63.6300 
G01 Z-1.900000
G01 Z2.000000
(G00 Z2.000000)
G00 X-19.0500 Y4.9500 
G01 Z-1.900000
G01 Z2.000000
(G00 Z2.000000)
G00 X-20.2800 Y58.6300 
G01 Z-1.900000
G01 Z2.000000
(G00 Z2.000000)
G00 X-21.5500 Y9.9500 
G01 Z-1.900000
G01 Z2.000000
(G00 Z2.000000)
G00 X-22.7800 Y58.6300 
G01 Z-1.900000
G01 Z2.000000
(G00 Z2.000000)
G00 X-24.0500 Y9.9500 
G01 Z-1.900000
G01 Z2.000000
(G00 Z2.000000)
G00 X-30.5600 Y58.6300 
G01 Z-1.900000
G01 Z2.000000
M05
G00 Z20.4000 
M06 T08  ; 3.1000 
G00 Z2.0000 
M03
G04 P3.000000
G00 Z2.000000
G00 X-45.9740 Y45.7200 
G01 Z-1.9000 F100.00 
G01 Z2.000000
(R2.0000  P2.000000)
(G00 Z2.000000)
G00 X-45.9740 Y22.8600 
G01 Z-1.900000
G01 Z2.000000
(G00 Z2.000000)
G00 X-51.8160 Y45.7200 
G01 Z-1.900000
G01 Z2.000000
(G00 Z2.000000)
G00 X-51.8160 Y22.8600 
G01 Z-1.900000
G01 Z2.000000
(G00 Z2.000000)
G00 X-70.8660 Y45.7200 
G01 Z-1.900000
G01 Z2.000000
(G00 Z2.000000)
G00 X-70.8660 Y22.8600 
G01 Z-1.900000
G01 Z2.000000
(G00 Z2.000000)
G00 X-26.9240 Y45.7200 
G01 Z-1.900000
G01 Z2.000000
(G00 Z2.000000)
G00 X-26.9240 Y22.8600 
G01 Z-1.900000
G01 Z2.000000
T01 
G00 Z20.4000 
M05
M02
