(.../Documents/EAGLE/ulps/pcb-gcode.ulp)
(Copyright 2005 - 2012 by John Johnson)
(See readme.txt for licensing terms.)
(This file generated from the board:)
(.../Teensy_Stromzaehler/Teensy_Stromzaehler.brd)
(Current profile is .../EAGLE/ulps/profiles/generic.pp  )
(This file generated 17.11.20 18:51)
(Settings from pcb-machine.h)
(  Tool Size)
(0.1500 )
(Z Axis Settings)
(  High     Up        Down     Drill)
(20.4000 	2.0000 	-0.1500 	-1.9000 )
(spindle on time = 3.0000)
(milling depth = -1.3000)
(text depth = -0.1000)
(tool change at 0.0000 0.0000 20.4000 )
(feed rate xy = F208.00 )
(feed rate z  = F100.00 )
(Settings from pcb-defaults.h)
(isolate min = 0.1000)
(isolate max = 0.5000)
(isolate step = 0.1000)
(Generated bottom outlines, bottom drill, )
(Unit of measure: mm)
(Metric Mode)
G21
(Absolute Coordinates)
G90
G00 X0.0000 Y0.0000 
M03
G04 P3.000000
G00 Z2.0000 
G00 X-74.2470 Y50.1170 
G01 Z-0.1500 F100.00 
G01 X-74.2470 Y38.0327 F208.00 
G01 X-74.2732 Y37.9008 
G01 X-74.3247 Y37.7765 
G01 X-74.3995 Y37.6646 
G01 X-74.4946 Y37.5695 
G01 X-74.6065 Y37.4947 
G01 X-74.7308 Y37.4432 
G01 X-74.8627 Y37.4170 
G01 X-79.5116 Y37.4170 
G01 X-79.6640 Y37.2646 
G01 X-80.3560 Y37.2646 
G01 X-80.5084 Y37.4170 
G01 X-83.1892 Y37.4170 
G01 X-83.2278 Y37.3784 
G01 X-83.3800 Y37.2767 
G01 X-83.5490 Y37.2067 
G01 X-83.7285 Y37.1710 
G01 X-83.9115 Y37.1710 
G01 X-84.0910 Y37.2067 
G01 X-84.2600 Y37.2767 
G01 X-84.4122 Y37.3784 
G01 X-84.5416 Y37.5078 
G01 X-84.6433 Y37.6600 
G01 X-84.7133 Y37.8290 
G01 X-84.7490 Y38.0085 
G01 X-84.7490 Y38.1915 
G01 X-84.7133 Y38.3710 
G01 X-84.6433 Y38.5400 
G01 X-84.5416 Y38.6922 
G01 X-84.4122 Y38.8216 
G01 X-84.2600 Y38.9233 
G01 X-84.0910 Y38.9933 
G01 X-83.9115 Y39.0290 
G01 X-83.7285 Y39.0290 
G01 X-83.5490 Y38.9933 
G01 X-83.3800 Y38.9233 
G01 X-83.2278 Y38.8216 
G01 X-83.1892 Y38.7830 
G01 X-80.5084 Y38.7830 
G01 X-80.3560 Y38.9354 
G01 X-79.6640 Y38.9354 
G01 X-79.5116 Y38.7830 
G01 X-75.6130 Y38.7830 
G01 X-75.6130 Y50.8673 
G01 X-75.5868 Y50.9992 
G01 X-75.5353 Y51.1235 
G01 X-75.4605 Y51.2354 
G01 X-75.3654 Y51.3305 
G01 X-75.2535 Y51.4053 
G01 X-75.1292 Y51.4567 
G01 X-74.9973 Y51.4830 
G01 X-62.5129 Y51.4830 
G01 X-57.5854 Y56.4105 
G01 X-57.4735 Y56.4853 
G01 X-57.3492 Y56.5368 
G01 X-57.2173 Y56.5630 
G01 X-50.0888 Y56.5630 
G01 X-50.0605 Y56.6054 
G01 X-49.9654 Y56.7005 
G01 X-49.1566 Y57.5093 
G01 X-49.2433 Y57.5723 
G01 X-49.3977 Y57.7267 
G01 X-49.5259 Y57.9032 
G01 X-49.5900 Y58.0290 
G01 X-49.6541 Y57.9032 
G01 X-49.7823 Y57.7267 
G01 X-49.9367 Y57.5723 
G01 X-50.1133 Y57.4441 
G01 X-50.3077 Y57.3450 
G01 X-50.5153 Y57.2775 
G01 X-50.7309 Y57.2434 
G01 X-50.9491 Y57.2434 
G01 X-51.1647 Y57.2775 
G01 X-51.3723 Y57.3450 
G01 X-51.5667 Y57.4441 
G01 X-51.7433 Y57.5723 
G01 X-51.8977 Y57.7267 
G01 X-52.0259 Y57.9032 
G01 X-52.1250 Y58.0977 
G01 X-52.1925 Y58.3053 
G01 X-52.2266 Y58.5209 
G01 X-52.2266 Y58.7391 
G01 X-52.1925 Y58.9547 
G01 X-52.1250 Y59.1623 
G01 X-52.0259 Y59.3567 
G01 X-51.8977 Y59.5333 
G01 X-51.7433 Y59.6877 
G01 X-51.5667 Y59.8159 
G01 X-51.3723 Y59.9150 
G01 X-51.1647 Y59.9825 
G01 X-50.9491 Y60.0166 
G01 X-50.7309 Y60.0166 
G01 X-50.5153 Y59.9825 
G01 X-50.3077 Y59.9150 
G01 X-50.1133 Y59.8159 
G01 X-49.9367 Y59.6877 
G01 X-49.7823 Y59.5333 
G01 X-49.6541 Y59.3567 
G01 X-49.5900 Y59.2310 
G01 X-49.5259 Y59.3567 
G01 X-49.3977 Y59.5333 
G01 X-49.2433 Y59.6877 
G01 X-49.0667 Y59.8159 
G01 X-48.8723 Y59.9150 
G01 X-48.6647 Y59.9825 
G01 X-48.4491 Y60.0166 
G01 X-48.2309 Y60.0166 
G01 X-48.0153 Y59.9825 
G01 X-47.8077 Y59.9150 
G01 X-47.6133 Y59.8159 
G01 X-47.4367 Y59.6877 
G01 X-47.2823 Y59.5333 
G01 X-47.1541 Y59.3567 
G01 X-47.0550 Y59.1623 
G01 X-46.9875 Y58.9547 
G01 X-46.9534 Y58.7391 
G01 X-46.9534 Y58.5209 
G01 X-46.9875 Y58.3053 
G01 X-47.0550 Y58.0977 
G01 X-47.1541 Y57.9032 
G01 X-47.2823 Y57.7267 
G01 X-47.4367 Y57.5723 
G01 X-47.6133 Y57.4441 
G01 X-47.6570 Y57.4218 
G01 X-47.6570 Y57.2927 
G01 X-47.6832 Y57.1608 
G01 X-47.7347 Y57.0365 
G01 X-47.8095 Y56.9246 
G01 X-48.8470 Y55.8871 
G01 X-48.8470 Y55.8127 
G01 X-48.8732 Y55.6808 
G01 X-48.9247 Y55.5565 
G01 X-48.9995 Y55.4446 
G01 X-49.0946 Y55.3495 
G01 X-49.2065 Y55.2747 
G01 X-49.3308 Y55.2232 
G01 X-49.4627 Y55.1970 
G01 X-56.8671 Y55.1970 
G01 X-61.7946 Y50.2695 
G01 X-61.9065 Y50.1947 
G01 X-62.0308 Y50.1432 
G01 X-62.1627 Y50.1170 
G01 X-62.2973 Y50.1170 
G01 X-74.2470 Y50.1170 
G00 Z2.0000 
G00 X-74.8059 Y59.3567 
G01 Z-0.1500 F100.00 
G01 X-74.6777 Y59.5333 F208.00 
G01 X-74.5233 Y59.6877 
G01 X-74.3467 Y59.8159 
G01 X-74.1523 Y59.9150 
G01 X-73.9447 Y59.9825 
G01 X-73.7291 Y60.0166 
G01 X-73.5109 Y60.0166 
G01 X-73.2953 Y59.9825 
G01 X-73.0877 Y59.9150 
G01 X-72.8933 Y59.8159 
G01 X-72.7167 Y59.6877 
G01 X-72.5623 Y59.5333 
G01 X-72.4340 Y59.3567 
G01 X-72.3350 Y59.1623 
G01 X-72.2675 Y58.9547 
G01 X-72.2334 Y58.7391 
G01 X-72.2334 Y58.5209 
G01 X-72.2675 Y58.3053 
G01 X-72.3350 Y58.0977 
G01 X-72.4340 Y57.9032 
G01 X-72.5623 Y57.7267 
G01 X-72.7167 Y57.5723 
G01 X-72.8933 Y57.4441 
G01 X-73.0877 Y57.3450 
G01 X-73.2953 Y57.2775 
G01 X-73.5109 Y57.2434 
G01 X-73.7291 Y57.2434 
G01 X-73.9447 Y57.2775 
G01 X-74.1523 Y57.3450 
G01 X-74.3467 Y57.4441 
G01 X-74.5233 Y57.5723 
G01 X-74.6777 Y57.7267 
G01 X-74.8059 Y57.9032 
G01 X-74.8700 Y58.0290 
G01 X-74.9340 Y57.9032 
G01 X-75.0623 Y57.7267 
G01 X-75.2167 Y57.5723 
G01 X-75.3933 Y57.4441 
G01 X-75.5877 Y57.3450 
G01 X-75.7953 Y57.2775 
G01 X-76.0109 Y57.2434 
G01 X-76.2291 Y57.2434 
G01 X-76.4447 Y57.2775 
G01 X-76.6523 Y57.3450 
G01 X-76.8467 Y57.4441 
G01 X-77.0233 Y57.5723 
G01 X-77.1777 Y57.7267 
G01 X-77.3059 Y57.9032 
G01 X-77.4050 Y58.0977 
G01 X-77.4725 Y58.3053 
G01 X-77.5066 Y58.5209 
G01 X-77.5066 Y58.7391 
G01 X-77.4725 Y58.9547 
G01 X-77.4050 Y59.1623 
G01 X-77.3059 Y59.3567 
G01 X-77.1777 Y59.5333 
G01 X-77.0233 Y59.6877 
G01 X-76.8467 Y59.8159 
G01 X-76.6523 Y59.9150 
G01 X-76.4447 Y59.9825 
G01 X-76.2291 Y60.0166 
G01 X-76.0109 Y60.0166 
G01 X-75.7953 Y59.9825 
G01 X-75.5877 Y59.9150 
G01 X-75.3933 Y59.8159 
G01 X-75.2167 Y59.6877 
G01 X-75.0623 Y59.5333 
G01 X-74.9340 Y59.3567 
G01 X-74.8700 Y59.2310 
G01 X-74.8059 Y59.3567 
G00 Z2.0000 
G00 X-39.2459 Y59.3567 
G01 Z-0.1500 F100.00 
G01 X-39.1177 Y59.5333 F208.00 
G01 X-38.9633 Y59.6877 
G01 X-38.7867 Y59.8159 
G01 X-38.5923 Y59.9150 
G01 X-38.3847 Y59.9825 
G01 X-38.1691 Y60.0166 
G01 X-37.9509 Y60.0166 
G01 X-37.7353 Y59.9825 
G01 X-37.5277 Y59.9150 
G01 X-37.3332 Y59.8159 
G01 X-37.1567 Y59.6877 
G01 X-37.0023 Y59.5333 
G01 X-36.8741 Y59.3567 
G01 X-36.7750 Y59.1623 
G01 X-36.7075 Y58.9547 
G01 X-36.6734 Y58.7391 
G01 X-36.6734 Y58.5209 
G01 X-36.7075 Y58.3053 
G01 X-36.7750 Y58.0977 
G01 X-36.8741 Y57.9032 
G01 X-37.0023 Y57.7267 
G01 X-37.1567 Y57.5723 
G01 X-37.3332 Y57.4441 
G01 X-37.5277 Y57.3450 
G01 X-37.7353 Y57.2775 
G01 X-37.9509 Y57.2434 
G01 X-38.1691 Y57.2434 
G01 X-38.3847 Y57.2775 
G01 X-38.5923 Y57.3450 
G01 X-38.7867 Y57.4441 
G01 X-38.9633 Y57.5723 
G01 X-39.1177 Y57.7267 
G01 X-39.2459 Y57.9032 
G01 X-39.3100 Y58.0290 
G01 X-39.3741 Y57.9032 
G01 X-39.5023 Y57.7267 
G01 X-39.6567 Y57.5723 
G01 X-39.8332 Y57.4441 
G01 X-40.0277 Y57.3450 
G01 X-40.2353 Y57.2775 
G01 X-40.4509 Y57.2434 
G01 X-40.6691 Y57.2434 
G01 X-40.8847 Y57.2775 
G01 X-41.0923 Y57.3450 
G01 X-41.2867 Y57.4441 
G01 X-41.4633 Y57.5723 
G01 X-41.6177 Y57.7267 
G01 X-41.7459 Y57.9032 
G01 X-41.8450 Y58.0977 
G01 X-41.9125 Y58.3053 
G01 X-41.9466 Y58.5209 
G01 X-41.9466 Y58.7391 
G01 X-41.9125 Y58.9547 
G01 X-41.8450 Y59.1623 
G01 X-41.7459 Y59.3567 
G01 X-41.6177 Y59.5333 
G01 X-41.4633 Y59.6877 
G01 X-41.2867 Y59.8159 
G01 X-41.0923 Y59.9150 
G01 X-40.8847 Y59.9825 
G01 X-40.6691 Y60.0166 
G01 X-40.4509 Y60.0166 
G01 X-40.2353 Y59.9825 
G01 X-40.0277 Y59.9150 
G01 X-39.8332 Y59.8159 
G01 X-39.6567 Y59.6877 
G01 X-39.5023 Y59.5333 
G01 X-39.3741 Y59.3567 
G01 X-39.3100 Y59.2310 
G01 X-39.2459 Y59.3567 
G00 Z2.0000 
G00 X-21.4659 Y59.3567 
G01 Z-0.1500 F100.00 
G01 X-21.3377 Y59.5333 F208.00 
G01 X-21.1833 Y59.6877 
G01 X-21.0067 Y59.8159 
G01 X-20.8123 Y59.9150 
G01 X-20.6047 Y59.9825 
G01 X-20.3891 Y60.0166 
G01 X-20.1709 Y60.0166 
G01 X-19.9553 Y59.9825 
G01 X-19.7477 Y59.9150 
G01 X-19.5533 Y59.8159 
G01 X-19.3767 Y59.6877 
G01 X-19.2223 Y59.5333 
G01 X-19.0940 Y59.3567 
G01 X-18.9950 Y59.1623 
G01 X-18.9275 Y58.9547 
G01 X-18.8934 Y58.7391 
G01 X-18.8934 Y58.5209 
G01 X-18.9275 Y58.3053 
G01 X-18.9950 Y58.0977 
G01 X-19.0940 Y57.9032 
G01 X-19.2223 Y57.7267 
G01 X-19.3767 Y57.5723 
G01 X-19.5533 Y57.4441 
G01 X-19.7477 Y57.3450 
G01 X-19.9553 Y57.2775 
G01 X-20.1709 Y57.2434 
G01 X-20.3891 Y57.2434 
G01 X-20.6047 Y57.2775 
G01 X-20.8123 Y57.3450 
G01 X-21.0067 Y57.4441 
G01 X-21.1833 Y57.5723 
G01 X-21.3377 Y57.7267 
G01 X-21.4659 Y57.9032 
G01 X-21.5300 Y58.0290 
G01 X-21.5940 Y57.9032 
G01 X-21.7223 Y57.7267 
G01 X-21.8767 Y57.5723 
G01 X-22.0533 Y57.4441 
G01 X-22.2477 Y57.3450 
G01 X-22.4553 Y57.2775 
G01 X-22.6709 Y57.2434 
G01 X-22.8891 Y57.2434 
G01 X-23.1047 Y57.2775 
G01 X-23.3123 Y57.3450 
G01 X-23.5067 Y57.4441 
G01 X-23.6833 Y57.5723 
G01 X-23.8377 Y57.7267 
G01 X-23.9659 Y57.9032 
G01 X-24.0650 Y58.0977 
G01 X-24.1325 Y58.3053 
G01 X-24.1666 Y58.5209 
G01 X-24.1666 Y58.7391 
G01 X-24.1325 Y58.9547 
G01 X-24.0650 Y59.1623 
G01 X-23.9659 Y59.3567 
G01 X-23.8377 Y59.5333 
G01 X-23.6833 Y59.6877 
G01 X-23.5067 Y59.8159 
G01 X-23.3123 Y59.9150 
G01 X-23.1047 Y59.9825 
G01 X-22.8891 Y60.0166 
G01 X-22.6709 Y60.0166 
G01 X-22.4553 Y59.9825 
G01 X-22.2477 Y59.9150 
G01 X-22.0533 Y59.8159 
G01 X-21.8767 Y59.6877 
G01 X-21.7223 Y59.5333 
G01 X-21.5940 Y59.3567 
G01 X-21.5300 Y59.2310 
G01 X-21.4659 Y59.3567 
G00 Z2.0000 
G00 X-57.0259 Y59.3567 
G01 Z-0.1500 F100.00 
G01 X-56.8977 Y59.5333 F208.00 
G01 X-56.7433 Y59.6877 
G01 X-56.5667 Y59.8159 
G01 X-56.3723 Y59.9150 
G01 X-56.1647 Y59.9825 
G01 X-55.9491 Y60.0166 
G01 X-55.7309 Y60.0166 
G01 X-55.5153 Y59.9825 
G01 X-55.3077 Y59.9150 
G01 X-55.1133 Y59.8159 
G01 X-54.9367 Y59.6877 
G01 X-54.7823 Y59.5333 
G01 X-54.6541 Y59.3567 
G01 X-54.5550 Y59.1623 
G01 X-54.4875 Y58.9547 
G01 X-54.4534 Y58.7391 
G01 X-54.4534 Y58.5209 
G01 X-54.4875 Y58.3053 
G01 X-54.5550 Y58.0977 
G01 X-54.6541 Y57.9032 
G01 X-54.7823 Y57.7267 
G01 X-54.9367 Y57.5723 
G01 X-55.1133 Y57.4441 
G01 X-55.3077 Y57.3450 
G01 X-55.5153 Y57.2775 
G01 X-55.7309 Y57.2434 
G01 X-55.9491 Y57.2434 
G01 X-56.1647 Y57.2775 
G01 X-56.3723 Y57.3450 
G01 X-56.5667 Y57.4441 
G01 X-56.7433 Y57.5723 
G01 X-56.8977 Y57.7267 
G01 X-57.0259 Y57.9032 
G01 X-57.0900 Y58.0290 
G01 X-57.1541 Y57.9032 
G01 X-57.2823 Y57.7267 
G01 X-57.4367 Y57.5723 
G01 X-57.6133 Y57.4441 
G01 X-57.8077 Y57.3450 
G01 X-58.0153 Y57.2775 
G01 X-58.2309 Y57.2434 
G01 X-58.4491 Y57.2434 
G01 X-58.6647 Y57.2775 
G01 X-58.8723 Y57.3450 
G01 X-59.0667 Y57.4441 
G01 X-59.2433 Y57.5723 
G01 X-59.3977 Y57.7267 
G01 X-59.5259 Y57.9032 
G01 X-59.6250 Y58.0977 
G01 X-59.6925 Y58.3053 
G01 X-59.7266 Y58.5209 
G01 X-59.7266 Y58.7391 
G01 X-59.6925 Y58.9547 
G01 X-59.6250 Y59.1623 
G01 X-59.5259 Y59.3567 
G01 X-59.3977 Y59.5333 
G01 X-59.2433 Y59.6877 
G01 X-59.0667 Y59.8159 
G01 X-58.8723 Y59.9150 
G01 X-58.6647 Y59.9825 
G01 X-58.4491 Y60.0166 
G01 X-58.2309 Y60.0166 
G01 X-58.0153 Y59.9825 
G01 X-57.8077 Y59.9150 
G01 X-57.6133 Y59.8159 
G01 X-57.4367 Y59.6877 
G01 X-57.2823 Y59.5333 
G01 X-57.1541 Y59.3567 
G01 X-57.0900 Y59.2310 
G01 X-57.0259 Y59.3567 
G00 Z2.0000 
G00 X-53.4966 Y9.8409 
G01 Z-0.1500 F100.00 
G01 X-53.4966 Y10.0591 F208.00 
G01 X-53.4625 Y10.2747 
G01 X-53.3950 Y10.4823 
G01 X-53.2959 Y10.6767 
G01 X-53.1677 Y10.8533 
G01 X-53.0133 Y11.0077 
G01 X-52.8367 Y11.1359 
G01 X-52.6423 Y11.2350 
G01 X-52.4347 Y11.3025 
G01 X-52.2191 Y11.3366 
G01 X-52.0009 Y11.3366 
G01 X-51.7853 Y11.3025 
G01 X-51.5777 Y11.2350 
G01 X-51.3833 Y11.1359 
G01 X-51.2067 Y11.0077 
G01 X-51.0523 Y10.8533 
G01 X-50.9241 Y10.6767 
G01 X-50.8600 Y10.5510 
G01 X-50.7959 Y10.6767 
G01 X-50.6677 Y10.8533 
G01 X-50.5133 Y11.0077 
G01 X-50.3367 Y11.1359 
G01 X-50.1423 Y11.2350 
G01 X-49.9347 Y11.3025 
G01 X-49.7191 Y11.3366 
G01 X-49.5009 Y11.3366 
G01 X-49.2853 Y11.3025 
G01 X-49.0777 Y11.2350 
G01 X-48.8833 Y11.1359 
G01 X-48.7067 Y11.0077 
G01 X-48.5523 Y10.8533 
G01 X-48.4241 Y10.6767 
G01 X-48.3250 Y10.4823 
G01 X-48.2575 Y10.2747 
G01 X-48.2234 Y10.0591 
G01 X-48.2234 Y9.8409 
G01 X-48.2575 Y9.6253 
G01 X-48.3250 Y9.4177 
G01 X-48.4241 Y9.2233 
G01 X-48.5523 Y9.0467 
G01 X-48.7067 Y8.8923 
G01 X-48.8833 Y8.7641 
G01 X-49.0777 Y8.6650 
G01 X-49.2853 Y8.5975 
G01 X-49.5009 Y8.5634 
G01 X-49.7191 Y8.5634 
G01 X-49.9347 Y8.5975 
G01 X-50.1423 Y8.6650 
G01 X-50.3367 Y8.7641 
G01 X-50.5133 Y8.8923 
G01 X-50.6677 Y9.0467 
G01 X-50.7959 Y9.2233 
G01 X-50.8600 Y9.3490 
G01 X-50.9241 Y9.2233 
G01 X-51.0523 Y9.0467 
G01 X-51.2067 Y8.8923 
G01 X-51.3833 Y8.7641 
G01 X-51.5777 Y8.6650 
G01 X-51.7853 Y8.5975 
G01 X-52.0009 Y8.5634 
G01 X-52.2191 Y8.5634 
G01 X-52.4347 Y8.5975 
G01 X-52.6423 Y8.6650 
G01 X-52.8367 Y8.7641 
G01 X-53.0133 Y8.8923 
G01 X-53.1677 Y9.0467 
G01 X-53.2959 Y9.2233 
G01 X-53.3950 Y9.4177 
G01 X-53.4625 Y9.6253 
G01 X-53.4966 Y9.8409 
G00 Z2.0000 
G00 X-71.2766 Y9.8409 
G01 Z-0.1500 F100.00 
G01 X-71.2766 Y10.0591 F208.00 
G01 X-71.2425 Y10.2747 
G01 X-71.1750 Y10.4823 
G01 X-71.0759 Y10.6767 
G01 X-70.9477 Y10.8533 
G01 X-70.7933 Y11.0077 
G01 X-70.6167 Y11.1359 
G01 X-70.4223 Y11.2350 
G01 X-70.2147 Y11.3025 
G01 X-69.9991 Y11.3366 
G01 X-69.7809 Y11.3366 
G01 X-69.5653 Y11.3025 
G01 X-69.3577 Y11.2350 
G01 X-69.1633 Y11.1359 
G01 X-68.9867 Y11.0077 
G01 X-68.8323 Y10.8533 
G01 X-68.7041 Y10.6767 
G01 X-68.6400 Y10.5510 
G01 X-68.5759 Y10.6767 
G01 X-68.4477 Y10.8533 
G01 X-68.2933 Y11.0077 
G01 X-68.1167 Y11.1359 
G01 X-67.9223 Y11.2350 
G01 X-67.7147 Y11.3025 
G01 X-67.4991 Y11.3366 
G01 X-67.2809 Y11.3366 
G01 X-67.0653 Y11.3025 
G01 X-66.8577 Y11.2350 
G01 X-66.6633 Y11.1359 
G01 X-66.4867 Y11.0077 
G01 X-66.3323 Y10.8533 
G01 X-66.2041 Y10.6767 
G01 X-66.1050 Y10.4823 
G01 X-66.0375 Y10.2747 
G01 X-66.0034 Y10.0591 
G01 X-66.0034 Y9.8409 
G01 X-66.0375 Y9.6253 
G01 X-66.1050 Y9.4177 
G01 X-66.2041 Y9.2233 
G01 X-66.3323 Y9.0467 
G01 X-66.4867 Y8.8923 
G01 X-66.6633 Y8.7641 
G01 X-66.8577 Y8.6650 
G01 X-67.0653 Y8.5975 
G01 X-67.2809 Y8.5634 
G01 X-67.4991 Y8.5634 
G01 X-67.7147 Y8.5975 
G01 X-67.9223 Y8.6650 
G01 X-68.1167 Y8.7641 
G01 X-68.2933 Y8.8923 
G01 X-68.4477 Y9.0467 
G01 X-68.5759 Y9.2233 
G01 X-68.6400 Y9.3490 
G01 X-68.7041 Y9.2233 
G01 X-68.8323 Y9.0467 
G01 X-68.9867 Y8.8923 
G01 X-69.1633 Y8.7641 
G01 X-69.3577 Y8.6650 
G01 X-69.5653 Y8.5975 
G01 X-69.7809 Y8.5634 
G01 X-69.9991 Y8.5634 
G01 X-70.2147 Y8.5975 
G01 X-70.4223 Y8.6650 
G01 X-70.6167 Y8.7641 
G01 X-70.7933 Y8.8923 
G01 X-70.9477 Y9.0467 
G01 X-71.0759 Y9.2233 
G01 X-71.1750 Y9.4177 
G01 X-71.2425 Y9.6253 
G01 X-71.2766 Y9.8409 
G00 Z2.0000 
G00 X-17.9366 Y9.8409 
G01 Z-0.1500 F100.00 
G01 X-17.9366 Y10.0591 F208.00 
G01 X-17.9025 Y10.2747 
G01 X-17.8350 Y10.4823 
G01 X-17.7359 Y10.6767 
G01 X-17.6077 Y10.8533 
G01 X-17.4533 Y11.0077 
G01 X-17.2767 Y11.1359 
G01 X-17.0823 Y11.2350 
G01 X-16.8747 Y11.3025 
G01 X-16.6591 Y11.3366 
G01 X-16.4409 Y11.3366 
G01 X-16.2253 Y11.3025 
G01 X-16.0177 Y11.2350 
G01 X-15.8233 Y11.1359 
G01 X-15.6467 Y11.0077 
G01 X-15.4923 Y10.8533 
G01 X-15.3641 Y10.6767 
G01 X-15.3000 Y10.5510 
G01 X-15.2359 Y10.6767 
G01 X-15.1077 Y10.8533 
G01 X-14.9533 Y11.0077 
G01 X-14.7767 Y11.1359 
G01 X-14.5823 Y11.2350 
G01 X-14.3747 Y11.3025 
G01 X-14.1591 Y11.3366 
G01 X-13.9409 Y11.3366 
G01 X-13.7253 Y11.3025 
G01 X-13.5177 Y11.2350 
G01 X-13.3232 Y11.1359 
G01 X-13.1467 Y11.0077 
G01 X-12.9923 Y10.8533 
G01 X-12.8641 Y10.6767 
G01 X-12.7650 Y10.4823 
G01 X-12.6975 Y10.2747 
G01 X-12.6634 Y10.0591 
G01 X-12.6634 Y9.8409 
G01 X-12.6975 Y9.6253 
G01 X-12.7650 Y9.4177 
G01 X-12.8641 Y9.2233 
G01 X-12.9923 Y9.0467 
G01 X-13.1467 Y8.8923 
G01 X-13.3232 Y8.7641 
G01 X-13.5177 Y8.6650 
G01 X-13.7253 Y8.5975 
G01 X-13.9409 Y8.5634 
G01 X-14.1591 Y8.5634 
G01 X-14.3747 Y8.5975 
G01 X-14.5823 Y8.6650 
G01 X-14.7767 Y8.7641 
G01 X-14.9533 Y8.8923 
G01 X-15.1077 Y9.0467 
G01 X-15.2359 Y9.2233 
G01 X-15.3000 Y9.3490 
G01 X-15.3641 Y9.2233 
G01 X-15.4923 Y9.0467 
G01 X-15.6467 Y8.8923 
G01 X-15.8233 Y8.7641 
G01 X-16.0177 Y8.6650 
G01 X-16.2253 Y8.5975 
G01 X-16.4409 Y8.5634 
G01 X-16.6591 Y8.5634 
G01 X-16.8747 Y8.5975 
G01 X-17.0823 Y8.6650 
G01 X-17.2767 Y8.7641 
G01 X-17.4533 Y8.8923 
G01 X-17.6077 Y9.0467 
G01 X-17.7359 Y9.2233 
G01 X-17.8350 Y9.4177 
G01 X-17.9025 Y9.6253 
G01 X-17.9366 Y9.8409 
G00 Z2.0000 
G00 X-35.7166 Y9.8409 
G01 Z-0.1500 F100.00 
G01 X-35.7166 Y10.0591 F208.00 
G01 X-35.6825 Y10.2747 
G01 X-35.6150 Y10.4823 
G01 X-35.5159 Y10.6767 
G01 X-35.3877 Y10.8533 
G01 X-35.2333 Y11.0077 
G01 X-35.0567 Y11.1359 
G01 X-34.8623 Y11.2350 
G01 X-34.6547 Y11.3025 
G01 X-34.4391 Y11.3366 
G01 X-34.2209 Y11.3366 
G01 X-34.0053 Y11.3025 
G01 X-33.7977 Y11.2350 
G01 X-33.6033 Y11.1359 
G01 X-33.4267 Y11.0077 
G01 X-33.2723 Y10.8533 
G01 X-33.1441 Y10.6767 
G01 X-33.0800 Y10.5510 
G01 X-33.0159 Y10.6767 
G01 X-32.8877 Y10.8533 
G01 X-32.7333 Y11.0077 
G01 X-32.5567 Y11.1359 
G01 X-32.3623 Y11.2350 
G01 X-32.1547 Y11.3025 
G01 X-31.9391 Y11.3366 
G01 X-31.7209 Y11.3366 
G01 X-31.5053 Y11.3025 
G01 X-31.2977 Y11.2350 
G01 X-31.1033 Y11.1359 
G01 X-30.9267 Y11.0077 
G01 X-30.7723 Y10.8533 
G01 X-30.6441 Y10.6767 
G01 X-30.5450 Y10.4823 
G01 X-30.4775 Y10.2747 
G01 X-30.4434 Y10.0591 
G01 X-30.4434 Y9.8409 
G01 X-30.4775 Y9.6253 
G01 X-30.5450 Y9.4177 
G01 X-30.6441 Y9.2233 
G01 X-30.7723 Y9.0467 
G01 X-30.9267 Y8.8923 
G01 X-31.1033 Y8.7641 
G01 X-31.2977 Y8.6650 
G01 X-31.5053 Y8.5975 
G01 X-31.7209 Y8.5634 
G01 X-31.9391 Y8.5634 
G01 X-32.1547 Y8.5975 
G01 X-32.3623 Y8.6650 
G01 X-32.5567 Y8.7641 
G01 X-32.7333 Y8.8923 
G01 X-32.8877 Y9.0467 
G01 X-33.0159 Y9.2233 
G01 X-33.0800 Y9.3490 
G01 X-33.1441 Y9.2233 
G01 X-33.2723 Y9.0467 
G01 X-33.4267 Y8.8923 
G01 X-33.6033 Y8.7641 
G01 X-33.7977 Y8.6650 
G01 X-34.0053 Y8.5975 
G01 X-34.2209 Y8.5634 
G01 X-34.4391 Y8.5634 
G01 X-34.6547 Y8.5975 
G01 X-34.8623 Y8.6650 
G01 X-35.0567 Y8.7641 
G01 X-35.2333 Y8.8923 
G01 X-35.3877 Y9.0467 
G01 X-35.5159 Y9.2233 
G01 X-35.6150 Y9.4177 
G01 X-35.6825 Y9.6253 
G01 X-35.7166 Y9.8409 
G00 Z2.0000 
G00 X-33.9490 Y44.9312 
G01 Z-0.1500 F100.00 
G01 X-33.9490 Y45.0370 F208.00 
G01 X-36.5471 Y45.0370 
G01 X-37.4170 Y44.1671 
G01 X-37.4170 Y34.2227 
G01 X-37.4432 Y34.0908 
G01 X-37.4947 Y33.9665 
G01 X-37.5695 Y33.8546 
G01 X-38.8395 Y32.5846 
G01 X-38.9346 Y32.4895 
G01 X-39.0465 Y32.4147 
G01 X-39.1708 Y32.3632 
G01 X-39.3027 Y32.3370 
G01 X-59.0070 Y32.3370 
G01 X-59.0070 Y22.7927 
G01 X-59.0332 Y22.6608 
G01 X-59.0847 Y22.5365 
G01 X-59.1595 Y22.4246 
G01 X-59.2546 Y22.3295 
G01 X-59.3665 Y22.2547 
G01 X-59.4908 Y22.2032 
G01 X-59.6227 Y22.1770 
G01 X-63.8410 Y22.1770 
G01 X-63.8410 Y22.0712 
G01 X-63.8676 Y22.0069 
G01 X-63.9169 Y21.9576 
G01 X-63.9812 Y21.9310 
G01 X-65.5588 Y21.9310 
G01 X-65.6231 Y21.9576 
G01 X-65.6724 Y22.0069 
G01 X-65.6990 Y22.0712 
G01 X-65.6990 Y22.1770 
G01 X-78.2772 Y22.1770 
G01 X-78.3492 Y22.1289 
G01 X-78.4994 Y22.0667 
G01 X-78.6587 Y22.0350 
G01 X-78.8213 Y22.0350 
G01 X-78.9806 Y22.0667 
G01 X-79.1308 Y22.1289 
G01 X-79.2028 Y22.1770 
G01 X-82.8910 Y22.1770 
G01 X-82.8910 Y22.0712 
G01 X-82.9176 Y22.0069 
G01 X-82.9669 Y21.9576 
G01 X-83.0312 Y21.9310 
G01 X-84.6088 Y21.9310 
G01 X-84.6731 Y21.9576 
G01 X-84.7224 Y22.0069 
G01 X-84.7490 Y22.0712 
G01 X-84.7490 Y23.6488 
G01 X-84.7224 Y23.7131 
G01 X-84.6731 Y23.7624 
G01 X-84.6088 Y23.7890 
G01 X-83.0312 Y23.7890 
G01 X-82.9669 Y23.7624 
G01 X-82.9176 Y23.7131 
G01 X-82.8910 Y23.6488 
G01 X-82.8910 Y23.5430 
G01 X-79.2028 Y23.5430 
G01 X-79.1308 Y23.5911 
G01 X-78.9806 Y23.6533 
G01 X-78.8213 Y23.6850 
G01 X-78.6587 Y23.6850 
G01 X-78.4994 Y23.6533 
G01 X-78.3492 Y23.5911 
G01 X-78.2772 Y23.5430 
G01 X-65.6990 Y23.5430 
G01 X-65.6990 Y23.6488 
G01 X-65.6724 Y23.7131 
G01 X-65.6231 Y23.7624 
G01 X-65.5588 Y23.7890 
G01 X-63.9812 Y23.7890 
G01 X-63.9169 Y23.7624 
G01 X-63.8676 Y23.7131 
G01 X-63.8410 Y23.6488 
G01 X-63.8410 Y23.5430 
G01 X-60.3730 Y23.5430 
G01 X-60.3730 Y33.0873 
G01 X-60.3468 Y33.2192 
G01 X-60.2953 Y33.3435 
G01 X-60.2205 Y33.4554 
G01 X-60.1254 Y33.5505 
G01 X-60.0135 Y33.6253 
G01 X-59.8892 Y33.6767 
G01 X-59.7573 Y33.7030 
G01 X-39.6529 Y33.7030 
G01 X-38.7830 Y34.5729 
G01 X-38.7830 Y44.5173 
G01 X-38.7568 Y44.6492 
G01 X-38.7053 Y44.7735 
G01 X-38.6305 Y44.8854 
G01 X-38.5354 Y44.9805 
G01 X-37.2654 Y46.2505 
G01 X-37.1535 Y46.3253 
G01 X-37.0292 Y46.3768 
G01 X-36.8973 Y46.4030 
G01 X-33.9490 Y46.4030 
G01 X-33.9490 Y46.5088 
G01 X-33.9224 Y46.5731 
G01 X-33.8731 Y46.6224 
G01 X-33.8088 Y46.6490 
G01 X-32.2312 Y46.6490 
G01 X-32.1669 Y46.6224 
G01 X-32.1176 Y46.5731 
G01 X-32.0910 Y46.5088 
G01 X-32.0910 Y46.4030 
G01 X-22.0528 Y46.4030 
G01 X-21.9808 Y46.4511 
G01 X-21.8306 Y46.5133 
G01 X-21.6713 Y46.5450 
G01 X-21.5087 Y46.5450 
G01 X-21.3494 Y46.5133 
G01 X-21.1992 Y46.4511 
G01 X-21.1272 Y46.4030 
G01 X-19.5128 Y46.4030 
G01 X-19.4408 Y46.4511 
G01 X-19.2906 Y46.5133 
G01 X-19.1313 Y46.5450 
G01 X-18.9687 Y46.5450 
G01 X-18.8094 Y46.5133 
G01 X-18.6592 Y46.4511 
G01 X-18.5872 Y46.4030 
G01 X-14.8990 Y46.4030 
G01 X-14.8990 Y46.5088 
G01 X-14.8724 Y46.5731 
G01 X-14.8231 Y46.6224 
G01 X-14.7588 Y46.6490 
G01 X-13.1812 Y46.6490 
G01 X-13.1169 Y46.6224 
G01 X-13.0676 Y46.5731 
G01 X-13.0410 Y46.5088 
G01 X-13.0410 Y46.4030 
G01 X-5.2141 Y46.4030 
G01 X-5.1693 Y46.4478 
G01 X-5.0158 Y46.5504 
G01 X-4.8453 Y46.6210 
G01 X-4.6643 Y46.6570 
G01 X-2.9557 Y46.6570 
G01 X-2.7747 Y46.6210 
G01 X-2.6042 Y46.5504 
G01 X-2.4507 Y46.4478 
G01 X-2.3202 Y46.3173 
G01 X-2.2176 Y46.1638 
G01 X-2.1470 Y45.9933 
G01 X-2.1110 Y45.8123 
G01 X-2.1110 Y45.6277 
G01 X-2.1470 Y45.4467 
G01 X-2.2176 Y45.2762 
G01 X-2.3202 Y45.1227 
G01 X-2.4507 Y44.9922 
G01 X-2.6042 Y44.8896 
G01 X-2.7747 Y44.8190 
G01 X-2.9557 Y44.7830 
G01 X-4.6643 Y44.7830 
G01 X-4.8453 Y44.8190 
G01 X-5.0158 Y44.8896 
G01 X-5.1693 Y44.9922 
G01 X-5.2141 Y45.0370 
G01 X-13.0410 Y45.0370 
G01 X-13.0410 Y44.9312 
G01 X-13.0676 Y44.8669 
G01 X-13.1169 Y44.8176 
G01 X-13.1812 Y44.7910 
G01 X-14.7588 Y44.7910 
G01 X-14.8231 Y44.8176 
G01 X-14.8724 Y44.8669 
G01 X-14.8990 Y44.9312 
G01 X-14.8990 Y45.0370 
G01 X-18.5872 Y45.0370 
G01 X-18.6592 Y44.9889 
G01 X-18.8094 Y44.9267 
G01 X-18.9687 Y44.8950 
G01 X-19.1313 Y44.8950 
G01 X-19.2906 Y44.9267 
G01 X-19.4408 Y44.9889 
G01 X-19.5128 Y45.0370 
G01 X-21.1272 Y45.0370 
G01 X-21.1992 Y44.9889 
G01 X-21.3494 Y44.9267 
G01 X-21.5087 Y44.8950 
G01 X-21.6713 Y44.8950 
G01 X-21.8306 Y44.9267 
G01 X-21.9808 Y44.9889 
G01 X-22.0528 Y45.0370 
G01 X-32.0910 Y45.0370 
G01 X-32.0910 Y44.9312 
G01 X-32.1176 Y44.8669 
G01 X-32.1669 Y44.8176 
G01 X-32.2312 Y44.7910 
G01 X-33.8088 Y44.7910 
G01 X-33.8731 Y44.8176 
G01 X-33.9224 Y44.8669 
G01 X-33.9490 Y44.9312 
G00 Z2.0000 
G00 X-33.9490 Y40.5485 
G01 Z-0.1500 F100.00 
G01 X-33.9490 Y40.7315 F208.00 
G01 X-33.9133 Y40.9110 
G01 X-33.8433 Y41.0800 
G01 X-33.7416 Y41.2322 
G01 X-33.6122 Y41.3616 
G01 X-33.4600 Y41.4633 
G01 X-33.2910 Y41.5333 
G01 X-33.1115 Y41.5690 
G01 X-32.9285 Y41.5690 
G01 X-32.7490 Y41.5333 
G01 X-32.5800 Y41.4633 
G01 X-32.4278 Y41.3616 
G01 X-32.3892 Y41.3230 
G01 X-23.3228 Y41.3230 
G01 X-23.2508 Y41.3711 
G01 X-23.1006 Y41.4333 
G01 X-22.9413 Y41.4650 
G01 X-22.7787 Y41.4650 
G01 X-22.6194 Y41.4333 
G01 X-22.4692 Y41.3711 
G01 X-22.3972 Y41.3230 
G01 X-14.6008 Y41.3230 
G01 X-14.5622 Y41.3616 
G01 X-14.4100 Y41.4633 
G01 X-14.2410 Y41.5333 
G01 X-14.0615 Y41.5690 
G01 X-13.8785 Y41.5690 
G01 X-13.6990 Y41.5333 
G01 X-13.5300 Y41.4633 
G01 X-13.3778 Y41.3616 
G01 X-13.3392 Y41.3230 
G01 X-5.2141 Y41.3230 
G01 X-5.1693 Y41.3678 
G01 X-5.0158 Y41.4704 
G01 X-4.8453 Y41.5410 
G01 X-4.6643 Y41.5770 
G01 X-2.9557 Y41.5770 
G01 X-2.7747 Y41.5410 
G01 X-2.6042 Y41.4704 
G01 X-2.4507 Y41.3678 
G01 X-2.3202 Y41.2373 
G01 X-2.2176 Y41.0838 
G01 X-2.1470 Y40.9133 
G01 X-2.1110 Y40.7323 
G01 X-2.1110 Y40.5477 
G01 X-2.1470 Y40.3667 
G01 X-2.2176 Y40.1962 
G01 X-2.3202 Y40.0427 
G01 X-2.4507 Y39.9122 
G01 X-2.6042 Y39.8096 
G01 X-2.7747 Y39.7390 
G01 X-2.9557 Y39.7030 
G01 X-4.6643 Y39.7030 
G01 X-4.8453 Y39.7390 
G01 X-5.0158 Y39.8096 
G01 X-5.1693 Y39.9122 
G01 X-5.2141 Y39.9570 
G01 X-13.3392 Y39.9570 
G01 X-13.3778 Y39.9184 
G01 X-13.5300 Y39.8167 
G01 X-13.6990 Y39.7467 
G01 X-13.8785 Y39.7110 
G01 X-14.0615 Y39.7110 
G01 X-14.2410 Y39.7467 
G01 X-14.4100 Y39.8167 
G01 X-14.5622 Y39.9184 
G01 X-14.6008 Y39.9570 
G01 X-22.3972 Y39.9570 
G01 X-22.4692 Y39.9089 
G01 X-22.6194 Y39.8467 
G01 X-22.7787 Y39.8150 
G01 X-22.9413 Y39.8150 
G01 X-23.1006 Y39.8467 
G01 X-23.2508 Y39.9089 
G01 X-23.3228 Y39.9570 
G01 X-32.3892 Y39.9570 
G01 X-32.4278 Y39.9184 
G01 X-32.5800 Y39.8167 
G01 X-32.7490 Y39.7467 
G01 X-32.9285 Y39.7110 
G01 X-33.1115 Y39.7110 
G01 X-33.2910 Y39.7467 
G01 X-33.4600 Y39.8167 
G01 X-33.6122 Y39.9184 
G01 X-33.7416 Y40.0478 
G01 X-33.8433 Y40.2000 
G01 X-33.9133 Y40.3690 
G01 X-33.9490 Y40.5485 
G00 Z2.0000 
G00 X-33.9490 Y38.0085 
G01 Z-0.1500 F100.00 
G01 X-33.9490 Y38.1915 F208.00 
G01 X-33.9133 Y38.3710 
G01 X-33.8433 Y38.5400 
G01 X-33.7416 Y38.6922 
G01 X-33.6122 Y38.8216 
G01 X-33.4600 Y38.9233 
G01 X-33.2910 Y38.9933 
G01 X-33.1115 Y39.0290 
G01 X-32.9285 Y39.0290 
G01 X-32.7490 Y38.9933 
G01 X-32.5800 Y38.9233 
G01 X-32.4278 Y38.8216 
G01 X-32.3892 Y38.7830 
G01 X-19.5128 Y38.7830 
G01 X-19.4408 Y38.8311 
G01 X-19.2906 Y38.8933 
G01 X-19.1313 Y38.9250 
G01 X-18.9687 Y38.9250 
G01 X-18.8094 Y38.8933 
G01 X-18.6592 Y38.8311 
G01 X-18.5872 Y38.7830 
G01 X-14.6008 Y38.7830 
G01 X-14.5622 Y38.8216 
G01 X-14.4100 Y38.9233 
G01 X-14.2410 Y38.9933 
G01 X-14.0615 Y39.0290 
G01 X-13.8785 Y39.0290 
G01 X-13.6990 Y38.9933 
G01 X-13.5300 Y38.9233 
G01 X-13.3778 Y38.8216 
G01 X-13.3392 Y38.7830 
G01 X-5.2141 Y38.7830 
G01 X-5.1693 Y38.8278 
G01 X-5.0158 Y38.9304 
G01 X-4.8453 Y39.0010 
G01 X-4.6643 Y39.0370 
G01 X-2.9557 Y39.0370 
G01 X-2.7747 Y39.0010 
G01 X-2.6042 Y38.9304 
G01 X-2.4507 Y38.8278 
G01 X-2.3202 Y38.6973 
G01 X-2.2176 Y38.5438 
G01 X-2.1470 Y38.3733 
G01 X-2.1110 Y38.1923 
G01 X-2.1110 Y38.0077 
G01 X-2.1470 Y37.8267 
G01 X-2.2176 Y37.6562 
G01 X-2.3202 Y37.5027 
G01 X-2.4507 Y37.3722 
G01 X-2.6042 Y37.2696 
G01 X-2.7747 Y37.1990 
G01 X-2.9557 Y37.1630 
G01 X-4.6643 Y37.1630 
G01 X-4.8453 Y37.1990 
G01 X-5.0158 Y37.2696 
G01 X-5.1693 Y37.3722 
G01 X-5.2141 Y37.4170 
G01 X-13.3392 Y37.4170 
G01 X-13.3778 Y37.3784 
G01 X-13.5300 Y37.2767 
G01 X-13.6990 Y37.2067 
G01 X-13.8785 Y37.1710 
G01 X-14.0615 Y37.1710 
G01 X-14.2410 Y37.2067 
G01 X-14.4100 Y37.2767 
G01 X-14.5622 Y37.3784 
G01 X-14.6008 Y37.4170 
G01 X-18.5872 Y37.4170 
G01 X-18.6592 Y37.3689 
G01 X-18.8094 Y37.3067 
G01 X-18.9687 Y37.2750 
G01 X-19.1313 Y37.2750 
G01 X-19.2906 Y37.3067 
G01 X-19.4408 Y37.3689 
G01 X-19.5128 Y37.4170 
G01 X-28.5270 Y37.4170 
G01 X-28.5270 Y35.4927 
G01 X-28.5532 Y35.3608 
G01 X-28.6047 Y35.2365 
G01 X-28.6795 Y35.1246 
G01 X-28.7746 Y35.0295 
G01 X-28.8865 Y34.9547 
G01 X-29.0108 Y34.9032 
G01 X-29.1427 Y34.8770 
G01 X-32.3892 Y34.8770 
G01 X-32.4278 Y34.8384 
G01 X-32.5800 Y34.7367 
G01 X-32.7490 Y34.6667 
G01 X-32.9285 Y34.6310 
G01 X-33.1115 Y34.6310 
G01 X-33.2910 Y34.6667 
G01 X-33.4600 Y34.7367 
G01 X-33.6122 Y34.8384 
G01 X-33.7416 Y34.9678 
G01 X-33.8433 Y35.1200 
G01 X-33.9133 Y35.2890 
G01 X-33.9490 Y35.4685 
G01 X-33.9490 Y35.6515 
G01 X-33.9133 Y35.8310 
G01 X-33.8433 Y36.0000 
G01 X-33.7416 Y36.1522 
G01 X-33.6122 Y36.2816 
G01 X-33.4600 Y36.3833 
G01 X-33.2910 Y36.4533 
G01 X-33.1115 Y36.4890 
G01 X-32.9285 Y36.4890 
G01 X-32.7490 Y36.4533 
G01 X-32.5800 Y36.3833 
G01 X-32.4278 Y36.2816 
G01 X-32.3892 Y36.2430 
G01 X-29.8930 Y36.2430 
G01 X-29.8930 Y37.4170 
G01 X-32.3892 Y37.4170 
G01 X-32.4278 Y37.3784 
G01 X-32.5800 Y37.2767 
G01 X-32.7490 Y37.2067 
G01 X-32.9285 Y37.1710 
G01 X-33.1115 Y37.1710 
G01 X-33.2910 Y37.2067 
G01 X-33.4600 Y37.2767 
G01 X-33.6122 Y37.3784 
G01 X-33.7416 Y37.5078 
G01 X-33.8433 Y37.6600 
G01 X-33.9133 Y37.8290 
G01 X-33.9490 Y38.0085 
G00 Z2.0000 
G00 X-33.9490 Y32.9285 
G01 Z-0.1500 F100.00 
G01 X-33.9490 Y33.1115 F208.00 
G01 X-33.9133 Y33.2910 
G01 X-33.8433 Y33.4600 
G01 X-33.7416 Y33.6122 
G01 X-33.6122 Y33.7416 
G01 X-33.4600 Y33.8433 
G01 X-33.2910 Y33.9133 
G01 X-33.1115 Y33.9490 
G01 X-32.9285 Y33.9490 
G01 X-32.7490 Y33.9133 
G01 X-32.5800 Y33.8433 
G01 X-32.4278 Y33.7416 
G01 X-32.2984 Y33.6122 
G01 X-32.1967 Y33.4600 
G01 X-32.1267 Y33.2910 
G01 X-32.0910 Y33.1115 
G01 X-32.0910 Y32.9285 
G01 X-32.1267 Y32.7490 
G01 X-32.1967 Y32.5800 
G01 X-32.2984 Y32.4278 
G01 X-32.4278 Y32.2984 
G01 X-32.5800 Y32.1967 
G01 X-32.7490 Y32.1267 
G01 X-32.9285 Y32.0910 
G01 X-33.1115 Y32.0910 
G01 X-33.2910 Y32.1267 
G01 X-33.4600 Y32.1967 
G01 X-33.6122 Y32.2984 
G01 X-33.7416 Y32.4278 
G01 X-33.8433 Y32.5800 
G01 X-33.9133 Y32.7490 
G01 X-33.9490 Y32.9285 
G00 Z2.0000 
G00 X-33.6122 Y31.2016 
G01 Z-0.1500 F100.00 
G01 X-33.4600 Y31.3033 F208.00 
G01 X-33.2910 Y31.3733 
G01 X-33.1115 Y31.4090 
G01 X-32.9285 Y31.4090 
G01 X-32.7490 Y31.3733 
G01 X-32.5800 Y31.3033 
G01 X-32.4278 Y31.2016 
G01 X-32.2984 Y31.0722 
G01 X-32.1967 Y30.9200 
G01 X-32.1267 Y30.7510 
G01 X-32.0910 Y30.5715 
G01 X-32.0910 Y30.3885 
G01 X-32.1267 Y30.2090 
G01 X-32.1967 Y30.0400 
G01 X-32.2984 Y29.8878 
G01 X-32.4278 Y29.7584 
G01 X-32.5800 Y29.6567 
G01 X-32.7490 Y29.5867 
G01 X-32.9285 Y29.5510 
G01 X-33.1115 Y29.5510 
G01 X-33.2910 Y29.5867 
G01 X-33.4600 Y29.6567 
G01 X-33.6122 Y29.7584 
G01 X-33.6508 Y29.7970 
G01 X-37.6016 Y29.7970 
G01 X-37.7540 Y29.6446 
G01 X-38.4460 Y29.6446 
G01 X-38.5984 Y29.7970 
G01 X-56.7503 Y29.7970 
G01 X-56.7503 Y18.3477 
G01 X-56.7765 Y18.2158 
G01 X-56.8280 Y18.0915 
G01 X-56.9028 Y17.9796 
G01 X-56.9979 Y17.8845 
G01 X-57.1098 Y17.8097 
G01 X-57.2341 Y17.7582 
G01 X-57.3660 Y17.7320 
G01 X-76.7070 Y17.7320 
G01 X-76.7070 Y11.1582 
G01 X-76.6633 Y11.1359 
G01 X-76.4867 Y11.0077 
G01 X-76.3323 Y10.8533 
G01 X-76.2041 Y10.6767 
G01 X-76.1400 Y10.5510 
G01 X-76.0759 Y10.6767 
G01 X-75.9477 Y10.8533 
G01 X-75.7933 Y11.0077 
G01 X-75.6167 Y11.1359 
G01 X-75.4223 Y11.2350 
G01 X-75.2147 Y11.3025 
G01 X-74.9991 Y11.3366 
G01 X-74.7809 Y11.3366 
G01 X-74.5653 Y11.3025 
G01 X-74.3577 Y11.2350 
G01 X-74.1633 Y11.1359 
G01 X-73.9867 Y11.0077 
G01 X-73.8323 Y10.8533 
G01 X-73.7041 Y10.6767 
G01 X-73.6050 Y10.4823 
G01 X-73.5375 Y10.2747 
G01 X-73.5034 Y10.0591 
G01 X-73.5034 Y9.8409 
G01 X-73.5375 Y9.6253 
G01 X-73.6050 Y9.4177 
G01 X-73.7041 Y9.2233 
G01 X-73.8323 Y9.0467 
G01 X-73.9867 Y8.8923 
G01 X-74.1633 Y8.7641 
G01 X-74.3577 Y8.6650 
G01 X-74.5653 Y8.5975 
G01 X-74.7809 Y8.5634 
G01 X-74.9991 Y8.5634 
G01 X-75.2147 Y8.5975 
G01 X-75.4223 Y8.6650 
G01 X-75.6167 Y8.7641 
G01 X-75.7933 Y8.8923 
G01 X-75.9477 Y9.0467 
G01 X-76.0759 Y9.2233 
G01 X-76.1400 Y9.3490 
G01 X-76.2041 Y9.2233 
G01 X-76.3323 Y9.0467 
G01 X-76.4867 Y8.8923 
G01 X-76.6633 Y8.7641 
G01 X-76.8577 Y8.6650 
G01 X-77.0653 Y8.5975 
G01 X-77.2809 Y8.5634 
G01 X-77.4991 Y8.5634 
G01 X-77.7147 Y8.5975 
G01 X-77.9223 Y8.6650 
G01 X-78.1167 Y8.7641 
G01 X-78.2933 Y8.8923 
G01 X-78.4477 Y9.0467 
G01 X-78.5759 Y9.2233 
G01 X-78.6750 Y9.4177 
G01 X-78.7425 Y9.6253 
G01 X-78.7766 Y9.8409 
G01 X-78.7766 Y10.0591 
G01 X-78.7425 Y10.2747 
G01 X-78.6750 Y10.4823 
G01 X-78.5759 Y10.6767 
G01 X-78.4477 Y10.8533 
G01 X-78.2933 Y11.0077 
G01 X-78.1167 Y11.1359 
G01 X-78.0730 Y11.1582 
G01 X-78.0730 Y17.7320 
G01 X-78.1723 Y17.7320 
G01 X-78.3042 Y17.7582 
G01 X-78.4285 Y17.8097 
G01 X-78.5404 Y17.8845 
G01 X-78.6355 Y17.9796 
G01 X-78.7103 Y18.0915 
G01 X-78.7618 Y18.2158 
G01 X-78.7880 Y18.3477 
G01 X-78.7880 Y18.4823 
G01 X-78.7618 Y18.6142 
G01 X-78.7103 Y18.7385 
G01 X-78.6355 Y18.8504 
G01 X-78.5404 Y18.9455 
G01 X-77.9054 Y19.5805 
G01 X-77.7935 Y19.6553 
G01 X-77.6692 Y19.7067 
G01 X-77.5373 Y19.7330 
G01 X-77.4027 Y19.7330 
G01 X-77.2708 Y19.7067 
G01 X-77.1465 Y19.6553 
G01 X-77.0346 Y19.5805 
G01 X-76.9546 Y19.5005 
G01 X-76.8595 Y19.4054 
G01 X-76.7847 Y19.2935 
G01 X-76.7332 Y19.1692 
G01 X-76.7191 Y19.0980 
G01 X-58.1163 Y19.0980 
G01 X-58.1163 Y30.5473 
G01 X-58.0900 Y30.6792 
G01 X-58.0386 Y30.8035 
G01 X-57.9638 Y30.9154 
G01 X-57.8687 Y31.0105 
G01 X-57.7568 Y31.0853 
G01 X-57.6325 Y31.1368 
G01 X-57.5006 Y31.1630 
G01 X-38.5984 Y31.1630 
G01 X-38.4460 Y31.3154 
G01 X-37.7540 Y31.3154 
G01 X-37.6016 Y31.1630 
G01 X-33.6508 Y31.1630 
G01 X-33.6122 Y31.2016 
G00 Z2.0000 
G00 X-10.5060 Y26.2354 
G01 Z-0.1500 F100.00 
G01 X-9.8140 Y26.2354 F208.00 
G01 X-9.3246 Y25.7460 
G01 X-9.3246 Y25.0540 
G01 X-9.8140 Y24.5646 
G01 X-10.5060 Y24.5646 
G01 X-10.6584 Y24.7170 
G01 X-13.3392 Y24.7170 
G01 X-13.3778 Y24.6784 
G01 X-13.5300 Y24.5767 
G01 X-13.6990 Y24.5067 
G01 X-13.8785 Y24.4710 
G01 X-14.0615 Y24.4710 
G01 X-14.2410 Y24.5067 
G01 X-14.4100 Y24.5767 
G01 X-14.5622 Y24.6784 
G01 X-14.6008 Y24.7170 
G01 X-19.7538 Y24.7170 
G01 X-25.1202 Y19.3506 
G01 X-25.2153 Y19.2555 
G01 X-25.3272 Y19.1807 
G01 X-25.4515 Y19.1292 
G01 X-25.5834 Y19.1030 
G01 X-40.8911 Y19.1030 
G01 X-41.1470 Y18.8471 
G01 X-41.1470 Y11.1582 
G01 X-41.1033 Y11.1359 
G01 X-40.9267 Y11.0077 
G01 X-40.7723 Y10.8533 
G01 X-40.6441 Y10.6767 
G01 X-40.5800 Y10.5510 
G01 X-40.5159 Y10.6767 
G01 X-40.3877 Y10.8533 
G01 X-40.2333 Y11.0077 
G01 X-40.0567 Y11.1359 
G01 X-39.8623 Y11.2350 
G01 X-39.6547 Y11.3025 
G01 X-39.4391 Y11.3366 
G01 X-39.2209 Y11.3366 
G01 X-39.0053 Y11.3025 
G01 X-38.7977 Y11.2350 
G01 X-38.6033 Y11.1359 
G01 X-38.4267 Y11.0077 
G01 X-38.2723 Y10.8533 
G01 X-38.1441 Y10.6767 
G01 X-38.0450 Y10.4823 
G01 X-37.9775 Y10.2747 
G01 X-37.9434 Y10.0591 
G01 X-37.9434 Y9.8409 
G01 X-37.9775 Y9.6253 
G01 X-38.0450 Y9.4177 
G01 X-38.1441 Y9.2233 
G01 X-38.2723 Y9.0467 
G01 X-38.4267 Y8.8923 
G01 X-38.6033 Y8.7641 
G01 X-38.7977 Y8.6650 
G01 X-39.0053 Y8.5975 
G01 X-39.2209 Y8.5634 
G01 X-39.4391 Y8.5634 
G01 X-39.6547 Y8.5975 
G01 X-39.8623 Y8.6650 
G01 X-40.0567 Y8.7641 
G01 X-40.2333 Y8.8923 
G01 X-40.3877 Y9.0467 
G01 X-40.5159 Y9.2233 
G01 X-40.5800 Y9.3490 
G01 X-40.6441 Y9.2233 
G01 X-40.7723 Y9.0467 
G01 X-40.9267 Y8.8923 
G01 X-41.1033 Y8.7641 
G01 X-41.2977 Y8.6650 
G01 X-41.5053 Y8.5975 
G01 X-41.7209 Y8.5634 
G01 X-41.9391 Y8.5634 
G01 X-42.1547 Y8.5975 
G01 X-42.3623 Y8.6650 
G01 X-42.5567 Y8.7641 
G01 X-42.7333 Y8.8923 
G01 X-42.8877 Y9.0467 
G01 X-43.0159 Y9.2233 
G01 X-43.1150 Y9.4177 
G01 X-43.1825 Y9.6253 
G01 X-43.2166 Y9.8409 
G01 X-43.2166 Y10.0591 
G01 X-43.1825 Y10.2747 
G01 X-43.1150 Y10.4823 
G01 X-43.0159 Y10.6767 
G01 X-42.8877 Y10.8533 
G01 X-42.7333 Y11.0077 
G01 X-42.5567 Y11.1359 
G01 X-42.5130 Y11.1582 
G01 X-42.5130 Y18.7231 
G01 X-42.5153 Y18.7265 
G01 X-42.5667 Y18.8508 
G01 X-42.5930 Y18.9827 
G01 X-42.5930 Y19.1173 
G01 X-42.5667 Y19.2492 
G01 X-42.5153 Y19.3735 
G01 X-42.4405 Y19.4854 
G01 X-41.7045 Y20.2214 
G01 X-41.6094 Y20.3165 
G01 X-41.4975 Y20.3913 
G01 X-41.3732 Y20.4428 
G01 X-41.2413 Y20.4690 
G01 X-25.9336 Y20.4690 
G01 X-20.4721 Y25.9305 
G01 X-20.3602 Y26.0053 
G01 X-20.2359 Y26.0568 
G01 X-20.1040 Y26.0830 
G01 X-14.6008 Y26.0830 
G01 X-14.5622 Y26.1216 
G01 X-14.4100 Y26.2233 
G01 X-14.2410 Y26.2933 
G01 X-14.0615 Y26.3290 
G01 X-13.8785 Y26.3290 
G01 X-13.6990 Y26.2933 
G01 X-13.5300 Y26.2233 
G01 X-13.3778 Y26.1216 
G01 X-13.3392 Y26.0830 
G01 X-10.6584 Y26.0830 
G01 X-10.5060 Y26.2354 
G00 Z2.0000 
G00 X-38.4460 Y23.6954 
G01 Z-0.1500 F100.00 
G01 X-37.7540 Y23.6954 F208.00 
G01 X-37.6016 Y23.5430 
G01 X-33.6508 Y23.5430 
G01 X-33.6122 Y23.5816 
G01 X-33.4600 Y23.6833 
G01 X-33.2910 Y23.7533 
G01 X-33.1115 Y23.7890 
G01 X-32.9285 Y23.7890 
G01 X-32.7490 Y23.7533 
G01 X-32.5800 Y23.6833 
G01 X-32.4278 Y23.5816 
G01 X-32.2984 Y23.4522 
G01 X-32.1967 Y23.3000 
G01 X-32.1267 Y23.1310 
G01 X-32.0910 Y22.9515 
G01 X-32.0910 Y22.7685 
G01 X-32.1267 Y22.5890 
G01 X-32.1967 Y22.4200 
G01 X-32.2984 Y22.2678 
G01 X-32.4278 Y22.1384 
G01 X-32.5800 Y22.0367 
G01 X-32.7490 Y21.9667 
G01 X-32.9285 Y21.9310 
G01 X-33.1115 Y21.9310 
G01 X-33.2910 Y21.9667 
G01 X-33.4600 Y22.0367 
G01 X-33.6122 Y22.1384 
G01 X-33.6508 Y22.1770 
G01 X-37.6016 Y22.1770 
G01 X-37.7540 Y22.0246 
G01 X-38.4460 Y22.0246 
G01 X-38.5984 Y22.1770 
G01 X-41.3438 Y22.1770 
G01 X-44.2653 Y19.2555 
G01 X-44.3772 Y19.1807 
G01 X-44.5015 Y19.1292 
G01 X-44.6334 Y19.1030 
G01 X-44.7011 Y19.1030 
G01 X-45.0370 Y18.7671 
G01 X-45.0370 Y6.2827 
G01 X-45.0632 Y6.1508 
G01 X-45.1147 Y6.0265 
G01 X-45.1895 Y5.9146 
G01 X-45.2846 Y5.8195 
G01 X-45.3965 Y5.7447 
G01 X-45.5208 Y5.6932 
G01 X-45.6527 Y5.6670 
G01 X-48.0735 Y5.6670 
G01 X-48.2054 Y5.6932 
G01 X-48.3297 Y5.7447 
G01 X-48.4416 Y5.8195 
G01 X-48.5367 Y5.9146 
G01 X-49.0131 Y6.3910 
G01 X-52.2031 Y6.3910 
G01 X-53.2727 Y5.3214 
G01 X-53.2575 Y5.2747 
G01 X-53.2234 Y5.0591 
G01 X-53.2234 Y4.8409 
G01 X-53.2575 Y4.6253 
G01 X-53.3250 Y4.4177 
G01 X-53.4241 Y4.2233 
G01 X-53.5523 Y4.0467 
G01 X-53.7067 Y3.8923 
G01 X-53.8833 Y3.7641 
G01 X-54.0777 Y3.6650 
G01 X-54.2853 Y3.5975 
G01 X-54.5009 Y3.5634 
G01 X-54.7191 Y3.5634 
G01 X-54.9347 Y3.5975 
G01 X-55.1423 Y3.6650 
G01 X-55.3367 Y3.7641 
G01 X-55.5133 Y3.8923 
G01 X-55.6677 Y4.0467 
G01 X-55.7959 Y4.2233 
G01 X-55.8950 Y4.4177 
G01 X-55.9625 Y4.6253 
G01 X-55.9966 Y4.8409 
G01 X-55.9966 Y5.0591 
G01 X-55.9625 Y5.2747 
G01 X-55.8950 Y5.4823 
G01 X-55.7959 Y5.6767 
G01 X-55.6677 Y5.8533 
G01 X-55.5133 Y6.0077 
G01 X-55.3367 Y6.1359 
G01 X-55.1423 Y6.2350 
G01 X-54.9347 Y6.3025 
G01 X-54.7191 Y6.3366 
G01 X-54.5009 Y6.3366 
G01 X-54.2853 Y6.3025 
G01 X-54.2386 Y6.2873 
G01 X-53.0165 Y7.5094 
G01 X-52.9214 Y7.6045 
G01 X-52.8095 Y7.6793 
G01 X-52.6852 Y7.7308 
G01 X-52.5533 Y7.7570 
G01 X-48.6629 Y7.7570 
G01 X-48.5310 Y7.7308 
G01 X-48.4067 Y7.6793 
G01 X-48.2948 Y7.6045 
G01 X-48.1997 Y7.5094 
G01 X-47.7233 Y7.0330 
G01 X-46.4030 Y7.0330 
G01 X-46.4030 Y19.1173 
G01 X-46.3768 Y19.2492 
G01 X-46.3253 Y19.3735 
G01 X-46.2505 Y19.4854 
G01 X-45.5145 Y20.2214 
G01 X-45.4194 Y20.3165 
G01 X-45.3075 Y20.3913 
G01 X-45.1832 Y20.4428 
G01 X-45.0513 Y20.4690 
G01 X-44.9836 Y20.4690 
G01 X-42.0621 Y23.3905 
G01 X-41.9502 Y23.4653 
G01 X-41.8259 Y23.5168 
G01 X-41.6940 Y23.5430 
G01 X-38.5984 Y23.5430 
G01 X-38.4460 Y23.6954 
G00 Z2.0000 
G00 X-38.2166 Y4.8409 
G01 Z-0.1500 F100.00 
G01 X-38.2166 Y5.0591 F208.00 
G01 X-38.1825 Y5.2747 
G01 X-38.1150 Y5.4823 
G01 X-38.0159 Y5.6767 
G01 X-37.8877 Y5.8533 
G01 X-37.7333 Y6.0077 
G01 X-37.5567 Y6.1359 
G01 X-37.3623 Y6.2350 
G01 X-37.1547 Y6.3025 
G01 X-36.9391 Y6.3366 
G01 X-36.7209 Y6.3366 
G01 X-36.5053 Y6.3025 
G01 X-36.2977 Y6.2350 
G01 X-36.1033 Y6.1359 
G01 X-35.9267 Y6.0077 
G01 X-35.7723 Y5.8533 
G01 X-35.6441 Y5.6767 
G01 X-35.6218 Y5.6330 
G01 X-35.1167 Y5.6330 
G01 X-33.1452 Y7.6045 
G01 X-33.0333 Y7.6793 
G01 X-32.9090 Y7.7308 
G01 X-32.7771 Y7.7570 
G01 X-28.7689 Y7.7570 
G01 X-28.6230 Y7.9029 
G01 X-28.6230 Y16.5773 
G01 X-28.5968 Y16.7092 
G01 X-28.5453 Y16.8335 
G01 X-28.4705 Y16.9454 
G01 X-28.3754 Y17.0405 
G01 X-28.2635 Y17.1153 
G01 X-28.1392 Y17.1668 
G01 X-28.0073 Y17.1930 
G01 X-23.5430 Y17.1930 
G01 X-23.5430 Y17.8473 
G01 X-23.5168 Y17.9792 
G01 X-23.4653 Y18.1035 
G01 X-23.3905 Y18.2154 
G01 X-23.2954 Y18.3105 
G01 X-18.2154 Y23.3905 
G01 X-18.1035 Y23.4653 
G01 X-17.9792 Y23.5168 
G01 X-17.8473 Y23.5430 
G01 X-14.6008 Y23.5430 
G01 X-14.5622 Y23.5816 
G01 X-14.4100 Y23.6833 
G01 X-14.2410 Y23.7533 
G01 X-14.0615 Y23.7890 
G01 X-13.8785 Y23.7890 
G01 X-13.6990 Y23.7533 
G01 X-13.5300 Y23.6833 
G01 X-13.3778 Y23.5816 
G01 X-13.3392 Y23.5430 
G01 X-10.6584 Y23.5430 
G01 X-10.5060 Y23.6954 
G01 X-9.8140 Y23.6954 
G01 X-9.3246 Y23.2060 
G01 X-9.3246 Y22.5140 
G01 X-9.8140 Y22.0246 
G01 X-10.5060 Y22.0246 
G01 X-10.6584 Y22.1770 
G01 X-13.3392 Y22.1770 
G01 X-13.3778 Y22.1384 
G01 X-13.5300 Y22.0367 
G01 X-13.6990 Y21.9667 
G01 X-13.8785 Y21.9310 
G01 X-14.0615 Y21.9310 
G01 X-14.2410 Y21.9667 
G01 X-14.4100 Y22.0367 
G01 X-14.5622 Y22.1384 
G01 X-14.6008 Y22.1770 
G01 X-17.4971 Y22.1770 
G01 X-22.1770 Y17.4971 
G01 X-22.1770 Y16.4427 
G01 X-22.2032 Y16.3108 
G01 X-22.2547 Y16.1865 
G01 X-22.3295 Y16.0746 
G01 X-22.4246 Y15.9795 
G01 X-22.5365 Y15.9047 
G01 X-22.6608 Y15.8532 
G01 X-22.7927 Y15.8270 
G01 X-27.2570 Y15.8270 
G01 X-27.2570 Y7.5527 
G01 X-27.2832 Y7.4208 
G01 X-27.3347 Y7.2965 
G01 X-27.4095 Y7.1846 
G01 X-27.9555 Y6.6386 
G01 X-28.0506 Y6.5435 
G01 X-28.1625 Y6.4687 
G01 X-28.2868 Y6.4172 
G01 X-28.4187 Y6.3910 
G01 X-32.4269 Y6.3910 
G01 X-34.3984 Y4.4195 
G01 X-34.5103 Y4.3447 
G01 X-34.6346 Y4.2932 
G01 X-34.7665 Y4.2670 
G01 X-35.6218 Y4.2670 
G01 X-35.6441 Y4.2233 
G01 X-35.7723 Y4.0467 
G01 X-35.9267 Y3.8923 
G01 X-36.1033 Y3.7641 
G01 X-36.2977 Y3.6650 
G01 X-36.5053 Y3.5975 
G01 X-36.7209 Y3.5634 
G01 X-36.9391 Y3.5634 
G01 X-37.1547 Y3.5975 
G01 X-37.3623 Y3.6650 
G01 X-37.5567 Y3.7641 
G01 X-37.7333 Y3.8923 
G01 X-37.8877 Y4.0467 
G01 X-38.0159 Y4.2233 
G01 X-38.1150 Y4.4177 
G01 X-38.1825 Y4.6253 
G01 X-38.2166 Y4.8409 
G00 Z2.0000 
G00 X-20.4366 Y4.8409 
G01 Z-0.1500 F100.00 
G01 X-20.4366 Y5.0591 F208.00 
G01 X-20.4025 Y5.2747 
G01 X-20.3350 Y5.4823 
G01 X-20.2359 Y5.6767 
G01 X-20.1077 Y5.8533 
G01 X-19.9533 Y6.0077 
G01 X-19.7767 Y6.1359 
G01 X-19.5823 Y6.2350 
G01 X-19.3747 Y6.3025 
G01 X-19.1591 Y6.3366 
G01 X-18.9409 Y6.3366 
G01 X-18.7253 Y6.3025 
G01 X-18.5177 Y6.2350 
G01 X-18.3233 Y6.1359 
G01 X-18.1467 Y6.0077 
G01 X-17.9923 Y5.8533 
G01 X-17.9267 Y5.7630 
G01 X-17.2067 Y5.7630 
G01 X-15.3652 Y7.6045 
G01 X-15.2533 Y7.6793 
G01 X-15.1290 Y7.7308 
G01 X-14.9971 Y7.7570 
G01 X-13.1029 Y7.7570 
G01 X-12.9710 Y7.7308 
G01 X-12.8467 Y7.6793 
G01 X-12.7348 Y7.6045 
G01 X-10.8933 Y5.7630 
G01 X-5.7630 Y5.7630 
G01 X-5.7630 Y29.7970 
G01 X-9.6616 Y29.7970 
G01 X-9.8140 Y29.6446 
G01 X-10.5060 Y29.6446 
G01 X-10.6584 Y29.7970 
G01 X-13.3392 Y29.7970 
G01 X-13.3778 Y29.7584 
G01 X-13.5300 Y29.6567 
G01 X-13.6990 Y29.5867 
G01 X-13.8785 Y29.5510 
G01 X-14.0615 Y29.5510 
G01 X-14.2410 Y29.5867 
G01 X-14.4100 Y29.6567 
G01 X-14.5622 Y29.7584 
G01 X-14.6916 Y29.8878 
G01 X-14.7933 Y30.0400 
G01 X-14.8633 Y30.2090 
G01 X-14.8990 Y30.3885 
G01 X-14.8990 Y30.5715 
G01 X-14.8633 Y30.7510 
G01 X-14.7933 Y30.9200 
G01 X-14.6916 Y31.0722 
G01 X-14.5622 Y31.2016 
G01 X-14.4100 Y31.3033 
G01 X-14.2410 Y31.3733 
G01 X-14.0615 Y31.4090 
G01 X-13.8785 Y31.4090 
G01 X-13.6990 Y31.3733 
G01 X-13.5300 Y31.3033 
G01 X-13.3778 Y31.2016 
G01 X-13.3392 Y31.1630 
G01 X-10.6584 Y31.1630 
G01 X-10.5060 Y31.3154 
G01 X-9.8140 Y31.3154 
G01 X-9.6616 Y31.1630 
G01 X-5.0127 Y31.1630 
G01 X-4.8808 Y31.1368 
G01 X-4.7565 Y31.0853 
G01 X-4.6446 Y31.0105 
G01 X-4.5495 Y30.9154 
G01 X-4.4747 Y30.8035 
G01 X-4.4232 Y30.6792 
G01 X-4.3970 Y30.5473 
G01 X-4.3970 Y5.0127 
G01 X-4.4232 Y4.8808 
G01 X-4.4747 Y4.7565 
G01 X-4.5495 Y4.6446 
G01 X-4.6446 Y4.5495 
G01 X-4.7565 Y4.4747 
G01 X-4.8808 Y4.4232 
G01 X-5.0127 Y4.3970 
G01 X-11.2435 Y4.3970 
G01 X-11.3754 Y4.4232 
G01 X-11.4997 Y4.4747 
G01 X-11.6116 Y4.5495 
G01 X-13.4531 Y6.3910 
G01 X-14.6469 Y6.3910 
G01 X-16.4884 Y4.5495 
G01 X-16.6003 Y4.4747 
G01 X-16.7246 Y4.4232 
G01 X-16.8565 Y4.3970 
G01 X-17.7755 Y4.3970 
G01 X-17.8641 Y4.2233 
G01 X-17.9923 Y4.0467 
G01 X-18.1467 Y3.8923 
G01 X-18.3233 Y3.7641 
G01 X-18.5177 Y3.6650 
G01 X-18.7253 Y3.5975 
G01 X-18.9409 Y3.5634 
G01 X-19.1591 Y3.5634 
G01 X-19.3747 Y3.5975 
G01 X-19.5823 Y3.6650 
G01 X-19.7767 Y3.7641 
G01 X-19.9533 Y3.8923 
G01 X-20.1077 Y4.0467 
G01 X-20.2359 Y4.2233 
G01 X-20.3350 Y4.4177 
G01 X-20.4025 Y4.6253 
G01 X-20.4366 Y4.8409 
G00 Z2.0000 
G00 X-25.4366 Y9.8409 
G01 Z-0.1500 F100.00 
G01 X-25.4366 Y10.0591 F208.00 
G01 X-25.4025 Y10.2747 
G01 X-25.3350 Y10.4823 
G01 X-25.2359 Y10.6767 
G01 X-25.1077 Y10.8533 
G01 X-24.9533 Y11.0077 
G01 X-24.8130 Y11.1096 
G01 X-24.8130 Y14.0373 
G01 X-24.7868 Y14.1692 
G01 X-24.7353 Y14.2935 
G01 X-24.6605 Y14.4054 
G01 X-24.5654 Y14.5005 
G01 X-24.4535 Y14.5753 
G01 X-24.3292 Y14.6268 
G01 X-24.1973 Y14.6530 
G01 X-9.1729 Y14.6530 
G01 X-8.3030 Y15.5229 
G01 X-8.3030 Y27.2570 
G01 X-9.6616 Y27.2570 
G01 X-9.8140 Y27.1046 
G01 X-10.5060 Y27.1046 
G01 X-10.6584 Y27.2570 
G01 X-13.3392 Y27.2570 
G01 X-13.3778 Y27.2184 
G01 X-13.5300 Y27.1167 
G01 X-13.6990 Y27.0467 
G01 X-13.8785 Y27.0110 
G01 X-14.0615 Y27.0110 
G01 X-14.2410 Y27.0467 
G01 X-14.4100 Y27.1167 
G01 X-14.5622 Y27.2184 
G01 X-14.6916 Y27.3478 
G01 X-14.7933 Y27.5000 
G01 X-14.8633 Y27.6690 
G01 X-14.8990 Y27.8485 
G01 X-14.8990 Y28.0315 
G01 X-14.8633 Y28.2110 
G01 X-14.7933 Y28.3800 
G01 X-14.6916 Y28.5322 
G01 X-14.5622 Y28.6616 
G01 X-14.4100 Y28.7633 
G01 X-14.2410 Y28.8333 
G01 X-14.0615 Y28.8690 
G01 X-13.8785 Y28.8690 
G01 X-13.6990 Y28.8333 
G01 X-13.5300 Y28.7633 
G01 X-13.3778 Y28.6616 
G01 X-13.3392 Y28.6230 
G01 X-10.6584 Y28.6230 
G01 X-10.5060 Y28.7754 
G01 X-9.8140 Y28.7754 
G01 X-9.6616 Y28.6230 
G01 X-7.5527 Y28.6230 
G01 X-7.4208 Y28.5968 
G01 X-7.2965 Y28.5453 
G01 X-7.1846 Y28.4705 
G01 X-7.0895 Y28.3754 
G01 X-7.0147 Y28.2635 
G01 X-6.9632 Y28.1392 
G01 X-6.9370 Y28.0073 
G01 X-6.9370 Y15.1727 
G01 X-6.9632 Y15.0408 
G01 X-7.0147 Y14.9165 
G01 X-7.0895 Y14.8046 
G01 X-8.3595 Y13.5346 
G01 X-8.4546 Y13.4395 
G01 X-8.5665 Y13.3647 
G01 X-8.6908 Y13.3132 
G01 X-8.8227 Y13.2870 
G01 X-23.4470 Y13.2870 
G01 X-23.4470 Y11.1990 
G01 X-23.3233 Y11.1359 
G01 X-23.1467 Y11.0077 
G01 X-22.9923 Y10.8533 
G01 X-22.8641 Y10.6767 
G01 X-22.8000 Y10.5510 
G01 X-22.7359 Y10.6767 
G01 X-22.6077 Y10.8533 
G01 X-22.4533 Y11.0077 
G01 X-22.2767 Y11.1359 
G01 X-22.0823 Y11.2350 
G01 X-21.8747 Y11.3025 
G01 X-21.6591 Y11.3366 
G01 X-21.4409 Y11.3366 
G01 X-21.2253 Y11.3025 
G01 X-21.0177 Y11.2350 
G01 X-20.8233 Y11.1359 
G01 X-20.6467 Y11.0077 
G01 X-20.4923 Y10.8533 
G01 X-20.3641 Y10.6767 
G01 X-20.2650 Y10.4823 
G01 X-20.1975 Y10.2747 
G01 X-20.1634 Y10.0591 
G01 X-20.1634 Y9.8409 
G01 X-20.1975 Y9.6253 
G01 X-20.2650 Y9.4177 
G01 X-20.3641 Y9.2233 
G01 X-20.4923 Y9.0467 
G01 X-20.6467 Y8.8923 
G01 X-20.8233 Y8.7641 
G01 X-21.0177 Y8.6650 
G01 X-21.2253 Y8.5975 
G01 X-21.4409 Y8.5634 
G01 X-21.6591 Y8.5634 
G01 X-21.8747 Y8.5975 
G01 X-22.0823 Y8.6650 
G01 X-22.2767 Y8.7641 
G01 X-22.4533 Y8.8923 
G01 X-22.6077 Y9.0467 
G01 X-22.7359 Y9.2233 
G01 X-22.8000 Y9.3490 
G01 X-22.8641 Y9.2233 
G01 X-22.9923 Y9.0467 
G01 X-23.1467 Y8.8923 
G01 X-23.3233 Y8.7641 
G01 X-23.5177 Y8.6650 
G01 X-23.7253 Y8.5975 
G01 X-23.9409 Y8.5634 
G01 X-24.1591 Y8.5634 
G01 X-24.3747 Y8.5975 
G01 X-24.5823 Y8.6650 
G01 X-24.7767 Y8.7641 
G01 X-24.9533 Y8.8923 
G01 X-25.1077 Y9.0467 
G01 X-25.2359 Y9.2233 
G01 X-25.3350 Y9.4177 
G01 X-25.4025 Y9.6253 
G01 X-25.4366 Y9.8409 
G00 Z2.0000 
G00 X-73.7766 Y4.8409 
G01 Z-0.1500 F100.00 
G01 X-73.7766 Y5.0591 F208.00 
G01 X-73.7425 Y5.2747 
G01 X-73.6750 Y5.4823 
G01 X-73.5759 Y5.6767 
G01 X-73.4477 Y5.8533 
G01 X-73.2933 Y6.0077 
G01 X-73.1167 Y6.1359 
G01 X-72.9223 Y6.2350 
G01 X-72.7147 Y6.3025 
G01 X-72.4991 Y6.3366 
G01 X-72.2809 Y6.3366 
G01 X-72.0653 Y6.3025 
G01 X-71.8577 Y6.2350 
G01 X-71.6633 Y6.1359 
G01 X-71.4867 Y6.0077 
G01 X-71.3323 Y5.8533 
G01 X-71.2667 Y5.7630 
G01 X-70.5467 Y5.7630 
G01 X-68.7052 Y7.6045 
G01 X-68.5933 Y7.6793 
G01 X-68.4690 Y7.7308 
G01 X-68.3371 Y7.7570 
G01 X-65.4431 Y7.7570 
G01 X-65.4530 Y7.8065 
G01 X-65.4530 Y14.0373 
G01 X-65.4267 Y14.1692 
G01 X-65.3753 Y14.2935 
G01 X-65.3005 Y14.4054 
G01 X-65.2054 Y14.5005 
G01 X-63.9354 Y15.7705 
G01 X-63.8235 Y15.8453 
G01 X-63.6992 Y15.8968 
G01 X-63.5673 Y15.9230 
G01 X-58.7029 Y15.9230 
G01 X-55.2930 Y19.3329 
G01 X-55.2930 Y28.0073 
G01 X-55.2668 Y28.1392 
G01 X-55.2153 Y28.2635 
G01 X-55.1405 Y28.3754 
G01 X-55.0454 Y28.4705 
G01 X-54.9335 Y28.5453 
G01 X-54.8092 Y28.5968 
G01 X-54.6773 Y28.6230 
G01 X-38.5984 Y28.6230 
G01 X-38.4460 Y28.7754 
G01 X-37.7540 Y28.7754 
G01 X-37.6016 Y28.6230 
G01 X-33.6508 Y28.6230 
G01 X-33.6122 Y28.6616 
G01 X-33.4600 Y28.7633 
G01 X-33.2910 Y28.8333 
G01 X-33.1115 Y28.8690 
G01 X-32.9285 Y28.8690 
G01 X-32.7490 Y28.8333 
G01 X-32.5800 Y28.7633 
G01 X-32.4278 Y28.6616 
G01 X-32.2984 Y28.5322 
G01 X-32.1967 Y28.3800 
G01 X-32.1267 Y28.2110 
G01 X-32.0910 Y28.0315 
G01 X-32.0910 Y27.8485 
G01 X-32.1267 Y27.6690 
G01 X-32.1967 Y27.5000 
G01 X-32.2984 Y27.3478 
G01 X-32.4278 Y27.2184 
G01 X-32.5800 Y27.1167 
G01 X-32.7490 Y27.0467 
G01 X-32.9285 Y27.0110 
G01 X-33.1115 Y27.0110 
G01 X-33.2910 Y27.0467 
G01 X-33.4600 Y27.1167 
G01 X-33.6122 Y27.2184 
G01 X-33.6508 Y27.2570 
G01 X-37.6016 Y27.2570 
G01 X-37.7540 Y27.1046 
G01 X-38.4460 Y27.1046 
G01 X-38.5984 Y27.2570 
G01 X-53.9270 Y27.2570 
G01 X-53.9270 Y18.9827 
G01 X-53.9532 Y18.8508 
G01 X-54.0047 Y18.7265 
G01 X-54.0795 Y18.6146 
G01 X-57.8895 Y14.8046 
G01 X-57.9846 Y14.7095 
G01 X-58.0965 Y14.6347 
G01 X-58.2208 Y14.5832 
G01 X-58.3527 Y14.5570 
G01 X-63.2171 Y14.5570 
G01 X-64.0870 Y13.6871 
G01 X-64.0870 Y8.1567 
G01 X-63.4397 Y7.5094 
G01 X-63.3649 Y7.3975 
G01 X-63.3135 Y7.2732 
G01 X-63.2872 Y7.1413 
G01 X-63.2872 Y7.0067 
G01 X-63.3135 Y6.8748 
G01 X-63.3649 Y6.7505 
G01 X-63.4397 Y6.6386 
G01 X-63.5348 Y6.5435 
G01 X-63.6467 Y6.4687 
G01 X-63.7710 Y6.4172 
G01 X-63.9029 Y6.3910 
G01 X-67.9869 Y6.3910 
G01 X-69.8284 Y4.5495 
G01 X-69.9403 Y4.4747 
G01 X-70.0646 Y4.4232 
G01 X-70.1965 Y4.3970 
G01 X-71.1155 Y4.3970 
G01 X-71.2041 Y4.2233 
G01 X-71.3323 Y4.0467 
G01 X-71.4867 Y3.8923 
G01 X-71.6633 Y3.7641 
G01 X-71.8577 Y3.6650 
G01 X-72.0653 Y3.5975 
G01 X-72.2809 Y3.5634 
G01 X-72.4991 Y3.5634 
G01 X-72.7147 Y3.5975 
G01 X-72.9223 Y3.6650 
G01 X-73.1167 Y3.7641 
G01 X-73.2933 Y3.8923 
G01 X-73.4477 Y4.0467 
G01 X-73.5759 Y4.2233 
G01 X-73.6750 Y4.4177 
G01 X-73.7425 Y4.6253 
G01 X-73.7766 Y4.8409 
G00 Z2.0000 
G00 X-60.9966 Y9.8409 
G01 Z-0.1500 F100.00 
G01 X-60.9966 Y10.0591 F208.00 
G01 X-60.9625 Y10.2747 
G01 X-60.8950 Y10.4823 
G01 X-60.7959 Y10.6767 
G01 X-60.6677 Y10.8533 
G01 X-60.5133 Y11.0077 
G01 X-60.3367 Y11.1359 
G01 X-60.2930 Y11.1582 
G01 X-60.2930 Y12.3731 
G01 X-60.2953 Y12.3765 
G01 X-60.3468 Y12.5008 
G01 X-60.3730 Y12.6327 
G01 X-60.3730 Y12.7673 
G01 X-60.3468 Y12.8992 
G01 X-60.2953 Y13.0235 
G01 X-60.2205 Y13.1354 
G01 X-60.1254 Y13.2305 
G01 X-60.0135 Y13.3053 
G01 X-59.8892 Y13.3567 
G01 X-59.7573 Y13.3830 
G01 X-59.6227 Y13.3830 
G01 X-59.4908 Y13.3567 
G01 X-59.3665 Y13.3053 
G01 X-59.3631 Y13.3030 
G01 X-56.2429 Y13.3030 
G01 X-52.7530 Y16.7929 
G01 X-52.7530 Y26.0013 
G01 X-52.7268 Y26.1332 
G01 X-52.6753 Y26.2575 
G01 X-52.6005 Y26.3694 
G01 X-52.5054 Y26.4645 
G01 X-52.3935 Y26.5393 
G01 X-52.2692 Y26.5907 
G01 X-52.1373 Y26.6170 
G01 X-50.4754 Y26.6170 
G01 X-50.3435 Y26.5907 
G01 X-50.2192 Y26.5393 
G01 X-50.1073 Y26.4645 
G01 X-50.0122 Y26.3694 
G01 X-49.7258 Y26.0830 
G01 X-48.0642 Y26.0830 
G01 X-47.6827 Y26.4645 
G01 X-47.5708 Y26.5393 
G01 X-47.4465 Y26.5907 
G01 X-47.3146 Y26.6170 
G01 X-44.6334 Y26.6170 
G01 X-44.5015 Y26.5907 
G01 X-44.3772 Y26.5393 
G01 X-44.2653 Y26.4645 
G01 X-44.1702 Y26.3694 
G01 X-43.8838 Y26.0830 
G01 X-38.5984 Y26.0830 
G01 X-38.4460 Y26.2354 
G01 X-37.7540 Y26.2354 
G01 X-37.6016 Y26.0830 
G01 X-33.6508 Y26.0830 
G01 X-33.6122 Y26.1216 
G01 X-33.4600 Y26.2233 
G01 X-33.2910 Y26.2933 
G01 X-33.1115 Y26.3290 
G01 X-32.9285 Y26.3290 
G01 X-32.7490 Y26.2933 
G01 X-32.5800 Y26.2233 
G01 X-32.4278 Y26.1216 
G01 X-32.2984 Y25.9922 
G01 X-32.1967 Y25.8400 
G01 X-32.1267 Y25.6710 
G01 X-32.0910 Y25.4915 
G01 X-32.0910 Y25.3085 
G01 X-32.1267 Y25.1290 
G01 X-32.1967 Y24.9600 
G01 X-32.2984 Y24.8078 
G01 X-32.4278 Y24.6784 
G01 X-32.5800 Y24.5767 
G01 X-32.7490 Y24.5067 
G01 X-32.9285 Y24.4710 
G01 X-33.1115 Y24.4710 
G01 X-33.2910 Y24.5067 
G01 X-33.4600 Y24.5767 
G01 X-33.6122 Y24.6784 
G01 X-33.6508 Y24.7170 
G01 X-37.6016 Y24.7170 
G01 X-37.7540 Y24.5646 
G01 X-38.4460 Y24.5646 
G01 X-38.5984 Y24.7170 
G01 X-44.2340 Y24.7170 
G01 X-44.3659 Y24.7432 
G01 X-44.4902 Y24.7947 
G01 X-44.6021 Y24.8695 
G01 X-44.9836 Y25.2510 
G01 X-46.9644 Y25.2510 
G01 X-47.2508 Y24.9646 
G01 X-47.3459 Y24.8695 
G01 X-47.4578 Y24.7947 
G01 X-47.5821 Y24.7432 
G01 X-47.7140 Y24.7170 
G01 X-50.0760 Y24.7170 
G01 X-50.2079 Y24.7432 
G01 X-50.3322 Y24.7947 
G01 X-50.4441 Y24.8695 
G01 X-50.5392 Y24.9646 
G01 X-50.8256 Y25.2510 
G01 X-51.3870 Y25.2510 
G01 X-51.3870 Y16.4427 
G01 X-51.4132 Y16.3108 
G01 X-51.4647 Y16.1865 
G01 X-51.5395 Y16.0746 
G01 X-55.5246 Y12.0895 
G01 X-55.6365 Y12.0147 
G01 X-55.7608 Y11.9632 
G01 X-55.8927 Y11.9370 
G01 X-58.9270 Y11.9370 
G01 X-58.9270 Y11.1582 
G01 X-58.8833 Y11.1359 
G01 X-58.7067 Y11.0077 
G01 X-58.5523 Y10.8533 
G01 X-58.4241 Y10.6767 
G01 X-58.3600 Y10.5510 
G01 X-58.2959 Y10.6767 
G01 X-58.1677 Y10.8533 
G01 X-58.0133 Y11.0077 
G01 X-57.8367 Y11.1359 
G01 X-57.6423 Y11.2350 
G01 X-57.4347 Y11.3025 
G01 X-57.2191 Y11.3366 
G01 X-57.0009 Y11.3366 
G01 X-56.7853 Y11.3025 
G01 X-56.5777 Y11.2350 
G01 X-56.3833 Y11.1359 
G01 X-56.2067 Y11.0077 
G01 X-56.0523 Y10.8533 
G01 X-55.9241 Y10.6767 
G01 X-55.8250 Y10.4823 
G01 X-55.7575 Y10.2747 
G01 X-55.7234 Y10.0591 
G01 X-55.7234 Y9.8409 
G01 X-55.7575 Y9.6253 
G01 X-55.8250 Y9.4177 
G01 X-55.9241 Y9.2233 
G01 X-56.0523 Y9.0467 
G01 X-56.2067 Y8.8923 
G01 X-56.3833 Y8.7641 
G01 X-56.5777 Y8.6650 
G01 X-56.7853 Y8.5975 
G01 X-57.0009 Y8.5634 
G01 X-57.2191 Y8.5634 
G01 X-57.4347 Y8.5975 
G01 X-57.6423 Y8.6650 
G01 X-57.8367 Y8.7641 
G01 X-58.0133 Y8.8923 
G01 X-58.1677 Y9.0467 
G01 X-58.2959 Y9.2233 
G01 X-58.3600 Y9.3490 
G01 X-58.4241 Y9.2233 
G01 X-58.5523 Y9.0467 
G01 X-58.7067 Y8.8923 
G01 X-58.8833 Y8.7641 
G01 X-59.0777 Y8.6650 
G01 X-59.2853 Y8.5975 
G01 X-59.5009 Y8.5634 
G01 X-59.7191 Y8.5634 
G01 X-59.9347 Y8.5975 
G01 X-60.1423 Y8.6650 
G01 X-60.3367 Y8.7641 
G01 X-60.5133 Y8.8923 
G01 X-60.6677 Y9.0467 
G01 X-60.7959 Y9.2233 
G01 X-60.8950 Y9.4177 
G01 X-60.9625 Y9.6253 
G01 X-60.9966 Y9.8409 
G00 Z2.0000 
G00 X-14.5622 Y43.9016 
G01 Z-0.1500 F100.00 
G01 X-14.4100 Y44.0033 F208.00 
G01 X-14.2410 Y44.0733 
G01 X-14.0615 Y44.1090 
G01 X-13.8785 Y44.1090 
G01 X-13.6990 Y44.0733 
G01 X-13.5300 Y44.0033 
G01 X-13.3778 Y43.9016 
G01 X-13.3392 Y43.8630 
G01 X-5.2141 Y43.8630 
G01 X-5.1693 Y43.9078 
G01 X-5.0158 Y44.0104 
G01 X-4.8453 Y44.0810 
G01 X-4.6643 Y44.1170 
G01 X-2.9557 Y44.1170 
G01 X-2.7747 Y44.0810 
G01 X-2.6042 Y44.0104 
G01 X-2.4507 Y43.9078 
G01 X-2.3202 Y43.7773 
G01 X-2.2176 Y43.6238 
G01 X-2.1470 Y43.4533 
G01 X-2.1110 Y43.2723 
G01 X-2.1110 Y43.0877 
G01 X-2.1470 Y42.9067 
G01 X-2.2176 Y42.7362 
G01 X-2.3202 Y42.5827 
G01 X-2.4507 Y42.4522 
G01 X-2.6042 Y42.3496 
G01 X-2.7747 Y42.2790 
G01 X-2.9557 Y42.2430 
G01 X-4.6643 Y42.2430 
G01 X-4.8453 Y42.2790 
G01 X-5.0158 Y42.3496 
G01 X-5.1693 Y42.4522 
G01 X-5.2141 Y42.4970 
G01 X-13.3392 Y42.4970 
G01 X-13.3778 Y42.4584 
G01 X-13.5300 Y42.3567 
G01 X-13.6990 Y42.2867 
G01 X-13.8785 Y42.2510 
G01 X-14.0615 Y42.2510 
G01 X-14.2410 Y42.2867 
G01 X-14.4100 Y42.3567 
G01 X-14.5622 Y42.4584 
G01 X-14.6008 Y42.4970 
G01 X-18.5872 Y42.4970 
G01 X-18.6592 Y42.4489 
G01 X-18.8094 Y42.3867 
G01 X-18.9687 Y42.3550 
G01 X-19.1313 Y42.3550 
G01 X-19.2906 Y42.3867 
G01 X-19.4408 Y42.4489 
G01 X-19.5128 Y42.4970 
G01 X-24.8338 Y42.4970 
G01 X-25.1202 Y42.2106 
G01 X-25.2153 Y42.1155 
G01 X-25.3272 Y42.0407 
G01 X-25.4515 Y41.9892 
G01 X-25.5834 Y41.9630 
G01 X-28.2646 Y41.9630 
G01 X-28.3965 Y41.9892 
G01 X-28.5208 Y42.0407 
G01 X-28.6327 Y42.1155 
G01 X-29.0142 Y42.4970 
G01 X-32.3892 Y42.4970 
G01 X-32.4278 Y42.4584 
G01 X-32.5800 Y42.3567 
G01 X-32.7490 Y42.2867 
G01 X-32.9285 Y42.2510 
G01 X-33.1115 Y42.2510 
G01 X-33.2910 Y42.2867 
G01 X-33.4600 Y42.3567 
G01 X-33.6122 Y42.4584 
G01 X-33.7416 Y42.5878 
G01 X-33.8433 Y42.7400 
G01 X-33.9133 Y42.9090 
G01 X-33.9490 Y43.0885 
G01 X-33.9490 Y43.2715 
G01 X-33.9133 Y43.4510 
G01 X-33.8433 Y43.6200 
G01 X-33.7416 Y43.7722 
G01 X-33.6122 Y43.9016 
G01 X-33.4600 Y44.0033 
G01 X-33.2910 Y44.0733 
G01 X-33.1115 Y44.1090 
G01 X-32.9285 Y44.1090 
G01 X-32.7490 Y44.0733 
G01 X-32.5800 Y44.0033 
G01 X-32.4278 Y43.9016 
G01 X-32.3892 Y43.8630 
G01 X-28.6640 Y43.8630 
G01 X-28.5321 Y43.8368 
G01 X-28.4078 Y43.7853 
G01 X-28.2959 Y43.7105 
G01 X-28.2008 Y43.6154 
G01 X-27.9144 Y43.3290 
G01 X-25.9336 Y43.3290 
G01 X-25.5521 Y43.7105 
G01 X-25.4402 Y43.7853 
G01 X-25.3159 Y43.8368 
G01 X-25.1840 Y43.8630 
G01 X-19.5128 Y43.8630 
G01 X-19.4408 Y43.9111 
G01 X-19.2906 Y43.9733 
G01 X-19.1313 Y44.0050 
G01 X-18.9687 Y44.0050 
G01 X-18.8094 Y43.9733 
G01 X-18.6592 Y43.9111 
G01 X-18.5872 Y43.8630 
G01 X-14.6008 Y43.8630 
G01 X-14.5622 Y43.9016 
G00 Z2.0000 
G00 X-14.5622 Y36.2816 
G01 Z-0.1500 F100.00 
G01 X-14.4100 Y36.3833 F208.00 
G01 X-14.2410 Y36.4533 
G01 X-14.0615 Y36.4890 
G01 X-13.8785 Y36.4890 
G01 X-13.6990 Y36.4533 
G01 X-13.5300 Y36.3833 
G01 X-13.3778 Y36.2816 
G01 X-13.2484 Y36.1522 
G01 X-13.1467 Y36.0000 
G01 X-13.0767 Y35.8310 
G01 X-13.0410 Y35.6515 
G01 X-13.0410 Y35.4685 
G01 X-13.0767 Y35.2890 
G01 X-13.1467 Y35.1200 
G01 X-13.2484 Y34.9678 
G01 X-13.3778 Y34.8384 
G01 X-13.5300 Y34.7367 
G01 X-13.6990 Y34.6667 
G01 X-13.8785 Y34.6310 
G01 X-14.0615 Y34.6310 
G01 X-14.2410 Y34.6667 
G01 X-14.4100 Y34.7367 
G01 X-14.5622 Y34.8384 
G01 X-14.6008 Y34.8770 
G01 X-19.8572 Y34.8770 
G01 X-19.9292 Y34.8289 
G01 X-20.0794 Y34.7667 
G01 X-20.2387 Y34.7350 
G01 X-20.4013 Y34.7350 
G01 X-20.5606 Y34.7667 
G01 X-20.7108 Y34.8289 
G01 X-20.8459 Y34.9192 
G01 X-20.9608 Y35.0341 
G01 X-21.0511 Y35.1692 
G01 X-21.1133 Y35.3194 
G01 X-21.1450 Y35.4787 
G01 X-21.1450 Y35.6413 
G01 X-21.1133 Y35.8006 
G01 X-21.0511 Y35.9508 
G01 X-20.9608 Y36.0859 
G01 X-20.8459 Y36.2008 
G01 X-20.7108 Y36.2911 
G01 X-20.5606 Y36.3533 
G01 X-20.4013 Y36.3850 
G01 X-20.2387 Y36.3850 
G01 X-20.0794 Y36.3533 
G01 X-19.9292 Y36.2911 
G01 X-19.8572 Y36.2430 
G01 X-14.6008 Y36.2430 
G01 X-14.5622 Y36.2816 
G00 Z2.0000 
G00 X-14.8990 Y32.9285 
G01 Z-0.1500 F100.00 
G01 X-14.8990 Y33.1115 F208.00 
G01 X-14.8633 Y33.2910 
G01 X-14.7933 Y33.4600 
G01 X-14.6916 Y33.6122 
G01 X-14.5622 Y33.7416 
G01 X-14.4100 Y33.8433 
G01 X-14.2410 Y33.9133 
G01 X-14.0615 Y33.9490 
G01 X-13.8785 Y33.9490 
G01 X-13.6990 Y33.9133 
G01 X-13.5300 Y33.8433 
G01 X-13.3778 Y33.7416 
G01 X-13.2484 Y33.6122 
G01 X-13.1467 Y33.4600 
G01 X-13.0767 Y33.2910 
G01 X-13.0410 Y33.1115 
G01 X-13.0410 Y32.9285 
G01 X-13.0767 Y32.7490 
G01 X-13.1467 Y32.5800 
G01 X-13.2484 Y32.4278 
G01 X-13.3778 Y32.2984 
G01 X-13.5300 Y32.1967 
G01 X-13.6990 Y32.1267 
G01 X-13.8785 Y32.0910 
G01 X-14.0615 Y32.0910 
G01 X-14.2410 Y32.1267 
G01 X-14.4100 Y32.1967 
G01 X-14.5622 Y32.2984 
G01 X-14.6916 Y32.4278 
G01 X-14.7933 Y32.5800 
G01 X-14.8633 Y32.7490 
G01 X-14.8990 Y32.9285 
G00 Z2.0000 
G00 X-84.7490 Y30.3885 
G01 Z-0.1500 F100.00 
G01 X-84.7490 Y30.5715 F208.00 
G01 X-84.7133 Y30.7510 
G01 X-84.6433 Y30.9200 
G01 X-84.5416 Y31.0722 
G01 X-84.4122 Y31.2016 
G01 X-84.2600 Y31.3033 
G01 X-84.0910 Y31.3733 
G01 X-83.9115 Y31.4090 
G01 X-83.7285 Y31.4090 
G01 X-83.5490 Y31.3733 
G01 X-83.3800 Y31.3033 
G01 X-83.2278 Y31.2016 
G01 X-83.1892 Y31.1630 
G01 X-77.9328 Y31.1630 
G01 X-77.8608 Y31.2111 
G01 X-77.7106 Y31.2733 
G01 X-77.5513 Y31.3050 
G01 X-77.3887 Y31.3050 
G01 X-77.2294 Y31.2733 
G01 X-77.0792 Y31.2111 
G01 X-77.0072 Y31.1630 
G01 X-65.4008 Y31.1630 
G01 X-65.3622 Y31.2016 
G01 X-65.2100 Y31.3033 
G01 X-65.0410 Y31.3733 
G01 X-64.8615 Y31.4090 
G01 X-64.6785 Y31.4090 
G01 X-64.4990 Y31.3733 
G01 X-64.3300 Y31.3033 
G01 X-64.1778 Y31.2016 
G01 X-64.0484 Y31.0722 
G01 X-63.9467 Y30.9200 
G01 X-63.8767 Y30.7510 
G01 X-63.8410 Y30.5715 
G01 X-63.8410 Y30.3885 
G01 X-63.8767 Y30.2090 
G01 X-63.9467 Y30.0400 
G01 X-64.0484 Y29.8878 
G01 X-64.1778 Y29.7584 
G01 X-64.3300 Y29.6567 
G01 X-64.4990 Y29.5867 
G01 X-64.6785 Y29.5510 
G01 X-64.8615 Y29.5510 
G01 X-65.0410 Y29.5867 
G01 X-65.2100 Y29.6567 
G01 X-65.3622 Y29.7584 
G01 X-65.4008 Y29.7970 
G01 X-77.0072 Y29.7970 
G01 X-77.0792 Y29.7489 
G01 X-77.2294 Y29.6867 
G01 X-77.3887 Y29.6550 
G01 X-77.5513 Y29.6550 
G01 X-77.7106 Y29.6867 
G01 X-77.8608 Y29.7489 
G01 X-77.9328 Y29.7970 
G01 X-83.1892 Y29.7970 
G01 X-83.2278 Y29.7584 
G01 X-83.3800 Y29.6567 
G01 X-83.5490 Y29.5867 
G01 X-83.7285 Y29.5510 
G01 X-83.9115 Y29.5510 
G01 X-84.0910 Y29.5867 
G01 X-84.2600 Y29.6567 
G01 X-84.4122 Y29.7584 
G01 X-84.5416 Y29.8878 
G01 X-84.6433 Y30.0400 
G01 X-84.7133 Y30.2090 
G01 X-84.7490 Y30.3885 
G00 Z2.0000 
G00 X-84.4122 Y33.7416 
G01 Z-0.1500 F100.00 
G01 X-84.2600 Y33.8433 F208.00 
G01 X-84.0910 Y33.9133 
G01 X-83.9115 Y33.9490 
G01 X-83.7285 Y33.9490 
G01 X-83.5490 Y33.9133 
G01 X-83.3800 Y33.8433 
G01 X-83.2278 Y33.7416 
G01 X-83.0984 Y33.6122 
G01 X-82.9967 Y33.4600 
G01 X-82.9267 Y33.2910 
G01 X-82.8910 Y33.1115 
G01 X-82.8910 Y32.9285 
G01 X-82.9267 Y32.7490 
G01 X-82.9967 Y32.5800 
G01 X-83.0984 Y32.4278 
G01 X-83.2278 Y32.2984 
G01 X-83.3800 Y32.1967 
G01 X-83.5490 Y32.1267 
G01 X-83.7285 Y32.0910 
G01 X-83.9115 Y32.0910 
G01 X-84.0910 Y32.1267 
G01 X-84.2600 Y32.1967 
G01 X-84.4122 Y32.2984 
G01 X-84.4508 Y32.3370 
G01 X-88.2170 Y32.3370 
G01 X-88.2170 Y26.0830 
G01 X-84.4508 Y26.0830 
G01 X-84.4122 Y26.1216 
G01 X-84.2600 Y26.2233 
G01 X-84.0910 Y26.2933 
G01 X-83.9115 Y26.3290 
G01 X-83.7285 Y26.3290 
G01 X-83.5490 Y26.2933 
G01 X-83.3800 Y26.2233 
G01 X-83.2278 Y26.1216 
G01 X-83.1892 Y26.0830 
G01 X-76.6628 Y26.0830 
G01 X-76.5908 Y26.1311 
G01 X-76.4406 Y26.1933 
G01 X-76.2813 Y26.2250 
G01 X-76.1187 Y26.2250 
G01 X-75.9594 Y26.1933 
G01 X-75.8092 Y26.1311 
G01 X-75.7372 Y26.0830 
G01 X-72.9562 Y26.0830 
G01 X-72.5747 Y26.4645 
G01 X-72.4628 Y26.5393 
G01 X-72.3385 Y26.5907 
G01 X-72.2066 Y26.6170 
G01 X-69.5254 Y26.6170 
G01 X-69.3935 Y26.5907 
G01 X-69.2692 Y26.5393 
G01 X-69.1573 Y26.4645 
G01 X-69.0622 Y26.3694 
G01 X-68.7758 Y26.0830 
G01 X-65.4008 Y26.0830 
G01 X-65.3622 Y26.1216 
G01 X-65.2100 Y26.2233 
G01 X-65.0410 Y26.2933 
G01 X-64.8615 Y26.3290 
G01 X-64.6785 Y26.3290 
G01 X-64.4990 Y26.2933 
G01 X-64.3300 Y26.2233 
G01 X-64.1778 Y26.1216 
G01 X-64.0484 Y25.9922 
G01 X-63.9467 Y25.8400 
G01 X-63.8767 Y25.6710 
G01 X-63.8410 Y25.4915 
G01 X-63.8410 Y25.3085 
G01 X-63.8767 Y25.1290 
G01 X-63.9467 Y24.9600 
G01 X-64.0484 Y24.8078 
G01 X-64.1778 Y24.6784 
G01 X-64.3300 Y24.5767 
G01 X-64.4990 Y24.5067 
G01 X-64.6785 Y24.4710 
G01 X-64.8615 Y24.4710 
G01 X-65.0410 Y24.5067 
G01 X-65.2100 Y24.5767 
G01 X-65.3622 Y24.6784 
G01 X-65.4008 Y24.7170 
G01 X-69.1260 Y24.7170 
G01 X-69.2579 Y24.7432 
G01 X-69.3822 Y24.7947 
G01 X-69.4941 Y24.8695 
G01 X-69.5892 Y24.9646 
G01 X-69.8756 Y25.2510 
G01 X-71.8564 Y25.2510 
G01 X-72.1428 Y24.9646 
G01 X-72.2379 Y24.8695 
G01 X-72.3498 Y24.7947 
G01 X-72.4741 Y24.7432 
G01 X-72.6060 Y24.7170 
G01 X-75.7372 Y24.7170 
G01 X-75.8092 Y24.6689 
G01 X-75.9594 Y24.6067 
G01 X-76.1187 Y24.5750 
G01 X-76.2813 Y24.5750 
G01 X-76.4406 Y24.6067 
G01 X-76.5908 Y24.6689 
G01 X-76.6628 Y24.7170 
G01 X-83.1892 Y24.7170 
G01 X-83.2278 Y24.6784 
G01 X-83.3800 Y24.5767 
G01 X-83.5490 Y24.5067 
G01 X-83.7285 Y24.4710 
G01 X-83.9115 Y24.4710 
G01 X-84.0910 Y24.5067 
G01 X-84.2600 Y24.5767 
G01 X-84.4122 Y24.6784 
G01 X-84.4508 Y24.7170 
G01 X-88.9673 Y24.7170 
G01 X-89.0992 Y24.7432 
G01 X-89.2235 Y24.7947 
G01 X-89.3354 Y24.8695 
G01 X-89.4305 Y24.9646 
G01 X-89.5053 Y25.0765 
G01 X-89.5568 Y25.2008 
G01 X-89.5830 Y25.3327 
G01 X-89.5830 Y33.0873 
G01 X-89.5568 Y33.2192 
G01 X-89.5053 Y33.3435 
G01 X-89.4305 Y33.4554 
G01 X-89.3354 Y33.5505 
G01 X-89.2235 Y33.6253 
G01 X-89.0992 Y33.6767 
G01 X-88.9673 Y33.7030 
G01 X-84.4508 Y33.7030 
G01 X-84.4122 Y33.7416 
G00 Z2.0000 
G00 X-84.7490 Y35.4685 
G01 Z-0.1500 F100.00 
G01 X-84.7490 Y35.6515 F208.00 
G01 X-84.7133 Y35.8310 
G01 X-84.6433 Y36.0000 
G01 X-84.5416 Y36.1522 
G01 X-84.4122 Y36.2816 
G01 X-84.2600 Y36.3833 
G01 X-84.0910 Y36.4533 
G01 X-83.9115 Y36.4890 
G01 X-83.7285 Y36.4890 
G01 X-83.5490 Y36.4533 
G01 X-83.3800 Y36.3833 
G01 X-83.2278 Y36.2816 
G01 X-83.0984 Y36.1522 
G01 X-82.9967 Y36.0000 
G01 X-82.9267 Y35.8310 
G01 X-82.8910 Y35.6515 
G01 X-82.8910 Y35.4685 
G01 X-82.9267 Y35.2890 
G01 X-82.9967 Y35.1200 
G01 X-83.0984 Y34.9678 
G01 X-83.2278 Y34.8384 
G01 X-83.3800 Y34.7367 
G01 X-83.5490 Y34.6667 
G01 X-83.7285 Y34.6310 
G01 X-83.9115 Y34.6310 
G01 X-84.0910 Y34.6667 
G01 X-84.2600 Y34.7367 
G01 X-84.4122 Y34.8384 
G01 X-84.5416 Y34.9678 
G01 X-84.6433 Y35.1200 
G01 X-84.7133 Y35.2890 
G01 X-84.7490 Y35.4685 
G00 Z2.0000 
G00 X-84.7490 Y45.6285 
G01 Z-0.1500 F100.00 
G01 X-84.7490 Y45.8115 F208.00 
G01 X-84.7133 Y45.9910 
G01 X-84.6433 Y46.1600 
G01 X-84.5416 Y46.3122 
G01 X-84.4122 Y46.4416 
G01 X-84.2600 Y46.5433 
G01 X-84.0910 Y46.6133 
G01 X-83.9115 Y46.6490 
G01 X-83.7285 Y46.6490 
G01 X-83.5490 Y46.6133 
G01 X-83.3800 Y46.5433 
G01 X-83.2278 Y46.4416 
G01 X-83.1892 Y46.4030 
G01 X-80.6930 Y46.4030 
G01 X-80.6930 Y55.9473 
G01 X-80.6668 Y56.0792 
G01 X-80.6153 Y56.2035 
G01 X-80.5405 Y56.3154 
G01 X-80.4454 Y56.4105 
G01 X-80.3335 Y56.4853 
G01 X-80.2092 Y56.5368 
G01 X-80.0773 Y56.5630 
G01 X-66.8030 Y56.5630 
G01 X-66.8030 Y57.4218 
G01 X-66.8467 Y57.4441 
G01 X-67.0233 Y57.5723 
G01 X-67.1777 Y57.7267 
G01 X-67.3059 Y57.9032 
G01 X-67.3700 Y58.0290 
G01 X-67.4340 Y57.9032 
G01 X-67.5623 Y57.7267 
G01 X-67.7167 Y57.5723 
G01 X-67.8933 Y57.4441 
G01 X-68.0877 Y57.3450 
G01 X-68.2953 Y57.2775 
G01 X-68.5109 Y57.2434 
G01 X-68.7291 Y57.2434 
G01 X-68.9447 Y57.2775 
G01 X-69.1523 Y57.3450 
G01 X-69.3467 Y57.4441 
G01 X-69.5233 Y57.5723 
G01 X-69.6777 Y57.7267 
G01 X-69.8059 Y57.9032 
G01 X-69.9050 Y58.0977 
G01 X-69.9725 Y58.3053 
G01 X-70.0066 Y58.5209 
G01 X-70.0066 Y58.7391 
G01 X-69.9725 Y58.9547 
G01 X-69.9050 Y59.1623 
G01 X-69.8059 Y59.3567 
G01 X-69.6777 Y59.5333 
G01 X-69.5233 Y59.6877 
G01 X-69.3467 Y59.8159 
G01 X-69.1523 Y59.9150 
G01 X-68.9447 Y59.9825 
G01 X-68.7291 Y60.0166 
G01 X-68.5109 Y60.0166 
G01 X-68.2953 Y59.9825 
G01 X-68.0877 Y59.9150 
G01 X-67.8933 Y59.8159 
G01 X-67.7167 Y59.6877 
G01 X-67.5623 Y59.5333 
G01 X-67.4340 Y59.3567 
G01 X-67.3700 Y59.2310 
G01 X-67.3059 Y59.3567 
G01 X-67.1777 Y59.5333 
G01 X-67.0233 Y59.6877 
G01 X-66.8467 Y59.8159 
G01 X-66.6523 Y59.9150 
G01 X-66.4447 Y59.9825 
G01 X-66.2291 Y60.0166 
G01 X-66.0109 Y60.0166 
G01 X-65.7953 Y59.9825 
G01 X-65.5877 Y59.9150 
G01 X-65.3933 Y59.8159 
G01 X-65.2167 Y59.6877 
G01 X-65.0623 Y59.5333 
G01 X-64.9340 Y59.3567 
G01 X-64.8350 Y59.1623 
G01 X-64.7675 Y58.9547 
G01 X-64.7334 Y58.7391 
G01 X-64.7334 Y58.5209 
G01 X-64.7675 Y58.3053 
G01 X-64.8350 Y58.0977 
G01 X-64.9340 Y57.9032 
G01 X-65.0623 Y57.7267 
G01 X-65.2167 Y57.5723 
G01 X-65.3933 Y57.4441 
G01 X-65.4370 Y57.4218 
G01 X-65.4370 Y56.2069 
G01 X-65.4347 Y56.2035 
G01 X-65.3832 Y56.0792 
G01 X-65.3570 Y55.9473 
G01 X-65.3570 Y55.8127 
G01 X-65.3832 Y55.6808 
G01 X-65.4347 Y55.5565 
G01 X-65.5095 Y55.4446 
G01 X-65.6046 Y55.3495 
G01 X-65.7165 Y55.2747 
G01 X-65.8408 Y55.2232 
G01 X-65.9727 Y55.1970 
G01 X-79.3270 Y55.1970 
G01 X-79.3270 Y46.2184 
G01 X-79.1746 Y46.0660 
G01 X-79.1746 Y45.3740 
G01 X-79.6640 Y44.8846 
G01 X-80.3560 Y44.8846 
G01 X-80.5084 Y45.0370 
G01 X-83.1892 Y45.0370 
G01 X-83.2278 Y44.9984 
G01 X-83.3800 Y44.8967 
G01 X-83.5490 Y44.8267 
G01 X-83.7285 Y44.7910 
G01 X-83.9115 Y44.7910 
G01 X-84.0910 Y44.8267 
G01 X-84.2600 Y44.8967 
G01 X-84.4122 Y44.9984 
G01 X-84.5416 Y45.1278 
G01 X-84.6433 Y45.2800 
G01 X-84.7133 Y45.4490 
G01 X-84.7490 Y45.6285 
G00 Z2.0000 
G00 X-65.3622 Y28.6616 
G01 Z-0.1500 F100.00 
G01 X-65.2100 Y28.7633 F208.00 
G01 X-65.0410 Y28.8333 
G01 X-64.8615 Y28.8690 
G01 X-64.6785 Y28.8690 
G01 X-64.4990 Y28.8333 
G01 X-64.3300 Y28.7633 
G01 X-64.1778 Y28.6616 
G01 X-64.1392 Y28.6230 
G01 X-62.9130 Y28.6230 
G01 X-62.9130 Y32.3370 
G01 X-64.1392 Y32.3370 
G01 X-64.1778 Y32.2984 
G01 X-64.3300 Y32.1967 
G01 X-64.4990 Y32.1267 
G01 X-64.6785 Y32.0910 
G01 X-64.8615 Y32.0910 
G01 X-65.0410 Y32.1267 
G01 X-65.2100 Y32.1967 
G01 X-65.3622 Y32.2984 
G01 X-65.4916 Y32.4278 
G01 X-65.5933 Y32.5800 
G01 X-65.6633 Y32.7490 
G01 X-65.6990 Y32.9285 
G01 X-65.6990 Y33.1115 
G01 X-65.6633 Y33.2910 
G01 X-65.5933 Y33.4600 
G01 X-65.4916 Y33.6122 
G01 X-65.3622 Y33.7416 
G01 X-65.2100 Y33.8433 
G01 X-65.0410 Y33.9133 
G01 X-64.8615 Y33.9490 
G01 X-64.6785 Y33.9490 
G01 X-64.4990 Y33.9133 
G01 X-64.3300 Y33.8433 
G01 X-64.1778 Y33.7416 
G01 X-64.1392 Y33.7030 
G01 X-62.1627 Y33.7030 
G01 X-62.0308 Y33.6767 
G01 X-61.9065 Y33.6253 
G01 X-61.7946 Y33.5505 
G01 X-61.6995 Y33.4554 
G01 X-61.6247 Y33.3435 
G01 X-61.5732 Y33.2192 
G01 X-61.5470 Y33.0873 
G01 X-61.5470 Y27.8727 
G01 X-61.5732 Y27.7408 
G01 X-61.6247 Y27.6165 
G01 X-61.6995 Y27.5046 
G01 X-61.7946 Y27.4095 
G01 X-61.9065 Y27.3347 
G01 X-62.0308 Y27.2832 
G01 X-62.1627 Y27.2570 
G01 X-64.1392 Y27.2570 
G01 X-64.1778 Y27.2184 
G01 X-64.3300 Y27.1167 
G01 X-64.4990 Y27.0467 
G01 X-64.6785 Y27.0110 
G01 X-64.8615 Y27.0110 
G01 X-65.0410 Y27.0467 
G01 X-65.2100 Y27.1167 
G01 X-65.3622 Y27.2184 
G01 X-65.4008 Y27.2570 
G01 X-79.5472 Y27.2570 
G01 X-79.6192 Y27.2089 
G01 X-79.7694 Y27.1467 
G01 X-79.9287 Y27.1150 
G01 X-80.0913 Y27.1150 
G01 X-80.2506 Y27.1467 
G01 X-80.4008 Y27.2089 
G01 X-80.4728 Y27.2570 
G01 X-83.1892 Y27.2570 
G01 X-83.2278 Y27.2184 
G01 X-83.3800 Y27.1167 
G01 X-83.5490 Y27.0467 
G01 X-83.7285 Y27.0110 
G01 X-83.9115 Y27.0110 
G01 X-84.0910 Y27.0467 
G01 X-84.2600 Y27.1167 
G01 X-84.4122 Y27.2184 
G01 X-84.5416 Y27.3478 
G01 X-84.6433 Y27.5000 
G01 X-84.7133 Y27.6690 
G01 X-84.7490 Y27.8485 
G01 X-84.7490 Y28.0315 
G01 X-84.7133 Y28.2110 
G01 X-84.6433 Y28.3800 
G01 X-84.5416 Y28.5322 
G01 X-84.4122 Y28.6616 
G01 X-84.2600 Y28.7633 
G01 X-84.0910 Y28.8333 
G01 X-83.9115 Y28.8690 
G01 X-83.7285 Y28.8690 
G01 X-83.5490 Y28.8333 
G01 X-83.3800 Y28.7633 
G01 X-83.2278 Y28.6616 
G01 X-83.1892 Y28.6230 
G01 X-80.4728 Y28.6230 
G01 X-80.4008 Y28.6711 
G01 X-80.2506 Y28.7333 
G01 X-80.0913 Y28.7650 
G01 X-79.9287 Y28.7650 
G01 X-79.7694 Y28.7333 
G01 X-79.6192 Y28.6711 
G01 X-79.5472 Y28.6230 
G01 X-65.4008 Y28.6230 
G01 X-65.3622 Y28.6616 
G00 Z2.0000 
G00 X-65.6990 Y35.4685 
G01 Z-0.1500 F100.00 
G01 X-65.6990 Y35.6515 F208.00 
G01 X-65.6633 Y35.8310 
G01 X-65.5933 Y36.0000 
G01 X-65.4916 Y36.1522 
G01 X-65.3622 Y36.2816 
G01 X-65.2100 Y36.3833 
G01 X-65.0410 Y36.4533 
G01 X-64.8615 Y36.4890 
G01 X-64.6785 Y36.4890 
G01 X-64.4990 Y36.4533 
G01 X-64.3300 Y36.3833 
G01 X-64.1778 Y36.2816 
G01 X-64.0484 Y36.1522 
G01 X-63.9467 Y36.0000 
G01 X-63.8767 Y35.8310 
G01 X-63.8410 Y35.6515 
G01 X-63.8410 Y35.4685 
G01 X-63.8767 Y35.2890 
G01 X-63.9467 Y35.1200 
G01 X-64.0484 Y34.9678 
G01 X-64.1778 Y34.8384 
G01 X-64.3300 Y34.7367 
G01 X-64.4990 Y34.6667 
G01 X-64.6785 Y34.6310 
G01 X-64.8615 Y34.6310 
G01 X-65.0410 Y34.6667 
G01 X-65.2100 Y34.7367 
G01 X-65.3622 Y34.8384 
G01 X-65.4916 Y34.9678 
G01 X-65.5933 Y35.1200 
G01 X-65.6633 Y35.2890 
G01 X-65.6990 Y35.4685 
G00 Z2.0000 
G00 X-65.3622 Y43.9016 
G01 Z-0.1500 F100.00 
G01 X-65.2100 Y44.0033 F208.00 
G01 X-65.0410 Y44.0733 
G01 X-64.8615 Y44.1090 
G01 X-64.6785 Y44.1090 
G01 X-64.4990 Y44.0733 
G01 X-64.3300 Y44.0033 
G01 X-64.1778 Y43.9016 
G01 X-64.1392 Y43.8630 
G01 X-61.4584 Y43.8630 
G01 X-61.3060 Y44.0154 
G01 X-60.6140 Y44.0154 
G01 X-60.1246 Y43.5260 
G01 X-60.1246 Y42.8340 
G01 X-60.6140 Y42.3446 
G01 X-61.3060 Y42.3446 
G01 X-61.4584 Y42.4970 
G01 X-64.1392 Y42.4970 
G01 X-64.1778 Y42.4584 
G01 X-64.3300 Y42.3567 
G01 X-64.4990 Y42.2867 
G01 X-64.6785 Y42.2510 
G01 X-64.8615 Y42.2510 
G01 X-65.0410 Y42.2867 
G01 X-65.2100 Y42.3567 
G01 X-65.3622 Y42.4584 
G01 X-65.4008 Y42.4970 
G01 X-68.6473 Y42.4970 
G01 X-68.7792 Y42.5232 
G01 X-68.9035 Y42.5747 
G01 X-69.0154 Y42.6495 
G01 X-69.1105 Y42.7446 
G01 X-69.1853 Y42.8565 
G01 X-69.2368 Y42.9808 
G01 X-69.2630 Y43.1127 
G01 X-69.2630 Y43.7260 
G01 X-69.2368 Y43.8579 
G01 X-69.1853 Y43.9822 
G01 X-69.1105 Y44.0941 
G01 X-69.0154 Y44.1892 
G01 X-68.4750 Y44.7296 
G01 X-68.4750 Y47.8453 
G01 X-68.4488 Y47.9772 
G01 X-68.3973 Y48.1015 
G01 X-68.3225 Y48.2134 
G01 X-68.2274 Y48.3085 
G01 X-67.7454 Y48.7905 
G01 X-67.6335 Y48.8653 
G01 X-67.5092 Y48.9168 
G01 X-67.3773 Y48.9430 
G01 X-62.5129 Y48.9430 
G01 X-57.6805 Y53.7754 
G01 X-57.5854 Y53.8705 
G01 X-57.4735 Y53.9453 
G01 X-57.3492 Y53.9968 
G01 X-57.2173 Y54.0230 
G01 X-48.5429 Y54.0230 
G01 X-46.4030 Y56.1629 
G01 X-46.4030 Y58.4873 
G01 X-46.3768 Y58.6192 
G01 X-46.3253 Y58.7435 
G01 X-46.2505 Y58.8554 
G01 X-46.1554 Y58.9505 
G01 X-43.6154 Y61.4905 
G01 X-43.5035 Y61.5653 
G01 X-43.3792 Y61.6168 
G01 X-43.2473 Y61.6430 
G01 X-37.5130 Y61.6430 
G01 X-37.5130 Y62.4273 
G01 X-37.4868 Y62.5592 
G01 X-37.4353 Y62.6835 
G01 X-37.3605 Y62.7954 
G01 X-37.2654 Y62.8905 
G01 X-36.8973 Y63.2586 
G01 X-36.9125 Y63.3053 
G01 X-36.9466 Y63.5209 
G01 X-36.9466 Y63.7391 
G01 X-36.9125 Y63.9547 
G01 X-36.8450 Y64.1623 
G01 X-36.7459 Y64.3567 
G01 X-36.6177 Y64.5333 
G01 X-36.4633 Y64.6877 
G01 X-36.2867 Y64.8159 
G01 X-36.0923 Y64.9150 
G01 X-35.8847 Y64.9825 
G01 X-35.6691 Y65.0166 
G01 X-35.4509 Y65.0166 
G01 X-35.2353 Y64.9825 
G01 X-35.0277 Y64.9150 
G01 X-34.8332 Y64.8159 
G01 X-34.6567 Y64.6877 
G01 X-34.5023 Y64.5333 
G01 X-34.3741 Y64.3567 
G01 X-34.2750 Y64.1623 
G01 X-34.2075 Y63.9547 
G01 X-34.1734 Y63.7391 
G01 X-34.1734 Y63.5209 
G01 X-34.2075 Y63.3053 
G01 X-34.2750 Y63.0977 
G01 X-34.3741 Y62.9032 
G01 X-34.5023 Y62.7267 
G01 X-34.6567 Y62.5723 
G01 X-34.8332 Y62.4441 
G01 X-35.0277 Y62.3450 
G01 X-35.2353 Y62.2775 
G01 X-35.4509 Y62.2434 
G01 X-35.6691 Y62.2434 
G01 X-35.8847 Y62.2775 
G01 X-35.9314 Y62.2927 
G01 X-36.1470 Y62.0771 
G01 X-36.1470 Y60.8927 
G01 X-36.1732 Y60.7608 
G01 X-36.2247 Y60.6365 
G01 X-36.2995 Y60.5246 
G01 X-36.3946 Y60.4295 
G01 X-36.5065 Y60.3547 
G01 X-36.6308 Y60.3032 
G01 X-36.7627 Y60.2770 
G01 X-42.8971 Y60.2770 
G01 X-45.0370 Y58.1371 
G01 X-45.0370 Y55.8127 
G01 X-45.0632 Y55.6808 
G01 X-45.1147 Y55.5565 
G01 X-45.1895 Y55.4446 
G01 X-45.2846 Y55.3495 
G01 X-47.8246 Y52.8095 
G01 X-47.9365 Y52.7347 
G01 X-48.0608 Y52.6832 
G01 X-48.1927 Y52.6570 
G01 X-56.8671 Y52.6570 
G01 X-61.6995 Y47.8246 
G01 X-61.7946 Y47.7295 
G01 X-61.9065 Y47.6547 
G01 X-62.0308 Y47.6032 
G01 X-62.1627 Y47.5770 
G01 X-67.0271 Y47.5770 
G01 X-67.1090 Y47.4951 
G01 X-67.1090 Y44.3794 
G01 X-67.1352 Y44.2475 
G01 X-67.1867 Y44.1232 
G01 X-67.2615 Y44.0113 
G01 X-67.3566 Y43.9162 
G01 X-67.4098 Y43.8630 
G01 X-65.4008 Y43.8630 
G01 X-65.3622 Y43.9016 
G00 Z2.0000 
G00 X-4.6643 Y36.4970 
G01 Z-0.1500 F100.00 
G01 X-2.9557 Y36.4970 F208.00 
G01 X-2.7747 Y36.4610 
G01 X-2.6042 Y36.3904 
G01 X-2.4507 Y36.2878 
G01 X-2.3202 Y36.1573 
G01 X-2.2176 Y36.0038 
G01 X-2.1470 Y35.8333 
G01 X-2.1110 Y35.6523 
G01 X-2.1110 Y35.4677 
G01 X-2.1470 Y35.2867 
G01 X-2.2176 Y35.1162 
G01 X-2.3202 Y34.9627 
G01 X-2.4507 Y34.8322 
G01 X-2.6042 Y34.7296 
G01 X-2.7747 Y34.6590 
G01 X-2.9557 Y34.6230 
G01 X-4.6643 Y34.6230 
G01 X-4.8453 Y34.6590 
G01 X-5.0158 Y34.7296 
G01 X-5.1693 Y34.8322 
G01 X-5.2998 Y34.9627 
G01 X-5.4024 Y35.1162 
G01 X-5.4730 Y35.2867 
G01 X-5.5090 Y35.4677 
G01 X-5.5090 Y35.6523 
G01 X-5.4730 Y35.8333 
G01 X-5.4024 Y36.0038 
G01 X-5.2998 Y36.1573 
G01 X-5.1693 Y36.2878 
G01 X-5.0158 Y36.3904 
G01 X-4.8453 Y36.4610 
G01 X-4.6643 Y36.4970 
G00 Z2.0000 
G00 X-4.6643 Y33.9570 
G01 Z-0.1500 F100.00 
G01 X-2.9557 Y33.9570 F208.00 
G01 X-2.7747 Y33.9210 
G01 X-2.6042 Y33.8504 
G01 X-2.4507 Y33.7478 
G01 X-2.3202 Y33.6173 
G01 X-2.2176 Y33.4638 
G01 X-2.1470 Y33.2933 
G01 X-2.1110 Y33.1123 
G01 X-2.1110 Y32.9277 
G01 X-2.1470 Y32.7467 
G01 X-2.2176 Y32.5762 
G01 X-2.3202 Y32.4227 
G01 X-2.4507 Y32.2922 
G01 X-2.6042 Y32.1896 
G01 X-2.7747 Y32.1190 
G01 X-2.9557 Y32.0830 
G01 X-4.6643 Y32.0830 
G01 X-4.8453 Y32.1190 
G01 X-5.0158 Y32.1896 
G01 X-5.1693 Y32.2922 
G01 X-5.2998 Y32.4227 
G01 X-5.4024 Y32.5762 
G01 X-5.4730 Y32.7467 
G01 X-5.5090 Y32.9277 
G01 X-5.5090 Y33.1123 
G01 X-5.4730 Y33.2933 
G01 X-5.4024 Y33.4638 
G01 X-5.2998 Y33.6173 
G01 X-5.1693 Y33.7478 
G01 X-5.0158 Y33.8504 
G01 X-4.8453 Y33.9210 
G01 X-4.6643 Y33.9570 
G00 Z2.0000 
G00 X-18.9659 Y64.3567 
G01 Z-0.1500 F100.00 
G01 X-18.8377 Y64.5333 F208.00 
G01 X-18.6833 Y64.6877 
G01 X-18.5067 Y64.8159 
G01 X-18.3123 Y64.9150 
G01 X-18.1047 Y64.9825 
G01 X-17.8891 Y65.0166 
G01 X-17.6709 Y65.0166 
G01 X-17.4553 Y64.9825 
G01 X-17.2477 Y64.9150 
G01 X-17.0533 Y64.8159 
G01 X-16.8767 Y64.6877 
G01 X-16.7223 Y64.5333 
G01 X-16.5940 Y64.3567 
G01 X-16.4950 Y64.1623 
G01 X-16.4275 Y63.9547 
G01 X-16.3934 Y63.7391 
G01 X-16.3934 Y63.5209 
G01 X-16.4275 Y63.3053 
G01 X-16.4950 Y63.0977 
G01 X-16.5940 Y62.9032 
G01 X-16.7223 Y62.7267 
G01 X-16.8767 Y62.5723 
G01 X-17.0533 Y62.4441 
G01 X-17.2477 Y62.3450 
G01 X-17.4553 Y62.2775 
G01 X-17.6709 Y62.2434 
G01 X-17.8891 Y62.2434 
G01 X-18.1047 Y62.2775 
G01 X-18.3123 Y62.3450 
G01 X-18.5067 Y62.4441 
G01 X-18.6833 Y62.5723 
G01 X-18.8377 Y62.7267 
G01 X-18.9033 Y62.8170 
G01 X-19.6233 Y62.8170 
G01 X-21.4648 Y60.9755 
G01 X-21.5767 Y60.9007 
G01 X-21.7010 Y60.8492 
G01 X-21.8329 Y60.8230 
G01 X-23.7271 Y60.8230 
G01 X-23.8590 Y60.8492 
G01 X-23.9833 Y60.9007 
G01 X-24.0952 Y60.9755 
G01 X-24.6667 Y61.5470 
G01 X-25.9870 Y61.5470 
G01 X-25.9870 Y50.7327 
G01 X-26.0132 Y50.6008 
G01 X-26.0647 Y50.4765 
G01 X-26.1395 Y50.3646 
G01 X-26.2346 Y50.2695 
G01 X-26.3465 Y50.1947 
G01 X-26.4708 Y50.1432 
G01 X-26.6027 Y50.1170 
G01 X-42.4970 Y50.1170 
G01 X-42.4970 Y40.5727 
G01 X-42.5232 Y40.4408 
G01 X-42.5747 Y40.3165 
G01 X-42.6495 Y40.2046 
G01 X-42.7446 Y40.1095 
G01 X-42.8565 Y40.0347 
G01 X-42.9808 Y39.9832 
G01 X-43.1127 Y39.9570 
G01 X-60.4616 Y39.9570 
G01 X-60.6140 Y39.8046 
G01 X-61.3060 Y39.8046 
G01 X-61.4584 Y39.9570 
G01 X-64.1392 Y39.9570 
G01 X-64.1778 Y39.9184 
G01 X-64.3300 Y39.8167 
G01 X-64.4990 Y39.7467 
G01 X-64.6785 Y39.7110 
G01 X-64.8615 Y39.7110 
G01 X-65.0410 Y39.7467 
G01 X-65.2100 Y39.8167 
G01 X-65.3622 Y39.9184 
G01 X-65.4916 Y40.0478 
G01 X-65.5933 Y40.2000 
G01 X-65.6633 Y40.3690 
G01 X-65.6990 Y40.5485 
G01 X-65.6990 Y40.7315 
G01 X-65.6633 Y40.9110 
G01 X-65.5933 Y41.0800 
G01 X-65.4916 Y41.2322 
G01 X-65.3622 Y41.3616 
G01 X-65.2100 Y41.4633 
G01 X-65.0410 Y41.5333 
G01 X-64.8615 Y41.5690 
G01 X-64.6785 Y41.5690 
G01 X-64.4990 Y41.5333 
G01 X-64.3300 Y41.4633 
G01 X-64.1778 Y41.3616 
G01 X-64.1392 Y41.3230 
G01 X-61.4584 Y41.3230 
G01 X-61.3060 Y41.4754 
G01 X-60.6140 Y41.4754 
G01 X-60.4616 Y41.3230 
G01 X-43.8630 Y41.3230 
G01 X-43.8630 Y50.8673 
G01 X-43.8368 Y50.9992 
G01 X-43.7853 Y51.1235 
G01 X-43.7105 Y51.2354 
G01 X-43.6154 Y51.3305 
G01 X-43.5035 Y51.4053 
G01 X-43.3792 Y51.4567 
G01 X-43.2473 Y51.4830 
G01 X-27.3530 Y51.4830 
G01 X-27.3530 Y62.2973 
G01 X-27.3268 Y62.4292 
G01 X-27.2753 Y62.5535 
G01 X-27.2005 Y62.6654 
G01 X-27.1054 Y62.7605 
G01 X-26.9935 Y62.8353 
G01 X-26.8692 Y62.8868 
G01 X-26.7373 Y62.9130 
G01 X-24.3165 Y62.9130 
G01 X-24.1846 Y62.8868 
G01 X-24.0603 Y62.8353 
G01 X-23.9484 Y62.7605 
G01 X-23.3769 Y62.1890 
G01 X-22.1831 Y62.1890 
G01 X-20.3416 Y64.0305 
G01 X-20.2297 Y64.1053 
G01 X-20.1054 Y64.1568 
G01 X-19.9735 Y64.1830 
G01 X-19.0545 Y64.1830 
G01 X-18.9659 Y64.3567 
G00 Z2.0000 
G00 X-61.3060 Y38.9354 
G01 Z-0.1500 F100.00 
G01 X-60.6140 Y38.9354 F208.00 
G01 X-60.4616 Y38.7830 
G01 X-41.3230 Y38.7830 
G01 X-41.3230 Y48.4073 
G01 X-41.2968 Y48.5392 
G01 X-41.2453 Y48.6635 
G01 X-41.1705 Y48.7754 
G01 X-41.0754 Y48.8705 
G01 X-40.9635 Y48.9453 
G01 X-40.8392 Y48.9968 
G01 X-40.7073 Y49.0230 
G01 X-13.4630 Y49.0230 
G01 X-13.4630 Y57.4218 
G01 X-13.5067 Y57.4441 
G01 X-13.6833 Y57.5723 
G01 X-13.8377 Y57.7267 
G01 X-13.9659 Y57.9032 
G01 X-14.0300 Y58.0290 
G01 X-14.0941 Y57.9032 
G01 X-14.2223 Y57.7267 
G01 X-14.3767 Y57.5723 
G01 X-14.5533 Y57.4441 
G01 X-14.7477 Y57.3450 
G01 X-14.9553 Y57.2775 
G01 X-15.1709 Y57.2434 
G01 X-15.3891 Y57.2434 
G01 X-15.6047 Y57.2775 
G01 X-15.8123 Y57.3450 
G01 X-16.0067 Y57.4441 
G01 X-16.1833 Y57.5723 
G01 X-16.3377 Y57.7267 
G01 X-16.4659 Y57.9032 
G01 X-16.5650 Y58.0977 
G01 X-16.6325 Y58.3053 
G01 X-16.6666 Y58.5209 
G01 X-16.6666 Y58.7391 
G01 X-16.6325 Y58.9547 
G01 X-16.5650 Y59.1623 
G01 X-16.4659 Y59.3567 
G01 X-16.3377 Y59.5333 
G01 X-16.1833 Y59.6877 
G01 X-16.0067 Y59.8159 
G01 X-15.8123 Y59.9150 
G01 X-15.6047 Y59.9825 
G01 X-15.3891 Y60.0166 
G01 X-15.1709 Y60.0166 
G01 X-14.9553 Y59.9825 
G01 X-14.7477 Y59.9150 
G01 X-14.5533 Y59.8159 
G01 X-14.3767 Y59.6877 
G01 X-14.2223 Y59.5333 
G01 X-14.0941 Y59.3567 
G01 X-14.0300 Y59.2310 
G01 X-13.9659 Y59.3567 
G01 X-13.8377 Y59.5333 
G01 X-13.6833 Y59.6877 
G01 X-13.5067 Y59.8159 
G01 X-13.3123 Y59.9150 
G01 X-13.1047 Y59.9825 
G01 X-12.8891 Y60.0166 
G01 X-12.6709 Y60.0166 
G01 X-12.4553 Y59.9825 
G01 X-12.2477 Y59.9150 
G01 X-12.0533 Y59.8159 
G01 X-11.8767 Y59.6877 
G01 X-11.7223 Y59.5333 
G01 X-11.5941 Y59.3567 
G01 X-11.4950 Y59.1623 
G01 X-11.4275 Y58.9547 
G01 X-11.3934 Y58.7391 
G01 X-11.3934 Y58.5209 
G01 X-11.4275 Y58.3053 
G01 X-11.4950 Y58.0977 
G01 X-11.5941 Y57.9032 
G01 X-11.7223 Y57.7267 
G01 X-11.8767 Y57.5723 
G01 X-12.0533 Y57.4441 
G01 X-12.0970 Y57.4218 
G01 X-12.0970 Y49.8569 
G01 X-12.0947 Y49.8535 
G01 X-12.0432 Y49.7292 
G01 X-12.0170 Y49.5973 
G01 X-12.0170 Y49.4627 
G01 X-12.0432 Y49.3308 
G01 X-12.0947 Y49.2065 
G01 X-12.0970 Y49.2031 
G01 X-12.0970 Y48.2727 
G01 X-12.1232 Y48.1408 
G01 X-12.1747 Y48.0165 
G01 X-12.2495 Y47.9046 
G01 X-12.3446 Y47.8095 
G01 X-12.4565 Y47.7347 
G01 X-12.5808 Y47.6832 
G01 X-12.7127 Y47.6570 
G01 X-39.9570 Y47.6570 
G01 X-39.9570 Y38.0327 
G01 X-39.9832 Y37.9008 
G01 X-40.0347 Y37.7765 
G01 X-40.1095 Y37.6646 
G01 X-40.2046 Y37.5695 
G01 X-40.3165 Y37.4947 
G01 X-40.4408 Y37.4432 
G01 X-40.5727 Y37.4170 
G01 X-60.4616 Y37.4170 
G01 X-60.6140 Y37.2646 
G01 X-61.3060 Y37.2646 
G01 X-61.4584 Y37.4170 
G01 X-64.1392 Y37.4170 
G01 X-64.1778 Y37.3784 
G01 X-64.3300 Y37.2767 
G01 X-64.4990 Y37.2067 
G01 X-64.6785 Y37.1710 
G01 X-64.8615 Y37.1710 
G01 X-65.0410 Y37.2067 
G01 X-65.2100 Y37.2767 
G01 X-65.3622 Y37.3784 
G01 X-65.4916 Y37.5078 
G01 X-65.5933 Y37.6600 
G01 X-65.6633 Y37.8290 
G01 X-65.6990 Y38.0085 
G01 X-65.6990 Y38.1915 
G01 X-65.6633 Y38.3710 
G01 X-65.5933 Y38.5400 
G01 X-65.4916 Y38.6922 
G01 X-65.3622 Y38.8216 
G01 X-65.2100 Y38.9233 
G01 X-65.0410 Y38.9933 
G01 X-64.8615 Y39.0290 
G01 X-64.6785 Y39.0290 
G01 X-64.4990 Y38.9933 
G01 X-64.3300 Y38.9233 
G01 X-64.1778 Y38.8216 
G01 X-64.1392 Y38.7830 
G01 X-61.4584 Y38.7830 
G01 X-61.3060 Y38.9354 
G00 Z2.0000 
G00 X-61.3060 Y46.5554 
G01 Z-0.1500 F100.00 
G01 X-60.6140 Y46.5554 F208.00 
G01 X-60.2172 Y46.1587 
G01 X-60.1254 Y46.2505 
G01 X-60.0135 Y46.3253 
G01 X-59.8892 Y46.3768 
G01 X-59.7573 Y46.4030 
G01 X-52.6362 Y46.4030 
G01 X-45.2703 Y53.7689 
G01 X-45.1584 Y53.8437 
G01 X-45.0341 Y53.8952 
G01 X-44.9022 Y53.9214 
G01 X-31.2430 Y53.9214 
G01 X-31.2430 Y57.4218 
G01 X-31.2867 Y57.4441 
G01 X-31.4633 Y57.5723 
G01 X-31.6177 Y57.7267 
G01 X-31.7459 Y57.9032 
G01 X-31.8100 Y58.0290 
G01 X-31.8741 Y57.9032 
G01 X-32.0023 Y57.7267 
G01 X-32.1567 Y57.5723 
G01 X-32.3332 Y57.4441 
G01 X-32.5277 Y57.3450 
G01 X-32.7353 Y57.2775 
G01 X-32.9509 Y57.2434 
G01 X-33.1691 Y57.2434 
G01 X-33.3847 Y57.2775 
G01 X-33.5923 Y57.3450 
G01 X-33.7867 Y57.4441 
G01 X-33.9633 Y57.5723 
G01 X-34.1177 Y57.7267 
G01 X-34.2459 Y57.9032 
G01 X-34.3450 Y58.0977 
G01 X-34.4125 Y58.3053 
G01 X-34.4466 Y58.5209 
G01 X-34.4466 Y58.7391 
G01 X-34.4125 Y58.9547 
G01 X-34.3450 Y59.1623 
G01 X-34.2459 Y59.3567 
G01 X-34.1177 Y59.5333 
G01 X-33.9633 Y59.6877 
G01 X-33.7867 Y59.8159 
G01 X-33.5923 Y59.9150 
G01 X-33.3847 Y59.9825 
G01 X-33.1691 Y60.0166 
G01 X-32.9509 Y60.0166 
G01 X-32.7353 Y59.9825 
G01 X-32.5277 Y59.9150 
G01 X-32.3332 Y59.8159 
G01 X-32.1567 Y59.6877 
G01 X-32.0023 Y59.5333 
G01 X-31.8741 Y59.3567 
G01 X-31.8100 Y59.2310 
G01 X-31.7459 Y59.3567 
G01 X-31.6177 Y59.5333 
G01 X-31.4633 Y59.6877 
G01 X-31.2867 Y59.8159 
G01 X-31.0923 Y59.9150 
G01 X-30.8847 Y59.9825 
G01 X-30.6691 Y60.0166 
G01 X-30.4509 Y60.0166 
G01 X-30.2353 Y59.9825 
G01 X-30.0277 Y59.9150 
G01 X-29.8333 Y59.8159 
G01 X-29.6567 Y59.6877 
G01 X-29.5023 Y59.5333 
G01 X-29.3741 Y59.3567 
G01 X-29.2750 Y59.1623 
G01 X-29.2075 Y58.9547 
G01 X-29.1734 Y58.7391 
G01 X-29.1734 Y58.5209 
G01 X-29.2075 Y58.3053 
G01 X-29.2750 Y58.0977 
G01 X-29.3741 Y57.9032 
G01 X-29.5023 Y57.7267 
G01 X-29.6567 Y57.5723 
G01 X-29.8333 Y57.4441 
G01 X-29.8770 Y57.4218 
G01 X-29.8770 Y53.6669 
G01 X-29.8747 Y53.6635 
G01 X-29.8232 Y53.5392 
G01 X-29.7970 Y53.4073 
G01 X-29.7970 Y53.2727 
G01 X-29.8232 Y53.1408 
G01 X-29.8747 Y53.0165 
G01 X-29.9495 Y52.9046 
G01 X-30.0511 Y52.8030 
G01 X-30.1462 Y52.7079 
G01 X-30.2581 Y52.6331 
G01 X-30.3824 Y52.5816 
G01 X-30.5143 Y52.5554 
G01 X-44.5520 Y52.5554 
G01 X-51.9179 Y45.1895 
G01 X-52.0298 Y45.1147 
G01 X-52.1541 Y45.0632 
G01 X-52.2860 Y45.0370 
G01 X-59.7573 Y45.0370 
G01 X-59.8892 Y45.0632 
G01 X-60.0135 Y45.1147 
G01 X-60.1254 Y45.1895 
G01 X-60.2172 Y45.2813 
G01 X-60.6140 Y44.8846 
G01 X-61.3060 Y44.8846 
G01 X-61.4584 Y45.0370 
G01 X-64.1392 Y45.0370 
G01 X-64.1778 Y44.9984 
G01 X-64.3300 Y44.8967 
G01 X-64.4990 Y44.8267 
G01 X-64.6785 Y44.7910 
G01 X-64.8615 Y44.7910 
G01 X-65.0410 Y44.8267 
G01 X-65.2100 Y44.8967 
G01 X-65.3622 Y44.9984 
G01 X-65.4916 Y45.1278 
G01 X-65.5933 Y45.2800 
G01 X-65.6633 Y45.4490 
G01 X-65.6990 Y45.6285 
G01 X-65.6990 Y45.8115 
G01 X-65.6633 Y45.9910 
G01 X-65.5933 Y46.1600 
G01 X-65.4916 Y46.3122 
G01 X-65.3622 Y46.4416 
G01 X-65.2100 Y46.5433 
G01 X-65.0410 Y46.6133 
G01 X-64.8615 Y46.6490 
G01 X-64.6785 Y46.6490 
G01 X-64.4990 Y46.6133 
G01 X-64.3300 Y46.5433 
G01 X-64.1778 Y46.4416 
G01 X-64.1392 Y46.4030 
G01 X-61.4584 Y46.4030 
G01 X-61.3060 Y46.5554 
G00 Z2.0000 
G00 X-80.3560 Y41.4754 
G01 Z-0.1500 F100.00 
G01 X-80.1405 Y41.4754 F208.00 
G01 X-78.1530 Y43.4629 
G01 X-78.1530 Y53.4073 
G01 X-78.1268 Y53.5392 
G01 X-78.0753 Y53.6635 
G01 X-78.0005 Y53.7754 
G01 X-77.9054 Y53.8705 
G01 X-77.7935 Y53.9453 
G01 X-77.6692 Y53.9968 
G01 X-77.5373 Y54.0230 
G01 X-63.7829 Y54.0230 
G01 X-62.9130 Y54.8929 
G01 X-62.9130 Y59.7573 
G01 X-62.8868 Y59.8892 
G01 X-62.8353 Y60.0135 
G01 X-62.7605 Y60.1254 
G01 X-60.8494 Y62.0365 
G01 X-60.7375 Y62.1113 
G01 X-60.6132 Y62.1628 
G01 X-60.4813 Y62.1890 
G01 X-57.7431 Y62.1890 
G01 X-57.2667 Y62.6654 
G01 X-57.1716 Y62.7605 
G01 X-57.0597 Y62.8353 
G01 X-56.9354 Y62.8868 
G01 X-56.8035 Y62.9130 
G01 X-55.0229 Y62.9130 
G01 X-54.6773 Y63.2586 
G01 X-54.6925 Y63.3053 
G01 X-54.7266 Y63.5209 
G01 X-54.7266 Y63.7391 
G01 X-54.6925 Y63.9547 
G01 X-54.6250 Y64.1623 
G01 X-54.5259 Y64.3567 
G01 X-54.3977 Y64.5333 
G01 X-54.2433 Y64.6877 
G01 X-54.0667 Y64.8159 
G01 X-53.8723 Y64.9150 
G01 X-53.6647 Y64.9825 
G01 X-53.4491 Y65.0166 
G01 X-53.2309 Y65.0166 
G01 X-53.0153 Y64.9825 
G01 X-52.8077 Y64.9150 
G01 X-52.6133 Y64.8159 
G01 X-52.4367 Y64.6877 
G01 X-52.2823 Y64.5333 
G01 X-52.1541 Y64.3567 
G01 X-52.0550 Y64.1623 
G01 X-51.9875 Y63.9547 
G01 X-51.9534 Y63.7391 
G01 X-51.9534 Y63.5209 
G01 X-51.9875 Y63.3053 
G01 X-52.0550 Y63.0977 
G01 X-52.1541 Y62.9032 
G01 X-52.2823 Y62.7267 
G01 X-52.4367 Y62.5723 
G01 X-52.6133 Y62.4441 
G01 X-52.8077 Y62.3450 
G01 X-53.0153 Y62.2775 
G01 X-53.2309 Y62.2434 
G01 X-53.4491 Y62.2434 
G01 X-53.6647 Y62.2775 
G01 X-53.7114 Y62.2927 
G01 X-54.2095 Y61.7946 
G01 X-54.3046 Y61.6995 
G01 X-54.4165 Y61.6247 
G01 X-54.5408 Y61.5732 
G01 X-54.6727 Y61.5470 
G01 X-56.4533 Y61.5470 
G01 X-56.9297 Y61.0706 
G01 X-57.0248 Y60.9755 
G01 X-57.1367 Y60.9007 
G01 X-57.2610 Y60.8492 
G01 X-57.3929 Y60.8230 
G01 X-60.1311 Y60.8230 
G01 X-61.5470 Y59.4071 
G01 X-61.5470 Y54.5427 
G01 X-61.5732 Y54.4108 
G01 X-61.6247 Y54.2865 
G01 X-61.6995 Y54.1746 
G01 X-62.9695 Y52.9046 
G01 X-63.0646 Y52.8095 
G01 X-63.1765 Y52.7347 
G01 X-63.3008 Y52.6832 
G01 X-63.4327 Y52.6570 
G01 X-76.7870 Y52.6570 
G01 X-76.7870 Y43.1127 
G01 X-76.8132 Y42.9808 
G01 X-76.8647 Y42.8565 
G01 X-76.9395 Y42.7446 
G01 X-77.0346 Y42.6495 
G01 X-79.1746 Y40.5095 
G01 X-79.1746 Y40.2940 
G01 X-79.6640 Y39.8046 
G01 X-80.3560 Y39.8046 
G01 X-80.5084 Y39.9570 
G01 X-83.1892 Y39.9570 
G01 X-83.2278 Y39.9184 
G01 X-83.3800 Y39.8167 
G01 X-83.5490 Y39.7467 
G01 X-83.7285 Y39.7110 
G01 X-83.9115 Y39.7110 
G01 X-84.0910 Y39.7467 
G01 X-84.2600 Y39.8167 
G01 X-84.4122 Y39.9184 
G01 X-84.5416 Y40.0478 
G01 X-84.6433 Y40.2000 
G01 X-84.7133 Y40.3690 
G01 X-84.7490 Y40.5485 
G01 X-84.7490 Y40.7315 
G01 X-84.7133 Y40.9110 
G01 X-84.6433 Y41.0800 
G01 X-84.5416 Y41.2322 
G01 X-84.4122 Y41.3616 
G01 X-84.2600 Y41.4633 
G01 X-84.0910 Y41.5333 
G01 X-83.9115 Y41.5690 
G01 X-83.7285 Y41.5690 
G01 X-83.5490 Y41.5333 
G01 X-83.3800 Y41.4633 
G01 X-83.2278 Y41.3616 
G01 X-83.1892 Y41.3230 
G01 X-80.5084 Y41.3230 
G01 X-80.3560 Y41.4754 
G00 Z2.0000 
G00 X-80.3560 Y44.0154 
G01 Z-0.1500 F100.00 
G01 X-79.6640 Y44.0154 F208.00 
G01 X-79.1746 Y43.5260 
G01 X-79.1746 Y42.8340 
G01 X-79.6640 Y42.3446 
G01 X-80.3560 Y42.3446 
G01 X-80.5084 Y42.4970 
G01 X-83.1892 Y42.4970 
G01 X-83.2278 Y42.4584 
G01 X-83.3800 Y42.3567 
G01 X-83.5490 Y42.2867 
G01 X-83.7285 Y42.2510 
G01 X-83.9115 Y42.2510 
G01 X-84.0910 Y42.2867 
G01 X-84.2600 Y42.3567 
G01 X-84.4122 Y42.4584 
G01 X-84.4508 Y42.4970 
G01 X-86.4273 Y42.4970 
G01 X-86.5592 Y42.5232 
G01 X-86.6835 Y42.5747 
G01 X-86.7954 Y42.6495 
G01 X-86.8905 Y42.7446 
G01 X-86.9653 Y42.8565 
G01 X-87.0168 Y42.9808 
G01 X-87.0430 Y43.1127 
G01 X-87.0430 Y61.0273 
G01 X-87.0168 Y61.1592 
G01 X-86.9653 Y61.2835 
G01 X-86.8905 Y61.3954 
G01 X-86.7954 Y61.4905 
G01 X-86.6835 Y61.5653 
G01 X-86.5592 Y61.6168 
G01 X-86.4273 Y61.6430 
G01 X-73.9429 Y61.6430 
G01 X-72.4254 Y63.1605 
G01 X-72.4725 Y63.3053 
G01 X-72.5066 Y63.5209 
G01 X-72.5066 Y63.7391 
G01 X-72.4725 Y63.9547 
G01 X-72.4050 Y64.1623 
G01 X-72.3059 Y64.3567 
G01 X-72.1777 Y64.5333 
G01 X-72.0233 Y64.6877 
G01 X-71.8467 Y64.8159 
G01 X-71.6523 Y64.9150 
G01 X-71.4447 Y64.9825 
G01 X-71.2291 Y65.0166 
G01 X-71.0109 Y65.0166 
G01 X-70.7953 Y64.9825 
G01 X-70.5877 Y64.9150 
G01 X-70.3933 Y64.8159 
G01 X-70.2167 Y64.6877 
G01 X-70.0623 Y64.5333 
G01 X-69.9340 Y64.3567 
G01 X-69.8350 Y64.1623 
G01 X-69.7675 Y63.9547 
G01 X-69.7334 Y63.7391 
G01 X-69.7334 Y63.5209 
G01 X-69.7675 Y63.3053 
G01 X-69.8350 Y63.0977 
G01 X-69.9340 Y62.9032 
G01 X-70.0623 Y62.7267 
G01 X-70.2167 Y62.5723 
G01 X-70.3933 Y62.4441 
G01 X-70.5877 Y62.3450 
G01 X-70.7953 Y62.2775 
G01 X-71.0109 Y62.2434 
G01 X-71.2291 Y62.2434 
G01 X-71.3859 Y62.2682 
G01 X-73.2246 Y60.4295 
G01 X-73.3365 Y60.3547 
G01 X-73.4608 Y60.3032 
G01 X-73.5927 Y60.2770 
G01 X-85.6770 Y60.2770 
G01 X-85.6770 Y43.8630 
G01 X-84.4508 Y43.8630 
G01 X-84.4122 Y43.9016 
G01 X-84.2600 Y44.0033 
G01 X-84.0910 Y44.0733 
G01 X-83.9115 Y44.1090 
G01 X-83.7285 Y44.1090 
G01 X-83.5490 Y44.0733 
G01 X-83.3800 Y44.0033 
G01 X-83.2278 Y43.9016 
G01 X-83.1892 Y43.8630 
G01 X-80.5084 Y43.8630 
G01 X-80.3560 Y44.0154 
G00 Z2.0000 
G00 X-74.1470 Y50.0170 
G01 Z-0.1500 F100.00 
G01 X-74.1470 Y38.0229 F208.00 
G01 X-74.1771 Y37.8716 
G01 X-74.2361 Y37.7291 
G01 X-74.3218 Y37.6009 
G01 X-74.4309 Y37.4918 
G01 X-74.5591 Y37.4061 
G01 X-74.7016 Y37.3471 
G01 X-74.8529 Y37.3170 
G01 X-79.4701 Y37.3170 
G01 X-79.6225 Y37.1646 
G01 X-80.3975 Y37.1646 
G01 X-80.5499 Y37.3170 
G01 X-83.1478 Y37.3170 
G01 X-83.1641 Y37.3007 
G01 X-83.3326 Y37.1881 
G01 X-83.5199 Y37.1105 
G01 X-83.7187 Y37.0710 
G01 X-83.9213 Y37.0710 
G01 X-84.1201 Y37.1105 
G01 X-84.3074 Y37.1881 
G01 X-84.4759 Y37.3007 
G01 X-84.6193 Y37.4441 
G01 X-84.7319 Y37.6126 
G01 X-84.8095 Y37.7998 
G01 X-84.8490 Y37.9987 
G01 X-84.8490 Y38.2013 
G01 X-84.8095 Y38.4001 
G01 X-84.7319 Y38.5874 
G01 X-84.6193 Y38.7559 
G01 X-84.4759 Y38.8993 
G01 X-84.3074 Y39.0119 
G01 X-84.1201 Y39.0895 
G01 X-83.9213 Y39.1290 
G01 X-83.7187 Y39.1290 
G01 X-83.5199 Y39.0895 
G01 X-83.3326 Y39.0119 
G01 X-83.1641 Y38.8993 
G01 X-83.1478 Y38.8830 
G01 X-80.5499 Y38.8830 
G01 X-80.3975 Y39.0354 
G01 X-79.6225 Y39.0354 
G01 X-79.4701 Y38.8830 
G01 X-75.7130 Y38.8830 
G01 X-75.7130 Y50.8771 
G01 X-75.6829 Y51.0284 
G01 X-75.6239 Y51.1709 
G01 X-75.5382 Y51.2991 
G01 X-75.4291 Y51.4082 
G01 X-75.3009 Y51.4939 
G01 X-75.1584 Y51.5529 
G01 X-75.0071 Y51.5830 
G01 X-62.5543 Y51.5830 
G01 X-57.6491 Y56.4882 
G01 X-57.5209 Y56.5739 
G01 X-57.3784 Y56.6329 
G01 X-57.2271 Y56.6630 
G01 X-50.1423 Y56.6630 
G01 X-50.1382 Y56.6691 
G01 X-50.0291 Y56.7782 
G01 X-49.3099 Y57.4975 
G01 X-49.4739 Y57.6615 
G01 X-49.5900 Y57.8213 
G01 X-49.7061 Y57.6615 
G01 X-49.8715 Y57.4961 
G01 X-50.0608 Y57.3585 
G01 X-50.2693 Y57.2523 
G01 X-50.4919 Y57.1800 
G01 X-50.7230 Y57.1434 
G01 X-50.9570 Y57.1434 
G01 X-51.1881 Y57.1800 
G01 X-51.4107 Y57.2523 
G01 X-51.6192 Y57.3585 
G01 X-51.8085 Y57.4961 
G01 X-51.9739 Y57.6615 
G01 X-52.1115 Y57.8508 
G01 X-52.2177 Y58.0593 
G01 X-52.2900 Y58.2819 
G01 X-52.3266 Y58.5130 
G01 X-52.3266 Y58.7470 
G01 X-52.2900 Y58.9781 
G01 X-52.2177 Y59.2007 
G01 X-52.1115 Y59.4092 
G01 X-51.9739 Y59.5985 
G01 X-51.8085 Y59.7639 
G01 X-51.6192 Y59.9015 
G01 X-51.4107 Y60.0077 
G01 X-51.1881 Y60.0800 
G01 X-50.9570 Y60.1166 
G01 X-50.7230 Y60.1166 
G01 X-50.4919 Y60.0800 
G01 X-50.2693 Y60.0077 
G01 X-50.0608 Y59.9015 
G01 X-49.8715 Y59.7639 
G01 X-49.7061 Y59.5985 
G01 X-49.5900 Y59.4387 
G01 X-49.4739 Y59.5985 
G01 X-49.3085 Y59.7639 
G01 X-49.1192 Y59.9015 
G01 X-48.9107 Y60.0077 
G01 X-48.6881 Y60.0800 
G01 X-48.4570 Y60.1166 
G01 X-48.2230 Y60.1166 
G01 X-47.9919 Y60.0800 
G01 X-47.7693 Y60.0077 
G01 X-47.5608 Y59.9015 
G01 X-47.3715 Y59.7639 
G01 X-47.2061 Y59.5985 
G01 X-47.0685 Y59.4092 
G01 X-46.9623 Y59.2007 
G01 X-46.8900 Y58.9781 
G01 X-46.8534 Y58.7470 
G01 X-46.8534 Y58.5130 
G01 X-46.8900 Y58.2819 
G01 X-46.9623 Y58.0593 
G01 X-47.0685 Y57.8508 
G01 X-47.2061 Y57.6615 
G01 X-47.3715 Y57.4961 
G01 X-47.5570 Y57.3613 
G01 X-47.5570 Y57.2829 
G01 X-47.5871 Y57.1316 
G01 X-47.6461 Y56.9891 
G01 X-47.7318 Y56.8609 
G01 X-48.7470 Y55.8457 
G01 X-48.7470 Y55.8029 
G01 X-48.7771 Y55.6516 
G01 X-48.8361 Y55.5091 
G01 X-48.9218 Y55.3809 
G01 X-49.0309 Y55.2718 
G01 X-49.1591 Y55.1861 
G01 X-49.3016 Y55.1271 
G01 X-49.4529 Y55.0970 
G01 X-56.8257 Y55.0970 
G01 X-61.7309 Y50.1918 
G01 X-61.8591 Y50.1061 
G01 X-62.0016 Y50.0471 
G01 X-62.1529 Y50.0170 
G01 X-62.3071 Y50.0170 
G01 X-74.1470 Y50.0170 
G00 Z2.0000 
G00 X-74.7539 Y59.5985 
G01 Z-0.1500 F100.00 
G01 X-74.5885 Y59.7639 F208.00 
G01 X-74.3992 Y59.9015 
G01 X-74.1907 Y60.0077 
G01 X-73.9681 Y60.0800 
G01 X-73.7370 Y60.1166 
G01 X-73.5030 Y60.1166 
G01 X-73.2719 Y60.0800 
G01 X-73.0493 Y60.0077 
G01 X-72.8408 Y59.9015 
G01 X-72.6515 Y59.7639 
G01 X-72.4861 Y59.5985 
G01 X-72.3485 Y59.4092 
G01 X-72.2423 Y59.2007 
G01 X-72.1700 Y58.9781 
G01 X-72.1334 Y58.7470 
G01 X-72.1334 Y58.5130 
G01 X-72.1700 Y58.2819 
G01 X-72.2423 Y58.0593 
G01 X-72.3485 Y57.8508 
G01 X-72.4861 Y57.6615 
G01 X-72.6515 Y57.4961 
G01 X-72.8408 Y57.3585 
G01 X-73.0493 Y57.2523 
G01 X-73.2719 Y57.1800 
G01 X-73.5030 Y57.1434 
G01 X-73.7370 Y57.1434 
G01 X-73.9681 Y57.1800 
G01 X-74.1907 Y57.2523 
G01 X-74.3992 Y57.3585 
G01 X-74.5885 Y57.4961 
G01 X-74.7539 Y57.6615 
G01 X-74.8700 Y57.8213 
G01 X-74.9861 Y57.6615 
G01 X-75.1515 Y57.4961 
G01 X-75.3408 Y57.3585 
G01 X-75.5493 Y57.2523 
G01 X-75.7719 Y57.1800 
G01 X-76.0030 Y57.1434 
G01 X-76.2370 Y57.1434 
G01 X-76.4681 Y57.1800 
G01 X-76.6907 Y57.2523 
G01 X-76.8992 Y57.3585 
G01 X-77.0885 Y57.4961 
G01 X-77.2539 Y57.6615 
G01 X-77.3915 Y57.8508 
G01 X-77.4977 Y58.0593 
G01 X-77.5700 Y58.2819 
G01 X-77.6066 Y58.5130 
G01 X-77.6066 Y58.7470 
G01 X-77.5700 Y58.9781 
G01 X-77.4977 Y59.2007 
G01 X-77.3915 Y59.4092 
G01 X-77.2539 Y59.5985 
G01 X-77.0885 Y59.7639 
G01 X-76.8992 Y59.9015 
G01 X-76.6907 Y60.0077 
G01 X-76.4681 Y60.0800 
G01 X-76.2370 Y60.1166 
G01 X-76.0030 Y60.1166 
G01 X-75.7719 Y60.0800 
G01 X-75.5493 Y60.0077 
G01 X-75.3408 Y59.9015 
G01 X-75.1515 Y59.7639 
G01 X-74.9861 Y59.5985 
G01 X-74.8700 Y59.4387 
G01 X-74.7539 Y59.5985 
G00 Z2.0000 
G00 X-39.1939 Y59.5985 
G01 Z-0.1500 F100.00 
G01 X-39.0285 Y59.7639 F208.00 
G01 X-38.8392 Y59.9015 
G01 X-38.6307 Y60.0077 
G01 X-38.4081 Y60.0800 
G01 X-38.1770 Y60.1166 
G01 X-37.9430 Y60.1166 
G01 X-37.7119 Y60.0800 
G01 X-37.4893 Y60.0077 
G01 X-37.2808 Y59.9015 
G01 X-37.0915 Y59.7639 
G01 X-36.9261 Y59.5985 
G01 X-36.7885 Y59.4092 
G01 X-36.6823 Y59.2007 
G01 X-36.6100 Y58.9781 
G01 X-36.5734 Y58.7470 
G01 X-36.5734 Y58.5130 
G01 X-36.6100 Y58.2819 
G01 X-36.6823 Y58.0593 
G01 X-36.7885 Y57.8508 
G01 X-36.9261 Y57.6615 
G01 X-37.0915 Y57.4961 
G01 X-37.2808 Y57.3585 
G01 X-37.4893 Y57.2523 
G01 X-37.7119 Y57.1800 
G01 X-37.9430 Y57.1434 
G01 X-38.1770 Y57.1434 
G01 X-38.4081 Y57.1800 
G01 X-38.6307 Y57.2523 
G01 X-38.8392 Y57.3585 
G01 X-39.0285 Y57.4961 
G01 X-39.1939 Y57.6615 
G01 X-39.3100 Y57.8213 
G01 X-39.4261 Y57.6615 
G01 X-39.5915 Y57.4961 
G01 X-39.7808 Y57.3585 
G01 X-39.9893 Y57.2523 
G01 X-40.2119 Y57.1800 
G01 X-40.4430 Y57.1434 
G01 X-40.6770 Y57.1434 
G01 X-40.9081 Y57.1800 
G01 X-41.1307 Y57.2523 
G01 X-41.3392 Y57.3585 
G01 X-41.5285 Y57.4961 
G01 X-41.6939 Y57.6615 
G01 X-41.8315 Y57.8508 
G01 X-41.9377 Y58.0593 
G01 X-42.0100 Y58.2819 
G01 X-42.0466 Y58.5130 
G01 X-42.0466 Y58.7470 
G01 X-42.0100 Y58.9781 
G01 X-41.9377 Y59.2007 
G01 X-41.8315 Y59.4092 
G01 X-41.6939 Y59.5985 
G01 X-41.5285 Y59.7639 
G01 X-41.3392 Y59.9015 
G01 X-41.1307 Y60.0077 
G01 X-40.9081 Y60.0800 
G01 X-40.6770 Y60.1166 
G01 X-40.4430 Y60.1166 
G01 X-40.2119 Y60.0800 
G01 X-39.9893 Y60.0077 
G01 X-39.7808 Y59.9015 
G01 X-39.5915 Y59.7639 
G01 X-39.4261 Y59.5985 
G01 X-39.3100 Y59.4387 
G01 X-39.1939 Y59.5985 
G00 Z2.0000 
G00 X-21.4139 Y59.5985 
G01 Z-0.1500 F100.00 
G01 X-21.2485 Y59.7639 F208.00 
G01 X-21.0592 Y59.9015 
G01 X-20.8507 Y60.0077 
G01 X-20.6281 Y60.0800 
G01 X-20.3970 Y60.1166 
G01 X-20.1630 Y60.1166 
G01 X-19.9319 Y60.0800 
G01 X-19.7093 Y60.0077 
G01 X-19.5008 Y59.9015 
G01 X-19.3115 Y59.7639 
G01 X-19.1461 Y59.5985 
G01 X-19.0085 Y59.4092 
G01 X-18.9023 Y59.2007 
G01 X-18.8300 Y58.9781 
G01 X-18.7934 Y58.7470 
G01 X-18.7934 Y58.5130 
G01 X-18.8300 Y58.2819 
G01 X-18.9023 Y58.0593 
G01 X-19.0085 Y57.8508 
G01 X-19.1461 Y57.6615 
G01 X-19.3115 Y57.4961 
G01 X-19.5008 Y57.3585 
G01 X-19.7093 Y57.2523 
G01 X-19.9319 Y57.1800 
G01 X-20.1630 Y57.1434 
G01 X-20.3970 Y57.1434 
G01 X-20.6281 Y57.1800 
G01 X-20.8507 Y57.2523 
G01 X-21.0592 Y57.3585 
G01 X-21.2485 Y57.4961 
G01 X-21.4139 Y57.6615 
G01 X-21.5300 Y57.8213 
G01 X-21.6461 Y57.6615 
G01 X-21.8115 Y57.4961 
G01 X-22.0008 Y57.3585 
G01 X-22.2093 Y57.2523 
G01 X-22.4319 Y57.1800 
G01 X-22.6630 Y57.1434 
G01 X-22.8970 Y57.1434 
G01 X-23.1281 Y57.1800 
G01 X-23.3507 Y57.2523 
G01 X-23.5592 Y57.3585 
G01 X-23.7485 Y57.4961 
G01 X-23.9139 Y57.6615 
G01 X-24.0515 Y57.8508 
G01 X-24.1577 Y58.0593 
G01 X-24.2300 Y58.2819 
G01 X-24.2666 Y58.5130 
G01 X-24.2666 Y58.7470 
G01 X-24.2300 Y58.9781 
G01 X-24.1577 Y59.2007 
G01 X-24.0515 Y59.4092 
G01 X-23.9139 Y59.5985 
G01 X-23.7485 Y59.7639 
G01 X-23.5592 Y59.9015 
G01 X-23.3507 Y60.0077 
G01 X-23.1281 Y60.0800 
G01 X-22.8970 Y60.1166 
G01 X-22.6630 Y60.1166 
G01 X-22.4319 Y60.0800 
G01 X-22.2093 Y60.0077 
G01 X-22.0008 Y59.9015 
G01 X-21.8115 Y59.7639 
G01 X-21.6461 Y59.5985 
G01 X-21.5300 Y59.4387 
G01 X-21.4139 Y59.5985 
G00 Z2.0000 
G00 X-56.9739 Y59.5985 
G01 Z-0.1500 F100.00 
G01 X-56.8085 Y59.7639 F208.00 
G01 X-56.6192 Y59.9015 
G01 X-56.4107 Y60.0077 
G01 X-56.1881 Y60.0800 
G01 X-55.9570 Y60.1166 
G01 X-55.7230 Y60.1166 
G01 X-55.4919 Y60.0800 
G01 X-55.2693 Y60.0077 
G01 X-55.0608 Y59.9015 
G01 X-54.8715 Y59.7639 
G01 X-54.7061 Y59.5985 
G01 X-54.5685 Y59.4092 
G01 X-54.4623 Y59.2007 
G01 X-54.3900 Y58.9781 
G01 X-54.3534 Y58.7470 
G01 X-54.3534 Y58.5130 
G01 X-54.3900 Y58.2819 
G01 X-54.4623 Y58.0593 
G01 X-54.5685 Y57.8508 
G01 X-54.7061 Y57.6615 
G01 X-54.8715 Y57.4961 
G01 X-55.0608 Y57.3585 
G01 X-55.2693 Y57.2523 
G01 X-55.4919 Y57.1800 
G01 X-55.7230 Y57.1434 
G01 X-55.9570 Y57.1434 
G01 X-56.1881 Y57.1800 
G01 X-56.4107 Y57.2523 
G01 X-56.6192 Y57.3585 
G01 X-56.8085 Y57.4961 
G01 X-56.9739 Y57.6615 
G01 X-57.0900 Y57.8213 
G01 X-57.2061 Y57.6615 
G01 X-57.3715 Y57.4961 
G01 X-57.5608 Y57.3585 
G01 X-57.7693 Y57.2523 
G01 X-57.9919 Y57.1800 
G01 X-58.2230 Y57.1434 
G01 X-58.4570 Y57.1434 
G01 X-58.6881 Y57.1800 
G01 X-58.9107 Y57.2523 
G01 X-59.1192 Y57.3585 
G01 X-59.3085 Y57.4961 
G01 X-59.4739 Y57.6615 
G01 X-59.6115 Y57.8508 
G01 X-59.7177 Y58.0593 
G01 X-59.7900 Y58.2819 
