(.../Documents/EAGLE/ulps/pcb-gcode.ulp)
(Copyright 2005 - 2012 by John Johnson)
(See readme.txt for licensing terms.)
(This file generated from the board:)
(.../Teensy_Stromzaehler Orig/Teensy_Stromzaehler.brd)
(Current profile is .../EAGLE/ulps/profiles/generic.pp  )
(This file generated 28.11.20 14:37)
(Settings from pcb-machine.h)
(  Tool Size)
(0.1500 )
(Z Axis Settings)
(  High     Up        Down     Drill)
(20.4000 	2.0000 	-0.1500 	-1.9000 )
(spindle on time = 3.0000)
(milling depth = -1.3000)
(text depth = -0.1000)
(tool change at 0.0000 0.0000 20.4000 )
(feed rate xy = F208.00 )
(feed rate z  = F100.00 )
(Settings from pcb-defaults.h)
(isolate min = 0.1000)
(isolate max = 0.5000)
(isolate step = 0.1000)
(Generated bottom outlines, bottom drill, )
(Unit of measure: mm)
(Metric Mode)
G21
(Absolute Coordinates)
G90
G00 X0.0000 Y0.0000 
M03
G04 P3.000000
G00 Z2.0000 
G00 X-37.1630 Y40.2243 
G01 Z-0.1500 F100.00 
G01 X-37.1630 Y38.5157 F208.00 
G01 X-37.1990 Y38.3347 
G01 X-37.2696 Y38.1642 
G01 X-37.3722 Y38.0107 
G01 X-37.5027 Y37.8802 
G01 X-37.6562 Y37.7776 
G01 X-37.8267 Y37.7070 
G01 X-38.0077 Y37.6710 
G01 X-38.1923 Y37.6710 
G01 X-38.3733 Y37.7070 
G01 X-38.5438 Y37.7776 
G01 X-38.6973 Y37.8802 
G01 X-38.8278 Y38.0107 
G01 X-38.9304 Y38.1642 
G01 X-39.0010 Y38.3347 
G01 X-39.0370 Y38.5157 
G01 X-39.0370 Y40.2243 
G01 X-39.0010 Y40.4053 
G01 X-38.9304 Y40.5758 
G01 X-38.8278 Y40.7293 
G01 X-38.6973 Y40.8598 
G01 X-38.5438 Y40.9624 
G01 X-38.3733 Y41.0330 
G01 X-38.1923 Y41.0690 
G01 X-38.0077 Y41.0690 
G01 X-37.8267 Y41.0330 
G01 X-37.6562 Y40.9624 
G01 X-37.5027 Y40.8598 
G01 X-37.3722 Y40.7293 
G01 X-37.2696 Y40.5758 
G01 X-37.1990 Y40.4053 
G01 X-37.1630 Y40.2243 
G00 Z2.0000 
G00 X-34.6230 Y40.2243 
G01 Z-0.1500 F100.00 
G01 X-34.6230 Y38.5157 F208.00 
G01 X-34.6590 Y38.3347 
G01 X-34.7296 Y38.1642 
G01 X-34.8322 Y38.0107 
G01 X-34.9627 Y37.8802 
G01 X-35.1162 Y37.7776 
G01 X-35.2867 Y37.7070 
G01 X-35.4677 Y37.6710 
G01 X-35.6523 Y37.6710 
G01 X-35.8333 Y37.7070 
G01 X-36.0038 Y37.7776 
G01 X-36.1573 Y37.8802 
G01 X-36.2878 Y38.0107 
G01 X-36.3904 Y38.1642 
G01 X-36.4610 Y38.3347 
G01 X-36.4970 Y38.5157 
G01 X-36.4970 Y40.2243 
G01 X-36.4610 Y40.4053 
G01 X-36.3904 Y40.5758 
G01 X-36.2878 Y40.7293 
G01 X-36.1573 Y40.8598 
G01 X-36.0038 Y40.9624 
G01 X-35.8333 Y41.0330 
G01 X-35.6523 Y41.0690 
G01 X-35.4677 Y41.0690 
G01 X-35.2867 Y41.0330 
G01 X-35.1162 Y40.9624 
G01 X-34.9627 Y40.8598 
G01 X-34.8322 Y40.7293 
G01 X-34.7296 Y40.5758 
G01 X-34.6590 Y40.4053 
G01 X-34.6230 Y40.2243 
G00 Z2.0000 
G00 X-32.0830 Y40.2243 
G01 Z-0.1500 F100.00 
G01 X-32.0830 Y38.5157 F208.00 
G01 X-32.1190 Y38.3347 
G01 X-32.1896 Y38.1642 
G01 X-32.2922 Y38.0107 
G01 X-32.4227 Y37.8802 
G01 X-32.5762 Y37.7776 
G01 X-32.7467 Y37.7070 
G01 X-32.9277 Y37.6710 
G01 X-33.1123 Y37.6710 
G01 X-33.2933 Y37.7070 
G01 X-33.4638 Y37.7776 
G01 X-33.6173 Y37.8802 
G01 X-33.7478 Y38.0107 
G01 X-33.8504 Y38.1642 
G01 X-33.9210 Y38.3347 
G01 X-33.9570 Y38.5157 
G01 X-33.9570 Y40.2243 
G01 X-33.9210 Y40.4053 
G01 X-33.8504 Y40.5758 
G01 X-33.7478 Y40.7293 
G01 X-33.6173 Y40.8598 
G01 X-33.4638 Y40.9624 
G01 X-33.2933 Y41.0330 
G01 X-33.1123 Y41.0690 
G01 X-32.9277 Y41.0690 
G01 X-32.7467 Y41.0330 
G01 X-32.5762 Y40.9624 
G01 X-32.4227 Y40.8598 
G01 X-32.2922 Y40.7293 
G01 X-32.1896 Y40.5758 
G01 X-32.1190 Y40.4053 
G01 X-32.0830 Y40.2243 
G00 Z2.0000 
G00 X-29.5430 Y40.2243 
G01 Z-0.1500 F100.00 
G01 X-29.5430 Y38.5157 F208.00 
G01 X-29.5790 Y38.3347 
G01 X-29.6496 Y38.1642 
G01 X-29.7522 Y38.0107 
G01 X-29.8827 Y37.8802 
G01 X-30.0362 Y37.7776 
G01 X-30.2067 Y37.7070 
G01 X-30.3877 Y37.6710 
G01 X-30.5723 Y37.6710 
G01 X-30.7533 Y37.7070 
G01 X-30.9238 Y37.7776 
G01 X-31.0773 Y37.8802 
G01 X-31.2078 Y38.0107 
G01 X-31.3104 Y38.1642 
G01 X-31.3810 Y38.3347 
G01 X-31.4170 Y38.5157 
G01 X-31.4170 Y40.2243 
G01 X-31.3810 Y40.4053 
G01 X-31.3104 Y40.5758 
G01 X-31.2078 Y40.7293 
G01 X-31.0773 Y40.8598 
G01 X-30.9238 Y40.9624 
G01 X-30.7533 Y41.0330 
G01 X-30.5723 Y41.0690 
G01 X-30.3877 Y41.0690 
G01 X-30.2067 Y41.0330 
G01 X-30.0362 Y40.9624 
G01 X-29.8827 Y40.8598 
G01 X-29.7522 Y40.7293 
G01 X-29.6496 Y40.5758 
G01 X-29.5790 Y40.4053 
G01 X-29.5430 Y40.2243 
G00 Z2.0000 
G00 X-27.0030 Y40.2243 
G01 Z-0.1500 F100.00 
G01 X-27.0030 Y38.5157 F208.00 
G01 X-27.0390 Y38.3347 
G01 X-27.1096 Y38.1642 
G01 X-27.2122 Y38.0107 
G01 X-27.3427 Y37.8802 
G01 X-27.4962 Y37.7776 
G01 X-27.6667 Y37.7070 
G01 X-27.8477 Y37.6710 
G01 X-28.0323 Y37.6710 
G01 X-28.2133 Y37.7070 
G01 X-28.3838 Y37.7776 
G01 X-28.5373 Y37.8802 
G01 X-28.6678 Y38.0107 
G01 X-28.7704 Y38.1642 
G01 X-28.8410 Y38.3347 
G01 X-28.8770 Y38.5157 
G01 X-28.8770 Y40.2243 
G01 X-28.8410 Y40.4053 
G01 X-28.7704 Y40.5758 
G01 X-28.6678 Y40.7293 
G01 X-28.5373 Y40.8598 
G01 X-28.3838 Y40.9624 
G01 X-28.2133 Y41.0330 
G01 X-28.0323 Y41.0690 
G01 X-27.8477 Y41.0690 
G01 X-27.6667 Y41.0330 
G01 X-27.4962 Y40.9624 
G01 X-27.3427 Y40.8598 
G01 X-27.2122 Y40.7293 
G01 X-27.1096 Y40.5758 
G01 X-27.0390 Y40.4053 
G01 X-27.0030 Y40.2243 
G00 Z2.0000 
G00 X-24.4630 Y40.2243 
G01 Z-0.1500 F100.00 
G01 X-24.4630 Y38.5157 F208.00 
G01 X-24.4990 Y38.3347 
G01 X-24.5696 Y38.1642 
G01 X-24.6722 Y38.0107 
G01 X-24.8027 Y37.8802 
G01 X-24.9562 Y37.7776 
G01 X-25.1267 Y37.7070 
G01 X-25.3077 Y37.6710 
G01 X-25.4923 Y37.6710 
G01 X-25.6733 Y37.7070 
G01 X-25.8438 Y37.7776 
G01 X-25.9973 Y37.8802 
G01 X-26.1278 Y38.0107 
G01 X-26.2304 Y38.1642 
G01 X-26.3010 Y38.3347 
G01 X-26.3370 Y38.5157 
G01 X-26.3370 Y40.2243 
G01 X-26.3010 Y40.4053 
G01 X-26.2304 Y40.5758 
G01 X-26.1278 Y40.7293 
G01 X-25.9973 Y40.8598 
G01 X-25.8438 Y40.9624 
G01 X-25.6733 Y41.0330 
G01 X-25.4923 Y41.0690 
G01 X-25.3077 Y41.0690 
G01 X-25.1267 Y41.0330 
G01 X-24.9562 Y40.9624 
G01 X-24.8027 Y40.8598 
G01 X-24.6722 Y40.7293 
G01 X-24.5696 Y40.5758 
G01 X-24.4990 Y40.4053 
G01 X-24.4630 Y40.2243 
G00 Z2.0000 
G00 X-21.9230 Y40.2243 
G01 Z-0.1500 F100.00 
G01 X-21.9230 Y38.5157 F208.00 
G01 X-21.9590 Y38.3347 
G01 X-22.0296 Y38.1642 
G01 X-22.1322 Y38.0107 
G01 X-22.2627 Y37.8802 
G01 X-22.4162 Y37.7776 
G01 X-22.5867 Y37.7070 
G01 X-22.7677 Y37.6710 
G01 X-22.9523 Y37.6710 
G01 X-23.1333 Y37.7070 
G01 X-23.3038 Y37.7776 
G01 X-23.4573 Y37.8802 
G01 X-23.5878 Y38.0107 
G01 X-23.6904 Y38.1642 
G01 X-23.7610 Y38.3347 
G01 X-23.7970 Y38.5157 
G01 X-23.7970 Y40.2243 
G01 X-23.7610 Y40.4053 
G01 X-23.6904 Y40.5758 
G01 X-23.5878 Y40.7293 
G01 X-23.4573 Y40.8598 
G01 X-23.3038 Y40.9624 
G01 X-23.1333 Y41.0330 
G01 X-22.9523 Y41.0690 
G01 X-22.7677 Y41.0690 
G01 X-22.5867 Y41.0330 
G01 X-22.4162 Y40.9624 
G01 X-22.2627 Y40.8598 
G01 X-22.1322 Y40.7293 
G01 X-22.0296 Y40.5758 
G01 X-21.9590 Y40.4053 
G01 X-21.9230 Y40.2243 
G00 Z2.0000 
G00 X-19.3830 Y40.2243 
G01 Z-0.1500 F100.00 
G01 X-19.3830 Y38.5157 F208.00 
G01 X-19.4190 Y38.3347 
G01 X-19.4896 Y38.1642 
G01 X-19.5922 Y38.0107 
G01 X-19.7227 Y37.8802 
G01 X-19.8762 Y37.7776 
G01 X-20.0467 Y37.7070 
G01 X-20.2277 Y37.6710 
G01 X-20.4123 Y37.6710 
G01 X-20.5933 Y37.7070 
G01 X-20.7638 Y37.7776 
G01 X-20.9173 Y37.8802 
G01 X-21.0478 Y38.0107 
G01 X-21.1504 Y38.1642 
G01 X-21.2210 Y38.3347 
G01 X-21.2570 Y38.5157 
G01 X-21.2570 Y40.2243 
G01 X-21.2210 Y40.4053 
G01 X-21.1504 Y40.5758 
G01 X-21.0478 Y40.7293 
G01 X-20.9173 Y40.8598 
G01 X-20.7638 Y40.9624 
G01 X-20.5933 Y41.0330 
G01 X-20.4123 Y41.0690 
G01 X-20.2277 Y41.0690 
G01 X-20.0467 Y41.0330 
G01 X-19.8762 Y40.9624 
G01 X-19.7227 Y40.8598 
G01 X-19.5922 Y40.7293 
G01 X-19.4896 Y40.5758 
G01 X-19.4190 Y40.4053 
G01 X-19.3830 Y40.2243 
G00 Z2.0000 
G00 X-16.8430 Y40.2243 
G01 Z-0.1500 F100.00 
G01 X-16.8430 Y38.5157 F208.00 
G01 X-16.8790 Y38.3347 
G01 X-16.9496 Y38.1642 
G01 X-17.0522 Y38.0107 
G01 X-17.1827 Y37.8802 
G01 X-17.3362 Y37.7776 
G01 X-17.5067 Y37.7070 
G01 X-17.6877 Y37.6710 
G01 X-17.8723 Y37.6710 
G01 X-18.0533 Y37.7070 
G01 X-18.2238 Y37.7776 
G01 X-18.3773 Y37.8802 
G01 X-18.5078 Y38.0107 
G01 X-18.6104 Y38.1642 
G01 X-18.6810 Y38.3347 
G01 X-18.7170 Y38.5157 
G01 X-18.7170 Y40.2243 
G01 X-18.6810 Y40.4053 
G01 X-18.6104 Y40.5758 
G01 X-18.5078 Y40.7293 
G01 X-18.3773 Y40.8598 
G01 X-18.2238 Y40.9624 
G01 X-18.0533 Y41.0330 
G01 X-17.8723 Y41.0690 
G01 X-17.6877 Y41.0690 
G01 X-17.5067 Y41.0330 
G01 X-17.3362 Y40.9624 
G01 X-17.1827 Y40.8598 
G01 X-17.0522 Y40.7293 
G01 X-16.9496 Y40.5758 
G01 X-16.8790 Y40.4053 
G01 X-16.8430 Y40.2243 
G00 Z2.0000 
G00 X-14.3030 Y40.2243 
G01 Z-0.1500 F100.00 
G01 X-14.3030 Y38.5157 F208.00 
G01 X-14.3390 Y38.3347 
G01 X-14.4096 Y38.1642 
G01 X-14.5122 Y38.0107 
G01 X-14.6427 Y37.8802 
G01 X-14.7962 Y37.7776 
G01 X-14.9667 Y37.7070 
G01 X-15.1477 Y37.6710 
G01 X-15.3323 Y37.6710 
G01 X-15.5133 Y37.7070 
G01 X-15.6838 Y37.7776 
G01 X-15.8373 Y37.8802 
G01 X-15.9678 Y38.0107 
G01 X-16.0704 Y38.1642 
G01 X-16.1410 Y38.3347 
G01 X-16.1770 Y38.5157 
G01 X-16.1770 Y40.2243 
G01 X-16.1410 Y40.4053 
G01 X-16.0704 Y40.5758 
G01 X-15.9678 Y40.7293 
G01 X-15.8373 Y40.8598 
G01 X-15.6838 Y40.9624 
G01 X-15.5133 Y41.0330 
G01 X-15.3323 Y41.0690 
G01 X-15.1477 Y41.0690 
G01 X-14.9667 Y41.0330 
G01 X-14.7962 Y40.9624 
G01 X-14.6427 Y40.8598 
G01 X-14.5122 Y40.7293 
G01 X-14.4096 Y40.5758 
G01 X-14.3390 Y40.4053 
G01 X-14.3030 Y40.2243 
G00 Z2.0000 
G00 X-11.7630 Y40.2243 
G01 Z-0.1500 F100.00 
G01 X-11.7630 Y38.5157 F208.00 
G01 X-11.7990 Y38.3347 
G01 X-11.8696 Y38.1642 
G01 X-11.9722 Y38.0107 
G01 X-12.1027 Y37.8802 
G01 X-12.2562 Y37.7776 
G01 X-12.4267 Y37.7070 
G01 X-12.6077 Y37.6710 
G01 X-12.7923 Y37.6710 
G01 X-12.9733 Y37.7070 
G01 X-13.1438 Y37.7776 
G01 X-13.2973 Y37.8802 
G01 X-13.4278 Y38.0107 
G01 X-13.5304 Y38.1642 
G01 X-13.6010 Y38.3347 
G01 X-13.6370 Y38.5157 
G01 X-13.6370 Y40.2243 
G01 X-13.6010 Y40.4053 
G01 X-13.5304 Y40.5758 
G01 X-13.4278 Y40.7293 
G01 X-13.2973 Y40.8598 
G01 X-13.1438 Y40.9624 
G01 X-12.9733 Y41.0330 
G01 X-12.7923 Y41.0690 
G01 X-12.6077 Y41.0690 
G01 X-12.4267 Y41.0330 
G01 X-12.2562 Y40.9624 
G01 X-12.1027 Y40.8598 
G01 X-11.9722 Y40.7293 
G01 X-11.8696 Y40.5758 
G01 X-11.7990 Y40.4053 
G01 X-11.7630 Y40.2243 
G00 Z2.0000 
G00 X-9.2230 Y40.2243 
G01 Z-0.1500 F100.00 
G01 X-9.2230 Y38.5157 F208.00 
G01 X-9.2590 Y38.3347 
G01 X-9.3296 Y38.1642 
G01 X-9.4322 Y38.0107 
G01 X-9.5627 Y37.8802 
G01 X-9.7162 Y37.7776 
G01 X-9.8867 Y37.7070 
G01 X-10.0677 Y37.6710 
G01 X-10.2523 Y37.6710 
G01 X-10.4333 Y37.7070 
G01 X-10.6038 Y37.7776 
G01 X-10.7573 Y37.8802 
G01 X-10.8878 Y38.0107 
G01 X-10.9904 Y38.1642 
G01 X-11.0610 Y38.3347 
G01 X-11.0970 Y38.5157 
G01 X-11.0970 Y40.2243 
G01 X-11.0610 Y40.4053 
G01 X-10.9904 Y40.5758 
G01 X-10.8878 Y40.7293 
G01 X-10.7573 Y40.8598 
G01 X-10.6038 Y40.9624 
G01 X-10.4333 Y41.0330 
G01 X-10.2523 Y41.0690 
G01 X-10.0677 Y41.0690 
G01 X-9.8867 Y41.0330 
G01 X-9.7162 Y40.9624 
G01 X-9.5627 Y40.8598 
G01 X-9.4322 Y40.7293 
G01 X-9.3296 Y40.5758 
G01 X-9.2590 Y40.4053 
G01 X-9.2230 Y40.2243 
G00 Z2.0000 
G00 X-6.6830 Y40.2243 
G01 Z-0.1500 F100.00 
G01 X-6.6830 Y38.5157 F208.00 
G01 X-6.7190 Y38.3347 
G01 X-6.7896 Y38.1642 
G01 X-6.8922 Y38.0107 
G01 X-7.0227 Y37.8802 
G01 X-7.1762 Y37.7776 
G01 X-7.3467 Y37.7070 
G01 X-7.5277 Y37.6710 
G01 X-7.7123 Y37.6710 
G01 X-7.8933 Y37.7070 
G01 X-8.0638 Y37.7776 
G01 X-8.2173 Y37.8802 
G01 X-8.3478 Y38.0107 
G01 X-8.4504 Y38.1642 
G01 X-8.5210 Y38.3347 
G01 X-8.5570 Y38.5157 
G01 X-8.5570 Y40.2243 
G01 X-8.5210 Y40.4053 
G01 X-8.4504 Y40.5758 
G01 X-8.3478 Y40.7293 
G01 X-8.2173 Y40.8598 
G01 X-8.0638 Y40.9624 
G01 X-7.8933 Y41.0330 
G01 X-7.7123 Y41.0690 
G01 X-7.5277 Y41.0690 
G01 X-7.3467 Y41.0330 
G01 X-7.1762 Y40.9624 
G01 X-7.0227 Y40.8598 
G01 X-6.8922 Y40.7293 
G01 X-6.7896 Y40.5758 
G01 X-6.7190 Y40.4053 
G01 X-6.6830 Y40.2243 
G00 Z2.0000 
G00 X-4.1430 Y40.2243 
G01 Z-0.1500 F100.00 
G01 X-4.1430 Y38.5157 F208.00 
G01 X-4.1790 Y38.3347 
G01 X-4.2496 Y38.1642 
G01 X-4.3522 Y38.0107 
G01 X-4.4827 Y37.8802 
G01 X-4.6362 Y37.7776 
G01 X-4.8067 Y37.7070 
G01 X-4.9877 Y37.6710 
G01 X-5.1723 Y37.6710 
G01 X-5.3533 Y37.7070 
G01 X-5.5238 Y37.7776 
G01 X-5.6773 Y37.8802 
G01 X-5.8078 Y38.0107 
G01 X-5.9104 Y38.1642 
G01 X-5.9810 Y38.3347 
G01 X-6.0170 Y38.5157 
G01 X-6.0170 Y40.2243 
G01 X-5.9810 Y40.4053 
G01 X-5.9104 Y40.5758 
G01 X-5.8078 Y40.7293 
G01 X-5.6773 Y40.8598 
G01 X-5.5238 Y40.9624 
G01 X-5.3533 Y41.0330 
G01 X-5.1723 Y41.0690 
G01 X-4.9877 Y41.0690 
G01 X-4.8067 Y41.0330 
G01 X-4.6362 Y40.9624 
G01 X-4.4827 Y40.8598 
G01 X-4.3522 Y40.7293 
G01 X-4.2496 Y40.5758 
G01 X-4.1790 Y40.4053 
G01 X-4.1430 Y40.2243 
G00 Z2.0000 
G00 X-1.6030 Y40.2243 
G01 Z-0.1500 F100.00 
G01 X-1.6030 Y38.5157 F208.00 
G01 X-1.6390 Y38.3347 
G01 X-1.7096 Y38.1642 
G01 X-1.8122 Y38.0107 
G01 X-1.9427 Y37.8802 
G01 X-2.0962 Y37.7776 
G01 X-2.2667 Y37.7070 
G01 X-2.4477 Y37.6710 
G01 X-2.6323 Y37.6710 
G01 X-2.8133 Y37.7070 
G01 X-2.9838 Y37.7776 
G01 X-3.1373 Y37.8802 
G01 X-3.2678 Y38.0107 
G01 X-3.3704 Y38.1642 
G01 X-3.4410 Y38.3347 
G01 X-3.4770 Y38.5157 
G01 X-3.4770 Y40.2243 
G01 X-3.4410 Y40.4053 
G01 X-3.3704 Y40.5758 
G01 X-3.2678 Y40.7293 
G01 X-3.1373 Y40.8598 
G01 X-2.9838 Y40.9624 
G01 X-2.8133 Y41.0330 
G01 X-2.6323 Y41.0690 
G01 X-2.4477 Y41.0690 
G01 X-2.2667 Y41.0330 
G01 X-2.0962 Y40.9624 
G01 X-1.9427 Y40.8598 
G01 X-1.8122 Y40.7293 
G01 X-1.7096 Y40.5758 
G01 X-1.6390 Y40.4053 
G01 X-1.6030 Y40.2243 
G00 Z2.0000 
G00 X-37.1630 Y17.3643 
G01 Z-0.1500 F100.00 
G01 X-37.1630 Y15.6557 F208.00 
G01 X-37.1990 Y15.4747 
G01 X-37.2696 Y15.3042 
G01 X-37.3722 Y15.1507 
G01 X-37.5027 Y15.0202 
G01 X-37.5186 Y15.0096 
G01 X-37.5186 Y11.6708 
G01 X-36.3784 Y10.5306 
G01 X-36.3148 Y10.4354 
G01 X-36.2709 Y10.3296 
G01 X-36.2486 Y10.2173 
G01 X-36.2486 Y9.8190 
G01 X-36.0412 Y9.8190 
G01 X-35.9769 Y9.7924 
G01 X-35.9276 Y9.7431 
G01 X-35.9010 Y9.6788 
G01 X-35.9010 Y8.1012 
G01 X-35.9276 Y8.0369 
G01 X-35.9769 Y7.9876 
G01 X-36.0412 Y7.9610 
G01 X-36.2486 Y7.9610 
G01 X-36.2486 Y0.5814 
G01 X-15.4808 Y0.5814 
G01 X-10.7414 Y5.3208 
G01 X-10.7414 Y8.6596 
G01 X-10.7573 Y8.6702 
G01 X-10.8878 Y8.8007 
G01 X-10.9904 Y8.9542 
G01 X-11.0610 Y9.1247 
G01 X-11.0970 Y9.3057 
G01 X-11.0970 Y11.0143 
G01 X-11.0610 Y11.1953 
G01 X-10.9904 Y11.3658 
G01 X-10.8878 Y11.5193 
G01 X-10.7573 Y11.6498 
G01 X-10.6038 Y11.7524 
G01 X-10.4333 Y11.8230 
G01 X-10.2523 Y11.8590 
G01 X-10.0677 Y11.8590 
G01 X-9.8867 Y11.8230 
G01 X-9.7162 Y11.7524 
G01 X-9.5627 Y11.6498 
G01 X-9.4322 Y11.5193 
G01 X-9.3296 Y11.3658 
G01 X-9.2590 Y11.1953 
G01 X-9.2230 Y11.0143 
G01 X-9.2230 Y9.3057 
G01 X-9.2590 Y9.1247 
G01 X-9.3296 Y8.9542 
G01 X-9.4322 Y8.8007 
G01 X-9.5627 Y8.6702 
G01 X-9.5786 Y8.6596 
G01 X-9.5786 Y5.0227 
G01 X-9.6009 Y4.9104 
G01 X-9.6448 Y4.8046 
G01 X-9.7084 Y4.7094 
G01 X-14.7884 Y-0.3706 
G01 X-14.8694 Y-0.4516 
G01 X-14.9646 Y-0.5152 
G01 X-15.0704 Y-0.5591 
G01 X-15.1827 Y-0.5814 
G01 X-36.8873 Y-0.5814 
G01 X-36.9996 Y-0.5591 
G01 X-37.1054 Y-0.5152 
G01 X-37.2006 Y-0.4516 
G01 X-37.2816 Y-0.3706 
G01 X-37.3452 Y-0.2754 
G01 X-37.3891 Y-0.1696 
G01 X-37.4114 Y-0.0573 
G01 X-37.4114 Y7.9610 
G01 X-37.6188 Y7.9610 
G01 X-37.6831 Y7.9876 
G01 X-37.7324 Y8.0369 
G01 X-37.7590 Y8.1012 
G01 X-37.7590 Y9.6788 
G01 X-37.7324 Y9.7431 
G01 X-37.6831 Y9.7924 
G01 X-37.6188 Y9.8190 
G01 X-37.4114 Y9.8190 
G01 X-37.4114 Y9.9192 
G01 X-38.4706 Y10.9784 
G01 X-38.5516 Y11.0594 
G01 X-38.6152 Y11.1546 
G01 X-38.6591 Y11.2604 
G01 X-38.6814 Y11.3727 
G01 X-38.6814 Y15.0096 
G01 X-38.6973 Y15.0202 
G01 X-38.8278 Y15.1507 
G01 X-38.9304 Y15.3042 
G01 X-39.0010 Y15.4747 
G01 X-39.0370 Y15.6557 
G01 X-39.0370 Y17.3643 
G01 X-39.0010 Y17.5453 
G01 X-38.9304 Y17.7158 
G01 X-38.8278 Y17.8693 
G01 X-38.6973 Y17.9998 
G01 X-38.5438 Y18.1024 
G01 X-38.3733 Y18.1730 
G01 X-38.1923 Y18.2090 
G01 X-38.0077 Y18.2090 
G01 X-37.8267 Y18.1730 
G01 X-37.6562 Y18.1024 
G01 X-37.5027 Y17.9998 
G01 X-37.3722 Y17.8693 
G01 X-37.2696 Y17.7158 
G01 X-37.1990 Y17.5453 
G01 X-37.1630 Y17.3643 
G00 Z2.0000 
G00 X-32.0830 Y17.3643 
G01 Z-0.1500 F100.00 
G01 X-32.0830 Y15.6557 F208.00 
G01 X-32.1190 Y15.4747 
G01 X-32.1896 Y15.3042 
G01 X-32.2922 Y15.1507 
G01 X-32.4227 Y15.0202 
G01 X-32.5762 Y14.9176 
G01 X-32.7467 Y14.8470 
G01 X-32.9277 Y14.8110 
G01 X-33.1123 Y14.8110 
G01 X-33.2933 Y14.8470 
G01 X-33.4638 Y14.9176 
G01 X-33.6173 Y15.0202 
G01 X-33.7478 Y15.1507 
G01 X-33.8504 Y15.3042 
G01 X-33.9210 Y15.4747 
G01 X-33.9570 Y15.6557 
G01 X-33.9570 Y17.3643 
G01 X-33.9210 Y17.5453 
G01 X-33.8504 Y17.7158 
G01 X-33.7478 Y17.8693 
G01 X-33.6173 Y17.9998 
G01 X-33.4638 Y18.1024 
G01 X-33.2933 Y18.1730 
G01 X-33.1123 Y18.2090 
G01 X-32.9277 Y18.2090 
G01 X-32.7467 Y18.1730 
G01 X-32.5762 Y18.1024 
G01 X-32.4227 Y17.9998 
G01 X-32.2922 Y17.8693 
G01 X-32.1896 Y17.7158 
G01 X-32.1190 Y17.5453 
G01 X-32.0830 Y17.3643 
G00 Z2.0000 
G00 X-29.5430 Y17.3643 
G01 Z-0.1500 F100.00 
G01 X-29.5430 Y15.6557 F208.00 
G01 X-29.5790 Y15.4747 
G01 X-29.6496 Y15.3042 
G01 X-29.7522 Y15.1507 
G01 X-29.8827 Y15.0202 
G01 X-30.0362 Y14.9176 
G01 X-30.2067 Y14.8470 
G01 X-30.3877 Y14.8110 
G01 X-30.5723 Y14.8110 
G01 X-30.7533 Y14.8470 
G01 X-30.9238 Y14.9176 
G01 X-31.0773 Y15.0202 
G01 X-31.2078 Y15.1507 
G01 X-31.3104 Y15.3042 
G01 X-31.3810 Y15.4747 
G01 X-31.4170 Y15.6557 
G01 X-31.4170 Y17.3643 
G01 X-31.3810 Y17.5453 
G01 X-31.3104 Y17.7158 
G01 X-31.2078 Y17.8693 
G01 X-31.0773 Y17.9998 
G01 X-30.9238 Y18.1024 
G01 X-30.7533 Y18.1730 
G01 X-30.5723 Y18.2090 
G01 X-30.3877 Y18.2090 
G01 X-30.2067 Y18.1730 
G01 X-30.0362 Y18.1024 
G01 X-29.8827 Y17.9998 
G01 X-29.7522 Y17.8693 
G01 X-29.6496 Y17.7158 
G01 X-29.5790 Y17.5453 
G01 X-29.5430 Y17.3643 
G00 Z2.0000 
G00 X-27.0030 Y17.3643 
G01 Z-0.1500 F100.00 
G01 X-27.0030 Y15.6557 F208.00 
G01 X-27.0390 Y15.4747 
G01 X-27.1096 Y15.3042 
G01 X-27.2122 Y15.1507 
G01 X-27.3427 Y15.0202 
G01 X-27.4962 Y14.9176 
G01 X-27.6667 Y14.8470 
G01 X-27.8477 Y14.8110 
G01 X-28.0323 Y14.8110 
G01 X-28.2133 Y14.8470 
G01 X-28.3838 Y14.9176 
G01 X-28.5373 Y15.0202 
G01 X-28.6678 Y15.1507 
G01 X-28.7704 Y15.3042 
G01 X-28.8410 Y15.4747 
G01 X-28.8770 Y15.6557 
G01 X-28.8770 Y17.3643 
G01 X-28.8410 Y17.5453 
G01 X-28.7704 Y17.7158 
G01 X-28.6678 Y17.8693 
G01 X-28.5373 Y17.9998 
G01 X-28.3838 Y18.1024 
G01 X-28.2133 Y18.1730 
G01 X-28.0323 Y18.2090 
G01 X-27.8477 Y18.2090 
G01 X-27.6667 Y18.1730 
G01 X-27.4962 Y18.1024 
G01 X-27.3427 Y17.9998 
G01 X-27.2122 Y17.8693 
G01 X-27.1096 Y17.7158 
G01 X-27.0390 Y17.5453 
G01 X-27.0030 Y17.3643 
G00 Z2.0000 
G00 X-24.4630 Y17.3643 
G01 Z-0.1500 F100.00 
G01 X-24.4630 Y15.6557 F208.00 
G01 X-24.4990 Y15.4747 
G01 X-24.5696 Y15.3042 
G01 X-24.6722 Y15.1507 
G01 X-24.8027 Y15.0202 
G01 X-24.9562 Y14.9176 
G01 X-25.1267 Y14.8470 
G01 X-25.3077 Y14.8110 
G01 X-25.4923 Y14.8110 
G01 X-25.6733 Y14.8470 
G01 X-25.8438 Y14.9176 
G01 X-25.9973 Y15.0202 
G01 X-26.1278 Y15.1507 
G01 X-26.2304 Y15.3042 
G01 X-26.3010 Y15.4747 
G01 X-26.3370 Y15.6557 
G01 X-26.3370 Y17.3643 
G01 X-26.3010 Y17.5453 
G01 X-26.2304 Y17.7158 
G01 X-26.1278 Y17.8693 
G01 X-25.9973 Y17.9998 
G01 X-25.8438 Y18.1024 
G01 X-25.6733 Y18.1730 
G01 X-25.4923 Y18.2090 
G01 X-25.3077 Y18.2090 
G01 X-25.1267 Y18.1730 
G01 X-24.9562 Y18.1024 
G01 X-24.8027 Y17.9998 
G01 X-24.6722 Y17.8693 
G01 X-24.5696 Y17.7158 
G01 X-24.4990 Y17.5453 
G01 X-24.4630 Y17.3643 
G00 Z2.0000 
G00 X-21.9230 Y17.3643 
G01 Z-0.1500 F100.00 
G01 X-21.9230 Y15.6557 F208.00 
G01 X-21.9590 Y15.4747 
G01 X-22.0296 Y15.3042 
G01 X-22.1322 Y15.1507 
G01 X-22.2627 Y15.0202 
G01 X-22.4162 Y14.9176 
G01 X-22.5867 Y14.8470 
G01 X-22.7677 Y14.8110 
G01 X-22.9523 Y14.8110 
G01 X-23.1333 Y14.8470 
G01 X-23.3038 Y14.9176 
G01 X-23.4573 Y15.0202 
G01 X-23.5878 Y15.1507 
G01 X-23.6904 Y15.3042 
G01 X-23.7610 Y15.4747 
G01 X-23.7970 Y15.6557 
G01 X-23.7970 Y17.3643 
G01 X-23.7610 Y17.5453 
G01 X-23.6904 Y17.7158 
G01 X-23.5878 Y17.8693 
G01 X-23.4573 Y17.9998 
G01 X-23.3038 Y18.1024 
G01 X-23.1333 Y18.1730 
G01 X-22.9523 Y18.2090 
G01 X-22.7677 Y18.2090 
G01 X-22.5867 Y18.1730 
G01 X-22.4162 Y18.1024 
G01 X-22.2627 Y17.9998 
G01 X-22.1322 Y17.8693 
G01 X-22.0296 Y17.7158 
G01 X-21.9590 Y17.5453 
G01 X-21.9230 Y17.3643 
G00 Z2.0000 
G00 X-16.8430 Y17.3643 
G01 Z-0.1500 F100.00 
G01 X-16.8430 Y15.6557 F208.00 
G01 X-16.8790 Y15.4747 
G01 X-16.9496 Y15.3042 
G01 X-17.0522 Y15.1507 
G01 X-17.1827 Y15.0202 
G01 X-17.1986 Y15.0096 
G01 X-17.1986 Y13.9127 
G01 X-17.2209 Y13.8004 
G01 X-17.2648 Y13.6946 
G01 X-17.3284 Y13.5994 
G01 X-18.5984 Y12.3294 
G01 X-18.6794 Y12.2484 
G01 X-18.7746 Y12.1848 
G01 X-18.8804 Y12.1409 
G01 X-18.9927 Y12.1186 
G01 X-19.7386 Y12.1186 
G01 X-19.7386 Y11.6604 
G01 X-19.7227 Y11.6498 
G01 X-19.5922 Y11.5193 
G01 X-19.4896 Y11.3658 
G01 X-19.4190 Y11.1953 
G01 X-19.3830 Y11.0143 
G01 X-19.3830 Y9.3057 
G01 X-19.4190 Y9.1247 
G01 X-19.4896 Y8.9542 
G01 X-19.5922 Y8.8007 
G01 X-19.7227 Y8.6702 
G01 X-19.8762 Y8.5676 
G01 X-20.0467 Y8.4970 
G01 X-20.2277 Y8.4610 
G01 X-20.4123 Y8.4610 
G01 X-20.5933 Y8.4970 
G01 X-20.7638 Y8.5676 
G01 X-20.9173 Y8.6702 
G01 X-21.0478 Y8.8007 
G01 X-21.1504 Y8.9542 
G01 X-21.2210 Y9.1247 
G01 X-21.2570 Y9.3057 
G01 X-21.2570 Y11.0143 
G01 X-21.2210 Y11.1953 
G01 X-21.1504 Y11.3658 
G01 X-21.0478 Y11.5193 
G01 X-20.9173 Y11.6498 
G01 X-20.9014 Y11.6604 
G01 X-20.9014 Y12.7573 
G01 X-20.8791 Y12.8696 
G01 X-20.8352 Y12.9754 
G01 X-20.7716 Y13.0706 
G01 X-20.6906 Y13.1516 
G01 X-20.5954 Y13.2152 
G01 X-20.4896 Y13.2591 
G01 X-20.3773 Y13.2814 
G01 X-19.2908 Y13.2814 
G01 X-18.3614 Y14.2108 
G01 X-18.3614 Y15.0096 
G01 X-18.3773 Y15.0202 
G01 X-18.5078 Y15.1507 
G01 X-18.6104 Y15.3042 
G01 X-18.6810 Y15.4747 
G01 X-18.7170 Y15.6557 
G01 X-18.7170 Y17.3643 
G01 X-18.6810 Y17.5453 
G01 X-18.6104 Y17.7158 
G01 X-18.5078 Y17.8693 
G01 X-18.3773 Y17.9998 
G01 X-18.2238 Y18.1024 
G01 X-18.0533 Y18.1730 
G01 X-17.8723 Y18.2090 
G01 X-17.6877 Y18.2090 
G01 X-17.5067 Y18.1730 
G01 X-17.3362 Y18.1024 
G01 X-17.1827 Y17.9998 
G01 X-17.0522 Y17.8693 
G01 X-16.9496 Y17.7158 
G01 X-16.8790 Y17.5453 
G01 X-16.8430 Y17.3643 
G00 Z2.0000 
G00 X-11.7630 Y17.3643 
G01 Z-0.1500 F100.00 
G01 X-11.7630 Y15.6557 F208.00 
G01 X-11.7990 Y15.4747 
G01 X-11.8696 Y15.3042 
G01 X-11.9722 Y15.1507 
G01 X-12.1027 Y15.0202 
G01 X-12.2562 Y14.9176 
G01 X-12.4267 Y14.8470 
G01 X-12.6077 Y14.8110 
G01 X-12.7923 Y14.8110 
G01 X-12.9733 Y14.8470 
G01 X-13.1438 Y14.9176 
G01 X-13.2973 Y15.0202 
G01 X-13.4278 Y15.1507 
G01 X-13.5304 Y15.3042 
G01 X-13.6010 Y15.4747 
G01 X-13.6370 Y15.6557 
G01 X-13.6370 Y17.3643 
G01 X-13.6010 Y17.5453 
G01 X-13.5304 Y17.7158 
G01 X-13.4278 Y17.8693 
G01 X-13.2973 Y17.9998 
G01 X-13.1438 Y18.1024 
G01 X-12.9733 Y18.1730 
G01 X-12.7923 Y18.2090 
G01 X-12.6077 Y18.2090 
G01 X-12.4267 Y18.1730 
G01 X-12.2562 Y18.1024 
G01 X-12.1027 Y17.9998 
G01 X-11.9722 Y17.8693 
G01 X-11.8696 Y17.7158 
G01 X-11.7990 Y17.5453 
G01 X-11.7630 Y17.3643 
G00 Z2.0000 
G00 X-9.2230 Y17.3643 
G01 Z-0.1500 F100.00 
G01 X-9.2230 Y15.6557 F208.00 
G01 X-9.2590 Y15.4747 
G01 X-9.3296 Y15.3042 
G01 X-9.4322 Y15.1507 
G01 X-9.5627 Y15.0202 
G01 X-9.7162 Y14.9176 
G01 X-9.8867 Y14.8470 
G01 X-10.0677 Y14.8110 
G01 X-10.2523 Y14.8110 
G01 X-10.4333 Y14.8470 
G01 X-10.6038 Y14.9176 
G01 X-10.7573 Y15.0202 
G01 X-10.8878 Y15.1507 
G01 X-10.9904 Y15.3042 
G01 X-11.0610 Y15.4747 
G01 X-11.0970 Y15.6557 
G01 X-11.0970 Y17.3643 
G01 X-11.0610 Y17.5453 
G01 X-10.9904 Y17.7158 
G01 X-10.8878 Y17.8693 
G01 X-10.7573 Y17.9998 
G01 X-10.6038 Y18.1024 
G01 X-10.4333 Y18.1730 
G01 X-10.2523 Y18.2090 
G01 X-10.0677 Y18.2090 
G01 X-9.8867 Y18.1730 
G01 X-9.7162 Y18.1024 
G01 X-9.5627 Y17.9998 
G01 X-9.4322 Y17.8693 
G01 X-9.3296 Y17.7158 
G01 X-9.2590 Y17.5453 
G01 X-9.2230 Y17.3643 
G00 Z2.0000 
G00 X-6.6830 Y17.3643 
G01 Z-0.1500 F100.00 
G01 X-6.6830 Y15.6557 F208.00 
G01 X-6.7190 Y15.4747 
G01 X-6.7896 Y15.3042 
G01 X-6.8922 Y15.1507 
G01 X-7.0227 Y15.0202 
G01 X-7.1762 Y14.9176 
G01 X-7.3467 Y14.8470 
G01 X-7.5277 Y14.8110 
G01 X-7.7123 Y14.8110 
G01 X-7.8933 Y14.8470 
G01 X-8.0638 Y14.9176 
G01 X-8.2173 Y15.0202 
G01 X-8.3478 Y15.1507 
G01 X-8.4504 Y15.3042 
G01 X-8.5210 Y15.4747 
G01 X-8.5570 Y15.6557 
G01 X-8.5570 Y17.3643 
G01 X-8.5210 Y17.5453 
G01 X-8.4504 Y17.7158 
G01 X-8.3478 Y17.8693 
G01 X-8.2173 Y17.9998 
G01 X-8.0638 Y18.1024 
G01 X-7.8933 Y18.1730 
G01 X-7.7123 Y18.2090 
G01 X-7.5277 Y18.2090 
G01 X-7.3467 Y18.1730 
G01 X-7.1762 Y18.1024 
G01 X-7.0227 Y17.9998 
G01 X-6.8922 Y17.8693 
G01 X-6.7896 Y17.7158 
G01 X-6.7190 Y17.5453 
G01 X-6.6830 Y17.3643 
G00 Z2.0000 
G00 X-1.6030 Y17.3643 
G01 Z-0.1500 F100.00 
G01 X-1.6030 Y15.6557 F208.00 
G01 X-1.6390 Y15.4747 
G01 X-1.7096 Y15.3042 
G01 X-1.8122 Y15.1507 
G01 X-1.9427 Y15.0202 
G01 X-2.0962 Y14.9176 
G01 X-2.2667 Y14.8470 
G01 X-2.4477 Y14.8110 
G01 X-2.6323 Y14.8110 
G01 X-2.8133 Y14.8470 
G01 X-2.9838 Y14.9176 
G01 X-3.1373 Y15.0202 
G01 X-3.2678 Y15.1507 
G01 X-3.3704 Y15.3042 
G01 X-3.4410 Y15.4747 
G01 X-3.4770 Y15.6557 
G01 X-3.4770 Y17.3643 
G01 X-3.4410 Y17.5453 
G01 X-3.3704 Y17.7158 
G01 X-3.2678 Y17.8693 
G01 X-3.1373 Y17.9998 
G01 X-2.9838 Y18.1024 
G01 X-2.8133 Y18.1730 
G01 X-2.6323 Y18.2090 
G01 X-2.4477 Y18.2090 
G01 X-2.2667 Y18.1730 
G01 X-2.0962 Y18.1024 
G01 X-1.9427 Y17.9998 
G01 X-1.8122 Y17.8693 
G01 X-1.7096 Y17.7158 
G01 X-1.6390 Y17.5453 
G01 X-1.6030 Y17.3643 
G00 Z2.0000 
G00 X-16.8430 Y11.0143 
G01 Z-0.1500 F100.00 
G01 X-16.8430 Y9.3057 F208.00 
G01 X-16.8790 Y9.1247 
G01 X-16.9496 Y8.9542 
G01 X-17.0522 Y8.8007 
G01 X-17.1827 Y8.6702 
G01 X-17.1986 Y8.6596 
G01 X-17.1986 Y7.5627 
G01 X-17.2209 Y7.4504 
G01 X-17.2648 Y7.3446 
G01 X-17.3284 Y7.2494 
G01 X-17.4094 Y7.1684 
G01 X-17.5046 Y7.1048 
G01 X-17.6104 Y7.0609 
G01 X-17.7227 Y7.0386 
G01 X-24.1873 Y7.0386 
G01 X-24.2996 Y7.0609 
G01 X-24.4054 Y7.1048 
G01 X-24.5006 Y7.1684 
G01 X-24.5816 Y7.2494 
G01 X-24.6452 Y7.3446 
G01 X-24.6891 Y7.4504 
G01 X-24.7114 Y7.5627 
G01 X-24.7114 Y12.7573 
G01 X-24.6891 Y12.8696 
G01 X-24.6452 Y12.9754 
G01 X-24.5816 Y13.0706 
G01 X-24.5006 Y13.1516 
G01 X-24.4054 Y13.2152 
G01 X-24.2996 Y13.2591 
G01 X-24.1873 Y13.2814 
G01 X-23.1008 Y13.2814 
G01 X-21.1214 Y15.2608 
G01 X-21.1504 Y15.3042 
G01 X-21.2210 Y15.4747 
G01 X-21.2570 Y15.6557 
G01 X-21.2570 Y17.3643 
G01 X-21.2210 Y17.5453 
G01 X-21.1504 Y17.7158 
G01 X-21.0478 Y17.8693 
G01 X-20.9173 Y17.9998 
G01 X-20.7638 Y18.1024 
G01 X-20.5933 Y18.1730 
G01 X-20.4123 Y18.2090 
G01 X-20.2277 Y18.2090 
G01 X-20.0467 Y18.1730 
G01 X-19.8762 Y18.1024 
G01 X-19.7227 Y17.9998 
G01 X-19.5922 Y17.8693 
G01 X-19.4896 Y17.7158 
G01 X-19.4190 Y17.5453 
G01 X-19.3830 Y17.3643 
G01 X-19.3830 Y15.6557 
G01 X-19.4190 Y15.4747 
G01 X-19.4896 Y15.3042 
G01 X-19.5922 Y15.1507 
G01 X-19.7227 Y15.0202 
G01 X-19.8043 Y14.9656 
G01 X-19.8684 Y14.8694 
G01 X-19.9494 Y14.7884 
G01 X-22.4894 Y12.2484 
G01 X-22.5846 Y12.1848 
G01 X-22.6904 Y12.1409 
G01 X-22.8027 Y12.1186 
G01 X-23.5486 Y12.1186 
G01 X-23.5486 Y8.2014 
G01 X-18.3614 Y8.2014 
G01 X-18.3614 Y8.6596 
G01 X-18.3773 Y8.6702 
G01 X-18.5078 Y8.8007 
G01 X-18.6104 Y8.9542 
G01 X-18.6810 Y9.1247 
G01 X-18.7170 Y9.3057 
G01 X-18.7170 Y11.0143 
G01 X-18.6810 Y11.1953 
G01 X-18.6104 Y11.3658 
G01 X-18.5078 Y11.5193 
G01 X-18.3773 Y11.6498 
G01 X-18.2238 Y11.7524 
G01 X-18.0533 Y11.8230 
G01 X-17.8723 Y11.8590 
G01 X-17.6877 Y11.8590 
G01 X-17.5067 Y11.8230 
G01 X-17.3362 Y11.7524 
G01 X-17.1827 Y11.6498 
G01 X-17.0522 Y11.5193 
G01 X-16.9496 Y11.3658 
G01 X-16.8790 Y11.1953 
G01 X-16.8430 Y11.0143 
G00 Z2.0000 
G00 X-14.3030 Y11.0143 
G01 Z-0.1500 F100.00 
G01 X-14.3030 Y9.3057 F208.00 
G01 X-14.3390 Y9.1247 
G01 X-14.4096 Y8.9542 
G01 X-14.5122 Y8.8007 
G01 X-14.6427 Y8.6702 
G01 X-14.6586 Y8.6596 
G01 X-14.6586 Y5.0227 
G01 X-14.6809 Y4.9104 
G01 X-14.7248 Y4.8046 
G01 X-14.7884 Y4.7094 
G01 X-14.8694 Y4.6284 
G01 X-14.9646 Y4.5648 
G01 X-15.0704 Y4.5209 
G01 X-15.1827 Y4.4986 
G01 X-29.2673 Y4.4986 
G01 X-29.3796 Y4.5209 
G01 X-29.4854 Y4.5648 
G01 X-29.5806 Y4.6284 
G01 X-29.6616 Y4.7094 
G01 X-29.7252 Y4.8046 
G01 X-29.7691 Y4.9104 
G01 X-29.7914 Y5.0227 
G01 X-29.7914 Y8.1612 
G01 X-29.8022 Y8.1684 
G01 X-29.9316 Y8.2978 
G01 X-30.0333 Y8.4500 
G01 X-30.1033 Y8.6190 
G01 X-30.1390 Y8.7985 
G01 X-30.1390 Y8.9815 
G01 X-30.1033 Y9.1610 
G01 X-30.0333 Y9.3300 
G01 X-29.9316 Y9.4822 
G01 X-29.8022 Y9.6116 
G01 X-29.6500 Y9.7133 
G01 X-29.4810 Y9.7833 
G01 X-29.3015 Y9.8190 
G01 X-29.1185 Y9.8190 
G01 X-28.9390 Y9.7833 
G01 X-28.7700 Y9.7133 
G01 X-28.6178 Y9.6116 
G01 X-28.4884 Y9.4822 
G01 X-28.3867 Y9.3300 
G01 X-28.3167 Y9.1610 
G01 X-28.2810 Y8.9815 
G01 X-28.2810 Y8.7985 
G01 X-28.3167 Y8.6190 
G01 X-28.3867 Y8.4500 
G01 X-28.4884 Y8.2978 
G01 X-28.6178 Y8.1684 
G01 X-28.6286 Y8.1612 
G01 X-28.6286 Y5.6614 
G01 X-15.8214 Y5.6614 
G01 X-15.8214 Y8.6596 
G01 X-15.8373 Y8.6702 
G01 X-15.9678 Y8.8007 
G01 X-16.0704 Y8.9542 
G01 X-16.1410 Y9.1247 
G01 X-16.1770 Y9.3057 
G01 X-16.1770 Y11.0143 
G01 X-16.1410 Y11.1953 
G01 X-16.0704 Y11.3658 
G01 X-15.9678 Y11.5193 
G01 X-15.8373 Y11.6498 
G01 X-15.8214 Y11.6604 
G01 X-15.8214 Y15.0096 
G01 X-15.8373 Y15.0202 
G01 X-15.9678 Y15.1507 
G01 X-16.0704 Y15.3042 
G01 X-16.1410 Y15.4747 
G01 X-16.1770 Y15.6557 
G01 X-16.1770 Y17.3643 
G01 X-16.1410 Y17.5453 
G01 X-16.0704 Y17.7158 
G01 X-15.9678 Y17.8693 
G01 X-15.8373 Y17.9998 
G01 X-15.6838 Y18.1024 
G01 X-15.5133 Y18.1730 
G01 X-15.3323 Y18.2090 
G01 X-15.1477 Y18.2090 
G01 X-14.9667 Y18.1730 
G01 X-14.7962 Y18.1024 
G01 X-14.6427 Y17.9998 
G01 X-14.5122 Y17.8693 
G01 X-14.4096 Y17.7158 
G01 X-14.3390 Y17.5453 
G01 X-14.3030 Y17.3643 
G01 X-14.3030 Y15.6557 
G01 X-14.3390 Y15.4747 
G01 X-14.4096 Y15.3042 
G01 X-14.5122 Y15.1507 
G01 X-14.6427 Y15.0202 
G01 X-14.6586 Y15.0096 
G01 X-14.6586 Y11.6604 
G01 X-14.6427 Y11.6498 
G01 X-14.5122 Y11.5193 
G01 X-14.4096 Y11.3658 
G01 X-14.3390 Y11.1953 
G01 X-14.3030 Y11.0143 
G00 Z2.0000 
G00 X-11.7630 Y11.0143 
G01 Z-0.1500 F100.00 
G01 X-11.7630 Y9.3057 F208.00 
G01 X-11.7990 Y9.1247 
G01 X-11.8696 Y8.9542 
G01 X-11.9722 Y8.8007 
G01 X-12.1027 Y8.6702 
G01 X-12.1186 Y8.6596 
G01 X-12.1186 Y5.0227 
G01 X-12.1409 Y4.9104 
G01 X-12.1848 Y4.8046 
G01 X-12.2484 Y4.7094 
G01 X-12.3294 Y4.6284 
G01 X-14.8694 Y2.0884 
G01 X-14.9646 Y2.0248 
G01 X-15.0704 Y1.9809 
G01 X-15.1827 Y1.9586 
G01 X-30.5373 Y1.9586 
G01 X-30.6496 Y1.9809 
G01 X-30.7554 Y2.0248 
G01 X-30.8506 Y2.0884 
G01 X-30.9316 Y2.1694 
G01 X-32.2016 Y3.4394 
G01 X-32.2652 Y3.5346 
G01 X-32.3091 Y3.6404 
G01 X-32.3314 Y3.7527 
G01 X-32.3314 Y8.1612 
G01 X-32.3422 Y8.1684 
G01 X-32.4716 Y8.2978 
G01 X-32.5733 Y8.4500 
G01 X-32.6433 Y8.6190 
G01 X-32.6790 Y8.7985 
G01 X-32.6790 Y8.9815 
G01 X-32.6433 Y9.1610 
G01 X-32.5733 Y9.3300 
G01 X-32.4716 Y9.4822 
G01 X-32.3422 Y9.6116 
G01 X-32.1900 Y9.7133 
G01 X-32.0210 Y9.7833 
G01 X-31.8415 Y9.8190 
G01 X-31.6585 Y9.8190 
G01 X-31.4790 Y9.7833 
G01 X-31.3100 Y9.7133 
G01 X-31.1578 Y9.6116 
G01 X-31.0284 Y9.4822 
G01 X-30.9267 Y9.3300 
G01 X-30.8567 Y9.1610 
G01 X-30.8210 Y8.9815 
G01 X-30.8210 Y8.7985 
G01 X-30.8567 Y8.6190 
G01 X-30.9267 Y8.4500 
G01 X-31.0284 Y8.2978 
G01 X-31.1578 Y8.1684 
G01 X-31.1686 Y8.1612 
G01 X-31.1686 Y4.0508 
G01 X-30.2392 Y3.1214 
G01 X-15.4808 Y3.1214 
G01 X-13.2814 Y5.3208 
G01 X-13.2814 Y8.6596 
G01 X-13.2973 Y8.6702 
G01 X-13.4278 Y8.8007 
G01 X-13.5304 Y8.9542 
G01 X-13.6010 Y9.1247 
G01 X-13.6370 Y9.3057 
G01 X-13.6370 Y11.0143 
G01 X-13.6010 Y11.1953 
G01 X-13.5304 Y11.3658 
G01 X-13.4278 Y11.5193 
G01 X-13.2973 Y11.6498 
G01 X-13.2814 Y11.6604 
G01 X-13.2814 Y14.0273 
G01 X-13.2591 Y14.1396 
G01 X-13.2152 Y14.2454 
G01 X-13.1516 Y14.3406 
G01 X-13.0706 Y14.4216 
G01 X-12.9754 Y14.4852 
G01 X-12.8696 Y14.5291 
G01 X-12.7573 Y14.5514 
G01 X-5.6614 Y14.5514 
G01 X-5.6614 Y15.0096 
G01 X-5.6773 Y15.0202 
G01 X-5.8078 Y15.1507 
G01 X-5.9104 Y15.3042 
G01 X-5.9810 Y15.4747 
G01 X-6.0170 Y15.6557 
G01 X-6.0170 Y17.3643 
G01 X-5.9810 Y17.5453 
G01 X-5.9104 Y17.7158 
G01 X-5.8078 Y17.8693 
G01 X-5.6773 Y17.9998 
G01 X-5.5238 Y18.1024 
G01 X-5.3533 Y18.1730 
G01 X-5.1723 Y18.2090 
G01 X-4.9877 Y18.2090 
G01 X-4.8067 Y18.1730 
G01 X-4.6362 Y18.1024 
G01 X-4.4827 Y17.9998 
G01 X-4.3522 Y17.8693 
G01 X-4.2496 Y17.7158 
G01 X-4.1790 Y17.5453 
G01 X-4.1430 Y17.3643 
G01 X-4.1430 Y15.6557 
G01 X-4.1790 Y15.4747 
G01 X-4.2496 Y15.3042 
G01 X-4.3522 Y15.1507 
G01 X-4.4827 Y15.0202 
G01 X-4.4986 Y15.0096 
G01 X-4.4986 Y13.9127 
G01 X-4.5209 Y13.8004 
G01 X-4.5648 Y13.6946 
G01 X-4.6284 Y13.5994 
G01 X-4.7094 Y13.5184 
G01 X-4.8046 Y13.4548 
G01 X-4.9104 Y13.4109 
G01 X-5.0227 Y13.3886 
G01 X-12.1186 Y13.3886 
G01 X-12.1186 Y11.6604 
G01 X-12.1027 Y11.6498 
G01 X-11.9722 Y11.5193 
G01 X-11.8696 Y11.3658 
G01 X-11.7990 Y11.1953 
G01 X-11.7630 Y11.0143 
G00 Z2.0000 
G00 X-6.6830 Y11.0143 
G01 Z-0.1500 F100.00 
G01 X-6.6830 Y10.7414 F208.00 
G01 X-1.6632 Y10.7414 
G01 X0.5362 Y12.9408 
G01 X0.5362 Y18.9616 
G01 X-0.2408 Y19.7386 
G01 X-34.0492 Y19.7386 
G01 X-34.9786 Y18.8092 
G01 X-34.9786 Y18.0104 
G01 X-34.9627 Y17.9998 
G01 X-34.8322 Y17.8693 
G01 X-34.7296 Y17.7158 
G01 X-34.6590 Y17.5453 
G01 X-34.6230 Y17.3643 
G01 X-34.6230 Y15.6557 
G01 X-34.6590 Y15.4747 
G01 X-34.7296 Y15.3042 
G01 X-34.8322 Y15.1507 
G01 X-34.9627 Y15.0202 
G01 X-34.9786 Y15.0096 
G01 X-34.9786 Y12.9408 
G01 X-33.8384 Y11.8006 
G01 X-33.7748 Y11.7054 
G01 X-33.7309 Y11.5996 
G01 X-33.7086 Y11.4873 
G01 X-33.7086 Y9.6188 
G01 X-33.6978 Y9.6116 
G01 X-33.5684 Y9.4822 
G01 X-33.4667 Y9.3300 
G01 X-33.3967 Y9.1610 
G01 X-33.3610 Y8.9815 
G01 X-33.3610 Y8.7985 
G01 X-33.3967 Y8.6190 
G01 X-33.4667 Y8.4500 
G01 X-33.5684 Y8.2978 
G01 X-33.6978 Y8.1684 
G01 X-33.8500 Y8.0667 
G01 X-34.0190 Y7.9967 
G01 X-34.1985 Y7.9610 
G01 X-34.3815 Y7.9610 
G01 X-34.5610 Y7.9967 
G01 X-34.7300 Y8.0667 
G01 X-34.8822 Y8.1684 
G01 X-35.0116 Y8.2978 
G01 X-35.1133 Y8.4500 
G01 X-35.1833 Y8.6190 
G01 X-35.2190 Y8.7985 
G01 X-35.2190 Y8.9815 
G01 X-35.1833 Y9.1610 
G01 X-35.1133 Y9.3300 
G01 X-35.0116 Y9.4822 
G01 X-34.8822 Y9.6116 
G01 X-34.8714 Y9.6188 
G01 X-34.8714 Y11.1892 
G01 X-35.9306 Y12.2484 
G01 X-36.0116 Y12.3294 
G01 X-36.0752 Y12.4246 
G01 X-36.1191 Y12.5304 
G01 X-36.1414 Y12.6427 
G01 X-36.1414 Y15.0096 
G01 X-36.1573 Y15.0202 
G01 X-36.2878 Y15.1507 
G01 X-36.3904 Y15.3042 
G01 X-36.4610 Y15.4747 
G01 X-36.4970 Y15.6557 
G01 X-36.4970 Y17.3643 
G01 X-36.4610 Y17.5453 
G01 X-36.3904 Y17.7158 
G01 X-36.2878 Y17.8693 
G01 X-36.1573 Y17.9998 
G01 X-36.1414 Y18.0104 
G01 X-36.1414 Y19.1073 
G01 X-36.1191 Y19.2196 
G01 X-36.0752 Y19.3254 
G01 X-36.0116 Y19.4206 
G01 X-35.9306 Y19.5016 
G01 X-34.7416 Y20.6906 
G01 X-34.6606 Y20.7716 
G01 X-34.5654 Y20.8352 
G01 X-34.4596 Y20.8791 
G01 X-34.3473 Y20.9014 
G01 X0.0573 Y20.9014 
G01 X0.1696 Y20.8791 
G01 X0.2754 Y20.8352 
G01 X0.3706 Y20.7716 
G01 X1.4882 Y19.6540 
G01 X1.5692 Y19.5730 
G01 X1.6328 Y19.4778 
G01 X1.6767 Y19.3720 
G01 X1.6990 Y19.2597 
G01 X1.6990 Y12.6427 
G01 X1.6767 Y12.5304 
G01 X1.6328 Y12.4246 
G01 X1.5692 Y12.3294 
G01 X-0.9708 Y9.7894 
G01 X-1.0518 Y9.7084 
G01 X-1.1470 Y9.6448 
G01 X-1.2528 Y9.6009 
G01 X-1.3651 Y9.5786 
G01 X-6.6830 Y9.5786 
G01 X-6.6830 Y9.3057 
G01 X-6.7190 Y9.1247 
G01 X-6.7896 Y8.9542 
G01 X-6.8922 Y8.8007 
G01 X-7.0227 Y8.6702 
G01 X-7.1762 Y8.5676 
G01 X-7.3467 Y8.4970 
G01 X-7.5277 Y8.4610 
G01 X-7.7123 Y8.4610 
G01 X-7.8933 Y8.4970 
G01 X-8.0638 Y8.5676 
G01 X-8.2173 Y8.6702 
G01 X-8.3478 Y8.8007 
G01 X-8.4504 Y8.9542 
G01 X-8.5210 Y9.1247 
G01 X-8.5570 Y9.3057 
G01 X-8.5570 Y11.0143 
G01 X-8.5210 Y11.1953 
G01 X-8.4504 Y11.3658 
G01 X-8.3478 Y11.5193 
G01 X-8.2173 Y11.6498 
G01 X-8.0638 Y11.7524 
G01 X-7.8933 Y11.8230 
G01 X-7.7123 Y11.8590 
G01 X-7.5277 Y11.8590 
G01 X-7.3467 Y11.8230 
G01 X-7.1762 Y11.7524 
G01 X-7.0227 Y11.6498 
G01 X-6.8922 Y11.5193 
G01 X-6.7896 Y11.3658 
G01 X-6.7190 Y11.1953 
G01 X-6.6830 Y11.0143 
G00 Z2.0000 
G00 X-37.0630 Y40.2136 
G01 Z-0.1500 F100.00 
G01 X-37.0630 Y38.5264 F208.00 
G01 X-37.0885 Y38.3652 
G01 X-37.1390 Y38.2099 
G01 X-37.2131 Y38.0645 
G01 X-37.3090 Y37.9324 
G01 X-37.4244 Y37.8170 
G01 X-37.5565 Y37.7211 
G01 X-37.7019 Y37.6470 
G01 X-37.8572 Y37.5965 
G01 X-38.0184 Y37.5710 
G01 X-38.1816 Y37.5710 
G01 X-38.3428 Y37.5965 
G01 X-38.4981 Y37.6470 
G01 X-38.6435 Y37.7211 
G01 X-38.7756 Y37.8170 
G01 X-38.8910 Y37.9324 
G01 X-38.9869 Y38.0645 
G01 X-39.0610 Y38.2099 
G01 X-39.1115 Y38.3652 
G01 X-39.1370 Y38.5264 
G01 X-39.1370 Y40.2136 
G01 X-39.1115 Y40.3748 
G01 X-39.0610 Y40.5301 
G01 X-38.9869 Y40.6755 
G01 X-38.8910 Y40.8076 
G01 X-38.7756 Y40.9230 
G01 X-38.6435 Y41.0189 
G01 X-38.4981 Y41.0930 
G01 X-38.3428 Y41.1435 
G01 X-38.1816 Y41.1690 
G01 X-38.0184 Y41.1690 
G01 X-37.8572 Y41.1435 
G01 X-37.7019 Y41.0930 
G01 X-37.5565 Y41.0189 
G01 X-37.4244 Y40.9230 
G01 X-37.3090 Y40.8076 
G01 X-37.2131 Y40.6755 
G01 X-37.1390 Y40.5301 
G01 X-37.0885 Y40.3748 
G01 X-37.0630 Y40.2136 
G00 Z2.0000 
G00 X-34.5230 Y40.2136 
G01 Z-0.1500 F100.00 
G01 X-34.5230 Y38.5264 F208.00 
G01 X-34.5485 Y38.3652 
G01 X-34.5990 Y38.2099 
G01 X-34.6731 Y38.0645 
G01 X-34.7690 Y37.9324 
G01 X-34.8844 Y37.8170 
G01 X-35.0165 Y37.7211 
G01 X-35.1619 Y37.6470 
G01 X-35.3172 Y37.5965 
G01 X-35.4784 Y37.5710 
G01 X-35.6416 Y37.5710 
G01 X-35.8028 Y37.5965 
G01 X-35.9581 Y37.6470 
G01 X-36.1035 Y37.7211 
G01 X-36.2356 Y37.8170 
G01 X-36.3510 Y37.9324 
G01 X-36.4469 Y38.0645 
G01 X-36.5210 Y38.2099 
G01 X-36.5715 Y38.3652 
G01 X-36.5970 Y38.5264 
G01 X-36.5970 Y40.2136 
G01 X-36.5715 Y40.3748 
G01 X-36.5210 Y40.5301 
G01 X-36.4469 Y40.6755 
G01 X-36.3510 Y40.8076 
G01 X-36.2356 Y40.9230 
G01 X-36.1035 Y41.0189 
G01 X-35.9581 Y41.0930 
G01 X-35.8028 Y41.1435 
G01 X-35.6416 Y41.1690 
G01 X-35.4784 Y41.1690 
G01 X-35.3172 Y41.1435 
G01 X-35.1619 Y41.0930 
G01 X-35.0165 Y41.0189 
G01 X-34.8844 Y40.9230 
G01 X-34.7690 Y40.8076 
G01 X-34.6731 Y40.6755 
G01 X-34.5990 Y40.5301 
G01 X-34.5485 Y40.3748 
G01 X-34.5230 Y40.2136 
G00 Z2.0000 
G00 X-31.9830 Y40.2136 
G01 Z-0.1500 F100.00 
G01 X-31.9830 Y38.5264 F208.00 
G01 X-32.0085 Y38.3652 
G01 X-32.0590 Y38.2099 
G01 X-32.1331 Y38.0645 
G01 X-32.2290 Y37.9324 
G01 X-32.3444 Y37.8170 
G01 X-32.4765 Y37.7211 
G01 X-32.6219 Y37.6470 
G01 X-32.7772 Y37.5965 
G01 X-32.9384 Y37.5710 
G01 X-33.1016 Y37.5710 
G01 X-33.2628 Y37.5965 
G01 X-33.4181 Y37.6470 
G01 X-33.5635 Y37.7211 
G01 X-33.6956 Y37.8170 
G01 X-33.8110 Y37.9324 
G01 X-33.9069 Y38.0645 
G01 X-33.9810 Y38.2099 
G01 X-34.0315 Y38.3652 
G01 X-34.0570 Y38.5264 
G01 X-34.0570 Y40.2136 
G01 X-34.0315 Y40.3748 
G01 X-33.9810 Y40.5301 
G01 X-33.9069 Y40.6755 
G01 X-33.8110 Y40.8076 
G01 X-33.6956 Y40.9230 
G01 X-33.5635 Y41.0189 
G01 X-33.4181 Y41.0930 
G01 X-33.2628 Y41.1435 
G01 X-33.1016 Y41.1690 
G01 X-32.9384 Y41.1690 
G01 X-32.7772 Y41.1435 
G01 X-32.6219 Y41.0930 
G01 X-32.4765 Y41.0189 
G01 X-32.3444 Y40.9230 
G01 X-32.2290 Y40.8076 
G01 X-32.1331 Y40.6755 
G01 X-32.0590 Y40.5301 
G01 X-32.0085 Y40.3748 
G01 X-31.9830 Y40.2136 
G00 Z2.0000 
G00 X-29.4430 Y40.2136 
G01 Z-0.1500 F100.00 
G01 X-29.4430 Y38.5264 F208.00 
G01 X-29.4685 Y38.3652 
G01 X-29.5190 Y38.2099 
G01 X-29.5931 Y38.0645 
G01 X-29.6890 Y37.9324 
G01 X-29.8044 Y37.8170 
G01 X-29.9365 Y37.7211 
G01 X-30.0819 Y37.6470 
G01 X-30.2372 Y37.5965 
G01 X-30.3984 Y37.5710 
G01 X-30.5616 Y37.5710 
G01 X-30.7228 Y37.5965 
G01 X-30.8781 Y37.6470 
G01 X-31.0235 Y37.7211 
G01 X-31.1556 Y37.8170 
G01 X-31.2710 Y37.9324 
G01 X-31.3669 Y38.0645 
G01 X-31.4410 Y38.2099 
G01 X-31.4915 Y38.3652 
G01 X-31.5170 Y38.5264 
G01 X-31.5170 Y40.2136 
G01 X-31.4915 Y40.3748 
G01 X-31.4410 Y40.5301 
G01 X-31.3669 Y40.6755 
G01 X-31.2710 Y40.8076 
G01 X-31.1556 Y40.9230 
G01 X-31.0235 Y41.0189 
G01 X-30.8781 Y41.0930 
G01 X-30.7228 Y41.1435 
G01 X-30.5616 Y41.1690 
G01 X-30.3984 Y41.1690 
G01 X-30.2372 Y41.1435 
G01 X-30.0819 Y41.0930 
G01 X-29.9365 Y41.0189 
G01 X-29.8044 Y40.9230 
G01 X-29.6890 Y40.8076 
G01 X-29.5931 Y40.6755 
G01 X-29.5190 Y40.5301 
G01 X-29.4685 Y40.3748 
G01 X-29.4430 Y40.2136 
G00 Z2.0000 
G00 X-26.9030 Y40.2136 
G01 Z-0.1500 F100.00 
G01 X-26.9030 Y38.5264 F208.00 
G01 X-26.9285 Y38.3652 
G01 X-26.9790 Y38.2099 
G01 X-27.0531 Y38.0645 
G01 X-27.1490 Y37.9324 
G01 X-27.2644 Y37.8170 
G01 X-27.3965 Y37.7211 
G01 X-27.5419 Y37.6470 
G01 X-27.6972 Y37.5965 
G01 X-27.8584 Y37.5710 
G01 X-28.0216 Y37.5710 
G01 X-28.1828 Y37.5965 
G01 X-28.3381 Y37.6470 
G01 X-28.4835 Y37.7211 
G01 X-28.6156 Y37.8170 
G01 X-28.7310 Y37.9324 
G01 X-28.8269 Y38.0645 
G01 X-28.9010 Y38.2099 
G01 X-28.9515 Y38.3652 
G01 X-28.9770 Y38.5264 
G01 X-28.9770 Y40.2136 
G01 X-28.9515 Y40.3748 
G01 X-28.9010 Y40.5301 
G01 X-28.8269 Y40.6755 
G01 X-28.7310 Y40.8076 
G01 X-28.6156 Y40.9230 
G01 X-28.4835 Y41.0189 
G01 X-28.3381 Y41.0930 
G01 X-28.1828 Y41.1435 
G01 X-28.0216 Y41.1690 
G01 X-27.8584 Y41.1690 
G01 X-27.6972 Y41.1435 
G01 X-27.5419 Y41.0930 
G01 X-27.3965 Y41.0189 
G01 X-27.2644 Y40.9230 
G01 X-27.1490 Y40.8076 
G01 X-27.0531 Y40.6755 
G01 X-26.9790 Y40.5301 
G01 X-26.9285 Y40.3748 
G01 X-26.9030 Y40.2136 
G00 Z2.0000 
G00 X-24.3630 Y40.2136 
G01 Z-0.1500 F100.00 
G01 X-24.3630 Y38.5264 F208.00 
G01 X-24.3885 Y38.3652 
G01 X-24.4390 Y38.2099 
G01 X-24.5131 Y38.0645 
G01 X-24.6090 Y37.9324 
G01 X-24.7244 Y37.8170 
G01 X-24.8565 Y37.7211 
G01 X-25.0019 Y37.6470 
G01 X-25.1572 Y37.5965 
G01 X-25.3184 Y37.5710 
G01 X-25.4816 Y37.5710 
G01 X-25.6428 Y37.5965 
G01 X-25.7981 Y37.6470 
G01 X-25.9435 Y37.7211 
G01 X-26.0756 Y37.8170 
G01 X-26.1910 Y37.9324 
G01 X-26.2869 Y38.0645 
G01 X-26.3610 Y38.2099 
G01 X-26.4115 Y38.3652 
G01 X-26.4370 Y38.5264 
G01 X-26.4370 Y40.2136 
G01 X-26.4115 Y40.3748 
G01 X-26.3610 Y40.5301 
G01 X-26.2869 Y40.6755 
G01 X-26.1910 Y40.8076 
G01 X-26.0756 Y40.9230 
G01 X-25.9435 Y41.0189 
G01 X-25.7981 Y41.0930 
G01 X-25.6428 Y41.1435 
G01 X-25.4816 Y41.1690 
G01 X-25.3184 Y41.1690 
G01 X-25.1572 Y41.1435 
G01 X-25.0019 Y41.0930 
G01 X-24.8565 Y41.0189 
G01 X-24.7244 Y40.9230 
G01 X-24.6090 Y40.8076 
G01 X-24.5131 Y40.6755 
G01 X-24.4390 Y40.5301 
G01 X-24.3885 Y40.3748 
G01 X-24.3630 Y40.2136 
G00 Z2.0000 
G00 X-21.8230 Y40.2136 
G01 Z-0.1500 F100.00 
G01 X-21.8230 Y38.5264 F208.00 
G01 X-21.8485 Y38.3652 
G01 X-21.8990 Y38.2099 
G01 X-21.9731 Y38.0645 
G01 X-22.0690 Y37.9324 
G01 X-22.1844 Y37.8170 
G01 X-22.3165 Y37.7211 
G01 X-22.4619 Y37.6470 
G01 X-22.6172 Y37.5965 
G01 X-22.7784 Y37.5710 
G01 X-22.9416 Y37.5710 
G01 X-23.1028 Y37.5965 
G01 X-23.2581 Y37.6470 
G01 X-23.4035 Y37.7211 
G01 X-23.5356 Y37.8170 
G01 X-23.6510 Y37.9324 
G01 X-23.7469 Y38.0645 
G01 X-23.8210 Y38.2099 
G01 X-23.8715 Y38.3652 
G01 X-23.8970 Y38.5264 
G01 X-23.8970 Y40.2136 
G01 X-23.8715 Y40.3748 
G01 X-23.8210 Y40.5301 
G01 X-23.7469 Y40.6755 
G01 X-23.6510 Y40.8076 
G01 X-23.5356 Y40.9230 
G01 X-23.4035 Y41.0189 
G01 X-23.2581 Y41.0930 
G01 X-23.1028 Y41.1435 
G01 X-22.9416 Y41.1690 
G01 X-22.7784 Y41.1690 
G01 X-22.6172 Y41.1435 
G01 X-22.4619 Y41.0930 
G01 X-22.3165 Y41.0189 
G01 X-22.1844 Y40.9230 
G01 X-22.0690 Y40.8076 
G01 X-21.9731 Y40.6755 
G01 X-21.8990 Y40.5301 
G01 X-21.8485 Y40.3748 
G01 X-21.8230 Y40.2136 
G00 Z2.0000 
G00 X-19.2830 Y40.2136 
G01 Z-0.1500 F100.00 
G01 X-19.2830 Y38.5264 F208.00 
G01 X-19.3085 Y38.3652 
G01 X-19.3590 Y38.2099 
G01 X-19.4331 Y38.0645 
G01 X-19.5290 Y37.9324 
G01 X-19.6444 Y37.8170 
G01 X-19.7765 Y37.7211 
G01 X-19.9219 Y37.6470 
G01 X-20.0772 Y37.5965 
G01 X-20.2384 Y37.5710 
G01 X-20.4016 Y37.5710 
G01 X-20.5628 Y37.5965 
G01 X-20.7181 Y37.6470 
G01 X-20.8635 Y37.7211 
G01 X-20.9956 Y37.8170 
G01 X-21.1110 Y37.9324 
G01 X-21.2069 Y38.0645 
G01 X-21.2810 Y38.2099 
G01 X-21.3315 Y38.3652 
G01 X-21.3570 Y38.5264 
G01 X-21.3570 Y40.2136 
G01 X-21.3315 Y40.3748 
G01 X-21.2810 Y40.5301 
G01 X-21.2069 Y40.6755 
G01 X-21.1110 Y40.8076 
G01 X-20.9956 Y40.9230 
G01 X-20.8635 Y41.0189 
G01 X-20.7181 Y41.0930 
G01 X-20.5628 Y41.1435 
G01 X-20.4016 Y41.1690 
G01 X-20.2384 Y41.1690 
G01 X-20.0772 Y41.1435 
G01 X-19.9219 Y41.0930 
G01 X-19.7765 Y41.0189 
G01 X-19.6444 Y40.9230 
G01 X-19.5290 Y40.8076 
G01 X-19.4331 Y40.6755 
G01 X-19.3590 Y40.5301 
G01 X-19.3085 Y40.3748 
G01 X-19.2830 Y40.2136 
G00 Z2.0000 
G00 X-16.7430 Y40.2136 
G01 Z-0.1500 F100.00 
G01 X-16.7430 Y38.5264 F208.00 
G01 X-16.7685 Y38.3652 
G01 X-16.8190 Y38.2099 
G01 X-16.8931 Y38.0645 
G01 X-16.9890 Y37.9324 
G01 X-17.1044 Y37.8170 
G01 X-17.2365 Y37.7211 
G01 X-17.3819 Y37.6470 
G01 X-17.5372 Y37.5965 
G01 X-17.6984 Y37.5710 
G01 X-17.8616 Y37.5710 
G01 X-18.0228 Y37.5965 
G01 X-18.1781 Y37.6470 
G01 X-18.3235 Y37.7211 
G01 X-18.4556 Y37.8170 
G01 X-18.5710 Y37.9324 
G01 X-18.6669 Y38.0645 
G01 X-18.7410 Y38.2099 
G01 X-18.7915 Y38.3652 
G01 X-18.8170 Y38.5264 
G01 X-18.8170 Y40.2136 
G01 X-18.7915 Y40.3748 
G01 X-18.7410 Y40.5301 
G01 X-18.6669 Y40.6755 
G01 X-18.5710 Y40.8076 
G01 X-18.4556 Y40.9230 
G01 X-18.3235 Y41.0189 
G01 X-18.1781 Y41.0930 
G01 X-18.0228 Y41.1435 
G01 X-17.8616 Y41.1690 
G01 X-17.6984 Y41.1690 
G01 X-17.5372 Y41.1435 
G01 X-17.3819 Y41.0930 
G01 X-17.2365 Y41.0189 
G01 X-17.1044 Y40.9230 
G01 X-16.9890 Y40.8076 
G01 X-16.8931 Y40.6755 
G01 X-16.8190 Y40.5301 
G01 X-16.7685 Y40.3748 
G01 X-16.7430 Y40.2136 
G00 Z2.0000 
G00 X-14.2030 Y40.2136 
G01 Z-0.1500 F100.00 
G01 X-14.2030 Y38.5264 F208.00 
G01 X-14.2285 Y38.3652 
G01 X-14.2790 Y38.2099 
G01 X-14.3531 Y38.0645 
G01 X-14.4490 Y37.9324 
G01 X-14.5644 Y37.8170 
G01 X-14.6965 Y37.7211 
G01 X-14.8419 Y37.6470 
G01 X-14.9972 Y37.5965 
G01 X-15.1584 Y37.5710 
G01 X-15.3216 Y37.5710 
G01 X-15.4828 Y37.5965 
G01 X-15.6381 Y37.6470 
G01 X-15.7835 Y37.7211 
G01 X-15.9156 Y37.8170 
G01 X-16.0310 Y37.9324 
G01 X-16.1269 Y38.0645 
G01 X-16.2010 Y38.2099 
G01 X-16.2515 Y38.3652 
G01 X-16.2770 Y38.5264 
G01 X-16.2770 Y40.2136 
G01 X-16.2515 Y40.3748 
G01 X-16.2010 Y40.5301 
G01 X-16.1269 Y40.6755 
G01 X-16.0310 Y40.8076 
G01 X-15.9156 Y40.9230 
G01 X-15.7835 Y41.0189 
G01 X-15.6381 Y41.0930 
G01 X-15.4828 Y41.1435 
G01 X-15.3216 Y41.1690 
G01 X-15.1584 Y41.1690 
G01 X-14.9972 Y41.1435 
G01 X-14.8419 Y41.0930 
G01 X-14.6965 Y41.0189 
G01 X-14.5644 Y40.9230 
G01 X-14.4490 Y40.8076 
G01 X-14.3531 Y40.6755 
G01 X-14.2790 Y40.5301 
G01 X-14.2285 Y40.3748 
G01 X-14.2030 Y40.2136 
G00 Z2.0000 
G00 X-11.6630 Y40.2136 
G01 Z-0.1500 F100.00 
G01 X-11.6630 Y38.5264 F208.00 
G01 X-11.6885 Y38.3652 
G01 X-11.7390 Y38.2099 
G01 X-11.8131 Y38.0645 
G01 X-11.9090 Y37.9324 
G01 X-12.0244 Y37.8170 
G01 X-12.1565 Y37.7211 
G01 X-12.3019 Y37.6470 
G01 X-12.4572 Y37.5965 
G01 X-12.6184 Y37.5710 
G01 X-12.7816 Y37.5710 
G01 X-12.9428 Y37.5965 
G01 X-13.0981 Y37.6470 
G01 X-13.2435 Y37.7211 
G01 X-13.3756 Y37.8170 
G01 X-13.4910 Y37.9324 
G01 X-13.5869 Y38.0645 
G01 X-13.6610 Y38.2099 
G01 X-13.7115 Y38.3652 
G01 X-13.7370 Y38.5264 
G01 X-13.7370 Y40.2136 
G01 X-13.7115 Y40.3748 
G01 X-13.6610 Y40.5301 
G01 X-13.5869 Y40.6755 
G01 X-13.4910 Y40.8076 
G01 X-13.3756 Y40.9230 
G01 X-13.2435 Y41.0189 
G01 X-13.0981 Y41.0930 
G01 X-12.9428 Y41.1435 
G01 X-12.7816 Y41.1690 
G01 X-12.6184 Y41.1690 
G01 X-12.4572 Y41.1435 
G01 X-12.3019 Y41.0930 
G01 X-12.1565 Y41.0189 
G01 X-12.0244 Y40.9230 
G01 X-11.9090 Y40.8076 
G01 X-11.8131 Y40.6755 
G01 X-11.7390 Y40.5301 
G01 X-11.6885 Y40.3748 
G01 X-11.6630 Y40.2136 
G00 Z2.0000 
G00 X-9.1230 Y40.2136 
G01 Z-0.1500 F100.00 
G01 X-9.1230 Y38.5264 F208.00 
G01 X-9.1485 Y38.3652 
G01 X-9.1990 Y38.2099 
G01 X-9.2731 Y38.0645 
G01 X-9.3690 Y37.9324 
G01 X-9.4844 Y37.8170 
G01 X-9.6165 Y37.7211 
G01 X-9.7619 Y37.6470 
G01 X-9.9172 Y37.5965 
G01 X-10.0784 Y37.5710 
G01 X-10.2416 Y37.5710 
G01 X-10.4028 Y37.5965 
G01 X-10.5581 Y37.6470 
G01 X-10.7035 Y37.7211 
G01 X-10.8356 Y37.8170 
G01 X-10.9510 Y37.9324 
G01 X-11.0469 Y38.0645 
G01 X-11.1210 Y38.2099 
G01 X-11.1715 Y38.3652 
G01 X-11.1970 Y38.5264 
G01 X-11.1970 Y40.2136 
G01 X-11.1715 Y40.3748 
G01 X-11.1210 Y40.5301 
G01 X-11.0469 Y40.6755 
G01 X-10.9510 Y40.8076 
G01 X-10.8356 Y40.9230 
G01 X-10.7035 Y41.0189 
G01 X-10.5581 Y41.0930 
G01 X-10.4028 Y41.1435 
G01 X-10.2416 Y41.1690 
G01 X-10.0784 Y41.1690 
G01 X-9.9172 Y41.1435 
G01 X-9.7619 Y41.0930 
G01 X-9.6165 Y41.0189 
G01 X-9.4844 Y40.9230 
G01 X-9.3690 Y40.8076 
G01 X-9.2731 Y40.6755 
G01 X-9.1990 Y40.5301 
G01 X-9.1485 Y40.3748 
G01 X-9.1230 Y40.2136 
G00 Z2.0000 
G00 X-6.5830 Y40.2136 
G01 Z-0.1500 F100.00 
G01 X-6.5830 Y38.5264 F208.00 
G01 X-6.6085 Y38.3652 
G01 X-6.6590 Y38.2099 
G01 X-6.7331 Y38.0645 
G01 X-6.8290 Y37.9324 
G01 X-6.9444 Y37.8170 
G01 X-7.0765 Y37.7211 
G01 X-7.2219 Y37.6470 
G01 X-7.3772 Y37.5965 
G01 X-7.5384 Y37.5710 
G01 X-7.7016 Y37.5710 
G01 X-7.8628 Y37.5965 
G01 X-8.0181 Y37.6470 
G01 X-8.1635 Y37.7211 
G01 X-8.2956 Y37.8170 
G01 X-8.4110 Y37.9324 
G01 X-8.5069 Y38.0645 
G01 X-8.5810 Y38.2099 
G01 X-8.6315 Y38.3652 
G01 X-8.6570 Y38.5264 
G01 X-8.6570 Y40.2136 
G01 X-8.6315 Y40.3748 
G01 X-8.5810 Y40.5301 
G01 X-8.5069 Y40.6755 
G01 X-8.4110 Y40.8076 
G01 X-8.2956 Y40.9230 
G01 X-8.1635 Y41.0189 
G01 X-8.0181 Y41.0930 
G01 X-7.8628 Y41.1435 
G01 X-7.7016 Y41.1690 
G01 X-7.5384 Y41.1690 
G01 X-7.3772 Y41.1435 
G01 X-7.2219 Y41.0930 
G01 X-7.0765 Y41.0189 
G01 X-6.9444 Y40.9230 
G01 X-6.8290 Y40.8076 
G01 X-6.7331 Y40.6755 
G01 X-6.6590 Y40.5301 
G01 X-6.6085 Y40.3748 
G01 X-6.5830 Y40.2136 
G00 Z2.0000 
G00 X-4.0430 Y40.2136 
G01 Z-0.1500 F100.00 
G01 X-4.0430 Y38.5264 F208.00 
G01 X-4.0685 Y38.3652 
G01 X-4.1190 Y38.2099 
G01 X-4.1931 Y38.0645 
G01 X-4.2890 Y37.9324 
G01 X-4.4044 Y37.8170 
G01 X-4.5365 Y37.7211 
G01 X-4.6819 Y37.6470 
G01 X-4.8372 Y37.5965 
G01 X-4.9984 Y37.5710 
G01 X-5.1616 Y37.5710 
G01 X-5.3228 Y37.5965 
G01 X-5.4781 Y37.6470 
G01 X-5.6235 Y37.7211 
G01 X-5.7556 Y37.8170 
G01 X-5.8710 Y37.9324 
G01 X-5.9669 Y38.0645 
G01 X-6.0410 Y38.2099 
G01 X-6.0915 Y38.3652 
G01 X-6.1170 Y38.5264 
G01 X-6.1170 Y40.2136 
G01 X-6.0915 Y40.3748 
G01 X-6.0410 Y40.5301 
G01 X-5.9669 Y40.6755 
G01 X-5.8710 Y40.8076 
G01 X-5.7556 Y40.9230 
G01 X-5.6235 Y41.0189 
G01 X-5.4781 Y41.0930 
G01 X-5.3228 Y41.1435 
G01 X-5.1616 Y41.1690 
G01 X-4.9984 Y41.1690 
G01 X-4.8372 Y41.1435 
G01 X-4.6819 Y41.0930 
G01 X-4.5365 Y41.0189 
G01 X-4.4044 Y40.9230 
G01 X-4.2890 Y40.8076 
G01 X-4.1931 Y40.6755 
G01 X-4.1190 Y40.5301 
G01 X-4.0685 Y40.3748 
G01 X-4.0430 Y40.2136 
G00 Z2.0000 
G00 X-1.5030 Y40.2136 
G01 Z-0.1500 F100.00 
G01 X-1.5030 Y38.5264 F208.00 
G01 X-1.5285 Y38.3652 
G01 X-1.5790 Y38.2099 
G01 X-1.6531 Y38.0645 
G01 X-1.7490 Y37.9324 
G01 X-1.8644 Y37.8170 
G01 X-1.9965 Y37.7211 
G01 X-2.1419 Y37.6470 
G01 X-2.2972 Y37.5965 
G01 X-2.4584 Y37.5710 
G01 X-2.6216 Y37.5710 
G01 X-2.7828 Y37.5965 
G01 X-2.9381 Y37.6470 
G01 X-3.0835 Y37.7211 
G01 X-3.2156 Y37.8170 
G01 X-3.3310 Y37.9324 
G01 X-3.4269 Y38.0645 
G01 X-3.5010 Y38.2099 
G01 X-3.5515 Y38.3652 
G01 X-3.5770 Y38.5264 
G01 X-3.5770 Y40.2136 
G01 X-3.5515 Y40.3748 
G01 X-3.5010 Y40.5301 
G01 X-3.4269 Y40.6755 
G01 X-3.3310 Y40.8076 
G01 X-3.2156 Y40.9230 
G01 X-3.0835 Y41.0189 
G01 X-2.9381 Y41.0930 
G01 X-2.7828 Y41.1435 
G01 X-2.6216 Y41.1690 
G01 X-2.4584 Y41.1690 
G01 X-2.2972 Y41.1435 
G01 X-2.1419 Y41.0930 
G01 X-1.9965 Y41.0189 
G01 X-1.8644 Y40.9230 
G01 X-1.7490 Y40.8076 
G01 X-1.6531 Y40.6755 
G01 X-1.5790 Y40.5301 
G01 X-1.5285 Y40.3748 
G01 X-1.5030 Y40.2136 
G00 Z2.0000 
G00 X-37.0630 Y17.3536 
G01 Z-0.1500 F100.00 
G01 X-37.0630 Y15.6664 F208.00 
G01 X-37.0885 Y15.5052 
G01 X-37.1390 Y15.3499 
G01 X-37.2131 Y15.2045 
G01 X-37.3090 Y15.0724 
G01 X-37.4186 Y14.9629 
G01 X-37.4186 Y11.7122 
G01 X-36.3007 Y10.5944 
G01 X-36.2262 Y10.4828 
G01 X-36.1748 Y10.3588 
G01 X-36.1486 Y10.2271 
G01 X-36.1486 Y9.9190 
G01 X-36.0398 Y9.9190 
G01 X-35.9699 Y9.9003 
G01 X-35.9071 Y9.8641 
G01 X-35.8559 Y9.8129 
G01 X-35.8197 Y9.7501 
G01 X-35.8010 Y9.6802 
G01 X-35.8010 Y8.0998 
G01 X-35.8197 Y8.0299 
G01 X-35.8559 Y7.9671 
G01 X-35.9071 Y7.9159 
G01 X-35.9699 Y7.8797 
G01 X-36.0398 Y7.8610 
G01 X-36.1486 Y7.8610 
G01 X-36.1486 Y0.6814 
G01 X-15.5222 Y0.6814 
G01 X-10.8414 Y5.3622 
G01 X-10.8414 Y8.6129 
G01 X-10.9510 Y8.7224 
G01 X-11.0469 Y8.8545 
G01 X-11.1210 Y8.9999 
G01 X-11.1715 Y9.1552 
G01 X-11.1970 Y9.3164 
G01 X-11.1970 Y11.0036 
G01 X-11.1715 Y11.1648 
G01 X-11.1210 Y11.3201 
G01 X-11.0469 Y11.4655 
G01 X-10.9510 Y11.5976 
G01 X-10.8356 Y11.7130 
G01 X-10.7035 Y11.8089 
G01 X-10.5581 Y11.8830 
G01 X-10.4028 Y11.9335 
G01 X-10.2416 Y11.9590 
G01 X-10.0784 Y11.9590 
G01 X-9.9172 Y11.9335 
G01 X-9.7619 Y11.8830 
G01 X-9.6165 Y11.8089 
G01 X-9.4844 Y11.7130 
G01 X-9.3690 Y11.5976 
G01 X-9.2731 Y11.4655 
G01 X-9.1990 Y11.3201 
G01 X-9.1485 Y11.1648 
G01 X-9.1230 Y11.0036 
G01 X-9.1230 Y9.3164 
G01 X-9.1485 Y9.1552 
G01 X-9.1990 Y8.9999 
G01 X-9.2731 Y8.8545 
G01 X-9.3690 Y8.7224 
G01 X-9.4786 Y8.6129 
G01 X-9.4786 Y5.0129 
G01 X-9.5048 Y4.8812 
G01 X-9.5562 Y4.7572 
G01 X-9.6307 Y4.6456 
G01 X-14.7107 Y-0.4344 
G01 X-14.8056 Y-0.5293 
G01 X-14.9172 Y-0.6038 
G01 X-15.0412 Y-0.6552 
G01 X-15.1729 Y-0.6814 
G01 X-36.8971 Y-0.6814 
G01 X-37.0288 Y-0.6552 
G01 X-37.1528 Y-0.6038 
G01 X-37.2644 Y-0.5293 
G01 X-37.3593 Y-0.4344 
G01 X-37.4338 Y-0.3228 
G01 X-37.4852 Y-0.1988 
G01 X-37.5114 Y-0.0671 
G01 X-37.5114 Y7.8610 
G01 X-37.6202 Y7.8610 
G01 X-37.6901 Y7.8797 
G01 X-37.7529 Y7.9159 
G01 X-37.8041 Y7.9671 
G01 X-37.8403 Y8.0299 
G01 X-37.8590 Y8.0998 
G01 X-37.8590 Y9.6802 
G01 X-37.8403 Y9.7501 
G01 X-37.8041 Y9.8129 
G01 X-37.7529 Y9.8641 
G01 X-37.6901 Y9.9003 
G01 X-37.6202 Y9.9190 
G01 X-37.5526 Y9.9190 
G01 X-38.5344 Y10.9007 
G01 X-38.6293 Y10.9956 
G01 X-38.7038 Y11.1072 
G01 X-38.7552 Y11.2312 
G01 X-38.7814 Y11.3629 
G01 X-38.7814 Y14.9629 
G01 X-38.8910 Y15.0724 
G01 X-38.9869 Y15.2045 
G01 X-39.0610 Y15.3499 
G01 X-39.1115 Y15.5052 
G01 X-39.1370 Y15.6664 
G01 X-39.1370 Y17.3536 
G01 X-39.1115 Y17.5148 
G01 X-39.0610 Y17.6701 
G01 X-38.9869 Y17.8155 
G01 X-38.8910 Y17.9476 
G01 X-38.7756 Y18.0630 
G01 X-38.6435 Y18.1589 
G01 X-38.4981 Y18.2330 
G01 X-38.3428 Y18.2835 
G01 X-38.1816 Y18.3090 
G01 X-38.0184 Y18.3090 
G01 X-37.8572 Y18.2835 
G01 X-37.7019 Y18.2330 
G01 X-37.5565 Y18.1589 
G01 X-37.4244 Y18.0630 
G01 X-37.3090 Y17.9476 
G01 X-37.2131 Y17.8155 
G01 X-37.1390 Y17.6701 
G01 X-37.0885 Y17.5148 
G01 X-37.0630 Y17.3536 
G00 Z2.0000 
G00 X-31.9830 Y17.3536 
G01 Z-0.1500 F100.00 
G01 X-31.9830 Y15.6664 F208.00 
G01 X-32.0085 Y15.5052 
G01 X-32.0590 Y15.3499 
G01 X-32.1331 Y15.2045 
G01 X-32.2290 Y15.0724 
G01 X-32.3444 Y14.9570 
G01 X-32.4765 Y14.8611 
G01 X-32.6219 Y14.7870 
G01 X-32.7772 Y14.7365 
G01 X-32.9384 Y14.7110 
G01 X-33.1016 Y14.7110 
G01 X-33.2628 Y14.7365 
G01 X-33.4181 Y14.7870 
G01 X-33.5635 Y14.8611 
G01 X-33.6956 Y14.9570 
G01 X-33.8110 Y15.0724 
G01 X-33.9069 Y15.2045 
G01 X-33.9810 Y15.3499 
G01 X-34.0315 Y15.5052 
G01 X-34.0570 Y15.6664 
G01 X-34.0570 Y17.3536 
G01 X-34.0315 Y17.5148 
G01 X-33.9810 Y17.6701 
G01 X-33.9069 Y17.8155 
G01 X-33.8110 Y17.9476 
G01 X-33.6956 Y18.0630 
G01 X-33.5635 Y18.1589 
G01 X-33.4181 Y18.2330 
G01 X-33.2628 Y18.2835 
G01 X-33.1016 Y18.3090 
G01 X-32.9384 Y18.3090 
G01 X-32.7772 Y18.2835 
G01 X-32.6219 Y18.2330 
G01 X-32.4765 Y18.1589 
G01 X-32.3444 Y18.0630 
G01 X-32.2290 Y17.9476 
G01 X-32.1331 Y17.8155 
G01 X-32.0590 Y17.6701 
G01 X-32.0085 Y17.5148 
G01 X-31.9830 Y17.3536 
G00 Z2.0000 
G00 X-29.4430 Y17.3536 
G01 Z-0.1500 F100.00 
G01 X-29.4430 Y15.6664 F208.00 
G01 X-29.4685 Y15.5052 
G01 X-29.5190 Y15.3499 
G01 X-29.5931 Y15.2045 
G01 X-29.6890 Y15.0724 
G01 X-29.8044 Y14.9570 
G01 X-29.9365 Y14.8611 
G01 X-30.0819 Y14.7870 
G01 X-30.2372 Y14.7365 
G01 X-30.3984 Y14.7110 
G01 X-30.5616 Y14.7110 
G01 X-30.7228 Y14.7365 
G01 X-30.8781 Y14.7870 
G01 X-31.0235 Y14.8611 
G01 X-31.1556 Y14.9570 
G01 X-31.2710 Y15.0724 
G01 X-31.3669 Y15.2045 
G01 X-31.4410 Y15.3499 
G01 X-31.4915 Y15.5052 
G01 X-31.5170 Y15.6664 
G01 X-31.5170 Y17.3536 
G01 X-31.4915 Y17.5148 
G01 X-31.4410 Y17.6701 
G01 X-31.3669 Y17.8155 
G01 X-31.2710 Y17.9476 
G01 X-31.1556 Y18.0630 
G01 X-31.0235 Y18.1589 
G01 X-30.8781 Y18.2330 
G01 X-30.7228 Y18.2835 
G01 X-30.5616 Y18.3090 
G01 X-30.3984 Y18.3090 
G01 X-30.2372 Y18.2835 
G01 X-30.0819 Y18.2330 
G01 X-29.9365 Y18.1589 
G01 X-29.8044 Y18.0630 
G01 X-29.6890 Y17.9476 
G01 X-29.5931 Y17.8155 
G01 X-29.5190 Y17.6701 
G01 X-29.4685 Y17.5148 
G01 X-29.4430 Y17.3536 
G00 Z2.0000 
G00 X-26.9030 Y17.3536 
G01 Z-0.1500 F100.00 
G01 X-26.9030 Y15.6664 F208.00 
G01 X-26.9285 Y15.5052 
G01 X-26.9790 Y15.3499 
G01 X-27.0531 Y15.2045 
G01 X-27.1490 Y15.0724 
G01 X-27.2644 Y14.9570 
G01 X-27.3965 Y14.8611 
G01 X-27.5419 Y14.7870 
G01 X-27.6972 Y14.7365 
G01 X-27.8584 Y14.7110 
G01 X-28.0216 Y14.7110 
G01 X-28.1828 Y14.7365 
G01 X-28.3381 Y14.7870 
G01 X-28.4835 Y14.8611 
G01 X-28.6156 Y14.9570 
G01 X-28.7310 Y15.0724 
G01 X-28.8269 Y15.2045 
G01 X-28.9010 Y15.3499 
G01 X-28.9515 Y15.5052 
G01 X-28.9770 Y15.6664 
G01 X-28.9770 Y17.3536 
G01 X-28.9515 Y17.5148 
G01 X-28.9010 Y17.6701 
G01 X-28.8269 Y17.8155 
G01 X-28.7310 Y17.9476 
G01 X-28.6156 Y18.0630 
G01 X-28.4835 Y18.1589 
G01 X-28.3381 Y18.2330 
G01 X-28.1828 Y18.2835 
G01 X-28.0216 Y18.3090 
G01 X-27.8584 Y18.3090 
G01 X-27.6972 Y18.2835 
G01 X-27.5419 Y18.2330 
G01 X-27.3965 Y18.1589 
G01 X-27.2644 Y18.0630 
G01 X-27.1490 Y17.9476 
G01 X-27.0531 Y17.8155 
G01 X-26.9790 Y17.6701 
G01 X-26.9285 Y17.5148 
G01 X-26.9030 Y17.3536 
G00 Z2.0000 
G00 X-24.3630 Y17.3536 
G01 Z-0.1500 F100.00 
G01 X-24.3630 Y15.6664 F208.00 
G01 X-24.3885 Y15.5052 
G01 X-24.4390 Y15.3499 
G01 X-24.5131 Y15.2045 
G01 X-24.6090 Y15.0724 
G01 X-24.7244 Y14.9570 
G01 X-24.8565 Y14.8611 
G01 X-25.0019 Y14.7870 
G01 X-25.1572 Y14.7365 
G01 X-25.3184 Y14.7110 
G01 X-25.4816 Y14.7110 
G01 X-25.6428 Y14.7365 
G01 X-25.7981 Y14.7870 
G01 X-25.9435 Y14.8611 
G01 X-26.0756 Y14.9570 
G01 X-26.1910 Y15.0724 
G01 X-26.2869 Y15.2045 
G01 X-26.3610 Y15.3499 
G01 X-26.4115 Y15.5052 
G01 X-26.4370 Y15.6664 
G01 X-26.4370 Y17.3536 
G01 X-26.4115 Y17.5148 
G01 X-26.3610 Y17.6701 
G01 X-26.2869 Y17.8155 
G01 X-26.1910 Y17.9476 
G01 X-26.0756 Y18.0630 
G01 X-25.9435 Y18.1589 
G01 X-25.7981 Y18.2330 
G01 X-25.6428 Y18.2835 
G01 X-25.4816 Y18.3090 
G01 X-25.3184 Y18.3090 
G01 X-25.1572 Y18.2835 
G01 X-25.0019 Y18.2330 
G01 X-24.8565 Y18.1589 
G01 X-24.7244 Y18.0630 
G01 X-24.6090 Y17.9476 
G01 X-24.5131 Y17.8155 
G01 X-24.4390 Y17.6701 
G01 X-24.3885 Y17.5148 
G01 X-24.3630 Y17.3536 
G00 Z2.0000 
G00 X-21.8230 Y17.3536 
G01 Z-0.1500 F100.00 
G01 X-21.8230 Y15.6664 F208.00 
G01 X-21.8485 Y15.5052 
G01 X-21.8990 Y15.3499 
G01 X-21.9731 Y15.2045 
G01 X-22.0690 Y15.0724 
G01 X-22.1844 Y14.9570 
G01 X-22.3165 Y14.8611 
G01 X-22.4619 Y14.7870 
G01 X-22.6172 Y14.7365 
G01 X-22.7784 Y14.7110 
G01 X-22.9416 Y14.7110 
G01 X-23.1028 Y14.7365 
G01 X-23.2581 Y14.7870 
G01 X-23.4035 Y14.8611 
G01 X-23.5356 Y14.9570 
G01 X-23.6510 Y15.0724 
G01 X-23.7469 Y15.2045 
G01 X-23.8210 Y15.3499 
G01 X-23.8715 Y15.5052 
G01 X-23.8970 Y15.6664 
G01 X-23.8970 Y17.3536 
G01 X-23.8715 Y17.5148 
G01 X-23.8210 Y17.6701 
G01 X-23.7469 Y17.8155 
G01 X-23.6510 Y17.9476 
G01 X-23.5356 Y18.0630 
G01 X-23.4035 Y18.1589 
G01 X-23.2581 Y18.2330 
G01 X-23.1028 Y18.2835 
G01 X-22.9416 Y18.3090 
G01 X-22.7784 Y18.3090 
G01 X-22.6172 Y18.2835 
G01 X-22.4619 Y18.2330 
G01 X-22.3165 Y18.1589 
G01 X-22.1844 Y18.0630 
G01 X-22.0690 Y17.9476 
G01 X-21.9731 Y17.8155 
G01 X-21.8990 Y17.6701 
G01 X-21.8485 Y17.5148 
G01 X-21.8230 Y17.3536 
G00 Z2.0000 
G00 X-16.7430 Y17.3536 
G01 Z-0.1500 F100.00 
G01 X-16.7430 Y15.6664 F208.00 
G01 X-16.7685 Y15.5052 
G01 X-16.8190 Y15.3499 
G01 X-16.8931 Y15.2045 
G01 X-16.9890 Y15.0724 
G01 X-17.0986 Y14.9629 
G01 X-17.0986 Y13.9029 
G01 X-17.1248 Y13.7712 
G01 X-17.1761 Y13.6472 
G01 X-17.2507 Y13.5356 
G01 X-18.5207 Y12.2656 
G01 X-18.6156 Y12.1707 
G01 X-18.7272 Y12.0961 
G01 X-18.8512 Y12.0448 
G01 X-18.9829 Y12.0186 
G01 X-19.6386 Y12.0186 
G01 X-19.6386 Y11.7071 
G01 X-19.5290 Y11.5976 
G01 X-19.4331 Y11.4655 
G01 X-19.3590 Y11.3201 
G01 X-19.3085 Y11.1648 
G01 X-19.2830 Y11.0036 
G01 X-19.2830 Y9.3164 
G01 X-19.3085 Y9.1552 
G01 X-19.3590 Y8.9999 
G01 X-19.4331 Y8.8545 
G01 X-19.5290 Y8.7224 
G01 X-19.6444 Y8.6070 
G01 X-19.7765 Y8.5111 
G01 X-19.9219 Y8.4370 
G01 X-20.0772 Y8.3865 
G01 X-20.2384 Y8.3610 
G01 X-20.4016 Y8.3610 
G01 X-20.5628 Y8.3865 
G01 X-20.7181 Y8.4370 
G01 X-20.8635 Y8.5111 
G01 X-20.9956 Y8.6070 
G01 X-21.1110 Y8.7224 
G01 X-21.2069 Y8.8545 
G01 X-21.2810 Y8.9999 
G01 X-21.3315 Y9.1552 
G01 X-21.3570 Y9.3164 
G01 X-21.3570 Y11.0036 
G01 X-21.3315 Y11.1648 
G01 X-21.2810 Y11.3201 
G01 X-21.2069 Y11.4655 
G01 X-21.1110 Y11.5976 
G01 X-21.0014 Y11.7071 
G01 X-21.0014 Y12.7671 
G01 X-20.9752 Y12.8988 
G01 X-20.9238 Y13.0228 
G01 X-20.8493 Y13.1344 
G01 X-20.7544 Y13.2293 
G01 X-20.6428 Y13.3038 
G01 X-20.5188 Y13.3552 
G01 X-20.3871 Y13.3814 
G01 X-19.3322 Y13.3814 
G01 X-18.4614 Y14.2522 
G01 X-18.4614 Y14.9629 
G01 X-18.5710 Y15.0724 
G01 X-18.6669 Y15.2045 
G01 X-18.7410 Y15.3499 
G01 X-18.7915 Y15.5052 
G01 X-18.8170 Y15.6664 
G01 X-18.8170 Y17.3536 
G01 X-18.7915 Y17.5148 
G01 X-18.7410 Y17.6701 
G01 X-18.6669 Y17.8155 
G01 X-18.5710 Y17.9476 
G01 X-18.4556 Y18.0630 
G01 X-18.3235 Y18.1589 
G01 X-18.1781 Y18.2330 
G01 X-18.0228 Y18.2835 
G01 X-17.8616 Y18.3090 
G01 X-17.6984 Y18.3090 
G01 X-17.5372 Y18.2835 
G01 X-17.3819 Y18.2330 
G01 X-17.2365 Y18.1589 
G01 X-17.1044 Y18.0630 
G01 X-16.9890 Y17.9476 
G01 X-16.8931 Y17.8155 
G01 X-16.8190 Y17.6701 
G01 X-16.7685 Y17.5148 
G01 X-16.7430 Y17.3536 
G00 Z2.0000 
G00 X-11.6630 Y17.3536 
G01 Z-0.1500 F100.00 
G01 X-11.6630 Y15.6664 F208.00 
G01 X-11.6885 Y15.5052 
G01 X-11.7390 Y15.3499 
G01 X-11.8131 Y15.2045 
G01 X-11.9090 Y15.0724 
G01 X-12.0244 Y14.9570 
G01 X-12.1565 Y14.8611 
G01 X-12.3019 Y14.7870 
G01 X-12.4572 Y14.7365 
G01 X-12.6184 Y14.7110 
G01 X-12.7816 Y14.7110 
G01 X-12.9428 Y14.7365 
G01 X-13.0981 Y14.7870 
G01 X-13.2435 Y14.8611 
G01 X-13.3756 Y14.9570 
G01 X-13.4910 Y15.0724 
G01 X-13.5869 Y15.2045 
G01 X-13.6610 Y15.3499 
G01 X-13.7115 Y15.5052 
G01 X-13.7370 Y15.6664 
G01 X-13.7370 Y17.3536 
G01 X-13.7115 Y17.5148 
G01 X-13.6610 Y17.6701 
G01 X-13.5869 Y17.8155 
G01 X-13.4910 Y17.9476 
G01 X-13.3756 Y18.0630 
G01 X-13.2435 Y18.1589 
G01 X-13.0981 Y18.2330 
G01 X-12.9428 Y18.2835 
G01 X-12.7816 Y18.3090 
G01 X-12.6184 Y18.3090 
G01 X-12.4572 Y18.2835 
G01 X-12.3019 Y18.2330 
G01 X-12.1565 Y18.1589 
G01 X-12.0244 Y18.0630 
G01 X-11.9090 Y17.9476 
G01 X-11.8131 Y17.8155 
G01 X-11.7390 Y17.6701 
G01 X-11.6885 Y17.5148 
G01 X-11.6630 Y17.3536 
G00 Z2.0000 
G00 X-9.1230 Y17.3536 
G01 Z-0.1500 F100.00 
G01 X-9.1230 Y15.6664 F208.00 
G01 X-9.1485 Y15.5052 
G01 X-9.1990 Y15.3499 
G01 X-9.2731 Y15.2045 
G01 X-9.3690 Y15.0724 
G01 X-9.4844 Y14.9570 
G01 X-9.6165 Y14.8611 
G01 X-9.7619 Y14.7870 
G01 X-9.9172 Y14.7365 
G01 X-10.0784 Y14.7110 
G01 X-10.2416 Y14.7110 
G01 X-10.4028 Y14.7365 
G01 X-10.5581 Y14.7870 
G01 X-10.7035 Y14.8611 
G01 X-10.8356 Y14.9570 
G01 X-10.9510 Y15.0724 
G01 X-11.0469 Y15.2045 
G01 X-11.1210 Y15.3499 
G01 X-11.1715 Y15.5052 
G01 X-11.1970 Y15.6664 
G01 X-11.1970 Y17.3536 
G01 X-11.1715 Y17.5148 
G01 X-11.1210 Y17.6701 
G01 X-11.0469 Y17.8155 
G01 X-10.9510 Y17.9476 
G01 X-10.8356 Y18.0630 
G01 X-10.7035 Y18.1589 
G01 X-10.5581 Y18.2330 
G01 X-10.4028 Y18.2835 
G01 X-10.2416 Y18.3090 
G01 X-10.0784 Y18.3090 
G01 X-9.9172 Y18.2835 
G01 X-9.7619 Y18.2330 
G01 X-9.6165 Y18.1589 
G01 X-9.4844 Y18.0630 
G01 X-9.3690 Y17.9476 
G01 X-9.2731 Y17.8155 
G01 X-9.1990 Y17.6701 
G01 X-9.1485 Y17.5148 
G01 X-9.1230 Y17.3536 
G00 Z2.0000 
G00 X-6.5830 Y17.3536 
G01 Z-0.1500 F100.00 
G01 X-6.5830 Y15.6664 F208.00 
G01 X-6.6085 Y15.5052 
G01 X-6.6590 Y15.3499 
G01 X-6.7331 Y15.2045 
G01 X-6.8290 Y15.0724 
G01 X-6.9444 Y14.9570 
G01 X-7.0765 Y14.8611 
G01 X-7.2219 Y14.7870 
G01 X-7.3772 Y14.7365 
G01 X-7.5384 Y14.7110 
G01 X-7.7016 Y14.7110 
G01 X-7.8628 Y14.7365 
G01 X-8.0181 Y14.7870 
G01 X-8.1635 Y14.8611 
G01 X-8.2956 Y14.9570 
G01 X-8.4110 Y15.0724 
G01 X-8.5069 Y15.2045 
G01 X-8.5810 Y15.3499 
G01 X-8.6315 Y15.5052 
G01 X-8.6570 Y15.6664 
G01 X-8.6570 Y17.3536 
G01 X-8.6315 Y17.5148 
G01 X-8.5810 Y17.6701 
G01 X-8.5069 Y17.8155 
G01 X-8.4110 Y17.9476 
G01 X-8.2956 Y18.0630 
G01 X-8.1635 Y18.1589 
G01 X-8.0181 Y18.2330 
G01 X-7.8628 Y18.2835 
G01 X-7.7016 Y18.3090 
G01 X-7.5384 Y18.3090 
G01 X-7.3772 Y18.2835 
G01 X-7.2219 Y18.2330 
G01 X-7.0765 Y18.1589 
G01 X-6.9444 Y18.0630 
G01 X-6.8290 Y17.9476 
G01 X-6.7331 Y17.8155 
G01 X-6.6590 Y17.6701 
G01 X-6.6085 Y17.5148 
G01 X-6.5830 Y17.3536 
G00 Z2.0000 
G00 X-1.5030 Y17.3536 
G01 Z-0.1500 F100.00 
G01 X-1.5030 Y15.6664 F208.00 
G01 X-1.5285 Y15.5052 
G01 X-1.5790 Y15.3499 
G01 X-1.6531 Y15.2045 
G01 X-1.7490 Y15.0724 
G01 X-1.8644 Y14.9570 
G01 X-1.9965 Y14.8611 
G01 X-2.1419 Y14.7870 
G01 X-2.2972 Y14.7365 
G01 X-2.4584 Y14.7110 
G01 X-2.6216 Y14.7110 
G01 X-2.7828 Y14.7365 
G01 X-2.9381 Y14.7870 
G01 X-3.0835 Y14.8611 
G01 X-3.2156 Y14.9570 
G01 X-3.3310 Y15.0724 
G01 X-3.4269 Y15.2045 
G01 X-3.5010 Y15.3499 
G01 X-3.5515 Y15.5052 
G01 X-3.5770 Y15.6664 
G01 X-3.5770 Y17.3536 
G01 X-3.5515 Y17.5148 
G01 X-3.5010 Y17.6701 
G01 X-3.4269 Y17.8155 
G01 X-3.3310 Y17.9476 
G01 X-3.2156 Y18.0630 
G01 X-3.0835 Y18.1589 
G01 X-2.9381 Y18.2330 
G01 X-2.7828 Y18.2835 
G01 X-2.6216 Y18.3090 
G01 X-2.4584 Y18.3090 
G01 X-2.2972 Y18.2835 
G01 X-2.1419 Y18.2330 
G01 X-1.9965 Y18.1589 
G01 X-1.8644 Y18.0630 
G01 X-1.7490 Y17.9476 
G01 X-1.6531 Y17.8155 
G01 X-1.5790 Y17.6701 
G01 X-1.5285 Y17.5148 
G01 X-1.5030 Y17.3536 
G00 Z2.0000 
G00 X-16.7430 Y11.0036 
G01 Z-0.1500 F100.00 
G01 X-16.7430 Y9.3164 F208.00 
G01 X-16.7685 Y9.1552 
G01 X-16.8190 Y8.9999 
G01 X-16.8931 Y8.8545 
G01 X-16.9890 Y8.7224 
G01 X-17.0986 Y8.6129 
G01 X-17.0986 Y7.5529 
G01 X-17.1248 Y7.4212 
G01 X-17.1761 Y7.2972 
G01 X-17.2507 Y7.1856 
G01 X-17.3456 Y7.0907 
G01 X-17.4572 Y7.0162 
G01 X-17.5812 Y6.9648 
G01 X-17.7129 Y6.9386 
G01 X-24.1971 Y6.9386 
G01 X-24.3288 Y6.9648 
G01 X-24.4528 Y7.0162 
G01 X-24.5644 Y7.0907 
G01 X-24.6593 Y7.1856 
G01 X-24.7338 Y7.2972 
G01 X-24.7852 Y7.4212 
G01 X-24.8114 Y7.5529 
G01 X-24.8114 Y12.7671 
G01 X-24.7852 Y12.8988 
G01 X-24.7338 Y13.0228 
G01 X-24.6593 Y13.1344 
G01 X-24.5644 Y13.2293 
G01 X-24.4528 Y13.3038 
G01 X-24.3288 Y13.3552 
G01 X-24.1971 Y13.3814 
G01 X-23.1422 Y13.3814 
G01 X-21.2448 Y15.2788 
G01 X-21.2810 Y15.3499 
G01 X-21.3315 Y15.5052 
G01 X-21.3570 Y15.6664 
G01 X-21.3570 Y17.3536 
G01 X-21.3315 Y17.5148 
G01 X-21.2810 Y17.6701 
G01 X-21.2069 Y17.8155 
G01 X-21.1110 Y17.9476 
G01 X-20.9956 Y18.0630 
G01 X-20.8635 Y18.1589 
G01 X-20.7181 Y18.2330 
G01 X-20.5628 Y18.2835 
G01 X-20.4016 Y18.3090 
G01 X-20.2384 Y18.3090 
G01 X-20.0772 Y18.2835 
G01 X-19.9219 Y18.2330 
G01 X-19.7765 Y18.1589 
G01 X-19.6444 Y18.0630 
G01 X-19.5290 Y17.9476 
G01 X-19.4331 Y17.8155 
G01 X-19.3590 Y17.6701 
G01 X-19.3085 Y17.5148 
G01 X-19.2830 Y17.3536 
G01 X-19.2830 Y15.6664 
G01 X-19.3085 Y15.5052 
G01 X-19.3590 Y15.3499 
G01 X-19.4331 Y15.2045 
G01 X-19.5290 Y15.0724 
G01 X-19.6444 Y14.9570 
G01 X-19.7321 Y14.8933 
G01 X-19.7907 Y14.8056 
G01 X-19.8856 Y14.7107 
G01 X-22.4256 Y12.1707 
G01 X-22.5372 Y12.0961 
G01 X-22.6612 Y12.0448 
G01 X-22.7929 Y12.0186 
G01 X-23.4486 Y12.0186 
G01 X-23.4486 Y8.3014 
G01 X-18.4614 Y8.3014 
G01 X-18.4614 Y8.6129 
G01 X-18.5710 Y8.7224 
G01 X-18.6669 Y8.8545 
G01 X-18.7410 Y8.9999 
G01 X-18.7915 Y9.1552 
G01 X-18.8170 Y9.3164 
G01 X-18.8170 Y11.0036 
G01 X-18.7915 Y11.1648 
G01 X-18.7410 Y11.3201 
G01 X-18.6669 Y11.4655 
G01 X-18.5710 Y11.5976 
G01 X-18.4556 Y11.7130 
G01 X-18.3235 Y11.8089 
G01 X-18.1781 Y11.8830 
G01 X-18.0228 Y11.9335 
G01 X-17.8616 Y11.9590 
G01 X-17.6984 Y11.9590 
G01 X-17.5372 Y11.9335 
G01 X-17.3819 Y11.8830 
G01 X-17.2365 Y11.8089 
G01 X-17.1044 Y11.7130 
G01 X-16.9890 Y11.5976 
G01 X-16.8931 Y11.4655 
G01 X-16.8190 Y11.3201 
G01 X-16.7685 Y11.1648 
G01 X-16.7430 Y11.0036 
G00 Z2.0000 
G00 X-14.2030 Y11.0036 
G01 Z-0.1500 F100.00 
G01 X-14.2030 Y9.3164 F208.00 
G01 X-14.2285 Y9.1552 
G01 X-14.2790 Y8.9999 
G01 X-14.3531 Y8.8545 
G01 X-14.4490 Y8.7224 
G01 X-14.5586 Y8.6129 
G01 X-14.5586 Y5.0129 
G01 X-14.5848 Y4.8812 
G01 X-14.6362 Y4.7572 
G01 X-14.7107 Y4.6456 
G01 X-14.8056 Y4.5507 
G01 X-14.9172 Y4.4762 
G01 X-15.0412 Y4.4248 
G01 X-15.1729 Y4.3986 
G01 X-29.2771 Y4.3986 
G01 X-29.4088 Y4.4248 
G01 X-29.5328 Y4.4762 
G01 X-29.6444 Y4.5507 
G01 X-29.7393 Y4.6456 
G01 X-29.8138 Y4.7572 
G01 X-29.8652 Y4.8812 
G01 X-29.8914 Y5.0129 
G01 X-29.8914 Y8.1162 
G01 X-30.0093 Y8.2340 
G01 X-30.1219 Y8.4026 
G01 X-30.1995 Y8.5899 
G01 X-30.2390 Y8.7887 
G01 X-30.2390 Y8.9913 
G01 X-30.1995 Y9.1901 
G01 X-30.1219 Y9.3774 
G01 X-30.0093 Y9.5459 
G01 X-29.8659 Y9.6893 
G01 X-29.6974 Y9.8019 
G01 X-29.5101 Y9.8795 
G01 X-29.3113 Y9.9190 
G01 X-29.1087 Y9.9190 
G01 X-28.9099 Y9.8795 
G01 X-28.7226 Y9.8019 
G01 X-28.5541 Y9.6893 
G01 X-28.4107 Y9.5459 
G01 X-28.2981 Y9.3774 
G01 X-28.2205 Y9.1901 
G01 X-28.1810 Y8.9913 
G01 X-28.1810 Y8.7887 
G01 X-28.2205 Y8.5899 
G01 X-28.2981 Y8.4026 
G01 X-28.4107 Y8.2340 
G01 X-28.5286 Y8.1162 
G01 X-28.5286 Y5.7614 
G01 X-15.9214 Y5.7614 
G01 X-15.9214 Y8.6129 
G01 X-16.0310 Y8.7224 
G01 X-16.1269 Y8.8545 
G01 X-16.2010 Y8.9999 
G01 X-16.2515 Y9.1552 
G01 X-16.2770 Y9.3164 
G01 X-16.2770 Y11.0036 
G01 X-16.2515 Y11.1648 
G01 X-16.2010 Y11.3201 
G01 X-16.1269 Y11.4655 
G01 X-16.0310 Y11.5976 
G01 X-15.9214 Y11.7071 
G01 X-15.9214 Y14.9629 
G01 X-16.0310 Y15.0724 
G01 X-16.1269 Y15.2045 
G01 X-16.2010 Y15.3499 
G01 X-16.2515 Y15.5052 
G01 X-16.2770 Y15.6664 
G01 X-16.2770 Y17.3536 
G01 X-16.2515 Y17.5148 
G01 X-16.2010 Y17.6701 
G01 X-16.1269 Y17.8155 
G01 X-16.0310 Y17.9476 
G01 X-15.9156 Y18.0630 
G01 X-15.7835 Y18.1589 
G01 X-15.6381 Y18.2330 
G01 X-15.4828 Y18.2835 
G01 X-15.3216 Y18.3090 
G01 X-15.1584 Y18.3090 
G01 X-14.9972 Y18.2835 
G01 X-14.8419 Y18.2330 
G01 X-14.6965 Y18.1589 
G01 X-14.5644 Y18.0630 
G01 X-14.4490 Y17.9476 
G01 X-14.3531 Y17.8155 
G01 X-14.2790 Y17.6701 
G01 X-14.2285 Y17.5148 
G01 X-14.2030 Y17.3536 
G01 X-14.2030 Y15.6664 
G01 X-14.2285 Y15.5052 
G01 X-14.2790 Y15.3499 
G01 X-14.3531 Y15.2045 
G01 X-14.4490 Y15.0724 
G01 X-14.5586 Y14.9629 
G01 X-14.5586 Y11.7071 
G01 X-14.4490 Y11.5976 
G01 X-14.3531 Y11.4655 
G01 X-14.2790 Y11.3201 
G01 X-14.2285 Y11.1648 
G01 X-14.2030 Y11.0036 
G00 Z2.0000 
G00 X-11.6630 Y11.0036 
G01 Z-0.1500 F100.00 
G01 X-11.6630 Y9.3164 F208.00 
G01 X-11.6885 Y9.1552 
G01 X-11.7390 Y8.9999 
G01 X-11.8131 Y8.8545 
G01 X-11.9090 Y8.7224 
G01 X-12.0186 Y8.6129 
G01 X-12.0186 Y5.0129 
G01 X-12.0448 Y4.8812 
G01 X-12.0961 Y4.7572 
G01 X-12.1707 Y4.6456 
G01 X-12.2656 Y4.5507 
G01 X-14.8056 Y2.0107 
G01 X-14.9172 Y1.9362 
G01 X-15.0412 Y1.8848 
G01 X-15.1729 Y1.8586 
G01 X-30.5471 Y1.8586 
G01 X-30.6788 Y1.8848 
G01 X-30.8028 Y1.9362 
G01 X-30.9144 Y2.0107 
G01 X-31.0093 Y2.1056 
G01 X-32.2793 Y3.3756 
G01 X-32.3538 Y3.4872 
G01 X-32.4052 Y3.6112 
G01 X-32.4314 Y3.7429 
G01 X-32.4314 Y8.1162 
G01 X-32.5493 Y8.2340 
G01 X-32.6619 Y8.4026 
G01 X-32.7395 Y8.5899 
G01 X-32.7790 Y8.7887 
G01 X-32.7790 Y8.9913 
G01 X-32.7395 Y9.1901 
G01 X-32.6619 Y9.3774 
G01 X-32.5493 Y9.5459 
G01 X-32.4059 Y9.6893 
G01 X-32.2374 Y9.8019 
G01 X-32.0501 Y9.8795 
G01 X-31.8513 Y9.9190 
G01 X-31.6486 Y9.9190 
G01 X-31.4499 Y9.8795 
G01 X-31.2626 Y9.8019 
G01 X-31.0941 Y9.6893 
G01 X-30.9507 Y9.5459 
G01 X-30.8381 Y9.3774 
G01 X-30.7605 Y9.1901 
G01 X-30.7210 Y8.9913 
G01 X-30.7210 Y8.7887 
G01 X-30.7605 Y8.5899 
G01 X-30.8381 Y8.4026 
G01 X-30.9507 Y8.2340 
G01 X-31.0686 Y8.1162 
G01 X-31.0686 Y4.0922 
G01 X-30.1978 Y3.2214 
G01 X-15.5222 Y3.2214 
G01 X-13.3814 Y5.3622 
G01 X-13.3814 Y8.6129 
G01 X-13.4910 Y8.7224 
G01 X-13.5869 Y8.8545 
G01 X-13.6610 Y8.9999 
G01 X-13.7115 Y9.1552 
G01 X-13.7370 Y9.3164 
G01 X-13.7370 Y11.0036 
G01 X-13.7115 Y11.1648 
G01 X-13.6610 Y11.3201 
G01 X-13.5869 Y11.4655 
G01 X-13.4910 Y11.5976 
G01 X-13.3814 Y11.7071 
G01 X-13.3814 Y14.0371 
G01 X-13.3552 Y14.1688 
G01 X-13.3038 Y14.2928 
G01 X-13.2293 Y14.4044 
G01 X-13.1344 Y14.4993 
G01 X-13.0228 Y14.5738 
G01 X-12.8988 Y14.6252 
G01 X-12.7671 Y14.6514 
G01 X-5.7614 Y14.6514 
G01 X-5.7614 Y14.9629 
G01 X-5.8710 Y15.0724 
G01 X-5.9669 Y15.2045 
G01 X-6.0410 Y15.3499 
G01 X-6.0915 Y15.5052 
G01 X-6.1170 Y15.6664 
G01 X-6.1170 Y17.3536 
G01 X-6.0915 Y17.5148 
G01 X-6.0410 Y17.6701 
G01 X-5.9669 Y17.8155 
G01 X-5.8710 Y17.9476 
G01 X-5.7556 Y18.0630 
G01 X-5.6235 Y18.1589 
G01 X-5.4781 Y18.2330 
G01 X-5.3228 Y18.2835 
G01 X-5.1616 Y18.3090 
G01 X-4.9984 Y18.3090 
G01 X-4.8372 Y18.2835 
G01 X-4.6819 Y18.2330 
G01 X-4.5365 Y18.1589 
G01 X-4.4044 Y18.0630 
G01 X-4.2890 Y17.9476 
G01 X-4.1931 Y17.8155 
G01 X-4.1190 Y17.6701 
G01 X-4.0685 Y17.5148 
G01 X-4.0430 Y17.3536 
G01 X-4.0430 Y15.6664 
G01 X-4.0685 Y15.5052 
G01 X-4.1190 Y15.3499 
G01 X-4.1931 Y15.2045 
G01 X-4.2890 Y15.0724 
G01 X-4.3986 Y14.9629 
G01 X-4.3986 Y13.9029 
G01 X-4.4248 Y13.7712 
G01 X-4.4762 Y13.6472 
G01 X-4.5507 Y13.5356 
G01 X-4.6456 Y13.4407 
G01 X-4.7572 Y13.3662 
G01 X-4.8812 Y13.3148 
G01 X-5.0129 Y13.2886 
G01 X-12.0186 Y13.2886 
G01 X-12.0186 Y11.7071 
G01 X-11.9090 Y11.5976 
G01 X-11.8131 Y11.4655 
G01 X-11.7390 Y11.3201 
G01 X-11.6885 Y11.1648 
G01 X-11.6630 Y11.0036 
G00 Z2.0000 
G00 X-6.5830 Y11.0036 
G01 Z-0.1500 F100.00 
G01 X-6.5830 Y10.8414 F208.00 
G01 X-1.7046 Y10.8414 
G01 X0.4362 Y12.9822 
G01 X0.4362 Y18.9202 
G01 X-0.2822 Y19.6386 
G01 X-34.0078 Y19.6386 
G01 X-34.8786 Y18.7678 
G01 X-34.8786 Y18.0571 
G01 X-34.7690 Y17.9476 
G01 X-34.6731 Y17.8155 
G01 X-34.5990 Y17.6701 
G01 X-34.5485 Y17.5148 
G01 X-34.5230 Y17.3536 
G01 X-34.5230 Y15.6664 
G01 X-34.5485 Y15.5052 
G01 X-34.5990 Y15.3499 
G01 X-34.6731 Y15.2045 
G01 X-34.7690 Y15.0724 
G01 X-34.8786 Y14.9629 
G01 X-34.8786 Y12.9822 
G01 X-33.7607 Y11.8644 
G01 X-33.6862 Y11.7528 
G01 X-33.6348 Y11.6288 
G01 X-33.6086 Y11.4971 
G01 X-33.6086 Y9.6638 
G01 X-33.4907 Y9.5459 
G01 X-33.3781 Y9.3774 
G01 X-33.3005 Y9.1901 
G01 X-33.2610 Y8.9913 
G01 X-33.2610 Y8.7887 
G01 X-33.3005 Y8.5899 
G01 X-33.3781 Y8.4026 
G01 X-33.4907 Y8.2340 
G01 X-33.6341 Y8.0907 
G01 X-33.8026 Y7.9781 
G01 X-33.9899 Y7.9005 
G01 X-34.1887 Y7.8610 
G01 X-34.3913 Y7.8610 
G01 X-34.5901 Y7.9005 
G01 X-34.7774 Y7.9781 
G01 X-34.9459 Y8.0907 
G01 X-35.0893 Y8.2340 
G01 X-35.2019 Y8.4026 
G01 X-35.2795 Y8.5899 
G01 X-35.3190 Y8.7887 
G01 X-35.3190 Y8.9913 
G01 X-35.2795 Y9.1901 
G01 X-35.2019 Y9.3774 
G01 X-35.0893 Y9.5459 
G01 X-34.9714 Y9.6638 
G01 X-34.9714 Y11.1478 
G01 X-35.9944 Y12.1707 
G01 X-36.0893 Y12.2656 
G01 X-36.1638 Y12.3772 
G01 X-36.2152 Y12.5012 
G01 X-36.2414 Y12.6329 
G01 X-36.2414 Y14.9629 
G01 X-36.3510 Y15.0724 
G01 X-36.4469 Y15.2045 
G01 X-36.5210 Y15.3499 
G01 X-36.5715 Y15.5052 
G01 X-36.5970 Y15.6664 
G01 X-36.5970 Y17.3536 
G01 X-36.5715 Y17.5148 
G01 X-36.5210 Y17.6701 
G01 X-36.4469 Y17.8155 
G01 X-36.3510 Y17.9476 
G01 X-36.2414 Y18.0571 
G01 X-36.2414 Y19.1171 
G01 X-36.2152 Y19.2488 
G01 X-36.1638 Y19.3728 
G01 X-36.0893 Y19.4844 
G01 X-35.9944 Y19.5793 
G01 X-34.8193 Y20.7544 
G01 X-34.7244 Y20.8493 
G01 X-34.6128 Y20.9238 
G01 X-34.4888 Y20.9752 
G01 X-34.3571 Y21.0014 
G01 X0.0671 Y21.0014 
G01 X0.1988 Y20.9752 
G01 X0.3228 Y20.9238 
G01 X0.4344 Y20.8493 
G01 X1.5520 Y19.7317 
G01 X1.6469 Y19.6368 
G01 X1.7214 Y19.5252 
G01 X1.7728 Y19.4012 
G01 X1.7990 Y19.2695 
G01 X1.7990 Y12.6329 
G01 X1.7728 Y12.5012 
G01 X1.7214 Y12.3772 
G01 X1.6469 Y12.2656 
G01 X-0.8931 Y9.7256 
G01 X-0.9880 Y9.6307 
G01 X-1.0996 Y9.5562 
G01 X-1.2236 Y9.5048 
G01 X-1.3553 Y9.4786 
G01 X-6.5830 Y9.4786 
G01 X-6.5830 Y9.3164 
G01 X-6.6085 Y9.1552 
G01 X-6.6590 Y8.9999 
G01 X-6.7331 Y8.8545 
G01 X-6.8290 Y8.7224 
G01 X-6.9444 Y8.6070 
G01 X-7.0765 Y8.5111 
G01 X-7.2219 Y8.4370 
G01 X-7.3772 Y8.3865 
G01 X-7.5384 Y8.3610 
G01 X-7.7016 Y8.3610 
G01 X-7.8628 Y8.3865 
G01 X-8.0181 Y8.4370 
G01 X-8.1635 Y8.5111 
G01 X-8.2956 Y8.6070 
G01 X-8.4110 Y8.7224 
G01 X-8.5069 Y8.8545 
G01 X-8.5810 Y8.9999 
G01 X-8.6315 Y9.1552 
G01 X-8.6570 Y9.3164 
G01 X-8.6570 Y11.0036 
G01 X-8.6315 Y11.1648 
G01 X-8.5810 Y11.3201 
G01 X-8.5069 Y11.4655 
G01 X-8.4110 Y11.5976 
G01 X-8.2956 Y11.7130 
G01 X-8.1635 Y11.8089 
G01 X-8.0181 Y11.8830 
G01 X-7.8628 Y11.9335 
G01 X-7.7016 Y11.9590 
G01 X-7.5384 Y11.9590 
G01 X-7.3772 Y11.9335 
G01 X-7.2219 Y11.8830 
G01 X-7.0765 Y11.8089 
G01 X-6.9444 Y11.7130 
G01 X-6.8290 Y11.5976 
G01 X-6.7331 Y11.4655 
G01 X-6.6590 Y11.3201 
G01 X-6.6085 Y11.1648 
G01 X-6.5830 Y11.0036 
G00 Z2.0000 
G00 X-36.9630 Y40.2215 
G01 Z-0.1500 F100.00 
G01 X-36.9630 Y38.5185 F208.00 
G01 X-36.9910 Y38.3418 
G01 X-37.0463 Y38.1715 
G01 X-37.1275 Y38.0121 
G01 X-37.2327 Y37.8673 
G01 X-37.3593 Y37.7407 
G01 X-37.5041 Y37.6356 
G01 X-37.6635 Y37.5543 
G01 X-37.8338 Y37.4990 
G01 X-38.0105 Y37.4710 
G01 X-38.1895 Y37.4710 
G01 X-38.3662 Y37.4990 
G01 X-38.5365 Y37.5543 
G01 X-38.6959 Y37.6356 
G01 X-38.8407 Y37.7407 
G01 X-38.9673 Y37.8673 
G01 X-39.0724 Y38.0121 
G01 X-39.1537 Y38.1715 
G01 X-39.2090 Y38.3418 
G01 X-39.2370 Y38.5185 
G01 X-39.2370 Y40.2215 
G01 X-39.2090 Y40.3982 
G01 X-39.1537 Y40.5685 
G01 X-39.0724 Y40.7279 
G01 X-38.9673 Y40.8727 
G01 X-38.8407 Y40.9993 
G01 X-38.6959 Y41.1044 
G01 X-38.5365 Y41.1857 
G01 X-38.3662 Y41.2410 
G01 X-38.1895 Y41.2690 
G01 X-38.0105 Y41.2690 
G01 X-37.8338 Y41.2410 
G01 X-37.6635 Y41.1857 
G01 X-37.5041 Y41.1044 
G01 X-37.3593 Y40.9993 
G01 X-37.2327 Y40.8727 
G01 X-37.1275 Y40.7279 
G01 X-37.0463 Y40.5685 
G01 X-36.9910 Y40.3982 
G01 X-36.9630 Y40.2215 
G00 Z2.0000 
G00 X-34.4230 Y40.2215 
G01 Z-0.1500 F100.00 
G01 X-34.4230 Y38.5185 F208.00 
G01 X-34.4510 Y38.3418 
G01 X-34.5063 Y38.1715 
G01 X-34.5876 Y38.0121 
G01 X-34.6927 Y37.8673 
G01 X-34.8193 Y37.7407 
G01 X-34.9641 Y37.6356 
G01 X-35.1235 Y37.5543 
G01 X-35.2938 Y37.4990 
G01 X-35.4705 Y37.4710 
G01 X-35.6495 Y37.4710 
G01 X-35.8262 Y37.4990 
G01 X-35.9965 Y37.5543 
G01 X-36.1559 Y37.6356 
G01 X-36.3007 Y37.7407 
G01 X-36.4273 Y37.8673 
G01 X-36.5324 Y38.0121 
G01 X-36.6137 Y38.1715 
G01 X-36.6690 Y38.3418 
G01 X-36.6970 Y38.5185 
G01 X-36.6970 Y40.2215 
G01 X-36.6690 Y40.3982 
G01 X-36.6137 Y40.5685 
G01 X-36.5324 Y40.7279 
G01 X-36.4273 Y40.8727 
G01 X-36.3007 Y40.9993 
G01 X-36.1559 Y41.1044 
G01 X-35.9965 Y41.1857 
G01 X-35.8262 Y41.2410 
G01 X-35.6495 Y41.2690 
G01 X-35.4705 Y41.2690 
G01 X-35.2938 Y41.2410 
G01 X-35.1235 Y41.1857 
G01 X-34.9641 Y41.1044 
G01 X-34.8193 Y40.9993 
G01 X-34.6927 Y40.8727 
G01 X-34.5876 Y40.7279 
G01 X-34.5063 Y40.5685 
G01 X-34.4510 Y40.3982 
G01 X-34.4230 Y40.2215 
G00 Z2.0000 
G00 X-31.8830 Y40.2215 
G01 Z-0.1500 F100.00 
G01 X-31.8830 Y38.5185 F208.00 
G01 X-31.9110 Y38.3418 
G01 X-31.9663 Y38.1715 
G01 X-32.0476 Y38.0121 
G01 X-32.1527 Y37.8673 
G01 X-32.2793 Y37.7407 
G01 X-32.4241 Y37.6356 
G01 X-32.5835 Y37.5543 
G01 X-32.7538 Y37.4990 
G01 X-32.9305 Y37.4710 
G01 X-33.1095 Y37.4710 
G01 X-33.2862 Y37.4990 
G01 X-33.4565 Y37.5543 
G01 X-33.6159 Y37.6356 
G01 X-33.7607 Y37.7407 
G01 X-33.8873 Y37.8673 
G01 X-33.9924 Y38.0121 
G01 X-34.0737 Y38.1715 
G01 X-34.1290 Y38.3418 
G01 X-34.1570 Y38.5185 
G01 X-34.1570 Y40.2215 
G01 X-34.1290 Y40.3982 
G01 X-34.0737 Y40.5685 
G01 X-33.9924 Y40.7279 
G01 X-33.8873 Y40.8727 
G01 X-33.7607 Y40.9993 
G01 X-33.6159 Y41.1044 
G01 X-33.4565 Y41.1857 
G01 X-33.2862 Y41.2410 
G01 X-33.1095 Y41.2690 
G01 X-32.9305 Y41.2690 
G01 X-32.7538 Y41.2410 
G01 X-32.5835 Y41.1857 
G01 X-32.4241 Y41.1044 
G01 X-32.2793 Y40.9993 
G01 X-32.1527 Y40.8727 
G01 X-32.0476 Y40.7279 
G01 X-31.9663 Y40.5685 
G01 X-31.9110 Y40.3982 
G01 X-31.8830 Y40.2215 
G00 Z2.0000 
G00 X-29.3430 Y40.2215 
G01 Z-0.1500 F100.00 
G01 X-29.3430 Y38.5185 F208.00 
G01 X-29.3710 Y38.3418 
G01 X-29.4263 Y38.1715 
G01 X-29.5076 Y38.0121 
G01 X-29.6127 Y37.8673 
G01 X-29.7393 Y37.7407 
G01 X-29.8841 Y37.6356 
G01 X-30.0435 Y37.5543 
G01 X-30.2138 Y37.4990 
G01 X-30.3905 Y37.4710 
G01 X-30.5695 Y37.4710 
G01 X-30.7462 Y37.4990 
G01 X-30.9165 Y37.5543 
G01 X-31.0759 Y37.6356 
G01 X-31.2207 Y37.7407 
G01 X-31.3473 Y37.8673 
G01 X-31.4524 Y38.0121 
G01 X-31.5337 Y38.1715 
G01 X-31.5890 Y38.3418 
G01 X-31.6170 Y38.5185 
G01 X-31.6170 Y40.2215 
G01 X-31.5890 Y40.3982 
G01 X-31.5337 Y40.5685 
G01 X-31.4524 Y40.7279 
G01 X-31.3473 Y40.8727 
G01 X-31.2207 Y40.9993 
G01 X-31.0759 Y41.1044 
G01 X-30.9165 Y41.1857 
G01 X-30.7462 Y41.2410 
G01 X-30.5695 Y41.2690 
G01 X-30.3905 Y41.2690 
G01 X-30.2138 Y41.2410 
G01 X-30.0435 Y41.1857 
G01 X-29.8841 Y41.1044 
G01 X-29.7393 Y40.9993 
G01 X-29.6127 Y40.8727 
G01 X-29.5076 Y40.7279 
G01 X-29.4263 Y40.5685 
G01 X-29.3710 Y40.3982 
G01 X-29.3430 Y40.2215 
G00 Z2.0000 
G00 X-26.8030 Y40.2215 
G01 Z-0.1500 F100.00 
G01 X-26.8030 Y38.5185 F208.00 
G01 X-26.8310 Y38.3418 
G01 X-26.8863 Y38.1715 
G01 X-26.9676 Y38.0121 
G01 X-27.0727 Y37.8673 
G01 X-27.1993 Y37.7407 
G01 X-27.3441 Y37.6356 
G01 X-27.5035 Y37.5543 
G01 X-27.6738 Y37.4990 
G01 X-27.8505 Y37.4710 
G01 X-28.0295 Y37.4710 
G01 X-28.2062 Y37.4990 
G01 X-28.3765 Y37.5543 
G01 X-28.5359 Y37.6356 
G01 X-28.6807 Y37.7407 
G01 X-28.8073 Y37.8673 
G01 X-28.9124 Y38.0121 
G01 X-28.9937 Y38.1715 
G01 X-29.0490 Y38.3418 
G01 X-29.0770 Y38.5185 
G01 X-29.0770 Y40.2215 
G01 X-29.0490 Y40.3982 
G01 X-28.9937 Y40.5685 
G01 X-28.9124 Y40.7279 
G01 X-28.8073 Y40.8727 
G01 X-28.6807 Y40.9993 
G01 X-28.5359 Y41.1044 
G01 X-28.3765 Y41.1857 
G01 X-28.2062 Y41.2410 
G01 X-28.0295 Y41.2690 
G01 X-27.8505 Y41.2690 
G01 X-27.6738 Y41.2410 
G01 X-27.5035 Y41.1857 
G01 X-27.3441 Y41.1044 
G01 X-27.1993 Y40.9993 
G01 X-27.0727 Y40.8727 
G01 X-26.9676 Y40.7279 
G01 X-26.8863 Y40.5685 
G01 X-26.8310 Y40.3982 
G01 X-26.8030 Y40.2215 
G00 Z2.0000 
G00 X-24.2630 Y40.2215 
G01 Z-0.1500 F100.00 
G01 X-24.2630 Y38.5185 F208.00 
G01 X-24.2910 Y38.3418 
G01 X-24.3463 Y38.1715 
G01 X-24.4276 Y38.0121 
G01 X-24.5327 Y37.8673 
G01 X-24.6593 Y37.7407 
G01 X-24.8041 Y37.6356 
G01 X-24.9635 Y37.5543 
G01 X-25.1338 Y37.4990 
G01 X-25.3105 Y37.4710 
G01 X-25.4895 Y37.4710 
G01 X-25.6662 Y37.4990 
G01 X-25.8365 Y37.5543 
G01 X-25.9959 Y37.6356 
G01 X-26.1407 Y37.7407 
G01 X-26.2673 Y37.8673 
G01 X-26.3724 Y38.0121 
G01 X-26.4537 Y38.1715 
G01 X-26.5090 Y38.3418 
G01 X-26.5370 Y38.5185 
G01 X-26.5370 Y40.2215 
G01 X-26.5090 Y40.3982 
G01 X-26.4537 Y40.5685 
G01 X-26.3724 Y40.7279 
G01 X-26.2673 Y40.8727 
G01 X-26.1407 Y40.9993 
G01 X-25.9959 Y41.1044 
G01 X-25.8365 Y41.1857 
G01 X-25.6662 Y41.2410 
G01 X-25.4895 Y41.2690 
G01 X-25.3105 Y41.2690 
G01 X-25.1338 Y41.2410 
G01 X-24.9635 Y41.1857 
G01 X-24.8041 Y41.1044 
G01 X-24.6593 Y40.9993 
G01 X-24.5327 Y40.8727 
G01 X-24.4276 Y40.7279 
G01 X-24.3463 Y40.5685 
G01 X-24.2910 Y40.3982 
G01 X-24.2630 Y40.2215 
G00 Z2.0000 
G00 X-21.7230 Y40.2215 
G01 Z-0.1500 F100.00 
G01 X-21.7230 Y38.5185 F208.00 
G01 X-21.7510 Y38.3418 
G01 X-21.8063 Y38.1715 
G01 X-21.8876 Y38.0121 
G01 X-21.9927 Y37.8673 
G01 X-22.1193 Y37.7407 
G01 X-22.2641 Y37.6356 
G01 X-22.4235 Y37.5543 
G01 X-22.5938 Y37.4990 
G01 X-22.7705 Y37.4710 
G01 X-22.9495 Y37.4710 
G01 X-23.1262 Y37.4990 
G01 X-23.2965 Y37.5543 
G01 X-23.4559 Y37.6356 
G01 X-23.6007 Y37.7407 
G01 X-23.7273 Y37.8673 
G01 X-23.8324 Y38.0121 
G01 X-23.9137 Y38.1715 
G01 X-23.9690 Y38.3418 
G01 X-23.9970 Y38.5185 
G01 X-23.9970 Y40.2215 
G01 X-23.9690 Y40.3982 
G01 X-23.9137 Y40.5685 
G01 X-23.8324 Y40.7279 
G01 X-23.7273 Y40.8727 
G01 X-23.6007 Y40.9993 
G01 X-23.4559 Y41.1044 
G01 X-23.2965 Y41.1857 
G01 X-23.1262 Y41.2410 
G01 X-22.9495 Y41.2690 
G01 X-22.7705 Y41.2690 
G01 X-22.5938 Y41.2410 
G01 X-22.4235 Y41.1857 
G01 X-22.2641 Y41.1044 
G01 X-22.1193 Y40.9993 
G01 X-21.9927 Y40.8727 
G01 X-21.8876 Y40.7279 
G01 X-21.8063 Y40.5685 
G01 X-21.7510 Y40.3982 
G01 X-21.7230 Y40.2215 
G00 Z2.0000 
G00 X-19.1830 Y40.2215 
G01 Z-0.1500 F100.00 
G01 X-19.1830 Y38.5185 F208.00 
G01 X-19.2110 Y38.3418 
G01 X-19.2663 Y38.1715 
G01 X-19.3476 Y38.0121 
G01 X-19.4527 Y37.8673 
G01 X-19.5793 Y37.7407 
G01 X-19.7241 Y37.6356 
G01 X-19.8835 Y37.5543 
G01 X-20.0538 Y37.4990 
G01 X-20.2305 Y37.4710 
G01 X-20.4095 Y37.4710 
G01 X-20.5862 Y37.4990 
G01 X-20.7565 Y37.5543 
G01 X-20.9159 Y37.6356 
G01 X-21.0607 Y37.7407 
G01 X-21.1873 Y37.8673 
G01 X-21.2924 Y38.0121 
G01 X-21.3737 Y38.1715 
G01 X-21.4290 Y38.3418 
G01 X-21.4570 Y38.5185 
G01 X-21.4570 Y40.2215 
G01 X-21.4290 Y40.3982 
G01 X-21.3737 Y40.5685 
G01 X-21.2924 Y40.7279 
G01 X-21.1873 Y40.8727 
G01 X-21.0607 Y40.9993 
G01 X-20.9159 Y41.1044 
G01 X-20.7565 Y41.1857 
G01 X-20.5862 Y41.2410 
G01 X-20.4095 Y41.2690 
G01 X-20.2305 Y41.2690 
G01 X-20.0538 Y41.2410 
G01 X-19.8835 Y41.1857 
G01 X-19.7241 Y41.1044 
G01 X-19.5793 Y40.9993 
G01 X-19.4527 Y40.8727 
G01 X-19.3476 Y40.7279 
G01 X-19.2663 Y40.5685 
G01 X-19.2110 Y40.3982 
G01 X-19.1830 Y40.2215 
G00 Z2.0000 
G00 X-16.6430 Y40.2215 
G01 Z-0.1500 F100.00 
G01 X-16.6430 Y38.5185 F208.00 
G01 X-16.6710 Y38.3418 
G01 X-16.7263 Y38.1715 
G01 X-16.8075 Y38.0121 
G01 X-16.9127 Y37.8673 
G01 X-17.0393 Y37.7407 
G01 X-17.1841 Y37.6356 
G01 X-17.3435 Y37.5543 
G01 X-17.5138 Y37.4990 
G01 X-17.6905 Y37.4710 
G01 X-17.8695 Y37.4710 
G01 X-18.0462 Y37.4990 
G01 X-18.2165 Y37.5543 
G01 X-18.3759 Y37.6356 
G01 X-18.5207 Y37.7407 
G01 X-18.6473 Y37.8673 
G01 X-18.7524 Y38.0121 
G01 X-18.8337 Y38.1715 
G01 X-18.8890 Y38.3418 
G01 X-18.9170 Y38.5185 
G01 X-18.9170 Y40.2215 
G01 X-18.8890 Y40.3982 
G01 X-18.8337 Y40.5685 
G01 X-18.7524 Y40.7279 
G01 X-18.6473 Y40.8727 
G01 X-18.5207 Y40.9993 
G01 X-18.3759 Y41.1044 
G01 X-18.2165 Y41.1857 
G01 X-18.0462 Y41.2410 
G01 X-17.8695 Y41.2690 
G01 X-17.6905 Y41.2690 
G01 X-17.5138 Y41.2410 
G01 X-17.3435 Y41.1857 
G01 X-17.1841 Y41.1044 
G01 X-17.0393 Y40.9993 
G01 X-16.9127 Y40.8727 
G01 X-16.8075 Y40.7279 
G01 X-16.7263 Y40.5685 
G01 X-16.6710 Y40.3982 
G01 X-16.6430 Y40.2215 
G00 Z2.0000 
G00 X-14.1030 Y40.2215 
G01 Z-0.1500 F100.00 
G01 X-14.1030 Y38.5185 F208.00 
G01 X-14.1310 Y38.3418 
G01 X-14.1863 Y38.1715 
G01 X-14.2675 Y38.0121 
G01 X-14.3727 Y37.8673 
G01 X-14.4993 Y37.7407 
G01 X-14.6441 Y37.6356 
G01 X-14.8035 Y37.5543 
G01 X-14.9738 Y37.4990 
G01 X-15.1505 Y37.4710 
G01 X-15.3295 Y37.4710 
G01 X-15.5062 Y37.4990 
G01 X-15.6765 Y37.5543 
G01 X-15.8359 Y37.6356 
G01 X-15.9807 Y37.7407 
G01 X-16.1073 Y37.8673 
G01 X-16.2124 Y38.0121 
G01 X-16.2937 Y38.1715 
G01 X-16.3490 Y38.3418 
G01 X-16.3770 Y38.5185 
G01 X-16.3770 Y40.2215 
G01 X-16.3490 Y40.3982 
G01 X-16.2937 Y40.5685 
G01 X-16.2124 Y40.7279 
G01 X-16.1073 Y40.8727 
G01 X-15.9807 Y40.9993 
G01 X-15.8359 Y41.1044 
G01 X-15.6765 Y41.1857 
G01 X-15.5062 Y41.2410 
G01 X-15.3295 Y41.2690 
G01 X-15.1505 Y41.2690 
G01 X-14.9738 Y41.2410 
G01 X-14.8035 Y41.1857 
G01 X-14.6441 Y41.1044 
G01 X-14.4993 Y40.9993 
G01 X-14.3727 Y40.8727 
G01 X-14.2675 Y40.7279 
G01 X-14.1863 Y40.5685 
G01 X-14.1310 Y40.3982 
G01 X-14.1030 Y40.2215 
G00 Z2.0000 
G00 X-11.5630 Y40.2215 
G01 Z-0.1500 F100.00 
G01 X-11.5630 Y38.5185 F208.00 
G01 X-11.5910 Y38.3418 
G01 X-11.6463 Y38.1715 
G01 X-11.7276 Y38.0121 
G01 X-11.8327 Y37.8673 
G01 X-11.9593 Y37.7407 
G01 X-12.1041 Y37.6356 
G01 X-12.2635 Y37.5543 
G01 X-12.4337 Y37.4990 
G01 X-12.6105 Y37.4710 
G01 X-12.7895 Y37.4710 
G01 X-12.9662 Y37.4990 
G01 X-13.1365 Y37.5543 
G01 X-13.2959 Y37.6356 
G01 X-13.4407 Y37.7407 
G01 X-13.5673 Y37.8673 
G01 X-13.6724 Y38.0121 
G01 X-13.7537 Y38.1715 
G01 X-13.8090 Y38.3418 
G01 X-13.8370 Y38.5185 
G01 X-13.8370 Y40.2215 
G01 X-13.8090 Y40.3982 
G01 X-13.7537 Y40.5685 
G01 X-13.6724 Y40.7279 
G01 X-13.5673 Y40.8727 
G01 X-13.4407 Y40.9993 
G01 X-13.2959 Y41.1044 
G01 X-13.1365 Y41.1857 
G01 X-12.9662 Y41.2410 
G01 X-12.7895 Y41.2690 
G01 X-12.6105 Y41.2690 
G01 X-12.4337 Y41.2410 
G01 X-12.2635 Y41.1857 
G01 X-12.1041 Y41.1044 
G01 X-11.9593 Y40.9993 
G01 X-11.8327 Y40.8727 
G01 X-11.7276 Y40.7279 
G01 X-11.6463 Y40.5685 
G01 X-11.5910 Y40.3982 
G01 X-11.5630 Y40.2215 
G00 Z2.0000 
G00 X-9.0230 Y40.2215 
G01 Z-0.1500 F100.00 
G01 X-9.0230 Y38.5185 F208.00 
G01 X-9.0510 Y38.3418 
G01 X-9.1063 Y38.1715 
G01 X-9.1875 Y38.0121 
G01 X-9.2927 Y37.8673 
G01 X-9.4193 Y37.7407 
G01 X-9.5641 Y37.6356 
G01 X-9.7235 Y37.5543 
G01 X-9.8938 Y37.4990 
G01 X-10.0705 Y37.4710 
G01 X-10.2495 Y37.4710 
G01 X-10.4262 Y37.4990 
G01 X-10.5965 Y37.5543 
G01 X-10.7559 Y37.6356 
G01 X-10.9007 Y37.7407 
G01 X-11.0273 Y37.8673 
G01 X-11.1324 Y38.0121 
G01 X-11.2137 Y38.1715 
G01 X-11.2690 Y38.3418 
G01 X-11.2970 Y38.5185 
G01 X-11.2970 Y40.2215 
G01 X-11.2690 Y40.3982 
G01 X-11.2137 Y40.5685 
G01 X-11.1324 Y40.7279 
G01 X-11.0273 Y40.8727 
G01 X-10.9007 Y40.9993 
G01 X-10.7559 Y41.1044 
G01 X-10.5965 Y41.1857 
G01 X-10.4262 Y41.2410 
G01 X-10.2495 Y41.2690 
G01 X-10.0705 Y41.2690 
G01 X-9.8938 Y41.2410 
G01 X-9.7235 Y41.1857 
G01 X-9.5641 Y41.1044 
G01 X-9.4193 Y40.9993 
G01 X-9.2927 Y40.8727 
G01 X-9.1875 Y40.7279 
G01 X-9.1063 Y40.5685 
G01 X-9.0510 Y40.3982 
G01 X-9.0230 Y40.2215 
G00 Z2.0000 
G00 X-6.4830 Y40.2215 
G01 Z-0.1500 F100.00 
G01 X-6.4830 Y38.5185 F208.00 
G01 X-6.5110 Y38.3418 
G01 X-6.5663 Y38.1715 
G01 X-6.6476 Y38.0121 
G01 X-6.7527 Y37.8673 
G01 X-6.8793 Y37.7407 
G01 X-7.0241 Y37.6356 
G01 X-7.1835 Y37.5543 
G01 X-7.3538 Y37.4990 
G01 X-7.5305 Y37.4710 
G01 X-7.7095 Y37.4710 
G01 X-7.8862 Y37.4990 
G01 X-8.0565 Y37.5543 
G01 X-8.2159 Y37.6356 
G01 X-8.3607 Y37.7407 
G01 X-8.4873 Y37.8673 
G01 X-8.5924 Y38.0121 
G01 X-8.6737 Y38.1715 
G01 X-8.7290 Y38.3418 
G01 X-8.7570 Y38.5185 
G01 X-8.7570 Y40.2215 
G01 X-8.7290 Y40.3982 
G01 X-8.6737 Y40.5685 
G01 X-8.5924 Y40.7279 
G01 X-8.4873 Y40.8727 
G01 X-8.3607 Y40.9993 
G01 X-8.2159 Y41.1044 
G01 X-8.0565 Y41.1857 
G01 X-7.8862 Y41.2410 
G01 X-7.7095 Y41.2690 
G01 X-7.5305 Y41.2690 
G01 X-7.3538 Y41.2410 
G01 X-7.1835 Y41.1857 
G01 X-7.0241 Y41.1044 
G01 X-6.8793 Y40.9993 
G01 X-6.7527 Y40.8727 
G01 X-6.6476 Y40.7279 
G01 X-6.5663 Y40.5685 
G01 X-6.5110 Y40.3982 
G01 X-6.4830 Y40.2215 
G00 Z2.0000 
G00 X-3.9430 Y40.2215 
G01 Z-0.1500 F100.00 
G01 X-3.9430 Y38.5185 F208.00 
G01 X-3.9710 Y38.3418 
G01 X-4.0263 Y38.1715 
G01 X-4.1075 Y38.0121 
G01 X-4.2127 Y37.8673 
G01 X-4.3393 Y37.7407 
G01 X-4.4841 Y37.6356 
G01 X-4.6435 Y37.5543 
G01 X-4.8138 Y37.4990 
G01 X-4.9905 Y37.4710 
G01 X-5.1695 Y37.4710 
G01 X-5.3462 Y37.4990 
G01 X-5.5165 Y37.5543 
G01 X-5.6759 Y37.6356 
G01 X-5.8207 Y37.7407 
G01 X-5.9473 Y37.8673 
G01 X-6.0524 Y38.0121 
G01 X-6.1337 Y38.1715 
G01 X-6.1890 Y38.3418 
G01 X-6.2170 Y38.5185 
G01 X-6.2170 Y40.2215 
G01 X-6.1890 Y40.3982 
G01 X-6.1337 Y40.5685 
G01 X-6.0524 Y40.7279 
G01 X-5.9473 Y40.8727 
G01 X-5.8207 Y40.9993 
G01 X-5.6759 Y41.1044 
G01 X-5.5165 Y41.1857 
G01 X-5.3462 Y41.2410 
G01 X-5.1695 Y41.2690 
G01 X-4.9905 Y41.2690 
G01 X-4.8138 Y41.2410 
G01 X-4.6435 Y41.1857 
G01 X-4.4841 Y41.1044 
G01 X-4.3393 Y40.9993 
G01 X-4.2127 Y40.8727 
G01 X-4.1075 Y40.7279 
G01 X-4.0263 Y40.5685 
G01 X-3.9710 Y40.3982 
G01 X-3.9430 Y40.2215 
G00 Z2.0000 
G00 X-1.4030 Y40.2215 
G01 Z-0.1500 F100.00 
G01 X-1.4030 Y38.5185 F208.00 
G01 X-1.4310 Y38.3418 
G01 X-1.4863 Y38.1715 
G01 X-1.5675 Y38.0121 
G01 X-1.6727 Y37.8673 
G01 X-1.7993 Y37.7407 
G01 X-1.9441 Y37.6356 
G01 X-2.1035 Y37.5543 
G01 X-2.2738 Y37.4990 
G01 X-2.4505 Y37.4710 
G01 X-2.6295 Y37.4710 
G01 X-2.8062 Y37.4990 
G01 X-2.9765 Y37.5543 
G01 X-3.1359 Y37.6356 
G01 X-3.2807 Y37.7407 
G01 X-3.4073 Y37.8673 
G01 X-3.5124 Y38.0121 
G01 X-3.5937 Y38.1715 
G01 X-3.6490 Y38.3418 
G01 X-3.6770 Y38.5185 
G01 X-3.6770 Y40.2215 
G01 X-3.6490 Y40.3982 
G01 X-3.5937 Y40.5685 
G01 X-3.5124 Y40.7279 
G01 X-3.4073 Y40.8727 
G01 X-3.2807 Y40.9993 
G01 X-3.1359 Y41.1044 
G01 X-2.9765 Y41.1857 
G01 X-2.8062 Y41.2410 
G01 X-2.6295 Y41.2690 
G01 X-2.4505 Y41.2690 
G01 X-2.2738 Y41.2410 
G01 X-2.1035 Y41.1857 
G01 X-1.9441 Y41.1044 
G01 X-1.7993 Y40.9993 
G01 X-1.6727 Y40.8727 
G01 X-1.5675 Y40.7279 
G01 X-1.4863 Y40.5685 
G01 X-1.4310 Y40.3982 
G01 X-1.4030 Y40.2215 
G00 Z2.0000 
G00 X-36.9630 Y17.3615 
G01 Z-0.1500 F100.00 
G01 X-36.9630 Y15.6585 F208.00 
G01 X-36.9910 Y15.4817 
G01 X-37.0463 Y15.3115 
G01 X-37.1275 Y15.1521 
G01 X-37.2327 Y15.0073 
G01 X-37.3186 Y14.9214 
G01 X-37.3186 Y11.7537 
G01 X-36.2230 Y10.6581 
G01 X-36.1375 Y10.5301 
G01 X-36.0786 Y10.3879 
G01 X-36.0486 Y10.2370 
G01 X-36.0486 Y10.0190 
G01 X-36.0266 Y10.0190 
G01 X-35.9313 Y9.9934 
G01 X-35.8457 Y9.9441 
G01 X-35.7759 Y9.8743 
G01 X-35.7266 Y9.7887 
G01 X-35.7010 Y9.6934 
G01 X-35.7010 Y8.0866 
G01 X-35.7266 Y7.9913 
G01 X-35.7759 Y7.9057 
G01 X-35.8457 Y7.8359 
G01 X-35.9313 Y7.7866 
G01 X-36.0266 Y7.7610 
G01 X-36.0486 Y7.7610 
G01 X-36.0486 Y0.7814 
G01 X-15.5637 Y0.7814 
G01 X-10.9414 Y5.4037 
G01 X-10.9414 Y8.5714 
G01 X-11.0273 Y8.6573 
G01 X-11.1324 Y8.8021 
G01 X-11.2137 Y8.9615 
G01 X-11.2690 Y9.1318 
G01 X-11.2970 Y9.3085 
G01 X-11.2970 Y11.0115 
G01 X-11.2690 Y11.1882 
G01 X-11.2137 Y11.3585 
G01 X-11.1324 Y11.5179 
G01 X-11.0273 Y11.6627 
G01 X-10.9007 Y11.7893 
G01 X-10.7559 Y11.8944 
G01 X-10.5965 Y11.9757 
G01 X-10.4262 Y12.0310 
G01 X-10.2495 Y12.0590 
G01 X-10.0705 Y12.0590 
G01 X-9.8938 Y12.0310 
G01 X-9.7235 Y11.9757 
G01 X-9.5641 Y11.8944 
G01 X-9.4193 Y11.7893 
G01 X-9.2927 Y11.6627 
G01 X-9.1875 Y11.5179 
G01 X-9.1063 Y11.3585 
G01 X-9.0510 Y11.1882 
G01 X-9.0230 Y11.0115 
G01 X-9.0230 Y9.3085 
G01 X-9.0510 Y9.1318 
G01 X-9.1063 Y8.9615 
G01 X-9.1875 Y8.8021 
G01 X-9.2927 Y8.6573 
G01 X-9.3786 Y8.5714 
G01 X-9.3786 Y5.0030 
G01 X-9.4086 Y4.8521 
G01 X-9.4675 Y4.7099 
G01 X-9.5530 Y4.5819 
G01 X-14.6330 Y-0.4981 
G01 X-14.7419 Y-0.6069 
G01 X-14.8699 Y-0.6925 
G01 X-15.0121 Y-0.7514 
G01 X-15.1630 Y-0.7814 
G01 X-36.9070 Y-0.7814 
G01 X-37.0579 Y-0.7514 
G01 X-37.2001 Y-0.6925 
G01 X-37.3281 Y-0.6069 
G01 X-37.4370 Y-0.4981 
G01 X-37.5225 Y-0.3701 
G01 X-37.5814 Y-0.2279 
G01 X-37.6114 Y-0.0770 
G01 X-37.6114 Y7.7610 
G01 X-37.6334 Y7.7610 
G01 X-37.7287 Y7.7866 
G01 X-37.8143 Y7.8359 
G01 X-37.8841 Y7.9057 
G01 X-37.9334 Y7.9913 
G01 X-37.9590 Y8.0866 
G01 X-37.9590 Y9.6934 
G01 X-37.9334 Y9.7887 
G01 X-37.8841 Y9.8743 
G01 X-37.8143 Y9.9441 
G01 X-37.7540 Y9.9789 
G01 X-38.5981 Y10.8230 
G01 X-38.7069 Y10.9319 
G01 X-38.7925 Y11.0599 
G01 X-38.8514 Y11.2021 
G01 X-38.8814 Y11.3530 
G01 X-38.8814 Y14.9214 
G01 X-38.9673 Y15.0073 
G01 X-39.0724 Y15.1521 
G01 X-39.1537 Y15.3115 
G01 X-39.2090 Y15.4817 
G01 X-39.2370 Y15.6585 
G01 X-39.2370 Y17.3615 
G01 X-39.2090 Y17.5382 
G01 X-39.1537 Y17.7085 
G01 X-39.0724 Y17.8679 
G01 X-38.9673 Y18.0127 
G01 X-38.8407 Y18.1393 
G01 X-38.6959 Y18.2444 
G01 X-38.5365 Y18.3257 
G01 X-38.3662 Y18.3810 
G01 X-38.1895 Y18.4090 
G01 X-38.0105 Y18.4090 
G01 X-37.8338 Y18.3810 
G01 X-37.6635 Y18.3257 
G01 X-37.5041 Y18.2444 
G01 X-37.3593 Y18.1393 
G01 X-37.2327 Y18.0127 
G01 X-37.1275 Y17.8679 
G01 X-37.0463 Y17.7085 
G01 X-36.9910 Y17.5382 
G01 X-36.9630 Y17.3615 
G00 Z2.0000 
G00 X-31.8830 Y17.3615 
G01 Z-0.1500 F100.00 
G01 X-31.8830 Y15.6585 F208.00 
G01 X-31.9110 Y15.4817 
G01 X-31.9663 Y15.3115 
G01 X-32.0476 Y15.1521 
G01 X-32.1527 Y15.0073 
G01 X-32.2793 Y14.8807 
G01 X-32.4241 Y14.7756 
G01 X-32.5835 Y14.6943 
G01 X-32.7538 Y14.6390 
G01 X-32.9305 Y14.6110 
G01 X-33.1095 Y14.6110 
G01 X-33.2862 Y14.6390 
G01 X-33.4565 Y14.6943 
G01 X-33.6159 Y14.7756 
G01 X-33.7607 Y14.8807 
G01 X-33.8873 Y15.0073 
G01 X-33.9924 Y15.1521 
G01 X-34.0737 Y15.3115 
G01 X-34.1290 Y15.4817 
G01 X-34.1570 Y15.6585 
G01 X-34.1570 Y17.3615 
G01 X-34.1290 Y17.5382 
G01 X-34.0737 Y17.7085 
G01 X-33.9924 Y17.8679 
G01 X-33.8873 Y18.0127 
G01 X-33.7607 Y18.1393 
G01 X-33.6159 Y18.2444 
G01 X-33.4565 Y18.3257 
G01 X-33.2862 Y18.3810 
G01 X-33.1095 Y18.4090 
G01 X-32.9305 Y18.4090 
G01 X-32.7538 Y18.3810 
G01 X-32.5835 Y18.3257 
G01 X-32.4241 Y18.2444 
G01 X-32.2793 Y18.1393 
G01 X-32.1527 Y18.0127 
G01 X-32.0476 Y17.8679 
G01 X-31.9663 Y17.7085 
G01 X-31.9110 Y17.5382 
G01 X-31.8830 Y17.3615 
G00 Z2.0000 
G00 X-29.3430 Y17.3615 
G01 Z-0.1500 F100.00 
G01 X-29.3430 Y15.6585 F208.00 
G01 X-29.3710 Y15.4817 
G01 X-29.4263 Y15.3115 
G01 X-29.5076 Y15.1521 
G01 X-29.6127 Y15.0073 
G01 X-29.7393 Y14.8807 
G01 X-29.8841 Y14.7756 
G01 X-30.0435 Y14.6943 
G01 X-30.2138 Y14.6390 
G01 X-30.3905 Y14.6110 
G01 X-30.5695 Y14.6110 
G01 X-30.7462 Y14.6390 
G01 X-30.9165 Y14.6943 
G01 X-31.0759 Y14.7756 
G01 X-31.2207 Y14.8807 
G01 X-31.3473 Y15.0073 
G01 X-31.4524 Y15.1521 
G01 X-31.5337 Y15.3115 
G01 X-31.5890 Y15.4817 
G01 X-31.6170 Y15.6585 
G01 X-31.6170 Y17.3615 
G01 X-31.5890 Y17.5382 
G01 X-31.5337 Y17.7085 
G01 X-31.4524 Y17.8679 
G01 X-31.3473 Y18.0127 
G01 X-31.2207 Y18.1393 
G01 X-31.0759 Y18.2444 
G01 X-30.9165 Y18.3257 
G01 X-30.7462 Y18.3810 
G01 X-30.5695 Y18.4090 
G01 X-30.3905 Y18.4090 
G01 X-30.2138 Y18.3810 
G01 X-30.0435 Y18.3257 
G01 X-29.8841 Y18.2444 
G01 X-29.7393 Y18.1393 
G01 X-29.6127 Y18.0127 
G01 X-29.5076 Y17.8679 
G01 X-29.4263 Y17.7085 
G01 X-29.3710 Y17.5382 
G01 X-29.3430 Y17.3615 
G00 Z2.0000 
G00 X-26.8030 Y17.3615 
G01 Z-0.1500 F100.00 
G01 X-26.8030 Y15.6585 F208.00 
G01 X-26.8310 Y15.4817 
G01 X-26.8863 Y15.3115 
G01 X-26.9676 Y15.1521 
G01 X-27.0727 Y15.0073 
G01 X-27.1993 Y14.8807 
G01 X-27.3441 Y14.7756 
G01 X-27.5035 Y14.6943 
G01 X-27.6738 Y14.6390 
G01 X-27.8505 Y14.6110 
G01 X-28.0295 Y14.6110 
G01 X-28.2062 Y14.6390 
G01 X-28.3765 Y14.6943 
G01 X-28.5359 Y14.7756 
G01 X-28.6807 Y14.8807 
G01 X-28.8073 Y15.0073 
G01 X-28.9124 Y15.1521 
G01 X-28.9937 Y15.3115 
G01 X-29.0490 Y15.4817 
G01 X-29.0770 Y15.6585 
G01 X-29.0770 Y17.3615 
G01 X-29.0490 Y17.5382 
G01 X-28.9937 Y17.7085 
G01 X-28.9124 Y17.8679 
G01 X-28.8073 Y18.0127 
G01 X-28.6807 Y18.1393 
G01 X-28.5359 Y18.2444 
G01 X-28.3765 Y18.3257 
G01 X-28.2062 Y18.3810 
G01 X-28.0295 Y18.4090 
G01 X-27.8505 Y18.4090 
G01 X-27.6738 Y18.3810 
G01 X-27.5035 Y18.3257 
G01 X-27.3441 Y18.2444 
G01 X-27.1993 Y18.1393 
G01 X-27.0727 Y18.0127 
G01 X-26.9676 Y17.8679 
G01 X-26.8863 Y17.7085 
G01 X-26.8310 Y17.5382 
G01 X-26.8030 Y17.3615 
G00 Z2.0000 
G00 X-24.2630 Y17.3615 
G01 Z-0.1500 F100.00 
G01 X-24.2630 Y15.6585 F208.00 
G01 X-24.2910 Y15.4817 
G01 X-24.3463 Y15.3115 
G01 X-24.4276 Y15.1521 
G01 X-24.5327 Y15.0073 
G01 X-24.6593 Y14.8807 
G01 X-24.8041 Y14.7756 
G01 X-24.9635 Y14.6943 
G01 X-25.1338 Y14.6390 
G01 X-25.3105 Y14.6110 
G01 X-25.4895 Y14.6110 
G01 X-25.6662 Y14.6390 
G01 X-25.8365 Y14.6943 
G01 X-25.9959 Y14.7756 
G01 X-26.1407 Y14.8807 
G01 X-26.2673 Y15.0073 
G01 X-26.3724 Y15.1521 
G01 X-26.4537 Y15.3115 
G01 X-26.5090 Y15.4817 
G01 X-26.5370 Y15.6585 
G01 X-26.5370 Y17.3615 
G01 X-26.5090 Y17.5382 
G01 X-26.4537 Y17.7085 
G01 X-26.3724 Y17.8679 
G01 X-26.2673 Y18.0127 
G01 X-26.1407 Y18.1393 
G01 X-25.9959 Y18.2444 
G01 X-25.8365 Y18.3257 
G01 X-25.6662 Y18.3810 
G01 X-25.4895 Y18.4090 
G01 X-25.3105 Y18.4090 
G01 X-25.1338 Y18.3810 
G01 X-24.9635 Y18.3257 
G01 X-24.8041 Y18.2444 
G01 X-24.6593 Y18.1393 
G01 X-24.5327 Y18.0127 
G01 X-24.4276 Y17.8679 
G01 X-24.3463 Y17.7085 
G01 X-24.2910 Y17.5382 
G01 X-24.2630 Y17.3615 
G00 Z2.0000 
G00 X-21.7230 Y17.3615 
G01 Z-0.1500 F100.00 
G01 X-21.7230 Y15.6585 F208.00 
G01 X-21.7510 Y15.4817 
G01 X-21.8063 Y15.3115 
G01 X-21.8876 Y15.1521 
G01 X-21.9927 Y15.0073 
G01 X-22.1193 Y14.8807 
G01 X-22.2641 Y14.7756 
G01 X-22.4235 Y14.6943 
G01 X-22.5938 Y14.6390 
G01 X-22.7705 Y14.6110 
G01 X-22.9495 Y14.6110 
G01 X-23.1262 Y14.6390 
G01 X-23.2965 Y14.6943 
G01 X-23.4559 Y14.7756 
G01 X-23.6007 Y14.8807 
G01 X-23.7273 Y15.0073 
G01 X-23.8324 Y15.1521 
G01 X-23.9137 Y15.3115 
G01 X-23.9690 Y15.4817 
G01 X-23.9970 Y15.6585 
G01 X-23.9970 Y17.3615 
G01 X-23.9690 Y17.5382 
G01 X-23.9137 Y17.7085 
G01 X-23.8324 Y17.8679 
G01 X-23.7273 Y18.0127 
G01 X-23.6007 Y18.1393 
G01 X-23.4559 Y18.2444 
G01 X-23.2965 Y18.3257 
G01 X-23.1262 Y18.3810 
G01 X-22.9495 Y18.4090 
G01 X-22.7705 Y18.4090 
G01 X-22.5938 Y18.3810 
G01 X-22.4235 Y18.3257 
G01 X-22.2641 Y18.2444 
G01 X-22.1193 Y18.1393 
G01 X-21.9927 Y18.0127 
G01 X-21.8876 Y17.8679 
G01 X-21.8063 Y17.7085 
G01 X-21.7510 Y17.5382 
G01 X-21.7230 Y17.3615 
G00 Z2.0000 
G00 X-1.4030 Y17.3615 
G01 Z-0.1500 F100.00 
G01 X-1.4030 Y15.6585 F208.00 
G01 X-1.4310 Y15.4817 
G01 X-1.4863 Y15.3115 
G01 X-1.5675 Y15.1521 
G01 X-1.6727 Y15.0073 
G01 X-1.7993 Y14.8807 
G01 X-1.9441 Y14.7756 
G01 X-2.1035 Y14.6943 
G01 X-2.2738 Y14.6390 
G01 X-2.4505 Y14.6110 
G01 X-2.6295 Y14.6110 
G01 X-2.8062 Y14.6390 
G01 X-2.9765 Y14.6943 
G01 X-3.1359 Y14.7756 
G01 X-3.2807 Y14.8807 
G01 X-3.4073 Y15.0073 
G01 X-3.5124 Y15.1521 
G01 X-3.5937 Y15.3115 
G01 X-3.6490 Y15.4817 
G01 X-3.6770 Y15.6585 
G01 X-3.6770 Y17.3615 
G01 X-3.6490 Y17.5382 
G01 X-3.5937 Y17.7085 
G01 X-3.5124 Y17.8679 
G01 X-3.4073 Y18.0127 
G01 X-3.2807 Y18.1393 
G01 X-3.1359 Y18.2444 
G01 X-2.9765 Y18.3257 
G01 X-2.8062 Y18.3810 
G01 X-2.6295 Y18.4090 
G01 X-2.4505 Y18.4090 
G01 X-2.2738 Y18.3810 
