(.../Documents/EAGLE/ulps/pcb-gcode.ulp)
(Copyright 2005 - 2012 by John Johnson)
(See readme.txt for licensing terms.)
(This file generated from the board:)
(.../projects/HM_SHT21/HM_SHT21.brd)
(Current profile is .../EAGLE/ulps/profiles/generic.pp  )
(This file generated 28.09.19 16:25)
(Settings from pcb-machine.h)
(  Tool Size)
(0.1500 )
(Z Axis Settings)
(  High     Up        Down     Drill)
(10.4000 	2.5400 	-0.1000 	-1.8000 )
(spindle on time = 3.0000)
(milling depth = -1.8000)
(text depth = -0.1000)
(tool change at 0.0000 0.0000 20.4000 )
(feed rate xy = F208.00 )
(feed rate z  = F40.00 )
(Settings from pcb-defaults.h)
(isolate min = 0.0100)
(isolate max = 0.2500)
(isolate step = 0.1000)
(Generated bottom outlines, bottom drill, )
(Unit of measure: mm)
( Tool|       Size       |  Min Sub |  Max Sub |   Count )
( T01  0.350mm 0.0138in 0.0000in 0.0000in )
( T02  0.813mm 0.0320in 0.0000in 0.0000in )
( T03  0.900mm 0.0354in 0.0000in 0.0000in )
( T04  1.000mm 0.0394in 0.0000in 0.0000in )
( T05  1.016mm 0.0400in 0.0000in 0.0000in )
( T06  1.100mm 0.0433in 0.0000in 0.0000in )
( T07  1.118mm 0.0440in 0.0000in 0.0000in )
(Metric Mode)
G21
(Absolute Coordinates)
G90
M05
G00 Z20.4000 
G00 X0.0000 Y0.0000 
M06 T01  ; 0.3500 
G01 Z0.0000 F40.00 
M06 T01  ; 0.3500 
G00 Z2.5400 
M03
G04 P3.000000
G00 Z2.540000
G00 X-40.6400 Y19.0500 
G01 Z-1.8000 F40.00 
G01 Z2.540000
(R2.5400  P2.000000)
(G00 Z2.540000)
G00 X-41.9100 Y26.6700 
G01 Z-1.800000
G01 Z2.540000
(G00 Z2.540000)
G00 X-43.1800 Y15.2400 
G01 Z-1.800000
G01 Z2.540000
(G00 Z2.540000)
G00 X-48.2600 Y19.0500 
G01 Z-1.800000
G01 Z2.540000
(G00 Z2.540000)
G00 X-19.0500 Y22.8600 
G01 Z-1.800000
G01 Z2.540000
(G00 Z2.540000)
G00 X-24.1300 Y22.8600 
G01 Z-1.800000
G01 Z2.540000
(G00 Z2.540000)
G00 X-29.2100 Y34.2900 
G01 Z-1.800000
G01 Z2.540000
(G00 Z2.540000)
G00 X-29.2100 Y26.6700 
G01 Z-1.800000
G01 Z2.540000
M05
G00 Z20.4000 
M06 T02  ; 0.8128 
G01 Z0.0000 F40.00 
M06 T02  ; 0.8128 
G00 Z2.5400 
M03
G04 P3.000000
G00 Z2.540000
G00 X-13.9700 Y34.2900 
G01 Z-1.8000 F40.00 
G01 Z2.540000
(R2.5400  P2.000000)
(G00 Z2.540000)
G00 X-13.9700 Y36.8300 
G01 Z-1.800000
G01 Z2.540000
(G00 Z2.540000)
G00 X-20.3200 Y36.8300 
G01 Z-1.800000
G01 Z2.540000
(G00 Z2.540000)
G00 X-27.9400 Y36.8300 
G01 Z-1.800000
G01 Z2.540000
M05
G00 Z20.4000 
M06 T03  ; 0.9000 
G01 Z0.0000 F40.00 
M06 T03  ; 0.9000 
G00 Z2.5400 
M03
G04 P3.000000
G00 Z2.540000
G00 X-45.6100 Y13.3200 
G01 Z-1.8000 F40.00 
G01 Z2.540000
(R2.5400  P2.000000)
(G00 Z2.540000)
G00 X-45.6100 Y15.3200 
G01 Z-1.800000
G01 Z2.540000
(G00 Z2.540000)
G00 X-45.6100 Y17.3200 
G01 Z-1.800000
G01 Z2.540000
(G00 Z2.540000)
G00 X-45.6100 Y19.3200 
G01 Z-1.800000
G01 Z2.540000
(G00 Z2.540000)
G00 X-45.6100 Y21.3200 
G01 Z-1.800000
G01 Z2.540000
(G00 Z2.540000)
G00 X-45.6100 Y23.3200 
G01 Z-1.800000
G01 Z2.540000
(G00 Z2.540000)
G00 X-45.6100 Y25.3200 
G01 Z-1.800000
G01 Z2.540000
(G00 Z2.540000)
G00 X-45.6100 Y27.3200 
G01 Z-1.800000
G01 Z2.540000
M05
G00 Z20.4000 
M06 T04  ; 1.0000 
G01 Z0.0000 F40.00 
M06 T04  ; 1.0000 
G00 Z2.5400 
M03
G04 P3.000000
G00 Z2.540000
G00 X-31.7500 Y15.2400 
G01 Z-1.8000 F40.00 
G01 Z2.540000
(R2.5400  P2.000000)
(G00 Z2.540000)
G00 X-31.7500 Y30.4800 
G01 Z-1.800000
G01 Z2.540000
(G00 Z2.540000)
G00 X-34.2900 Y15.2400 
G01 Z-1.800000
G01 Z2.540000
(G00 Z2.540000)
G00 X-34.2900 Y30.4800 
G01 Z-1.800000
G01 Z2.540000
(G00 Z2.540000)
G00 X-36.8300 Y15.2400 
G01 Z-1.800000
G01 Z2.540000
(G00 Z2.540000)
G00 X-36.8300 Y30.4800 
G01 Z-1.800000
G01 Z2.540000
(G00 Z2.540000)
G00 X-39.3700 Y15.2400 
G01 Z-1.800000
G01 Z2.540000
(G00 Z2.540000)
G00 X-39.3700 Y22.8600 
G01 Z-1.800000
G01 Z2.540000
(G00 Z2.540000)
G00 X-39.3700 Y25.4000 
G01 Z-1.800000
G01 Z2.540000
(G00 Z2.540000)
G00 X-39.3700 Y27.9400 
G01 Z-1.800000
G01 Z2.540000
(G00 Z2.540000)
G00 X-39.3700 Y30.4800 
G01 Z-1.800000
G01 Z2.540000
(G00 Z2.540000)
G00 X-8.8900 Y16.5100 
G01 Z-1.800000
G01 Z2.540000
(G00 Z2.540000)
G00 X-8.8900 Y19.0500 
G01 Z-1.800000
G01 Z2.540000
(G00 Z2.540000)
G00 X-8.8900 Y21.5900 
G01 Z-1.800000
G01 Z2.540000
(G00 Z2.540000)
G00 X-8.8900 Y24.1300 
G01 Z-1.800000
G01 Z2.540000
(G00 Z2.540000)
G00 X-8.8900 Y26.6700 
G01 Z-1.800000
G01 Z2.540000
(G00 Z2.540000)
G00 X-8.8900 Y29.2100 
G01 Z-1.800000
G01 Z2.540000
(G00 Z2.540000)
G00 X-11.4300 Y15.2400 
G01 Z-1.800000
G01 Z2.540000
(G00 Z2.540000)
G00 X-11.4300 Y30.4800 
G01 Z-1.800000
G01 Z2.540000
(G00 Z2.540000)
G00 X-13.9700 Y15.2400 
G01 Z-1.800000
G01 Z2.540000
(G00 Z2.540000)
G00 X-13.9700 Y30.4800 
G01 Z-1.800000
G01 Z2.540000
(G00 Z2.540000)
G00 X-16.5100 Y15.2400 
G01 Z-1.800000
G01 Z2.540000
(G00 Z2.540000)
G00 X-16.5100 Y30.4800 
G01 Z-1.800000
G01 Z2.540000
(G00 Z2.540000)
G00 X-19.0500 Y15.2400 
G01 Z-1.800000
G01 Z2.540000
(G00 Z2.540000)
G00 X-19.0500 Y30.4800 
G01 Z-1.800000
G01 Z2.540000
(G00 Z2.540000)
G00 X-20.3200 Y27.9400 
G01 Z-1.800000
G01 Z2.540000
(G00 Z2.540000)
G00 X-21.5900 Y15.2400 
G01 Z-1.800000
G01 Z2.540000
(G00 Z2.540000)
G00 X-21.5900 Y30.4800 
G01 Z-1.800000
G01 Z2.540000
(G00 Z2.540000)
G00 X-22.8600 Y27.9400 
G01 Z-1.800000
G01 Z2.540000
(G00 Z2.540000)
G00 X-24.1300 Y15.2400 
G01 Z-1.800000
G01 Z2.540000
(G00 Z2.540000)
G00 X-24.1300 Y30.4800 
G01 Z-1.800000
G01 Z2.540000
(G00 Z2.540000)
G00 X-26.6700 Y15.2400 
G01 Z-1.800000
G01 Z2.540000
(G00 Z2.540000)
G00 X-26.6700 Y30.4800 
G01 Z-1.800000
G01 Z2.540000
(G00 Z2.540000)
G00 X-29.2100 Y15.2400 
G01 Z-1.800000
G01 Z2.540000
(G00 Z2.540000)
G00 X-29.2100 Y30.4800 
G01 Z-1.800000
G01 Z2.540000
M05
G00 Z20.4000 
M06 T05  ; 1.0160 
G01 Z0.0000 F40.00 
M06 T05  ; 1.0160 
G00 Z2.5400 
M03
G04 P3.000000
G00 Z2.540000
G00 X-34.8488 Y6.6294 
G01 Z-1.8000 F40.00 
G01 Z2.540000
(R2.5400  P2.000000)
(G00 Z2.540000)
G00 X-34.8488 Y11.1506 
G01 Z-1.800000
G01 Z2.540000
(G00 Z2.540000)
G00 X-41.3512 Y6.6294 
G01 Z-1.800000
G01 Z2.540000
(G00 Z2.540000)
G00 X-41.3512 Y11.1506 
G01 Z-1.800000
G01 Z2.540000
(G00 Z2.540000)
G00 X-50.8000 Y34.2900 
G01 Z-1.800000
G01 Z2.540000
(G00 Z2.540000)
G00 X-53.3400 Y34.2900 
G01 Z-1.800000
G01 Z2.540000
(G00 Z2.540000)
G00 X-55.8800 Y34.2900 
G01 Z-1.800000
G01 Z2.540000
M05
G00 Z20.4000 
M06 T06  ; 1.1000 
G01 Z0.0000 F40.00 
M06 T06  ; 1.1000 
G00 Z2.5400 
M03
G04 P3.000000
G00 Z2.540000
G00 X-63.6100 Y16.8200 
G01 Z-1.8000 F40.00 
G01 Z2.540000
(R2.5400  P2.000000)
(G00 Z2.540000)
G00 X-63.6100 Y19.3200 
G01 Z-1.800000
G01 Z2.540000
(G00 Z2.540000)
G00 X-63.6100 Y21.8200 
G01 Z-1.800000
G01 Z2.540000
M05
G00 Z20.4000 
M06 T07  ; 1.1176 
G01 Z0.0000 F40.00 
M06 T07  ; 1.1176 
G00 Z2.5400 
M03
G04 P3.000000
G00 Z2.540000
G00 X-59.6900 Y36.8300 
G01 Z-1.8000 F40.00 
G01 Z2.540000
(R2.5400  P2.000000)
(G00 Z2.540000)
G00 X-60.9600 Y33.0200 
G01 Z-1.800000
G01 Z2.540000
(G00 Z2.540000)
G00 X-6.3500 Y2.5400 
G01 Z-1.800000
G01 Z2.540000
(G00 Z2.540000)
G00 X-11.4300 Y2.5400 
G01 Z-1.800000
G01 Z2.540000
(G00 Z2.540000)
G00 X-17.7800 Y2.5400 
G01 Z-1.800000
G01 Z2.540000
(G00 Z2.540000)
G00 X-24.1300 Y2.5400 
G01 Z-1.800000
G01 Z2.540000
T01 
G00 Z10.4000 
M05
M02
