(.../Documents/EAGLE/ulps/pcb-gcode.ulp)
(Copyright 2005 - 2012 by John Johnson)
(See readme.txt for licensing terms.)
(This file generated from the board:)
(.../projects/HM_SHT21/HM_SHT21.brd)
(Current profile is .../EAGLE/ulps/profiles/generic.pp  )
(This file generated 28.09.19 16:24)
(Settings from pcb-machine.h)
(  Tool Size)
(0.1500 )
(Z Axis Settings)
(  High     Up        Down     Drill)
(10.4000 	2.5400 	-0.1000 	-1.8000 )
(spindle on time = 3.0000)
(milling depth = -1.8000)
(text depth = -0.1000)
(tool change at 0.0000 0.0000 20.4000 )
(feed rate xy = F208.00 )
(feed rate z  = F40.00 )
(Settings from pcb-defaults.h)
(isolate min = 0.0100)
(isolate max = 0.2500)
(isolate step = 0.1000)
(Generated bottom outlines, bottom drill, )
(Unit of measure: mm)
(Metric Mode)
G21
(Absolute Coordinates)
G90
G00 X0.0000 Y0.0000 
M03
G04 P3.000000
G00 Z2.5400 
G00 X-48.7232 Y18.9890 
G01 Z-0.1000 F40.00 
G01 X-48.7232 Y19.1110 F208.00 
G01 X-48.6916 Y19.2288 
G01 X-48.6307 Y19.3344 
G01 X-48.5444 Y19.4207 
G01 X-48.4388 Y19.4816 
G01 X-48.3210 Y19.5132 
G01 X-48.1990 Y19.5132 
G01 X-48.0812 Y19.4816 
G01 X-47.9756 Y19.4207 
G01 X-47.8893 Y19.3344 
G01 X-47.8284 Y19.2288 
G01 X-47.7968 Y19.1110 
G01 X-47.7968 Y18.9890 
G01 X-47.8284 Y18.8712 
G01 X-47.8893 Y18.7656 
G01 X-47.9756 Y18.6793 
G01 X-48.0812 Y18.6184 
G01 X-48.1990 Y18.5868 
G01 X-48.3210 Y18.5868 
G01 X-48.4388 Y18.6184 
G01 X-48.5444 Y18.6793 
G01 X-48.6307 Y18.7656 
G01 X-48.6916 Y18.8712 
G01 X-48.7232 Y18.9890 
G00 Z2.5400 
G00 X-23.3514 Y24.1899 
G01 Z-0.1000 F40.00 
G01 X-23.3514 Y27.2593 F208.00 
G01 X-23.3948 Y27.2883 
G01 X-23.5117 Y27.4052 
G01 X-23.6035 Y27.5426 
G01 X-23.6668 Y27.6953 
G01 X-23.6990 Y27.8574 
G01 X-23.6990 Y28.0226 
G01 X-23.6668 Y28.1847 
G01 X-23.6035 Y28.3374 
G01 X-23.5117 Y28.4748 
G01 X-23.3948 Y28.5917 
G01 X-23.2574 Y28.6835 
G01 X-23.1047 Y28.7468 
G01 X-22.9426 Y28.7790 
G01 X-22.7774 Y28.7790 
G01 X-22.6153 Y28.7468 
G01 X-22.4626 Y28.6835 
G01 X-22.3252 Y28.5917 
G01 X-22.2083 Y28.4748 
G01 X-22.1165 Y28.3374 
G01 X-22.0532 Y28.1847 
G01 X-22.0210 Y28.0226 
G01 X-22.0210 Y27.8574 
G01 X-22.0532 Y27.6953 
G01 X-22.1165 Y27.5426 
G01 X-22.2083 Y27.4052 
G01 X-22.3252 Y27.2883 
G01 X-22.3686 Y27.2593 
G01 X-22.3686 Y24.0653 
G01 X-22.4021 Y23.9403 
G01 X-22.4668 Y23.8283 
G01 X-22.5583 Y23.7368 
G01 X-22.6703 Y23.6721 
G01 X-22.7953 Y23.6386 
G01 X-22.8001 Y23.6386 
G01 X-23.6767 Y22.7620 
G01 X-23.6984 Y22.6812 
G01 X-23.7593 Y22.5756 
G01 X-23.8456 Y22.4893 
G01 X-23.9512 Y22.4284 
G01 X-24.0690 Y22.3968 
G01 X-24.1910 Y22.3968 
G01 X-24.3088 Y22.4284 
G01 X-24.4144 Y22.4893 
G01 X-24.5007 Y22.5756 
G01 X-24.5616 Y22.6812 
G01 X-24.5932 Y22.7990 
G01 X-24.5932 Y22.9210 
G01 X-24.5616 Y23.0388 
G01 X-24.5007 Y23.1444 
G01 X-24.4144 Y23.2307 
G01 X-24.3088 Y23.2916 
G01 X-24.2280 Y23.3133 
G01 X-23.3514 Y24.1899 
G00 Z2.5400 
G00 X-64.5200 Y21.7304 
G01 Z-0.1000 F40.00 
G01 X-64.5200 Y21.9096 F208.00 
G01 X-64.4850 Y22.0854 
G01 X-64.4164 Y22.2510 
G01 X-64.3168 Y22.4001 
G01 X-64.1901 Y22.5268 
G01 X-64.0410 Y22.6264 
G01 X-63.8754 Y22.6950 
G01 X-63.6996 Y22.7300 
G01 X-63.5204 Y22.7300 
G01 X-63.3446 Y22.6950 
G01 X-63.3033 Y22.6779 
G01 X-61.3498 Y24.6315 
G01 X-61.3498 Y31.8555 
G01 X-61.4424 Y31.8555 
G01 X-62.1245 Y32.5376 
G01 X-62.1245 Y33.5023 
G01 X-61.4424 Y34.1845 
G01 X-60.4776 Y34.1845 
G01 X-59.7955 Y33.5023 
G01 X-59.7955 Y32.5376 
G01 X-60.4776 Y31.8555 
G01 X-60.5702 Y31.8555 
G01 X-60.5702 Y24.4187 
G01 X-60.5968 Y24.3195 
G01 X-60.6481 Y24.2307 
G01 X-62.7521 Y22.1267 
G01 X-62.7350 Y22.0854 
G01 X-62.7000 Y21.9096 
G01 X-62.7000 Y21.7304 
G01 X-62.7350 Y21.5546 
G01 X-62.8036 Y21.3890 
G01 X-62.9032 Y21.2399 
G01 X-63.0299 Y21.1132 
G01 X-63.1790 Y21.0136 
G01 X-63.3446 Y20.9450 
G01 X-63.5204 Y20.9100 
G01 X-63.6996 Y20.9100 
G01 X-63.8754 Y20.9450 
G01 X-64.0410 Y21.0136 
G01 X-64.1901 Y21.1132 
G01 X-64.3168 Y21.2399 
G01 X-64.4164 Y21.3890 
G01 X-64.4850 Y21.5546 
G01 X-64.5200 Y21.7304 
G00 Z2.5400 
G00 X-64.5200 Y19.2304 
G01 Z-0.1000 F40.00 
G01 X-64.5200 Y19.4096 F208.00 
G01 X-64.4850 Y19.5854 
G01 X-64.4164 Y19.7510 
G01 X-64.3168 Y19.9001 
G01 X-64.1901 Y20.0268 
G01 X-64.0410 Y20.1264 
G01 X-63.8754 Y20.1950 
G01 X-63.6996 Y20.2300 
G01 X-63.5204 Y20.2300 
G01 X-63.3446 Y20.1950 
G01 X-63.1790 Y20.1264 
G01 X-63.0299 Y20.0268 
G01 X-62.9032 Y19.9001 
G01 X-62.8036 Y19.7510 
G01 X-62.7350 Y19.5854 
G01 X-62.7000 Y19.4096 
G01 X-62.7000 Y19.2304 
G01 X-62.7350 Y19.0546 
G01 X-62.8036 Y18.8890 
G01 X-62.9032 Y18.7399 
G01 X-63.0299 Y18.6132 
G01 X-63.1790 Y18.5136 
G01 X-63.3446 Y18.4450 
G01 X-63.5204 Y18.4100 
G01 X-63.6996 Y18.4100 
G01 X-63.8754 Y18.4450 
G01 X-64.0410 Y18.5136 
G01 X-64.1901 Y18.6132 
G01 X-64.3168 Y18.7399 
G01 X-64.4164 Y18.8890 
G01 X-64.4850 Y19.0546 
G01 X-64.5200 Y19.2304 
G00 Z2.5400 
G00 X-46.3990 Y13.2423 
G01 Z-0.1000 F40.00 
G01 X-46.3990 Y13.3977 F208.00 
G01 X-46.3687 Y13.5501 
G01 X-46.3092 Y13.6937 
G01 X-46.2229 Y13.8230 
G01 X-46.1130 Y13.9329 
G01 X-45.9837 Y14.0192 
G01 X-45.8401 Y14.0787 
G01 X-45.6877 Y14.1090 
G01 X-45.5323 Y14.1090 
G01 X-45.3799 Y14.0787 
G01 X-45.2363 Y14.0192 
G01 X-45.1070 Y13.9329 
G01 X-45.0727 Y13.8985 
G01 X-43.6333 Y15.3380 
G01 X-43.6116 Y15.4188 
G01 X-43.5507 Y15.5244 
G01 X-43.4644 Y15.6107 
G01 X-43.3588 Y15.6716 
G01 X-43.2780 Y15.6933 
G01 X-42.9639 Y16.0073 
G01 X-42.8751 Y16.0586 
G01 X-42.7759 Y16.0852 
G01 X-42.6733 Y16.0852 
G01 X-42.5741 Y16.0586 
G01 X-42.4853 Y16.0073 
G01 X-42.4127 Y15.9347 
G01 X-42.3614 Y15.8459 
G01 X-42.3348 Y15.7467 
G01 X-42.3348 Y15.6441 
G01 X-42.3614 Y15.5449 
G01 X-42.4127 Y15.4561 
G01 X-42.7267 Y15.1420 
G01 X-42.7484 Y15.0612 
G01 X-42.8093 Y14.9556 
G01 X-42.8956 Y14.8693 
G01 X-43.0012 Y14.8084 
G01 X-43.0820 Y14.7867 
G01 X-44.8607 Y13.0081 
G01 X-44.8929 Y12.9895 
G01 X-44.9108 Y12.9463 
G01 X-44.9971 Y12.8170 
G01 X-45.1070 Y12.7071 
G01 X-45.2363 Y12.6208 
G01 X-45.3799 Y12.5613 
G01 X-45.5323 Y12.5310 
G01 X-45.6877 Y12.5310 
G01 X-45.8401 Y12.5613 
G01 X-45.9837 Y12.6208 
G01 X-46.1130 Y12.7071 
G01 X-46.2229 Y12.8170 
G01 X-46.3092 Y12.9463 
G01 X-46.3687 Y13.0899 
G01 X-46.3990 Y13.2423 
G00 Z2.5400 
G00 X-46.3990 Y17.2423 
G01 Z-0.1000 F40.00 
G01 X-46.3990 Y17.3977 F208.00 
G01 X-46.3687 Y17.5501 
G01 X-46.3092 Y17.6937 
G01 X-46.2229 Y17.8230 
G01 X-46.1130 Y17.9329 
G01 X-45.9837 Y18.0192 
G01 X-45.8401 Y18.0787 
G01 X-45.6877 Y18.1090 
G01 X-45.5323 Y18.1090 
G01 X-45.3799 Y18.0787 
G01 X-45.2363 Y18.0192 
G01 X-45.1070 Y17.9329 
G01 X-44.9971 Y17.8230 
G01 X-44.9108 Y17.6937 
G01 X-44.8513 Y17.5501 
G01 X-44.8210 Y17.3977 
G01 X-44.8210 Y17.2423 
G01 X-44.8513 Y17.0899 
G01 X-44.9108 Y16.9463 
G01 X-44.9971 Y16.8170 
G01 X-45.1070 Y16.7071 
G01 X-45.2363 Y16.6208 
G01 X-45.3799 Y16.5613 
G01 X-45.5323 Y16.5310 
G01 X-45.6877 Y16.5310 
G01 X-45.8401 Y16.5613 
G01 X-45.9837 Y16.6208 
G01 X-46.1130 Y16.7071 
G01 X-46.2229 Y16.8170 
G01 X-46.3092 Y16.9463 
G01 X-46.3687 Y17.0899 
G01 X-46.3990 Y17.2423 
G00 Z2.5400 
G00 X-46.3687 Y19.5501 
G01 Z-0.1000 F40.00 
G01 X-46.3092 Y19.6937 F208.00 
G01 X-46.2229 Y19.8230 
G01 X-46.1130 Y19.9329 
G01 X-45.9837 Y20.0192 
G01 X-45.8401 Y20.0787 
G01 X-45.6877 Y20.1090 
G01 X-45.5323 Y20.1090 
G01 X-45.3799 Y20.0787 
G01 X-45.2363 Y20.0192 
G01 X-45.1070 Y19.9329 
G01 X-44.9971 Y19.8230 
G01 X-44.9108 Y19.6937 
G01 X-44.8513 Y19.5501 
G01 X-44.8210 Y19.3977 
G01 X-44.8210 Y19.2423 
G01 X-44.8513 Y19.0899 
G01 X-44.9108 Y18.9463 
G01 X-44.9971 Y18.8170 
G01 X-45.1070 Y18.7071 
G01 X-45.2363 Y18.6208 
G01 X-45.3799 Y18.5613 
G01 X-45.5323 Y18.5310 
G01 X-45.6877 Y18.5310 
G01 X-45.8401 Y18.5613 
G01 X-45.9837 Y18.6208 
G01 X-46.0427 Y18.6602 
G01 X-47.4233 Y18.6602 
G01 X-47.5225 Y18.6868 
G01 X-47.6113 Y18.7381 
G01 X-47.6839 Y18.8107 
G01 X-47.7352 Y18.8995 
G01 X-47.7618 Y18.9987 
G01 X-47.7618 Y19.1013 
G01 X-47.7352 Y19.2005 
G01 X-47.6839 Y19.2893 
G01 X-47.6113 Y19.3619 
G01 X-47.5225 Y19.4132 
G01 X-47.4233 Y19.4398 
G01 X-46.3906 Y19.4398 
G01 X-46.3687 Y19.5501 
G00 Z2.5400 
G00 X-7.5145 Y2.0576 
G01 Z-0.1000 F40.00 
G01 X-7.5145 Y3.0224 F208.00 
G01 X-6.8323 Y3.7045 
G01 X-5.8676 Y3.7045 
G01 X-5.1945 Y3.0314 
G01 X-4.4538 Y3.0314 
G01 X-4.4538 Y38.8786 
G01 X-23.7402 Y38.8786 
G01 X-23.7402 Y36.9915 
G01 X-21.4285 Y34.6798 
G01 X-18.9987 Y34.6798 
G01 X-18.8995 Y34.6532 
G01 X-18.8107 Y34.6019 
G01 X-18.7381 Y34.5293 
G01 X-18.6868 Y34.4405 
G01 X-18.6602 Y34.3413 
G01 X-18.6602 Y31.2267 
G01 X-18.6526 Y31.2235 
G01 X-18.5152 Y31.1317 
G01 X-18.3983 Y31.0148 
G01 X-18.3065 Y30.8774 
G01 X-18.2432 Y30.7247 
G01 X-18.2110 Y30.5626 
G01 X-18.2110 Y30.3974 
G01 X-18.2432 Y30.2353 
G01 X-18.3065 Y30.0826 
G01 X-18.3983 Y29.9452 
G01 X-18.5152 Y29.8283 
G01 X-18.6526 Y29.7365 
G01 X-18.8053 Y29.6732 
G01 X-18.9674 Y29.6410 
G01 X-19.1326 Y29.6410 
G01 X-19.2947 Y29.6732 
G01 X-19.4474 Y29.7365 
G01 X-19.5848 Y29.8283 
G01 X-19.7017 Y29.9452 
G01 X-19.7935 Y30.0826 
G01 X-19.8568 Y30.2353 
G01 X-19.8890 Y30.3974 
G01 X-19.8890 Y30.5626 
G01 X-19.8568 Y30.7247 
G01 X-19.7935 Y30.8774 
G01 X-19.7017 Y31.0148 
G01 X-19.5848 Y31.1317 
G01 X-19.4474 Y31.2235 
G01 X-19.4398 Y31.2267 
G01 X-19.4398 Y33.9002 
G01 X-21.6413 Y33.9002 
G01 X-21.7405 Y33.9268 
G01 X-21.8293 Y33.9781 
G01 X-24.3693 Y36.5181 
G01 X-24.4419 Y36.5907 
G01 X-24.4932 Y36.6795 
G01 X-24.5198 Y36.7787 
G01 X-24.5198 Y38.9802 
G01 X-36.4402 Y38.9802 
G01 X-36.4402 Y36.5587 
G01 X-36.4668 Y36.4595 
G01 X-36.5181 Y36.3707 
G01 X-36.5907 Y36.2981 
G01 X-36.6795 Y36.2468 
G01 X-36.7787 Y36.2202 
G01 X-47.8702 Y36.2202 
G01 X-47.8702 Y30.6415 
G01 X-45.3707 Y28.1419 
G01 X-45.2981 Y28.0693 
G01 X-45.2795 Y28.0371 
G01 X-45.2363 Y28.0192 
G01 X-45.1070 Y27.9329 
G01 X-44.9971 Y27.8230 
G01 X-44.9108 Y27.6937 
G01 X-44.8513 Y27.5501 
G01 X-44.8210 Y27.3977 
G01 X-44.8210 Y27.2423 
G01 X-44.8513 Y27.0899 
G01 X-44.9108 Y26.9463 
G01 X-44.9971 Y26.8170 
G01 X-45.1070 Y26.7071 
G01 X-45.2363 Y26.6208 
G01 X-45.3799 Y26.5613 
G01 X-45.5323 Y26.5310 
G01 X-45.6877 Y26.5310 
G01 X-45.8401 Y26.5613 
G01 X-45.9837 Y26.6208 
G01 X-46.1130 Y26.7071 
G01 X-46.2229 Y26.8170 
G01 X-46.3092 Y26.9463 
G01 X-46.3687 Y27.0899 
G01 X-46.3990 Y27.2423 
G01 X-46.3990 Y27.3977 
G01 X-46.3687 Y27.5501 
G01 X-46.3092 Y27.6937 
G01 X-46.2229 Y27.8230 
G01 X-46.1885 Y27.8573 
G01 X-48.4993 Y30.1681 
G01 X-51.0443 Y32.7130 
G01 X-51.0471 Y32.7136 
G01 X-51.2012 Y32.7774 
G01 X-51.3399 Y32.8701 
G01 X-51.4579 Y32.9881 
G01 X-51.5506 Y33.1268 
G01 X-51.6144 Y33.2809 
G01 X-51.6470 Y33.4446 
G01 X-51.6470 Y35.1354 
G01 X-51.6144 Y35.2991 
G01 X-51.5506 Y35.4532 
G01 X-51.4579 Y35.5919 
G01 X-51.3399 Y35.7099 
G01 X-51.2012 Y35.8026 
G01 X-51.0471 Y35.8664 
G01 X-50.8834 Y35.8990 
G01 X-50.7166 Y35.8990 
G01 X-50.5529 Y35.8664 
G01 X-50.3988 Y35.8026 
G01 X-50.2601 Y35.7099 
G01 X-50.1421 Y35.5919 
G01 X-50.0494 Y35.4532 
G01 X-49.9856 Y35.2991 
G01 X-49.9530 Y35.1354 
G01 X-49.9530 Y33.4446 
G01 X-49.9856 Y33.2809 
G01 X-50.0494 Y33.1268 
G01 X-50.1421 Y32.9881 
G01 X-50.1795 Y32.9507 
G01 X-48.6498 Y31.4211 
G01 X-48.6498 Y36.6613 
G01 X-48.6232 Y36.7605 
G01 X-48.5719 Y36.8493 
G01 X-48.4993 Y36.9219 
G01 X-48.4105 Y36.9732 
G01 X-48.3113 Y36.9998 
G01 X-37.2198 Y36.9998 
G01 X-37.2198 Y39.4213 
G01 X-37.1932 Y39.5205 
G01 X-37.1419 Y39.6093 
G01 X-37.0693 Y39.6819 
G01 X-36.9805 Y39.7332 
G01 X-36.8813 Y39.7598 
G01 X-24.4351 Y39.7598 
G01 X-24.4317 Y39.7632 
G01 X-24.3197 Y39.8279 
G01 X-24.1947 Y39.8614 
G01 X-3.8977 Y39.8614 
G01 X-3.7727 Y39.8279 
G01 X-3.6607 Y39.7632 
G01 X-3.5692 Y39.6717 
G01 X-3.5045 Y39.5597 
G01 X-3.4710 Y39.4347 
G01 X-3.4710 Y2.4753 
G01 X-3.5045 Y2.3503 
G01 X-3.5692 Y2.2383 
G01 X-3.6607 Y2.1468 
G01 X-3.7727 Y2.0821 
G01 X-3.8977 Y2.0486 
G01 X-5.1945 Y2.0486 
G01 X-5.8676 Y1.3755 
G01 X-6.8323 Y1.3755 
G01 X-7.5145 Y2.0576 
G00 Z2.5400 
G00 X-42.1966 Y7.4764 
G01 Z-0.1000 F40.00 
G01 X-40.5058 Y7.4764 F208.00 
G01 X-40.3421 Y7.4438 
G01 X-40.1880 Y7.3800 
G01 X-40.0493 Y7.2873 
G01 X-39.9313 Y7.1693 
G01 X-39.8386 Y7.0306 
G01 X-39.7748 Y6.8765 
G01 X-39.7422 Y6.7128 
G01 X-39.7422 Y6.5460 
G01 X-39.7748 Y6.3823 
G01 X-39.8386 Y6.2282 
G01 X-39.9313 Y6.0895 
G01 X-40.0493 Y5.9715 
G01 X-40.1880 Y5.8788 
G01 X-40.3421 Y5.8150 
G01 X-40.5058 Y5.7824 
G01 X-40.9614 Y5.7824 
G01 X-40.9614 Y5.6980 
G01 X-40.7332 Y5.4698 
G01 X-24.4351 Y5.4698 
G01 X-24.4317 Y5.4732 
G01 X-24.3197 Y5.5379 
G01 X-24.1947 Y5.5714 
G01 X-24.0653 Y5.5714 
G01 X-23.9403 Y5.5379 
G01 X-23.8283 Y5.4732 
G01 X-23.8249 Y5.4698 
G01 X-6.7398 Y5.4698 
G01 X-6.7398 Y33.9002 
G01 X-13.3056 Y33.9002 
G01 X-13.5802 Y33.6256 
G01 X-13.5802 Y31.2267 
G01 X-13.5726 Y31.2235 
G01 X-13.4352 Y31.1317 
G01 X-13.3183 Y31.0148 
G01 X-13.2265 Y30.8774 
G01 X-13.1632 Y30.7247 
G01 X-13.1310 Y30.5626 
G01 X-13.1310 Y30.3974 
G01 X-13.1632 Y30.2353 
G01 X-13.2265 Y30.0826 
G01 X-13.3183 Y29.9452 
G01 X-13.4352 Y29.8283 
G01 X-13.5726 Y29.7365 
G01 X-13.7253 Y29.6732 
G01 X-13.8874 Y29.6410 
G01 X-14.0526 Y29.6410 
G01 X-14.2147 Y29.6732 
G01 X-14.3674 Y29.7365 
G01 X-14.5048 Y29.8283 
G01 X-14.6217 Y29.9452 
G01 X-14.7135 Y30.0826 
G01 X-14.7768 Y30.2353 
G01 X-14.8090 Y30.3974 
G01 X-14.8090 Y30.5626 
G01 X-14.7768 Y30.7247 
G01 X-14.7135 Y30.8774 
G01 X-14.6217 Y31.0148 
G01 X-14.5048 Y31.1317 
G01 X-14.3674 Y31.2235 
G01 X-14.3598 Y31.2267 
G01 X-14.3598 Y33.6256 
G01 X-14.7154 Y33.9812 
G01 X-14.7154 Y34.5988 
G01 X-14.2788 Y35.0354 
G01 X-13.6612 Y35.0354 
G01 X-13.3056 Y34.6798 
G01 X-6.2987 Y34.6798 
G01 X-6.1995 Y34.6532 
G01 X-6.1107 Y34.6019 
G01 X-6.0381 Y34.5293 
G01 X-5.9868 Y34.4405 
G01 X-5.9602 Y34.3413 
G01 X-5.9602 Y5.0287 
G01 X-5.9868 Y4.9295 
G01 X-6.0381 Y4.8407 
G01 X-6.1107 Y4.7681 
G01 X-6.1995 Y4.7168 
G01 X-6.2987 Y4.6902 
G01 X-23.6386 Y4.6902 
G01 X-23.6386 Y3.6954 
G01 X-22.9655 Y3.0224 
G01 X-22.9655 Y2.0576 
G01 X-23.6476 Y1.3755 
G01 X-24.6124 Y1.3755 
G01 X-25.2945 Y2.0576 
G01 X-25.2945 Y3.0224 
G01 X-24.6214 Y3.6954 
G01 X-24.6214 Y4.6902 
G01 X-40.9460 Y4.6902 
G01 X-41.0452 Y4.7168 
G01 X-41.1340 Y4.7681 
G01 X-41.2066 Y4.8407 
G01 X-41.6631 Y5.2972 
G01 X-41.7144 Y5.3860 
G01 X-41.7410 Y5.4852 
G01 X-41.7410 Y5.7824 
G01 X-42.1966 Y5.7824 
G01 X-42.3603 Y5.8150 
G01 X-42.5144 Y5.8788 
G01 X-42.6362 Y5.9602 
G01 X-61.0113 Y5.9602 
G01 X-61.1105 Y5.9868 
G01 X-61.1993 Y6.0381 
G01 X-61.2719 Y6.1107 
G01 X-61.3232 Y6.1995 
G01 X-61.3498 Y6.2987 
G01 X-61.3498 Y16.3485 
G01 X-61.4315 Y16.4302 
G01 X-62.7865 Y16.4302 
G01 X-62.8036 Y16.3890 
G01 X-62.9032 Y16.2399 
G01 X-63.0299 Y16.1132 
G01 X-63.1790 Y16.0136 
G01 X-63.3446 Y15.9450 
G01 X-63.5204 Y15.9100 
G01 X-63.6996 Y15.9100 
G01 X-63.8754 Y15.9450 
G01 X-64.0410 Y16.0136 
G01 X-64.1901 Y16.1132 
G01 X-64.3168 Y16.2399 
G01 X-64.4164 Y16.3890 
G01 X-64.4850 Y16.5546 
G01 X-64.5200 Y16.7304 
G01 X-64.5200 Y16.9096 
G01 X-64.4850 Y17.0854 
G01 X-64.4164 Y17.2510 
G01 X-64.3168 Y17.4001 
G01 X-64.1901 Y17.5268 
G01 X-64.0410 Y17.6264 
G01 X-63.8754 Y17.6950 
G01 X-63.6996 Y17.7300 
G01 X-63.5204 Y17.7300 
G01 X-63.3446 Y17.6950 
G01 X-63.1790 Y17.6264 
G01 X-63.0299 Y17.5268 
G01 X-62.9032 Y17.4001 
G01 X-62.8036 Y17.2510 
G01 X-62.7865 Y17.2098 
G01 X-61.2187 Y17.2098 
G01 X-61.1195 Y17.1832 
G01 X-61.0307 Y17.1319 
G01 X-60.9581 Y17.0593 
G01 X-60.9390 Y17.0402 
G01 X-60.6481 Y16.7493 
G01 X-60.5968 Y16.6605 
G01 X-60.5702 Y16.5613 
G01 X-60.5702 Y6.7398 
G01 X-42.9548 Y6.7398 
G01 X-42.9276 Y6.8765 
G01 X-42.8638 Y7.0306 
G01 X-42.7711 Y7.1693 
G01 X-42.6531 Y7.2873 
G01 X-42.5144 Y7.3800 
G01 X-42.3603 Y7.4438 
G01 X-42.1966 Y7.4764 
G00 Z2.5400 
G00 X-42.1966 Y11.9976 
G01 Z-0.1000 F40.00 
G01 X-41.7390 Y11.9976 F208.00 
G01 X-41.7390 Y12.0422 
G01 X-41.7124 Y12.1413 
G01 X-41.6611 Y12.2302 
G01 X-41.5885 Y12.3028 
G01 X-40.8793 Y13.0119 
G01 X-40.7905 Y13.0632 
G01 X-40.6913 Y13.0898 
G01 X-37.2198 Y13.0898 
G01 X-37.2198 Y14.4933 
G01 X-37.2274 Y14.4965 
G01 X-37.3648 Y14.5883 
G01 X-37.4817 Y14.7052 
G01 X-37.5735 Y14.8426 
G01 X-37.6368 Y14.9953 
G01 X-37.6690 Y15.1574 
G01 X-37.6690 Y15.3226 
G01 X-37.6368 Y15.4847 
G01 X-37.5735 Y15.6374 
G01 X-37.4817 Y15.7748 
G01 X-37.3648 Y15.8917 
G01 X-37.2274 Y15.9835 
G01 X-37.0747 Y16.0468 
G01 X-36.9126 Y16.0790 
G01 X-36.7474 Y16.0790 
G01 X-36.5853 Y16.0468 
G01 X-36.4326 Y15.9835 
G01 X-36.2952 Y15.8917 
G01 X-36.1783 Y15.7748 
G01 X-36.0865 Y15.6374 
G01 X-36.0232 Y15.4847 
G01 X-35.9910 Y15.3226 
G01 X-35.9910 Y15.1574 
G01 X-36.0232 Y14.9953 
G01 X-36.0865 Y14.8426 
G01 X-36.1783 Y14.7052 
G01 X-36.2952 Y14.5883 
G01 X-36.4326 Y14.4965 
G01 X-36.4402 Y14.4933 
G01 X-36.4402 Y12.6487 
G01 X-36.4668 Y12.5495 
G01 X-36.5181 Y12.4607 
G01 X-36.5907 Y12.3881 
G01 X-36.6795 Y12.3368 
G01 X-36.7787 Y12.3102 
G01 X-40.4785 Y12.3102 
G01 X-40.7911 Y11.9976 
G01 X-40.5058 Y11.9976 
G01 X-40.3421 Y11.9650 
G01 X-40.1880 Y11.9012 
G01 X-40.0493 Y11.8085 
G01 X-39.9313 Y11.6905 
G01 X-39.8386 Y11.5518 
G01 X-39.7748 Y11.3977 
G01 X-39.7422 Y11.2340 
G01 X-39.7422 Y11.0672 
G01 X-39.7748 Y10.9035 
G01 X-39.8386 Y10.7494 
G01 X-39.9313 Y10.6107 
G01 X-40.0493 Y10.4927 
G01 X-40.1880 Y10.4000 
G01 X-40.3421 Y10.3361 
G01 X-40.5058 Y10.3036 
G01 X-42.1966 Y10.3036 
G01 X-42.3603 Y10.3361 
G01 X-42.5144 Y10.4000 
G01 X-42.6531 Y10.4927 
G01 X-42.7711 Y10.6107 
G01 X-42.8638 Y10.7494 
G01 X-42.9276 Y10.9035 
G01 X-42.9602 Y11.0672 
G01 X-42.9602 Y11.2340 
G01 X-42.9276 Y11.3977 
G01 X-42.8638 Y11.5518 
G01 X-42.7711 Y11.6905 
G01 X-42.6531 Y11.8085 
G01 X-42.5144 Y11.9012 
G01 X-42.3603 Y11.9650 
G01 X-42.1966 Y11.9976 
G00 Z2.5400 
G00 X-35.6942 Y7.4764 
G01 Z-0.1000 F40.00 
G01 X-34.0034 Y7.4764 F208.00 
G01 X-33.8397 Y7.4438 
G01 X-33.6856 Y7.3800 
G01 X-33.5469 Y7.2873 
G01 X-33.4289 Y7.1693 
G01 X-33.3362 Y7.0306 
G01 X-33.2724 Y6.8765 
G01 X-33.2398 Y6.7128 
G01 X-33.2398 Y6.5460 
G01 X-33.2724 Y6.3823 
G01 X-33.3362 Y6.2282 
G01 X-33.4289 Y6.0895 
G01 X-33.5469 Y5.9715 
G01 X-33.6856 Y5.8788 
G01 X-33.8397 Y5.8150 
G01 X-34.0034 Y5.7824 
G01 X-35.6942 Y5.7824 
G01 X-35.8579 Y5.8150 
G01 X-36.0120 Y5.8788 
G01 X-36.1507 Y5.9715 
G01 X-36.2687 Y6.0895 
G01 X-36.3614 Y6.2282 
G01 X-36.4252 Y6.3823 
G01 X-36.4578 Y6.5460 
G01 X-36.4578 Y6.7128 
G01 X-36.4252 Y6.8765 
G01 X-36.3614 Y7.0306 
G01 X-36.2687 Y7.1693 
G01 X-36.1507 Y7.2873 
G01 X-36.0120 Y7.3800 
G01 X-35.8579 Y7.4438 
G01 X-35.6942 Y7.4764 
G00 Z2.5400 
G00 X-35.6942 Y11.9976 
G01 Z-0.1000 F40.00 
G01 X-34.0034 Y11.9976 F208.00 
G01 X-33.8397 Y11.9650 
G01 X-33.6856 Y11.9012 
G01 X-33.5469 Y11.8085 
G01 X-33.4289 Y11.6905 
G01 X-33.3362 Y11.5518 
G01 X-33.2724 Y11.3977 
G01 X-33.2398 Y11.2340 
G01 X-33.2398 Y11.0672 
G01 X-33.2724 Y10.9035 
G01 X-33.3362 Y10.7494 
G01 X-33.4289 Y10.6107 
G01 X-33.5469 Y10.4927 
G01 X-33.6856 Y10.4000 
G01 X-33.8397 Y10.3361 
G01 X-34.0034 Y10.3036 
G01 X-35.6942 Y10.3036 
G01 X-35.8579 Y10.3361 
G01 X-36.0120 Y10.4000 
G01 X-36.1507 Y10.4927 
G01 X-36.2687 Y10.6107 
G01 X-36.3614 Y10.7494 
G01 X-36.4252 Y10.9035 
G01 X-36.4578 Y11.0672 
G01 X-36.4578 Y11.2340 
G01 X-36.4252 Y11.3977 
G01 X-36.3614 Y11.5518 
G01 X-36.2687 Y11.6905 
G01 X-36.1507 Y11.8085 
G01 X-36.0120 Y11.9012 
G01 X-35.8579 Y11.9650 
G01 X-35.6942 Y11.9976 
G00 Z2.5400 
G00 X-28.6854 Y37.1388 
G01 Z-0.1000 F40.00 
G01 X-28.2488 Y37.5754 F208.00 
G01 X-27.6312 Y37.5754 
G01 X-27.1946 Y37.1388 
G01 X-27.1946 Y36.5212 
G01 X-27.6312 Y36.0846 
G01 X-28.1341 Y36.0846 
G01 X-28.8202 Y35.3985 
G01 X-28.8202 Y34.5412 
G01 X-28.7784 Y34.4688 
G01 X-28.7468 Y34.3510 
G01 X-28.7468 Y34.2290 
G01 X-28.7784 Y34.1112 
G01 X-28.8393 Y34.0056 
G01 X-28.9256 Y33.9193 
G01 X-29.0312 Y33.8584 
G01 X-29.1490 Y33.8268 
G01 X-29.2710 Y33.8268 
G01 X-29.3888 Y33.8584 
G01 X-29.4944 Y33.9193 
G01 X-29.5807 Y34.0056 
G01 X-29.6416 Y34.1112 
G01 X-29.6732 Y34.2290 
G01 X-29.6732 Y34.3510 
G01 X-29.6416 Y34.4688 
G01 X-29.5998 Y34.5412 
G01 X-29.5998 Y35.6113 
G01 X-29.5732 Y35.7105 
G01 X-29.5219 Y35.7993 
G01 X-29.4493 Y35.8719 
G01 X-28.6854 Y36.6359 
G01 X-28.6854 Y37.1388 
G00 Z2.5400 
G00 X-21.0654 Y36.5212 
G01 Z-0.1000 F40.00 
G01 X-21.0654 Y37.1388 F208.00 
G01 X-20.6288 Y37.5754 
G01 X-20.0112 Y37.5754 
G01 X-19.6556 Y37.2198 
G01 X-14.6344 Y37.2198 
G01 X-14.2788 Y37.5754 
G01 X-13.6612 Y37.5754 
G01 X-13.2246 Y37.1388 
G01 X-13.2246 Y36.5212 
G01 X-13.6612 Y36.0846 
G01 X-14.2788 Y36.0846 
G01 X-14.6344 Y36.4402 
G01 X-19.6556 Y36.4402 
G01 X-20.0112 Y36.0846 
G01 X-20.6288 Y36.0846 
G01 X-21.0654 Y36.5212 
G00 Z2.5400 
G00 X-24.9690 Y15.1574 
G01 Z-0.1000 F40.00 
G01 X-24.9690 Y15.3226 F208.00 
G01 X-24.9368 Y15.4847 
G01 X-24.8735 Y15.6374 
G01 X-24.7817 Y15.7748 
G01 X-24.6648 Y15.8917 
G01 X-24.5274 Y15.9835 
G01 X-24.3747 Y16.0468 
G01 X-24.2126 Y16.0790 
G01 X-24.0474 Y16.0790 
G01 X-23.8853 Y16.0468 
G01 X-23.7326 Y15.9835 
G01 X-23.5952 Y15.8917 
G01 X-23.4783 Y15.7748 
G01 X-23.3865 Y15.6374 
G01 X-23.3232 Y15.4847 
G01 X-23.2910 Y15.3226 
G01 X-23.2910 Y15.1574 
G01 X-23.3232 Y14.9953 
G01 X-23.3865 Y14.8426 
G01 X-23.4783 Y14.7052 
G01 X-23.5952 Y14.5883 
G01 X-23.7326 Y14.4965 
G01 X-23.8853 Y14.4332 
G01 X-24.0474 Y14.4010 
G01 X-24.2126 Y14.4010 
G01 X-24.3747 Y14.4332 
G01 X-24.5274 Y14.4965 
G01 X-24.6648 Y14.5883 
G01 X-24.7817 Y14.7052 
G01 X-24.8735 Y14.8426 
G01 X-24.9368 Y14.9953 
G01 X-24.9690 Y15.1574 
G00 Z2.5400 
G00 X-17.3490 Y15.1574 
G01 Z-0.1000 F40.00 
G01 X-17.3490 Y15.3226 F208.00 
G01 X-17.3168 Y15.4847 
G01 X-17.2535 Y15.6374 
G01 X-17.1617 Y15.7748 
G01 X-17.0448 Y15.8917 
G01 X-16.9074 Y15.9835 
G01 X-16.7547 Y16.0468 
G01 X-16.5926 Y16.0790 
G01 X-16.4274 Y16.0790 
G01 X-16.2653 Y16.0468 
G01 X-16.1126 Y15.9835 
G01 X-15.9752 Y15.8917 
G01 X-15.8583 Y15.7748 
G01 X-15.7665 Y15.6374 
G01 X-15.7032 Y15.4847 
G01 X-15.6710 Y15.3226 
G01 X-15.6710 Y15.1574 
G01 X-15.7032 Y14.9953 
G01 X-15.7665 Y14.8426 
G01 X-15.8583 Y14.7052 
G01 X-15.9752 Y14.5883 
G01 X-16.1126 Y14.4965 
G01 X-16.2653 Y14.4332 
G01 X-16.4274 Y14.4010 
G01 X-16.5926 Y14.4010 
G01 X-16.7547 Y14.4332 
G01 X-16.9074 Y14.4965 
G01 X-17.0448 Y14.5883 
G01 X-17.1617 Y14.7052 
G01 X-17.2535 Y14.8426 
G01 X-17.3168 Y14.9953 
G01 X-17.3490 Y15.1574 
G00 Z2.5400 
G00 X-12.2690 Y15.1574 
G01 Z-0.1000 F40.00 
G01 X-12.2690 Y15.3226 F208.00 
G01 X-12.2368 Y15.4847 
G01 X-12.1735 Y15.6374 
G01 X-12.0817 Y15.7748 
G01 X-11.9648 Y15.8917 
G01 X-11.8274 Y15.9835 
G01 X-11.6747 Y16.0468 
G01 X-11.5126 Y16.0790 
G01 X-11.3474 Y16.0790 
G01 X-11.1853 Y16.0468 
G01 X-11.0326 Y15.9835 
G01 X-10.8952 Y15.8917 
G01 X-10.7783 Y15.7748 
G01 X-10.6865 Y15.6374 
G01 X-10.6232 Y15.4847 
G01 X-10.5910 Y15.3226 
G01 X-10.5910 Y15.1574 
G01 X-10.6232 Y14.9953 
G01 X-10.6865 Y14.8426 
G01 X-10.7783 Y14.7052 
G01 X-10.8952 Y14.5883 
G01 X-11.0326 Y14.4965 
G01 X-11.1853 Y14.4332 
G01 X-11.3474 Y14.4010 
G01 X-11.5126 Y14.4010 
G01 X-11.6747 Y14.4332 
G01 X-11.8274 Y14.4965 
G01 X-11.9648 Y14.5883 
G01 X-12.0817 Y14.7052 
G01 X-12.1735 Y14.8426 
G01 X-12.2368 Y14.9953 
G01 X-12.2690 Y15.1574 
G00 Z2.5400 
G00 X-14.8090 Y15.1574 
G01 Z-0.1000 F40.00 
G01 X-14.8090 Y15.3226 F208.00 
G01 X-14.7768 Y15.4847 
G01 X-14.7135 Y15.6374 
G01 X-14.6217 Y15.7748 
G01 X-14.5048 Y15.8917 
G01 X-14.3674 Y15.9835 
G01 X-14.2147 Y16.0468 
G01 X-14.0526 Y16.0790 
G01 X-13.8874 Y16.0790 
G01 X-13.7253 Y16.0468 
G01 X-13.5726 Y15.9835 
G01 X-13.4352 Y15.8917 
G01 X-13.3183 Y15.7748 
G01 X-13.2265 Y15.6374 
G01 X-13.1632 Y15.4847 
G01 X-13.1310 Y15.3226 
G01 X-13.1310 Y15.1574 
G01 X-13.1632 Y14.9953 
G01 X-13.2265 Y14.8426 
G01 X-13.3183 Y14.7052 
G01 X-13.4352 Y14.5883 
G01 X-13.5726 Y14.4965 
G01 X-13.7253 Y14.4332 
G01 X-13.8874 Y14.4010 
G01 X-14.0526 Y14.4010 
G01 X-14.2147 Y14.4332 
G01 X-14.3674 Y14.4965 
G01 X-14.5048 Y14.5883 
G01 X-14.6217 Y14.7052 
G01 X-14.7135 Y14.8426 
G01 X-14.7768 Y14.9953 
G01 X-14.8090 Y15.1574 
G00 Z2.5400 
G00 X-19.8890 Y15.1574 
G01 Z-0.1000 F40.00 
G01 X-19.8890 Y15.3226 F208.00 
G01 X-19.8568 Y15.4847 
G01 X-19.7935 Y15.6374 
G01 X-19.7017 Y15.7748 
G01 X-19.5848 Y15.8917 
G01 X-19.4474 Y15.9835 
G01 X-19.2947 Y16.0468 
G01 X-19.1326 Y16.0790 
G01 X-18.9674 Y16.0790 
G01 X-18.8053 Y16.0468 
G01 X-18.6526 Y15.9835 
G01 X-18.5152 Y15.8917 
G01 X-18.3983 Y15.7748 
G01 X-18.3065 Y15.6374 
G01 X-18.2432 Y15.4847 
G01 X-18.2110 Y15.3226 
G01 X-18.2110 Y15.1574 
G01 X-18.2432 Y14.9953 
G01 X-18.3065 Y14.8426 
G01 X-18.3983 Y14.7052 
G01 X-18.5152 Y14.5883 
G01 X-18.6526 Y14.4965 
G01 X-18.8053 Y14.4332 
G01 X-18.9674 Y14.4010 
G01 X-19.1326 Y14.4010 
G01 X-19.2947 Y14.4332 
G01 X-19.4474 Y14.4965 
G01 X-19.5848 Y14.5883 
G01 X-19.7017 Y14.7052 
G01 X-19.7935 Y14.8426 
G01 X-19.8568 Y14.9953 
G01 X-19.8890 Y15.1574 
G00 Z2.5400 
G00 X-22.4290 Y15.1574 
G01 Z-0.1000 F40.00 
G01 X-22.4290 Y15.3226 F208.00 
G01 X-22.3968 Y15.4847 
G01 X-22.3335 Y15.6374 
G01 X-22.2417 Y15.7748 
G01 X-22.1248 Y15.8917 
G01 X-21.9874 Y15.9835 
G01 X-21.8347 Y16.0468 
G01 X-21.6726 Y16.0790 
G01 X-21.5074 Y16.0790 
G01 X-21.3453 Y16.0468 
G01 X-21.1926 Y15.9835 
G01 X-21.0552 Y15.8917 
G01 X-20.9383 Y15.7748 
G01 X-20.8465 Y15.6374 
G01 X-20.7832 Y15.4847 
G01 X-20.7510 Y15.3226 
G01 X-20.7510 Y15.1574 
G01 X-20.7832 Y14.9953 
G01 X-20.8465 Y14.8426 
G01 X-20.9383 Y14.7052 
G01 X-21.0552 Y14.5883 
G01 X-21.1926 Y14.4965 
G01 X-21.2002 Y14.4933 
G01 X-21.2002 Y8.8387 
G01 X-21.2268 Y8.7395 
G01 X-21.2781 Y8.6507 
G01 X-21.3507 Y8.5781 
G01 X-21.4395 Y8.5268 
G01 X-21.5387 Y8.5002 
G01 X-50.7413 Y8.5002 
G01 X-50.8405 Y8.5268 
G01 X-50.9293 Y8.5781 
G01 X-51.0019 Y8.6507 
G01 X-51.0532 Y8.7395 
G01 X-51.0798 Y8.8387 
G01 X-51.0798 Y15.3713 
G01 X-51.0532 Y15.4705 
G01 X-51.0019 Y15.5593 
G01 X-50.9293 Y15.6319 
G01 X-50.8405 Y15.6832 
G01 X-50.7413 Y15.7098 
G01 X-46.2985 Y15.7098 
G01 X-46.2229 Y15.8230 
G01 X-46.1130 Y15.9329 
G01 X-45.9837 Y16.0192 
G01 X-45.8401 Y16.0787 
G01 X-45.6877 Y16.1090 
G01 X-45.5323 Y16.1090 
G01 X-45.3799 Y16.0787 
G01 X-45.2363 Y16.0192 
G01 X-45.1070 Y15.9329 
G01 X-44.9971 Y15.8230 
G01 X-44.9108 Y15.6937 
G01 X-44.8513 Y15.5501 
G01 X-44.8210 Y15.3977 
G01 X-44.8210 Y15.2423 
G01 X-44.8513 Y15.0899 
G01 X-44.9108 Y14.9463 
G01 X-44.9971 Y14.8170 
G01 X-45.1070 Y14.7071 
G01 X-45.2363 Y14.6208 
G01 X-45.3799 Y14.5613 
G01 X-45.5323 Y14.5310 
G01 X-45.6877 Y14.5310 
G01 X-45.8401 Y14.5613 
G01 X-45.9837 Y14.6208 
G01 X-46.1130 Y14.7071 
G01 X-46.2229 Y14.8170 
G01 X-46.2985 Y14.9302 
G01 X-50.3002 Y14.9302 
G01 X-50.3002 Y9.2798 
G01 X-21.9798 Y9.2798 
G01 X-21.9798 Y14.4933 
G01 X-21.9874 Y14.4965 
G01 X-22.1248 Y14.5883 
G01 X-22.2417 Y14.7052 
G01 X-22.3335 Y14.8426 
G01 X-22.3968 Y14.9953 
G01 X-22.4290 Y15.1574 
G00 Z2.5400 
G00 X-27.5090 Y15.1574 
G01 Z-0.1000 F40.00 
G01 X-27.5090 Y15.3226 F208.00 
G01 X-27.4768 Y15.4847 
G01 X-27.4135 Y15.6374 
G01 X-27.3217 Y15.7748 
G01 X-27.2048 Y15.8917 
G01 X-27.0674 Y15.9835 
G01 X-27.0598 Y15.9867 
G01 X-27.0598 Y17.6185 
G01 X-29.4493 Y20.0081 
G01 X-29.5219 Y20.0807 
G01 X-29.5732 Y20.1695 
G01 X-29.5998 Y20.2687 
G01 X-29.5998 Y26.4188 
G01 X-29.6416 Y26.4912 
G01 X-29.6732 Y26.6090 
G01 X-29.6732 Y26.7310 
G01 X-29.6416 Y26.8488 
G01 X-29.5807 Y26.9544 
G01 X-29.4944 Y27.0407 
G01 X-29.3888 Y27.1016 
G01 X-29.2710 Y27.1332 
G01 X-29.1490 Y27.1332 
G01 X-29.0312 Y27.1016 
G01 X-28.9256 Y27.0407 
G01 X-28.8393 Y26.9544 
G01 X-28.7784 Y26.8488 
G01 X-28.7468 Y26.7310 
G01 X-28.7468 Y26.6090 
G01 X-28.7784 Y26.4912 
G01 X-28.8202 Y26.4188 
G01 X-28.8202 Y20.4815 
G01 X-26.3581 Y18.0193 
G01 X-26.3068 Y17.9305 
G01 X-26.2802 Y17.8313 
G01 X-26.2802 Y15.9867 
G01 X-26.2726 Y15.9835 
G01 X-26.1352 Y15.8917 
G01 X-26.0183 Y15.7748 
G01 X-25.9265 Y15.6374 
G01 X-25.8632 Y15.4847 
G01 X-25.8310 Y15.3226 
G01 X-25.8310 Y15.1574 
G01 X-25.8632 Y14.9953 
G01 X-25.9265 Y14.8426 
G01 X-26.0183 Y14.7052 
G01 X-26.1352 Y14.5883 
G01 X-26.2726 Y14.4965 
G01 X-26.4253 Y14.4332 
G01 X-26.5874 Y14.4010 
G01 X-26.7526 Y14.4010 
G01 X-26.9147 Y14.4332 
G01 X-27.0674 Y14.4965 
G01 X-27.2048 Y14.5883 
G01 X-27.3217 Y14.7052 
G01 X-27.4135 Y14.8426 
G01 X-27.4768 Y14.9953 
G01 X-27.5090 Y15.1574 
G00 Z2.5400 
G00 X-30.0490 Y15.1574 
G01 Z-0.1000 F40.00 
G01 X-30.0490 Y15.3226 F208.00 
G01 X-30.0168 Y15.4847 
G01 X-29.9535 Y15.6374 
G01 X-29.8617 Y15.7748 
G01 X-29.7448 Y15.8917 
G01 X-29.6074 Y15.9835 
G01 X-29.4547 Y16.0468 
G01 X-29.2926 Y16.0790 
G01 X-29.1274 Y16.0790 
G01 X-28.9653 Y16.0468 
G01 X-28.8126 Y15.9835 
G01 X-28.6752 Y15.8917 
G01 X-28.5583 Y15.7748 
G01 X-28.4665 Y15.6374 
G01 X-28.4032 Y15.4847 
G01 X-28.3710 Y15.3226 
G01 X-28.3710 Y15.1574 
G01 X-28.4032 Y14.9953 
G01 X-28.4665 Y14.8426 
G01 X-28.5583 Y14.7052 
G01 X-28.6752 Y14.5883 
G01 X-28.8126 Y14.4965 
G01 X-28.9653 Y14.4332 
G01 X-29.1274 Y14.4010 
G01 X-29.2926 Y14.4010 
G01 X-29.4547 Y14.4332 
G01 X-29.6074 Y14.4965 
G01 X-29.7448 Y14.5883 
G01 X-29.8617 Y14.7052 
G01 X-29.9535 Y14.8426 
G01 X-30.0168 Y14.9953 
G01 X-30.0490 Y15.1574 
G00 Z2.5400 
G00 X-32.5890 Y15.1574 
G01 Z-0.1000 F40.00 
G01 X-32.5890 Y15.3226 F208.00 
G01 X-32.5568 Y15.4847 
G01 X-32.4935 Y15.6374 
G01 X-32.4017 Y15.7748 
G01 X-32.2848 Y15.8917 
G01 X-32.1474 Y15.9835 
G01 X-31.9947 Y16.0468 
G01 X-31.8326 Y16.0790 
G01 X-31.6674 Y16.0790 
G01 X-31.5053 Y16.0468 
G01 X-31.3526 Y15.9835 
G01 X-31.2152 Y15.8917 
G01 X-31.0983 Y15.7748 
G01 X-31.0065 Y15.6374 
G01 X-30.9432 Y15.4847 
G01 X-30.9110 Y15.3226 
G01 X-30.9110 Y15.1574 
G01 X-30.9432 Y14.9953 
G01 X-31.0065 Y14.8426 
G01 X-31.0983 Y14.7052 
G01 X-31.2152 Y14.5883 
G01 X-31.3526 Y14.4965 
G01 X-31.5053 Y14.4332 
G01 X-31.6674 Y14.4010 
G01 X-31.8326 Y14.4010 
G01 X-31.9947 Y14.4332 
G01 X-32.1474 Y14.4965 
G01 X-32.2848 Y14.5883 
G01 X-32.4017 Y14.7052 
G01 X-32.4935 Y14.8426 
G01 X-32.5568 Y14.9953 
G01 X-32.5890 Y15.1574 
G00 Z2.5400 
G00 X-35.1290 Y15.1574 
G01 Z-0.1000 F40.00 
G01 X-35.1290 Y15.3226 F208.00 
G01 X-35.0968 Y15.4847 
G01 X-35.0335 Y15.6374 
G01 X-34.9417 Y15.7748 
G01 X-34.8248 Y15.8917 
G01 X-34.6874 Y15.9835 
G01 X-34.5347 Y16.0468 
G01 X-34.3726 Y16.0790 
G01 X-34.2074 Y16.0790 
G01 X-34.0453 Y16.0468 
G01 X-33.8926 Y15.9835 
G01 X-33.7552 Y15.8917 
G01 X-33.6383 Y15.7748 
G01 X-33.5465 Y15.6374 
G01 X-33.4832 Y15.4847 
G01 X-33.4510 Y15.3226 
G01 X-33.4510 Y15.1574 
G01 X-33.4832 Y14.9953 
G01 X-33.5465 Y14.8426 
G01 X-33.6383 Y14.7052 
G01 X-33.7552 Y14.5883 
G01 X-33.8926 Y14.4965 
G01 X-34.0453 Y14.4332 
G01 X-34.2074 Y14.4010 
G01 X-34.3726 Y14.4010 
G01 X-34.5347 Y14.4332 
G01 X-34.6874 Y14.4965 
G01 X-34.8248 Y14.5883 
G01 X-34.9417 Y14.7052 
G01 X-35.0335 Y14.8426 
G01 X-35.0968 Y14.9953 
G01 X-35.1290 Y15.1574 
G00 Z2.5400 
G00 X-40.2090 Y15.1574 
G01 Z-0.1000 F40.00 
G01 X-40.2090 Y15.3226 F208.00 
G01 X-40.1768 Y15.4847 
G01 X-40.1135 Y15.6374 
G01 X-40.0217 Y15.7748 
G01 X-39.9048 Y15.8917 
G01 X-39.7674 Y15.9835 
G01 X-39.6147 Y16.0468 
G01 X-39.4526 Y16.0790 
G01 X-39.2874 Y16.0790 
G01 X-39.1253 Y16.0468 
G01 X-38.9726 Y15.9835 
G01 X-38.8352 Y15.8917 
G01 X-38.7183 Y15.7748 
G01 X-38.6265 Y15.6374 
G01 X-38.5632 Y15.4847 
G01 X-38.5310 Y15.3226 
G01 X-38.5310 Y15.1574 
G01 X-38.5632 Y14.9953 
G01 X-38.6265 Y14.8426 
G01 X-38.7183 Y14.7052 
G01 X-38.8352 Y14.5883 
G01 X-38.9726 Y14.4965 
G01 X-39.1253 Y14.4332 
G01 X-39.2874 Y14.4010 
G01 X-39.4526 Y14.4010 
G01 X-39.6147 Y14.4332 
G01 X-39.7674 Y14.4965 
G01 X-39.9048 Y14.5883 
G01 X-40.0217 Y14.7052 
G01 X-40.1135 Y14.8426 
G01 X-40.1768 Y14.9953 
G01 X-40.2090 Y15.1574 
G00 Z2.5400 
G00 X-21.1590 Y27.8574 
G01 Z-0.1000 F40.00 
G01 X-21.1590 Y28.0226 F208.00 
G01 X-21.1268 Y28.1847 
G01 X-21.0635 Y28.3374 
G01 X-20.9717 Y28.4748 
G01 X-20.8548 Y28.5917 
G01 X-20.7174 Y28.6835 
G01 X-20.5647 Y28.7468 
G01 X-20.4026 Y28.7790 
G01 X-20.2374 Y28.7790 
G01 X-20.0753 Y28.7468 
G01 X-19.9226 Y28.6835 
G01 X-19.7852 Y28.5917 
G01 X-19.6683 Y28.4748 
G01 X-19.5765 Y28.3374 
G01 X-19.5132 Y28.1847 
G01 X-19.4810 Y28.0226 
G01 X-19.4810 Y27.8574 
G01 X-19.5029 Y27.7471 
G01 X-19.4709 Y27.7385 
G01 X-19.3589 Y27.6738 
G01 X-19.2674 Y27.5823 
G01 X-19.2027 Y27.4703 
G01 X-19.1692 Y27.3453 
G01 X-19.1692 Y23.3076 
G01 X-19.1110 Y23.3232 
G01 X-18.9890 Y23.3232 
G01 X-18.8712 Y23.2916 
G01 X-18.7656 Y23.2307 
G01 X-18.6793 Y23.1444 
G01 X-18.6184 Y23.0388 
G01 X-18.5868 Y22.9210 
G01 X-18.5868 Y22.7990 
G01 X-18.6184 Y22.6812 
G01 X-18.6793 Y22.5756 
G01 X-18.7656 Y22.4893 
G01 X-18.8712 Y22.4284 
G01 X-18.9890 Y22.3968 
G01 X-19.1110 Y22.3968 
G01 X-19.2288 Y22.4284 
G01 X-19.3344 Y22.4893 
G01 X-19.3589 Y22.4668 
G01 X-19.4709 Y22.4021 
G01 X-19.5959 Y22.3686 
G01 X-19.7253 Y22.3686 
G01 X-19.8503 Y22.4021 
G01 X-19.9623 Y22.4668 
G01 X-20.0538 Y22.5583 
G01 X-20.1185 Y22.6703 
G01 X-20.1520 Y22.7953 
G01 X-20.1520 Y27.1180 
G01 X-20.2374 Y27.1010 
G01 X-20.4026 Y27.1010 
G01 X-20.5647 Y27.1332 
G01 X-20.7174 Y27.1965 
G01 X-20.8548 Y27.2883 
G01 X-20.9717 Y27.4052 
G01 X-21.0635 Y27.5426 
G01 X-21.1268 Y27.6953 
G01 X-21.1590 Y27.8574 
G00 Z2.5400 
G00 X-9.7290 Y16.4274 
G01 Z-0.1000 F40.00 
G01 X-9.7290 Y16.5926 F208.00 
G01 X-9.6968 Y16.7547 
G01 X-9.6335 Y16.9074 
G01 X-9.5417 Y17.0448 
G01 X-9.4248 Y17.1617 
G01 X-9.2874 Y17.2535 
G01 X-9.1347 Y17.3168 
G01 X-8.9726 Y17.3490 
G01 X-8.8074 Y17.3490 
G01 X-8.6453 Y17.3168 
G01 X-8.4926 Y17.2535 
G01 X-8.3552 Y17.1617 
G01 X-8.2383 Y17.0448 
G01 X-8.1465 Y16.9074 
G01 X-8.0832 Y16.7547 
G01 X-8.0510 Y16.5926 
G01 X-8.0510 Y16.4274 
G01 X-8.0832 Y16.2653 
G01 X-8.1465 Y16.1126 
G01 X-8.2383 Y15.9752 
G01 X-8.3552 Y15.8583 
G01 X-8.4926 Y15.7665 
G01 X-8.6453 Y15.7032 
G01 X-8.8074 Y15.6710 
G01 X-8.9726 Y15.6710 
G01 X-9.1347 Y15.7032 
G01 X-9.2874 Y15.7665 
G01 X-9.4248 Y15.8583 
G01 X-9.5417 Y15.9752 
G01 X-9.6335 Y16.1126 
G01 X-9.6968 Y16.2653 
G01 X-9.7290 Y16.4274 
G00 Z2.5400 
G00 X-9.7290 Y18.9674 
G01 Z-0.1000 F40.00 
G01 X-9.7290 Y19.1326 F208.00 
G01 X-9.6968 Y19.2947 
G01 X-9.6335 Y19.4474 
G01 X-9.5417 Y19.5848 
G01 X-9.4248 Y19.7017 
G01 X-9.2874 Y19.7935 
G01 X-9.1347 Y19.8568 
G01 X-8.9726 Y19.8890 
G01 X-8.8074 Y19.8890 
G01 X-8.6453 Y19.8568 
G01 X-8.4926 Y19.7935 
G01 X-8.3552 Y19.7017 
G01 X-8.2383 Y19.5848 
G01 X-8.1465 Y19.4474 
G01 X-8.0832 Y19.2947 
G01 X-8.0510 Y19.1326 
G01 X-8.0510 Y18.9674 
G01 X-8.0832 Y18.8053 
G01 X-8.1465 Y18.6526 
G01 X-8.2383 Y18.5152 
G01 X-8.3552 Y18.3983 
G01 X-8.4926 Y18.3065 
G01 X-8.6453 Y18.2432 
G01 X-8.8074 Y18.2110 
G01 X-8.9726 Y18.2110 
G01 X-9.1347 Y18.2432 
G01 X-9.2874 Y18.3065 
G01 X-9.4248 Y18.3983 
G01 X-9.5417 Y18.5152 
G01 X-9.6335 Y18.6526 
G01 X-9.6968 Y18.8053 
G01 X-9.7290 Y18.9674 
G00 Z2.5400 
G00 X-9.7290 Y21.5074 
G01 Z-0.1000 F40.00 
G01 X-9.7290 Y21.6726 F208.00 
G01 X-9.6968 Y21.8347 
G01 X-9.6335 Y21.9874 
G01 X-9.5417 Y22.1248 
G01 X-9.4248 Y22.2417 
G01 X-9.2874 Y22.3335 
G01 X-9.1347 Y22.3968 
G01 X-8.9726 Y22.4290 
G01 X-8.8074 Y22.4290 
G01 X-8.6453 Y22.3968 
G01 X-8.4926 Y22.3335 
G01 X-8.3552 Y22.2417 
G01 X-8.2383 Y22.1248 
G01 X-8.1465 Y21.9874 
G01 X-8.0832 Y21.8347 
G01 X-8.0510 Y21.6726 
G01 X-8.0510 Y21.5074 
G01 X-8.0832 Y21.3453 
G01 X-8.1465 Y21.1926 
G01 X-8.2383 Y21.0552 
G01 X-8.3552 Y20.9383 
G01 X-8.4926 Y20.8465 
G01 X-8.6453 Y20.7832 
G01 X-8.8074 Y20.7510 
G01 X-8.9726 Y20.7510 
G01 X-9.1347 Y20.7832 
G01 X-9.2874 Y20.8465 
G01 X-9.4248 Y20.9383 
G01 X-9.5417 Y21.0552 
G01 X-9.6335 Y21.1926 
G01 X-9.6968 Y21.3453 
G01 X-9.7290 Y21.5074 
G00 Z2.5400 
G00 X-9.7290 Y24.0474 
G01 Z-0.1000 F40.00 
G01 X-9.7290 Y24.2126 F208.00 
G01 X-9.6968 Y24.3747 
G01 X-9.6335 Y24.5274 
G01 X-9.5417 Y24.6648 
G01 X-9.4248 Y24.7817 
G01 X-9.2874 Y24.8735 
G01 X-9.1347 Y24.9368 
G01 X-8.9726 Y24.9690 
G01 X-8.8074 Y24.9690 
G01 X-8.6453 Y24.9368 
G01 X-8.4926 Y24.8735 
G01 X-8.3552 Y24.7817 
G01 X-8.2383 Y24.6648 
G01 X-8.1465 Y24.5274 
G01 X-8.0832 Y24.3747 
G01 X-8.0510 Y24.2126 
G01 X-8.0510 Y24.0474 
G01 X-8.0832 Y23.8853 
G01 X-8.1465 Y23.7326 
G01 X-8.2383 Y23.5952 
G01 X-8.3552 Y23.4783 
G01 X-8.4926 Y23.3865 
G01 X-8.6453 Y23.3232 
G01 X-8.8074 Y23.2910 
G01 X-8.9726 Y23.2910 
G01 X-9.1347 Y23.3232 
G01 X-9.2874 Y23.3865 
G01 X-9.4248 Y23.4783 
G01 X-9.5417 Y23.5952 
G01 X-9.6335 Y23.7326 
G01 X-9.6968 Y23.8853 
G01 X-9.7290 Y24.0474 
G00 Z2.5400 
G00 X-9.7290 Y26.5874 
G01 Z-0.1000 F40.00 
G01 X-9.7290 Y26.7526 F208.00 
G01 X-9.6968 Y26.9147 
G01 X-9.6335 Y27.0674 
G01 X-9.5417 Y27.2048 
G01 X-9.4248 Y27.3217 
G01 X-9.2874 Y27.4135 
G01 X-9.1347 Y27.4768 
G01 X-8.9726 Y27.5090 
G01 X-8.8074 Y27.5090 
G01 X-8.6453 Y27.4768 
G01 X-8.4926 Y27.4135 
G01 X-8.3552 Y27.3217 
G01 X-8.2383 Y27.2048 
G01 X-8.1465 Y27.0674 
G01 X-8.0832 Y26.9147 
G01 X-8.0510 Y26.7526 
G01 X-8.0510 Y26.5874 
G01 X-8.0832 Y26.4253 
G01 X-8.1465 Y26.2726 
G01 X-8.2383 Y26.1352 
G01 X-8.3552 Y26.0183 
G01 X-8.4926 Y25.9265 
G01 X-8.6453 Y25.8632 
G01 X-8.8074 Y25.8310 
G01 X-8.9726 Y25.8310 
G01 X-9.1347 Y25.8632 
G01 X-9.2874 Y25.9265 
G01 X-9.4248 Y26.0183 
G01 X-9.5417 Y26.1352 
G01 X-9.6335 Y26.2726 
G01 X-9.6968 Y26.4253 
G01 X-9.7290 Y26.5874 
G00 Z2.5400 
G00 X-9.7290 Y29.1274 
G01 Z-0.1000 F40.00 
G01 X-9.7290 Y29.2926 F208.00 
G01 X-9.6968 Y29.4547 
G01 X-9.6335 Y29.6074 
G01 X-9.5417 Y29.7448 
G01 X-9.4248 Y29.8617 
G01 X-9.2874 Y29.9535 
G01 X-9.1347 Y30.0168 
G01 X-8.9726 Y30.0490 
G01 X-8.8074 Y30.0490 
G01 X-8.6453 Y30.0168 
G01 X-8.4926 Y29.9535 
G01 X-8.3552 Y29.8617 
G01 X-8.2383 Y29.7448 
G01 X-8.1465 Y29.6074 
G01 X-8.0832 Y29.4547 
G01 X-8.0510 Y29.2926 
G01 X-8.0510 Y29.1274 
G01 X-8.0832 Y28.9653 
G01 X-8.1465 Y28.8126 
G01 X-8.2383 Y28.6752 
G01 X-8.3552 Y28.5583 
G01 X-8.4926 Y28.4665 
G01 X-8.6453 Y28.4032 
G01 X-8.8074 Y28.3710 
G01 X-8.9726 Y28.3710 
G01 X-9.1347 Y28.4032 
G01 X-9.2874 Y28.4665 
G01 X-9.4248 Y28.5583 
G01 X-9.5417 Y28.6752 
G01 X-9.6335 Y28.8126 
G01 X-9.6968 Y28.9653 
G01 X-9.7290 Y29.1274 
G00 Z2.5400 
G00 X-40.2090 Y22.7774 
G01 Z-0.1000 F40.00 
G01 X-40.2090 Y22.9426 F208.00 
G01 X-40.1768 Y23.1047 
G01 X-40.1135 Y23.2574 
G01 X-40.0217 Y23.3948 
G01 X-39.9048 Y23.5117 
G01 X-39.7674 Y23.6035 
G01 X-39.6147 Y23.6668 
G01 X-39.4526 Y23.6990 
G01 X-39.2874 Y23.6990 
G01 X-39.1253 Y23.6668 
G01 X-38.9726 Y23.6035 
G01 X-38.8352 Y23.5117 
G01 X-38.7183 Y23.3948 
G01 X-38.6265 Y23.2574 
G01 X-38.5632 Y23.1047 
G01 X-38.5310 Y22.9426 
G01 X-38.5310 Y22.7774 
G01 X-38.5632 Y22.6153 
G01 X-38.6265 Y22.4626 
G01 X-38.7183 Y22.3252 
G01 X-38.8352 Y22.2083 
G01 X-38.9726 Y22.1165 
G01 X-39.1253 Y22.0532 
G01 X-39.2874 Y22.0210 
G01 X-39.4526 Y22.0210 
G01 X-39.6147 Y22.0532 
G01 X-39.7674 Y22.1165 
G01 X-39.9048 Y22.2083 
G01 X-40.0217 Y22.3252 
G01 X-40.1135 Y22.4626 
G01 X-40.1768 Y22.6153 
G01 X-40.2090 Y22.7774 
G00 Z2.5400 
G00 X-40.2090 Y25.3174 
G01 Z-0.1000 F40.00 
G01 X-40.2090 Y25.4826 F208.00 
G01 X-40.1768 Y25.6447 
G01 X-40.1135 Y25.7974 
G01 X-40.0217 Y25.9348 
G01 X-39.9048 Y26.0517 
G01 X-39.7674 Y26.1435 
G01 X-39.6147 Y26.2068 
G01 X-39.4526 Y26.2390 
G01 X-39.2874 Y26.2390 
G01 X-39.1253 Y26.2068 
G01 X-38.9726 Y26.1435 
G01 X-38.8352 Y26.0517 
G01 X-38.7183 Y25.9348 
G01 X-38.6265 Y25.7974 
G01 X-38.5632 Y25.6447 
G01 X-38.5310 Y25.4826 
G01 X-38.5310 Y25.3174 
G01 X-38.5632 Y25.1553 
G01 X-38.6265 Y25.0026 
G01 X-38.7183 Y24.8652 
G01 X-38.8352 Y24.7483 
G01 X-38.9726 Y24.6565 
G01 X-39.1253 Y24.5932 
G01 X-39.2874 Y24.5610 
G01 X-39.4526 Y24.5610 
G01 X-39.6147 Y24.5932 
G01 X-39.7674 Y24.6565 
G01 X-39.9048 Y24.7483 
G01 X-40.0217 Y24.8652 
G01 X-40.1135 Y25.0026 
G01 X-40.1768 Y25.1553 
G01 X-40.2090 Y25.3174 
G00 Z2.5400 
G00 X-40.2090 Y27.8574 
G01 Z-0.1000 F40.00 
G01 X-40.2090 Y28.0226 F208.00 
G01 X-40.1768 Y28.1847 
G01 X-40.1135 Y28.3374 
G01 X-40.0217 Y28.4748 
G01 X-39.9048 Y28.5917 
G01 X-39.7674 Y28.6835 
G01 X-39.6147 Y28.7468 
G01 X-39.4526 Y28.7790 
G01 X-39.2874 Y28.7790 
G01 X-39.1253 Y28.7468 
G01 X-38.9726 Y28.6835 
G01 X-38.8352 Y28.5917 
G01 X-38.7183 Y28.4748 
G01 X-38.6265 Y28.3374 
G01 X-38.5632 Y28.1847 
G01 X-38.5310 Y28.0226 
G01 X-38.5310 Y27.8574 
G01 X-38.5632 Y27.6953 
G01 X-38.6265 Y27.5426 
G01 X-38.7183 Y27.4052 
G01 X-38.8352 Y27.2883 
G01 X-38.9726 Y27.1965 
G01 X-39.1253 Y27.1332 
G01 X-39.2874 Y27.1010 
G01 X-39.4526 Y27.1010 
G01 X-39.6147 Y27.1332 
G01 X-39.7674 Y27.1965 
G01 X-39.9048 Y27.2883 
G01 X-40.0217 Y27.4052 
G01 X-40.1135 Y27.5426 
G01 X-40.1768 Y27.6953 
G01 X-40.2090 Y27.8574 
G00 Z2.5400 
G00 X-12.2690 Y30.3974 
G01 Z-0.1000 F40.00 
G01 X-12.2690 Y30.5626 F208.00 
G01 X-12.2368 Y30.7247 
G01 X-12.1735 Y30.8774 
G01 X-12.0817 Y31.0148 
G01 X-11.9648 Y31.1317 
G01 X-11.8274 Y31.2235 
G01 X-11.6747 Y31.2868 
G01 X-11.5126 Y31.3190 
G01 X-11.3474 Y31.3190 
G01 X-11.1853 Y31.2868 
G01 X-11.0326 Y31.2235 
G01 X-10.8952 Y31.1317 
G01 X-10.7783 Y31.0148 
G01 X-10.6865 Y30.8774 
G01 X-10.6232 Y30.7247 
G01 X-10.5910 Y30.5626 
G01 X-10.5910 Y30.3974 
G01 X-10.6232 Y30.2353 
G01 X-10.6865 Y30.0826 
G01 X-10.7783 Y29.9452 
G01 X-10.8952 Y29.8283 
G01 X-11.0326 Y29.7365 
G01 X-11.1853 Y29.6732 
G01 X-11.3474 Y29.6410 
G01 X-11.5126 Y29.6410 
G01 X-11.6747 Y29.6732 
G01 X-11.8274 Y29.7365 
G01 X-11.9648 Y29.8283 
G01 X-12.0817 Y29.9452 
G01 X-12.1735 Y30.0826 
G01 X-12.2368 Y30.2353 
G01 X-12.2690 Y30.3974 
G00 Z2.5400 
G00 X-17.3490 Y30.3974 
G01 Z-0.1000 F40.00 
G01 X-17.3490 Y30.5626 F208.00 
G01 X-17.3168 Y30.7247 
G01 X-17.2535 Y30.8774 
G01 X-17.1617 Y31.0148 
G01 X-17.0448 Y31.1317 
G01 X-16.9074 Y31.2235 
G01 X-16.7547 Y31.2868 
G01 X-16.5926 Y31.3190 
G01 X-16.4274 Y31.3190 
G01 X-16.2653 Y31.2868 
G01 X-16.1126 Y31.2235 
G01 X-15.9752 Y31.1317 
G01 X-15.8583 Y31.0148 
G01 X-15.7665 Y30.8774 
G01 X-15.7032 Y30.7247 
G01 X-15.6710 Y30.5626 
G01 X-15.6710 Y30.3974 
G01 X-15.7032 Y30.2353 
G01 X-15.7665 Y30.0826 
G01 X-15.8583 Y29.9452 
G01 X-15.9752 Y29.8283 
G01 X-16.1126 Y29.7365 
G01 X-16.2653 Y29.6732 
G01 X-16.4274 Y29.6410 
G01 X-16.5926 Y29.6410 
G01 X-16.7547 Y29.6732 
G01 X-16.9074 Y29.7365 
G01 X-17.0448 Y29.8283 
G01 X-17.1617 Y29.9452 
G01 X-17.2535 Y30.0826 
G01 X-17.3168 Y30.2353 
G01 X-17.3490 Y30.3974 
G00 Z2.5400 
G00 X-22.4290 Y30.3974 
G01 Z-0.1000 F40.00 
G01 X-22.4290 Y30.5626 F208.00 
G01 X-22.3968 Y30.7247 
G01 X-22.3335 Y30.8774 
G01 X-22.2417 Y31.0148 
G01 X-22.1248 Y31.1317 
G01 X-21.9874 Y31.2235 
G01 X-21.8347 Y31.2868 
G01 X-21.6726 Y31.3190 
G01 X-21.5074 Y31.3190 
G01 X-21.3453 Y31.2868 
G01 X-21.1926 Y31.2235 
G01 X-21.0552 Y31.1317 
G01 X-20.9383 Y31.0148 
G01 X-20.8465 Y30.8774 
G01 X-20.7832 Y30.7247 
G01 X-20.7510 Y30.5626 
G01 X-20.7510 Y30.3974 
G01 X-20.7832 Y30.2353 
G01 X-20.8465 Y30.0826 
G01 X-20.9383 Y29.9452 
G01 X-21.0552 Y29.8283 
G01 X-21.1926 Y29.7365 
G01 X-21.3453 Y29.6732 
G01 X-21.5074 Y29.6410 
G01 X-21.6726 Y29.6410 
G01 X-21.8347 Y29.6732 
G01 X-21.9874 Y29.7365 
G01 X-22.1248 Y29.8283 
G01 X-22.2417 Y29.9452 
G01 X-22.3335 Y30.0826 
G01 X-22.3968 Y30.2353 
G01 X-22.4290 Y30.3974 
G00 Z2.5400 
G00 X-24.9690 Y30.3974 
G01 Z-0.1000 F40.00 
G01 X-24.9690 Y30.5626 F208.00 
G01 X-24.9368 Y30.7247 
G01 X-24.8735 Y30.8774 
G01 X-24.7817 Y31.0148 
G01 X-24.6648 Y31.1317 
G01 X-24.5274 Y31.2235 
G01 X-24.3747 Y31.2868 
G01 X-24.2126 Y31.3190 
G01 X-24.0474 Y31.3190 
G01 X-23.8853 Y31.2868 
G01 X-23.7326 Y31.2235 
G01 X-23.5952 Y31.1317 
G01 X-23.4783 Y31.0148 
G01 X-23.3865 Y30.8774 
G01 X-23.3232 Y30.7247 
G01 X-23.2910 Y30.5626 
G01 X-23.2910 Y30.3974 
G01 X-23.3232 Y30.2353 
G01 X-23.3865 Y30.0826 
G01 X-23.4783 Y29.9452 
G01 X-23.5952 Y29.8283 
G01 X-23.7326 Y29.7365 
G01 X-23.8853 Y29.6732 
G01 X-24.0474 Y29.6410 
G01 X-24.2126 Y29.6410 
G01 X-24.3747 Y29.6732 
G01 X-24.5274 Y29.7365 
G01 X-24.6648 Y29.8283 
G01 X-24.7817 Y29.9452 
G01 X-24.8735 Y30.0826 
G01 X-24.9368 Y30.2353 
G01 X-24.9690 Y30.3974 
G00 Z2.5400 
G00 X-27.5090 Y30.3974 
G01 Z-0.1000 F40.00 
G01 X-27.5090 Y30.5626 F208.00 
G01 X-27.4768 Y30.7247 
G01 X-27.4135 Y30.8774 
G01 X-27.3217 Y31.0148 
G01 X-27.2048 Y31.1317 
G01 X-27.0674 Y31.2235 
G01 X-26.9147 Y31.2868 
G01 X-26.7526 Y31.3190 
G01 X-26.5874 Y31.3190 
G01 X-26.4253 Y31.2868 
G01 X-26.2726 Y31.2235 
G01 X-26.1352 Y31.1317 
G01 X-26.0183 Y31.0148 
G01 X-25.9265 Y30.8774 
G01 X-25.8632 Y30.7247 
G01 X-25.8310 Y30.5626 
G01 X-25.8310 Y30.3974 
G01 X-25.8632 Y30.2353 
G01 X-25.9265 Y30.0826 
G01 X-26.0183 Y29.9452 
G01 X-26.1352 Y29.8283 
G01 X-26.2726 Y29.7365 
G01 X-26.4253 Y29.6732 
G01 X-26.5874 Y29.6410 
G01 X-26.7526 Y29.6410 
G01 X-26.9147 Y29.6732 
G01 X-27.0674 Y29.7365 
G01 X-27.2048 Y29.8283 
G01 X-27.3217 Y29.9452 
G01 X-27.4135 Y30.0826 
G01 X-27.4768 Y30.2353 
G01 X-27.5090 Y30.3974 
G00 Z2.5400 
G00 X-30.0490 Y30.3974 
G01 Z-0.1000 F40.00 
G01 X-30.0490 Y30.5626 F208.00 
G01 X-30.0168 Y30.7247 
G01 X-29.9535 Y30.8774 
G01 X-29.8617 Y31.0148 
G01 X-29.7448 Y31.1317 
G01 X-29.6074 Y31.2235 
G01 X-29.4547 Y31.2868 
G01 X-29.2926 Y31.3190 
G01 X-29.1274 Y31.3190 
G01 X-28.9653 Y31.2868 
G01 X-28.8126 Y31.2235 
G01 X-28.6752 Y31.1317 
G01 X-28.5583 Y31.0148 
G01 X-28.4665 Y30.8774 
G01 X-28.4032 Y30.7247 
G01 X-28.3710 Y30.5626 
G01 X-28.3710 Y30.3974 
G01 X-28.4032 Y30.2353 
G01 X-28.4665 Y30.0826 
G01 X-28.5583 Y29.9452 
G01 X-28.6752 Y29.8283 
G01 X-28.8126 Y29.7365 
G01 X-28.9653 Y29.6732 
G01 X-29.1274 Y29.6410 
G01 X-29.2926 Y29.6410 
G01 X-29.4547 Y29.6732 
G01 X-29.6074 Y29.7365 
G01 X-29.7448 Y29.8283 
G01 X-29.8617 Y29.9452 
G01 X-29.9535 Y30.0826 
G01 X-30.0168 Y30.2353 
G01 X-30.0490 Y30.3974 
G00 Z2.5400 
G00 X-32.5890 Y30.3974 
G01 Z-0.1000 F40.00 
G01 X-32.5890 Y30.5626 F208.00 
G01 X-32.5568 Y30.7247 
G01 X-32.4935 Y30.8774 
G01 X-32.4017 Y31.0148 
G01 X-32.2848 Y31.1317 
G01 X-32.1474 Y31.2235 
G01 X-31.9947 Y31.2868 
G01 X-31.8326 Y31.3190 
G01 X-31.6674 Y31.3190 
G01 X-31.5053 Y31.2868 
G01 X-31.3526 Y31.2235 
G01 X-31.2152 Y31.1317 
G01 X-31.0983 Y31.0148 
G01 X-31.0065 Y30.8774 
G01 X-30.9432 Y30.7247 
G01 X-30.9110 Y30.5626 
G01 X-30.9110 Y30.3974 
G01 X-30.9432 Y30.2353 
G01 X-31.0065 Y30.0826 
G01 X-31.0983 Y29.9452 
G01 X-31.2152 Y29.8283 
G01 X-31.3526 Y29.7365 
G01 X-31.3602 Y29.7333 
G01 X-31.3602 Y17.7287 
G01 X-31.3868 Y17.6295 
G01 X-31.4381 Y17.5407 
G01 X-31.5107 Y17.4681 
G01 X-31.5995 Y17.4168 
G01 X-31.6987 Y17.3902 
G01 X-43.3793 Y17.3902 
G01 X-43.4784 Y17.4168 
G01 X-43.5673 Y17.4681 
G01 X-43.6399 Y17.5407 
G01 X-43.6912 Y17.6295 
G01 X-43.7177 Y17.7287 
G01 X-43.7177 Y20.1585 
G01 X-44.4894 Y20.9302 
G01 X-44.9215 Y20.9302 
G01 X-44.9971 Y20.8170 
G01 X-45.1070 Y20.7071 
G01 X-45.2363 Y20.6208 
G01 X-45.3799 Y20.5613 
G01 X-45.5323 Y20.5310 
G01 X-45.6877 Y20.5310 
G01 X-45.8401 Y20.5613 
G01 X-45.9837 Y20.6208 
G01 X-46.1130 Y20.7071 
G01 X-46.2229 Y20.8170 
G01 X-46.3092 Y20.9463 
G01 X-46.3687 Y21.0899 
G01 X-46.3990 Y21.2423 
G01 X-46.3990 Y21.3977 
G01 X-46.3687 Y21.5501 
G01 X-46.3092 Y21.6937 
G01 X-46.2229 Y21.8230 
G01 X-46.1130 Y21.9329 
G01 X-45.9837 Y22.0192 
G01 X-45.8401 Y22.0787 
G01 X-45.6877 Y22.1090 
G01 X-45.5323 Y22.1090 
G01 X-45.3799 Y22.0787 
G01 X-45.2363 Y22.0192 
G01 X-45.1070 Y21.9329 
G01 X-44.9971 Y21.8230 
G01 X-44.9215 Y21.7098 
G01 X-44.2766 Y21.7098 
G01 X-44.1775 Y21.6832 
G01 X-44.0886 Y21.6319 
G01 X-44.0160 Y21.5593 
G01 X-43.0160 Y20.5593 
G01 X-42.9647 Y20.4705 
G01 X-42.9382 Y20.3713 
G01 X-42.9382 Y18.1698 
G01 X-32.1398 Y18.1698 
G01 X-32.1398 Y29.7333 
G01 X-32.1474 Y29.7365 
G01 X-32.2848 Y29.8283 
G01 X-32.4017 Y29.9452 
G01 X-32.4935 Y30.0826 
G01 X-32.5568 Y30.2353 
G01 X-32.5890 Y30.3974 
G00 Z2.5400 
G00 X-35.1290 Y30.3974 
G01 Z-0.1000 F40.00 
G01 X-35.1290 Y30.5626 F208.00 
G01 X-35.0968 Y30.7247 
G01 X-35.0335 Y30.8774 
G01 X-34.9417 Y31.0148 
G01 X-34.8248 Y31.1317 
G01 X-34.6874 Y31.2235 
G01 X-34.5347 Y31.2868 
G01 X-34.3726 Y31.3190 
G01 X-34.2074 Y31.3190 
G01 X-34.0453 Y31.2868 
G01 X-33.8926 Y31.2235 
G01 X-33.7552 Y31.1317 
G01 X-33.6383 Y31.0148 
G01 X-33.5465 Y30.8774 
G01 X-33.4832 Y30.7247 
G01 X-33.4510 Y30.5626 
G01 X-33.4510 Y30.3974 
G01 X-33.4832 Y30.2353 
G01 X-33.5465 Y30.0826 
G01 X-33.6383 Y29.9452 
G01 X-33.7552 Y29.8283 
G01 X-33.8926 Y29.7365 
G01 X-33.9002 Y29.7333 
G01 X-33.9002 Y18.9987 
G01 X-33.9268 Y18.8995 
G01 X-33.9781 Y18.8107 
G01 X-34.0507 Y18.7381 
G01 X-34.1395 Y18.6868 
G01 X-34.2387 Y18.6602 
G01 X-40.3888 Y18.6602 
G01 X-40.4612 Y18.6184 
G01 X-40.5790 Y18.5868 
G01 X-40.7010 Y18.5868 
G01 X-40.8188 Y18.6184 
G01 X-40.9244 Y18.6793 
G01 X-41.0107 Y18.7656 
G01 X-41.0716 Y18.8712 
G01 X-41.1032 Y18.9890 
G01 X-41.1032 Y19.1110 
G01 X-41.0716 Y19.2288 
G01 X-41.0107 Y19.3344 
G01 X-40.9244 Y19.4207 
G01 X-40.8188 Y19.4816 
G01 X-40.7010 Y19.5132 
G01 X-40.5790 Y19.5132 
G01 X-40.4612 Y19.4816 
G01 X-40.3888 Y19.4398 
G01 X-34.6798 Y19.4398 
G01 X-34.6798 Y29.7333 
G01 X-34.6874 Y29.7365 
G01 X-34.8248 Y29.8283 
G01 X-34.9417 Y29.9452 
G01 X-35.0335 Y30.0826 
G01 X-35.0968 Y30.2353 
G01 X-35.1290 Y30.3974 
G00 Z2.5400 
G00 X-37.6690 Y30.3974 
G01 Z-0.1000 F40.00 
G01 X-37.6690 Y30.5626 F208.00 
G01 X-37.6368 Y30.7247 
G01 X-37.5735 Y30.8774 
G01 X-37.4817 Y31.0148 
G01 X-37.3648 Y31.1317 
G01 X-37.2274 Y31.2235 
G01 X-37.0747 Y31.2868 
G01 X-36.9126 Y31.3190 
G01 X-36.7474 Y31.3190 
G01 X-36.5853 Y31.2868 
G01 X-36.4326 Y31.2235 
G01 X-36.2952 Y31.1317 
G01 X-36.1783 Y31.0148 
G01 X-36.0865 Y30.8774 
G01 X-36.0232 Y30.7247 
G01 X-35.9910 Y30.5626 
G01 X-35.9910 Y30.3974 
G01 X-36.0232 Y30.2353 
G01 X-36.0865 Y30.0826 
G01 X-36.1783 Y29.9452 
G01 X-36.2952 Y29.8283 
G01 X-36.4326 Y29.7365 
G01 X-36.4402 Y29.7333 
G01 X-36.4402 Y20.2687 
G01 X-36.4668 Y20.1695 
G01 X-36.5181 Y20.0807 
G01 X-36.5907 Y20.0081 
G01 X-36.6795 Y19.9568 
G01 X-36.7787 Y19.9302 
G01 X-40.6913 Y19.9302 
G01 X-40.7905 Y19.9568 
G01 X-40.8793 Y20.0081 
G01 X-43.8015 Y22.9302 
G01 X-44.9215 Y22.9302 
G01 X-44.9971 Y22.8170 
G01 X-45.1070 Y22.7071 
G01 X-45.2363 Y22.6208 
G01 X-45.3799 Y22.5613 
G01 X-45.5323 Y22.5310 
G01 X-45.6877 Y22.5310 
G01 X-45.8401 Y22.5613 
G01 X-45.9837 Y22.6208 
G01 X-46.1130 Y22.7071 
G01 X-46.2229 Y22.8170 
G01 X-46.3092 Y22.9463 
G01 X-46.3687 Y23.0899 
G01 X-46.3990 Y23.2423 
G01 X-46.3990 Y23.3977 
G01 X-46.3687 Y23.5501 
G01 X-46.3092 Y23.6937 
G01 X-46.2229 Y23.8230 
G01 X-46.1130 Y23.9329 
G01 X-45.9837 Y24.0192 
G01 X-45.8401 Y24.0787 
G01 X-45.6877 Y24.1090 
G01 X-45.5323 Y24.1090 
G01 X-45.3799 Y24.0787 
G01 X-45.2363 Y24.0192 
G01 X-45.1070 Y23.9329 
G01 X-44.9971 Y23.8230 
G01 X-44.9215 Y23.7098 
G01 X-43.5887 Y23.7098 
G01 X-43.4895 Y23.6832 
G01 X-43.4007 Y23.6319 
G01 X-40.4785 Y20.7098 
G01 X-37.2198 Y20.7098 
G01 X-37.2198 Y29.7333 
G01 X-37.2274 Y29.7365 
G01 X-37.3648 Y29.8283 
G01 X-37.4817 Y29.9452 
G01 X-37.5735 Y30.0826 
G01 X-37.6368 Y30.2353 
G01 X-37.6690 Y30.3974 
G00 Z2.5400 
G00 X-55.0330 Y35.1354 
G01 Z-0.1000 F40.00 
G01 X-55.0330 Y33.4446 F208.00 
G01 X-55.0656 Y33.2809 
G01 X-55.1294 Y33.1268 
G01 X-55.2221 Y32.9881 
G01 X-55.3401 Y32.8701 
G01 X-55.4788 Y32.7774 
G01 X-55.6329 Y32.7136 
G01 X-55.7966 Y32.6810 
G01 X-55.9634 Y32.6810 
G01 X-56.1271 Y32.7136 
G01 X-56.2812 Y32.7774 
G01 X-56.4199 Y32.8701 
G01 X-56.5379 Y32.9881 
G01 X-56.6306 Y33.1268 
G01 X-56.6944 Y33.2809 
G01 X-56.7270 Y33.4446 
G01 X-56.7270 Y34.5857 
G01 X-58.5255 Y36.3842 
G01 X-58.5255 Y36.3476 
G01 X-59.2076 Y35.6655 
G01 X-60.1724 Y35.6655 
G01 X-60.8545 Y36.3476 
G01 X-60.8545 Y37.3124 
G01 X-60.1724 Y37.9945 
G01 X-59.2076 Y37.9945 
G01 X-59.0680 Y37.8548 
G01 X-59.0037 Y37.8548 
G01 X-58.9045 Y37.8282 
G01 X-58.8157 Y37.7769 
G01 X-58.7431 Y37.7043 
G01 X-56.5751 Y35.5363 
G01 X-56.5379 Y35.5919 
G01 X-56.4199 Y35.7099 
G01 X-56.2812 Y35.8026 
G01 X-56.1271 Y35.8664 
G01 X-55.9634 Y35.8990 
G01 X-55.7966 Y35.8990 
G01 X-55.6329 Y35.8664 
G01 X-55.4788 Y35.8026 
G01 X-55.3401 Y35.7099 
G01 X-55.2221 Y35.5919 
G01 X-55.1294 Y35.4532 
G01 X-55.0656 Y35.2991 
G01 X-55.0330 Y35.1354 
G00 Z2.5400 
G00 X-52.4930 Y35.1354 
G01 Z-0.1000 F40.00 
G01 X-52.4930 Y33.4446 F208.00 
G01 X-52.5256 Y33.2809 
G01 X-52.5894 Y33.1268 
G01 X-52.6821 Y32.9881 
G01 X-52.8001 Y32.8701 
G01 X-52.9388 Y32.7774 
G01 X-52.9502 Y32.7727 
G01 X-52.9502 Y25.7592 
G01 X-46.2655 Y25.7592 
G01 X-46.2229 Y25.8230 
G01 X-46.1130 Y25.9329 
G01 X-45.9837 Y26.0192 
G01 X-45.8401 Y26.0787 
G01 X-45.6877 Y26.1090 
G01 X-45.5323 Y26.1090 
G01 X-45.3799 Y26.0787 
G01 X-45.2363 Y26.0192 
G01 X-45.1070 Y25.9329 
G01 X-44.9971 Y25.8230 
G01 X-44.9108 Y25.6937 
G01 X-44.8513 Y25.5501 
G01 X-44.8210 Y25.3977 
G01 X-44.8210 Y25.2423 
G01 X-44.8513 Y25.0899 
G01 X-44.9108 Y24.9463 
G01 X-44.9971 Y24.8170 
G01 X-45.1070 Y24.7071 
G01 X-45.2363 Y24.6208 
G01 X-45.3799 Y24.5613 
G01 X-45.5323 Y24.5310 
G01 X-45.6877 Y24.5310 
G01 X-45.8401 Y24.5613 
G01 X-45.9837 Y24.6208 
G01 X-46.1130 Y24.7071 
G01 X-46.2229 Y24.8170 
G01 X-46.3092 Y24.9463 
G01 X-46.3230 Y24.9796 
G01 X-53.3607 Y24.9796 
G01 X-53.4599 Y25.0062 
G01 X-53.5487 Y25.0575 
G01 X-53.6213 Y25.1301 
G01 X-53.6519 Y25.1607 
G01 X-53.7032 Y25.2495 
G01 X-53.7298 Y25.3487 
G01 X-53.7298 Y32.7727 
G01 X-53.7412 Y32.7774 
G01 X-53.8799 Y32.8701 
G01 X-53.9979 Y32.9881 
G01 X-54.0906 Y33.1268 
G01 X-54.1544 Y33.2809 
G01 X-54.1870 Y33.4446 
G01 X-54.1870 Y35.1354 
G01 X-54.1544 Y35.2991 
G01 X-54.0906 Y35.4532 
G01 X-53.9979 Y35.5919 
G01 X-53.8799 Y35.7099 
G01 X-53.7412 Y35.8026 
G01 X-53.5871 Y35.8664 
G01 X-53.4234 Y35.8990 
G01 X-53.2566 Y35.8990 
G01 X-53.0929 Y35.8664 
G01 X-52.9388 Y35.8026 
G01 X-52.8001 Y35.7099 
G01 X-52.6821 Y35.5919 
G01 X-52.5894 Y35.4532 
G01 X-52.5256 Y35.2991 
G01 X-52.4930 Y35.1354 
G00 Z2.5400 
G00 X-18.9445 Y2.0576 
G01 Z-0.1000 F40.00 
G01 X-18.9445 Y3.0224 F208.00 
G01 X-18.2624 Y3.7045 
G01 X-17.2976 Y3.7045 
G01 X-16.6155 Y3.0224 
G01 X-16.6155 Y2.0576 
G01 X-17.2976 Y1.3755 
G01 X-18.2624 Y1.3755 
G01 X-18.9445 Y2.0576 
G00 Z2.5400 
G00 X-12.5945 Y2.0576 
G01 Z-0.1000 F40.00 
G01 X-12.5945 Y3.0224 F208.00 
G01 X-11.9123 Y3.7045 
G01 X-10.9476 Y3.7045 
G01 X-10.2655 Y3.0224 
G01 X-10.2655 Y2.0576 
G01 X-10.9476 Y1.3755 
G01 X-11.9123 Y1.3755 
G01 X-12.5945 Y2.0576 
G00 Z2.5400 
G00 X-42.3732 Y26.6090 
G01 Z-0.1000 F40.00 
G01 X-42.3732 Y26.7310 F208.00 
G01 X-42.3416 Y26.8488 
G01 X-42.2998 Y26.9212 
G01 X-42.2998 Y30.5313 
G01 X-42.2732 Y30.6305 
G01 X-42.2219 Y30.7193 
G01 X-42.1493 Y30.7919 
G01 X-42.0605 Y30.8432 
G01 X-41.9613 Y30.8698 
G01 X-40.1167 Y30.8698 
G01 X-40.1135 Y30.8774 
G01 X-40.0217 Y31.0148 
G01 X-39.9048 Y31.1317 
G01 X-39.7674 Y31.2235 
G01 X-39.6147 Y31.2868 
G01 X-39.4526 Y31.3190 
G01 X-39.2874 Y31.3190 
G01 X-39.1253 Y31.2868 
G01 X-38.9726 Y31.2235 
G01 X-38.8352 Y31.1317 
G01 X-38.7183 Y31.0148 
G01 X-38.6265 Y30.8774 
G01 X-38.5632 Y30.7247 
G01 X-38.5310 Y30.5626 
G01 X-38.5310 Y30.3974 
G01 X-38.5632 Y30.2353 
G01 X-38.6265 Y30.0826 
G01 X-38.7183 Y29.9452 
G01 X-38.8352 Y29.8283 
G01 X-38.9726 Y29.7365 
G01 X-39.1253 Y29.6732 
G01 X-39.2874 Y29.6410 
G01 X-39.4526 Y29.6410 
G01 X-39.6147 Y29.6732 
G01 X-39.7674 Y29.7365 
G01 X-39.9048 Y29.8283 
G01 X-40.0217 Y29.9452 
G01 X-40.1135 Y30.0826 
G01 X-40.1167 Y30.0902 
G01 X-41.5202 Y30.0902 
G01 X-41.5202 Y26.9212 
G01 X-41.4784 Y26.8488 
G01 X-41.4468 Y26.7310 
G01 X-41.4468 Y26.6090 
G01 X-41.4784 Y26.4912 
G01 X-41.5393 Y26.3856 
G01 X-41.6256 Y26.2993 
G01 X-41.7312 Y26.2384 
G01 X-41.8490 Y26.2068 
G01 X-41.9710 Y26.2068 
G01 X-42.0888 Y26.2384 
G01 X-42.1944 Y26.2993 
G01 X-42.2807 Y26.3856 
G01 X-42.3416 Y26.4912 
G01 X-42.3732 Y26.6090 
G00 Z2.5400 
G00 X-42.4732 Y26.5959 
G01 Z-0.1000 F40.00 
G01 X-42.4732 Y26.7441 F208.00 
G01 X-42.4348 Y26.8874 
G01 X-42.3998 Y26.9480 
G01 X-42.3998 Y30.5445 
G01 X-42.3664 Y30.6691 
G01 X-42.3019 Y30.7807 
G01 X-42.2107 Y30.8719 
G01 X-42.0991 Y30.9364 
G01 X-41.9745 Y30.9698 
G01 X-40.1720 Y30.9698 
G01 X-40.0994 Y31.0786 
G01 X-39.9686 Y31.2094 
G01 X-39.8148 Y31.3121 
G01 X-39.6439 Y31.3829 
G01 X-39.4625 Y31.4190 
G01 X-39.2775 Y31.4190 
G01 X-39.0961 Y31.3829 
G01 X-38.9252 Y31.3121 
G01 X-38.7714 Y31.2094 
G01 X-38.6406 Y31.0786 
G01 X-38.5379 Y30.9248 
G01 X-38.4671 Y30.7539 
G01 X-38.4310 Y30.5725 
G01 X-38.4310 Y30.3875 
G01 X-38.4671 Y30.2061 
G01 X-38.5379 Y30.0352 
G01 X-38.6406 Y29.8814 
G01 X-38.7714 Y29.7506 
G01 X-38.9252 Y29.6479 
G01 X-39.0961 Y29.5771 
G01 X-39.2775 Y29.5410 
G01 X-39.4625 Y29.5410 
G01 X-39.6439 Y29.5771 
G01 X-39.8148 Y29.6479 
G01 X-39.9686 Y29.7506 
G01 X-40.0994 Y29.8814 
G01 X-40.1720 Y29.9902 
G01 X-41.4202 Y29.9902 
G01 X-41.4202 Y26.9480 
G01 X-41.3852 Y26.8874 
G01 X-41.3468 Y26.7441 
G01 X-41.3468 Y26.5959 
G01 X-41.3852 Y26.4526 
G01 X-41.4593 Y26.3242 
G01 X-41.5642 Y26.2193 
G01 X-41.6926 Y26.1452 
G01 X-41.8359 Y26.1068 
G01 X-41.9841 Y26.1068 
G01 X-42.1274 Y26.1452 
G01 X-42.2558 Y26.2193 
G01 X-42.3607 Y26.3242 
G01 X-42.4348 Y26.4526 
G01 X-42.4732 Y26.5959 
G00 Z2.5400 
G00 X-12.6945 Y2.0162 
G01 Z-0.1000 F40.00 
G01 X-12.6945 Y3.0638 F208.00 
G01 X-11.9538 Y3.8045 
G01 X-10.9062 Y3.8045 
G01 X-10.1655 Y3.0638 
G01 X-10.1655 Y2.0162 
G01 X-10.9062 Y1.2755 
G01 X-11.9538 Y1.2755 
G01 X-12.6945 Y2.0162 
G00 Z2.5400 
G00 X-19.0445 Y2.0162 
G01 Z-0.1000 F40.00 
G01 X-19.0445 Y3.0638 F208.00 
G01 X-18.3038 Y3.8045 
G01 X-17.2562 Y3.8045 
G01 X-16.5155 Y3.0638 
G01 X-16.5155 Y2.0162 
G01 X-17.2562 Y1.2755 
G01 X-18.3038 Y1.2755 
G01 X-19.0445 Y2.0162 
G00 Z2.5400 
G00 X-52.3930 Y35.1453 
G01 Z-0.1000 F40.00 
G01 X-52.3930 Y33.4347 F208.00 
G01 X-52.4294 Y33.2518 
G01 X-52.5008 Y33.0794 
G01 X-52.6044 Y32.9243 
G01 X-52.7363 Y32.7924 
G01 X-52.8502 Y32.7163 
G01 X-52.8502 Y25.8592 
G01 X-46.3189 Y25.8592 
G01 X-46.3005 Y25.8867 
G01 X-46.1767 Y26.0105 
G01 X-46.0311 Y26.1078 
G01 X-45.8693 Y26.1748 
G01 X-45.6976 Y26.2090 
G01 X-45.5224 Y26.2090 
G01 X-45.3507 Y26.1748 
G01 X-45.1889 Y26.1078 
G01 X-45.0433 Y26.0105 
G01 X-44.9195 Y25.8867 
G01 X-44.8222 Y25.7411 
G01 X-44.7552 Y25.5793 
G01 X-44.7210 Y25.4076 
G01 X-44.7210 Y25.2324 
G01 X-44.7552 Y25.0607 
G01 X-44.8222 Y24.8989 
G01 X-44.9195 Y24.7533 
G01 X-45.0433 Y24.6295 
G01 X-45.1889 Y24.5322 
G01 X-45.3507 Y24.4652 
G01 X-45.5224 Y24.4310 
G01 X-45.6976 Y24.4310 
G01 X-45.8693 Y24.4652 
G01 X-46.0311 Y24.5322 
G01 X-46.1767 Y24.6295 
G01 X-46.3005 Y24.7533 
G01 X-46.3849 Y24.8796 
G01 X-53.3739 Y24.8796 
G01 X-53.4985 Y24.9130 
G01 X-53.6102 Y24.9775 
G01 X-53.7013 Y25.0687 
G01 X-53.7319 Y25.0993 
G01 X-53.7964 Y25.2109 
G01 X-53.8298 Y25.3355 
G01 X-53.8298 Y32.7163 
G01 X-53.9437 Y32.7924 
G01 X-54.0756 Y32.9243 
G01 X-54.1792 Y33.0794 
G01 X-54.2506 Y33.2518 
G01 X-54.2870 Y33.4347 
G01 X-54.2870 Y35.1453 
G01 X-54.2506 Y35.3282 
G01 X-54.1792 Y35.5006 
G01 X-54.0756 Y35.6557 
G01 X-53.9437 Y35.7876 
G01 X-53.7886 Y35.8912 
G01 X-53.6162 Y35.9626 
G01 X-53.4333 Y35.9990 
G01 X-53.2467 Y35.9990 
G01 X-53.0638 Y35.9626 
G01 X-52.8914 Y35.8912 
G01 X-52.7363 Y35.7876 
G01 X-52.6044 Y35.6557 
G01 X-52.5008 Y35.5006 
G01 X-52.4294 Y35.3282 
G01 X-52.3930 Y35.1453 
G00 Z2.5400 
G00 X-54.9330 Y35.1453 
G01 Z-0.1000 F40.00 
G01 X-54.9330 Y33.4347 F208.00 
G01 X-54.9694 Y33.2518 
G01 X-55.0408 Y33.0794 
G01 X-55.1444 Y32.9243 
G01 X-55.2763 Y32.7924 
G01 X-55.4314 Y32.6888 
G01 X-55.6038 Y32.6174 
G01 X-55.7867 Y32.5810 
G01 X-55.9733 Y32.5810 
G01 X-56.1562 Y32.6174 
G01 X-56.3286 Y32.6888 
G01 X-56.4837 Y32.7924 
G01 X-56.6156 Y32.9243 
G01 X-56.7192 Y33.0794 
G01 X-56.7906 Y33.2518 
G01 X-56.8270 Y33.4347 
G01 X-56.8270 Y34.5443 
G01 X-58.5072 Y36.2245 
G01 X-59.1662 Y35.5655 
G01 X-60.2138 Y35.5655 
G01 X-60.9545 Y36.3062 
G01 X-60.9545 Y37.3538 
G01 X-60.2138 Y38.0945 
G01 X-59.1662 Y38.0945 
G01 X-59.0265 Y37.9548 
G01 X-58.9905 Y37.9548 
G01 X-58.8659 Y37.9214 
G01 X-58.7543 Y37.8569 
G01 X-58.6631 Y37.7657 
G01 X-56.5843 Y35.6870 
G01 X-56.4837 Y35.7876 
G01 X-56.3286 Y35.8912 
G01 X-56.1562 Y35.9626 
G01 X-55.9733 Y35.9990 
G01 X-55.7867 Y35.9990 
G01 X-55.6038 Y35.9626 
G01 X-55.4314 Y35.8912 
G01 X-55.2763 Y35.7876 
G01 X-55.1444 Y35.6557 
G01 X-55.0408 Y35.5006 
G01 X-54.9694 Y35.3282 
G01 X-54.9330 Y35.1453 
G00 Z2.5400 
G00 X-37.7690 Y30.3875 
G01 Z-0.1000 F40.00 
G01 X-37.7690 Y30.5725 F208.00 
G01 X-37.7329 Y30.7539 
G01 X-37.6621 Y30.9248 
G01 X-37.5594 Y31.0786 
G01 X-37.4286 Y31.2094 
G01 X-37.2748 Y31.3121 
G01 X-37.1039 Y31.3829 
G01 X-36.9225 Y31.4190 
G01 X-36.7375 Y31.4190 
G01 X-36.5561 Y31.3829 
G01 X-36.3852 Y31.3121 
G01 X-36.2314 Y31.2094 
G01 X-36.1006 Y31.0786 
G01 X-35.9979 Y30.9248 
G01 X-35.9271 Y30.7539 
G01 X-35.8910 Y30.5725 
G01 X-35.8910 Y30.3875 
G01 X-35.9271 Y30.2061 
G01 X-35.9979 Y30.0352 
G01 X-36.1006 Y29.8814 
G01 X-36.2314 Y29.7506 
G01 X-36.3402 Y29.6780 
G01 X-36.3402 Y20.2555 
G01 X-36.3736 Y20.1309 
G01 X-36.4381 Y20.0193 
G01 X-36.5293 Y19.9281 
G01 X-36.6409 Y19.8636 
G01 X-36.7655 Y19.8302 
G01 X-40.7045 Y19.8302 
G01 X-40.8291 Y19.8636 
G01 X-40.9407 Y19.9281 
G01 X-43.8429 Y22.8302 
G01 X-44.8681 Y22.8302 
G01 X-44.9195 Y22.7533 
G01 X-45.0433 Y22.6295 
G01 X-45.1889 Y22.5322 
G01 X-45.3507 Y22.4652 
G01 X-45.5224 Y22.4310 
G01 X-45.6976 Y22.4310 
G01 X-45.8693 Y22.4652 
G01 X-46.0311 Y22.5322 
G01 X-46.1767 Y22.6295 
G01 X-46.3005 Y22.7533 
G01 X-46.3978 Y22.8989 
G01 X-46.4648 Y23.0607 
G01 X-46.4990 Y23.2324 
G01 X-46.4990 Y23.4076 
G01 X-46.4648 Y23.5793 
G01 X-46.3978 Y23.7411 
G01 X-46.3005 Y23.8867 
G01 X-46.1767 Y24.0105 
G01 X-46.0311 Y24.1078 
G01 X-45.8693 Y24.1748 
G01 X-45.6976 Y24.2090 
G01 X-45.5224 Y24.2090 
G01 X-45.3507 Y24.1748 
G01 X-45.1889 Y24.1078 
G01 X-45.0433 Y24.0105 
G01 X-44.9195 Y23.8867 
G01 X-44.8681 Y23.8098 
G01 X-43.5755 Y23.8098 
G01 X-43.4509 Y23.7764 
G01 X-43.3393 Y23.7119 
G01 X-40.4371 Y20.8098 
G01 X-37.3198 Y20.8098 
G01 X-37.3198 Y29.6780 
G01 X-37.4286 Y29.7506 
G01 X-37.5594 Y29.8814 
G01 X-37.6621 Y30.0352 
G01 X-37.7329 Y30.2061 
G01 X-37.7690 Y30.3875 
G00 Z2.5400 
G00 X-35.2290 Y30.3875 
G01 Z-0.1000 F40.00 
G01 X-35.2290 Y30.5725 F208.00 
G01 X-35.1929 Y30.7539 
G01 X-35.1221 Y30.9248 
G01 X-35.0194 Y31.0786 
G01 X-34.8886 Y31.2094 
G01 X-34.7348 Y31.3121 
G01 X-34.5639 Y31.3829 
G01 X-34.3825 Y31.4190 
G01 X-34.1975 Y31.4190 
G01 X-34.0161 Y31.3829 
G01 X-33.8452 Y31.3121 
G01 X-33.6914 Y31.2094 
G01 X-33.5606 Y31.0786 
G01 X-33.4579 Y30.9248 
G01 X-33.3871 Y30.7539 
G01 X-33.3510 Y30.5725 
G01 X-33.3510 Y30.3875 
G01 X-33.3871 Y30.2061 
G01 X-33.4579 Y30.0352 
G01 X-33.5606 Y29.8814 
G01 X-33.6914 Y29.7506 
G01 X-33.8002 Y29.6780 
G01 X-33.8002 Y18.9855 
G01 X-33.8336 Y18.8609 
G01 X-33.8981 Y18.7493 
G01 X-33.9893 Y18.6581 
G01 X-34.1009 Y18.5936 
G01 X-34.2255 Y18.5602 
G01 X-40.3620 Y18.5602 
G01 X-40.4226 Y18.5252 
G01 X-40.5659 Y18.4868 
G01 X-40.7141 Y18.4868 
G01 X-40.8574 Y18.5252 
G01 X-40.9858 Y18.5993 
G01 X-41.0907 Y18.7042 
G01 X-41.1648 Y18.8326 
G01 X-41.2032 Y18.9759 
G01 X-41.2032 Y19.1241 
G01 X-41.1648 Y19.2674 
G01 X-41.0907 Y19.3958 
G01 X-40.9858 Y19.5007 
G01 X-40.8574 Y19.5748 
G01 X-40.7141 Y19.6132 
G01 X-40.5659 Y19.6132 
G01 X-40.4226 Y19.5748 
G01 X-40.3620 Y19.5398 
G01 X-34.7798 Y19.5398 
G01 X-34.7798 Y29.6780 
G01 X-34.8886 Y29.7506 
G01 X-35.0194 Y29.8814 
G01 X-35.1221 Y30.0352 
G01 X-35.1929 Y30.2061 
G01 X-35.2290 Y30.3875 
G00 Z2.5400 
G00 X-30.1490 Y30.3875 
G01 Z-0.1000 F40.00 
G01 X-30.1490 Y30.5725 F208.00 
G01 X-30.1129 Y30.7539 
G01 X-30.0421 Y30.9248 
G01 X-29.9394 Y31.0786 
G01 X-29.8086 Y31.2094 
G01 X-29.6548 Y31.3121 
G01 X-29.4839 Y31.3829 
G01 X-29.3025 Y31.4190 
G01 X-29.1175 Y31.4190 
G01 X-28.9361 Y31.3829 
G01 X-28.7652 Y31.3121 
G01 X-28.6114 Y31.2094 
G01 X-28.4806 Y31.0786 
G01 X-28.3779 Y30.9248 
G01 X-28.3071 Y30.7539 
G01 X-28.2710 Y30.5725 
G01 X-28.2710 Y30.3875 
G01 X-28.3071 Y30.2061 
G01 X-28.3779 Y30.0352 
G01 X-28.4806 Y29.8814 
G01 X-28.6114 Y29.7506 
G01 X-28.7652 Y29.6479 
G01 X-28.9361 Y29.5771 
G01 X-29.1175 Y29.5410 
G01 X-29.3025 Y29.5410 
G01 X-29.4839 Y29.5771 
G01 X-29.6548 Y29.6479 
G01 X-29.8086 Y29.7506 
G01 X-29.9394 Y29.8814 
G01 X-30.0421 Y30.0352 
G01 X-30.1129 Y30.2061 
G01 X-30.1490 Y30.3875 
G00 Z2.5400 
G00 X-27.6090 Y30.3875 
G01 Z-0.1000 F40.00 
G01 X-27.6090 Y30.5725 F208.00 
G01 X-27.5729 Y30.7539 
G01 X-27.5021 Y30.9248 
G01 X-27.3994 Y31.0786 
G01 X-27.2686 Y31.2094 
G01 X-27.1148 Y31.3121 
G01 X-26.9439 Y31.3829 
G01 X-26.7625 Y31.4190 
G01 X-26.5775 Y31.4190 
G01 X-26.3961 Y31.3829 
G01 X-26.2252 Y31.3121 
G01 X-26.0714 Y31.2094 
G01 X-25.9406 Y31.0786 
G01 X-25.8379 Y30.9248 
G01 X-25.7671 Y30.7539 
G01 X-25.7310 Y30.5725 
G01 X-25.7310 Y30.3875 
G01 X-25.7671 Y30.2061 
G01 X-25.8379 Y30.0352 
G01 X-25.9406 Y29.8814 
G01 X-26.0714 Y29.7506 
G01 X-26.2252 Y29.6479 
G01 X-26.3961 Y29.5771 
G01 X-26.5775 Y29.5410 
G01 X-26.7625 Y29.5410 
G01 X-26.9439 Y29.5771 
G01 X-27.1148 Y29.6479 
G01 X-27.2686 Y29.7506 
G01 X-27.3994 Y29.8814 
G01 X-27.5021 Y30.0352 
G01 X-27.5729 Y30.2061 
G01 X-27.6090 Y30.3875 
G00 Z2.5400 
G00 X-25.0690 Y30.3875 
G01 Z-0.1000 F40.00 
G01 X-25.0690 Y30.5725 F208.00 
G01 X-25.0329 Y30.7539 
G01 X-24.9621 Y30.9248 
G01 X-24.8594 Y31.0786 
G01 X-24.7286 Y31.2094 
G01 X-24.5748 Y31.3121 
G01 X-24.4039 Y31.3829 
G01 X-24.2225 Y31.4190 
G01 X-24.0375 Y31.4190 
G01 X-23.8561 Y31.3829 
G01 X-23.6852 Y31.3121 
G01 X-23.5314 Y31.2094 
G01 X-23.4006 Y31.0786 
G01 X-23.2979 Y30.9248 
G01 X-23.2271 Y30.7539 
G01 X-23.1910 Y30.5725 
G01 X-23.1910 Y30.3875 
G01 X-23.2271 Y30.2061 
G01 X-23.2979 Y30.0352 
G01 X-23.4006 Y29.8814 
G01 X-23.5314 Y29.7506 
G01 X-23.6852 Y29.6479 
G01 X-23.8561 Y29.5771 
G01 X-24.0375 Y29.5410 
G01 X-24.2225 Y29.5410 
G01 X-24.4039 Y29.5771 
G01 X-24.5748 Y29.6479 
G01 X-24.7286 Y29.7506 
G01 X-24.8594 Y29.8814 
G01 X-24.9621 Y30.0352 
G01 X-25.0329 Y30.2061 
G01 X-25.0690 Y30.3875 
G00 Z2.5400 
G00 X-22.5290 Y30.3875 
G01 Z-0.1000 F40.00 
G01 X-22.5290 Y30.5725 F208.00 
G01 X-22.4929 Y30.7539 
G01 X-22.4221 Y30.9248 
G01 X-22.3194 Y31.0786 
G01 X-22.1886 Y31.2094 
G01 X-22.0348 Y31.3121 
G01 X-21.8639 Y31.3829 
G01 X-21.6825 Y31.4190 
G01 X-21.4975 Y31.4190 
G01 X-21.3161 Y31.3829 
G01 X-21.1452 Y31.3121 
G01 X-20.9914 Y31.2094 
G01 X-20.8606 Y31.0786 
G01 X-20.7579 Y30.9248 
G01 X-20.6871 Y30.7539 
G01 X-20.6510 Y30.5725 
G01 X-20.6510 Y30.3875 
G01 X-20.6871 Y30.2061 
G01 X-20.7579 Y30.0352 
G01 X-20.8606 Y29.8814 
G01 X-20.9914 Y29.7506 
G01 X-21.1452 Y29.6479 
G01 X-21.3161 Y29.5771 
G01 X-21.4975 Y29.5410 
G01 X-21.6825 Y29.5410 
G01 X-21.8639 Y29.5771 
G01 X-22.0348 Y29.6479 
G01 X-22.1886 Y29.7506 
G01 X-22.3194 Y29.8814 
G01 X-22.4221 Y30.0352 
G01 X-22.4929 Y30.2061 
G01 X-22.5290 Y30.3875 
G00 Z2.5400 
G00 X-17.4490 Y30.3875 
G01 Z-0.1000 F40.00 
G01 X-17.4490 Y30.5725 F208.00 
G01 X-17.4129 Y30.7539 
G01 X-17.3421 Y30.9248 
G01 X-17.2394 Y31.0786 
G01 X-17.1086 Y31.2094 
G01 X-16.9548 Y31.3121 
G01 X-16.7839 Y31.3829 
G01 X-16.6025 Y31.4190 
G01 X-16.4175 Y31.4190 
G01 X-16.2361 Y31.3829 
G01 X-16.0652 Y31.3121 
G01 X-15.9114 Y31.2094 
G01 X-15.7806 Y31.0786 
G01 X-15.6779 Y30.9248 
G01 X-15.6071 Y30.7539 
G01 X-15.5710 Y30.5725 
G01 X-15.5710 Y30.3875 
G01 X-15.6071 Y30.2061 
G01 X-15.6779 Y30.0352 
G01 X-15.7806 Y29.8814 
G01 X-15.9114 Y29.7506 
G01 X-16.0652 Y29.6479 
G01 X-16.2361 Y29.5771 
G01 X-16.4175 Y29.5410 
G01 X-16.6025 Y29.5410 
G01 X-16.7839 Y29.5771 
G01 X-16.9548 Y29.6479 
G01 X-17.1086 Y29.7506 
G01 X-17.2394 Y29.8814 
G01 X-17.3421 Y30.0352 
G01 X-17.4129 Y30.2061 
G01 X-17.4490 Y30.3875 
G00 Z2.5400 
G00 X-12.3690 Y30.3875 
G01 Z-0.1000 F40.00 
G01 X-12.3690 Y30.5725 F208.00 
G01 X-12.3329 Y30.7539 
G01 X-12.2621 Y30.9248 
G01 X-12.1594 Y31.0786 
G01 X-12.0286 Y31.2094 
G01 X-11.8748 Y31.3121 
G01 X-11.7039 Y31.3829 
G01 X-11.5225 Y31.4190 
G01 X-11.3375 Y31.4190 
G01 X-11.1561 Y31.3829 
G01 X-10.9852 Y31.3121 
G01 X-10.8314 Y31.2094 
G01 X-10.7006 Y31.0786 
G01 X-10.5979 Y30.9248 
G01 X-10.5271 Y30.7539 
G01 X-10.4910 Y30.5725 
G01 X-10.4910 Y30.3875 
G01 X-10.5271 Y30.2061 
G01 X-10.5979 Y30.0352 
G01 X-10.7006 Y29.8814 
G01 X-10.8314 Y29.7506 
G01 X-10.9852 Y29.6479 
G01 X-11.1561 Y29.5771 
G01 X-11.3375 Y29.5410 
G01 X-11.5225 Y29.5410 
G01 X-11.7039 Y29.5771 
G01 X-11.8748 Y29.6479 
G01 X-12.0286 Y29.7506 
G01 X-12.1594 Y29.8814 
G01 X-12.2621 Y30.0352 
G01 X-12.3329 Y30.2061 
G01 X-12.3690 Y30.3875 
G00 Z2.5400 
G00 X-40.3090 Y27.8475 
G01 Z-0.1000 F40.00 
G01 X-40.3090 Y28.0325 F208.00 
G01 X-40.2729 Y28.2139 
G01 X-40.2021 Y28.3848 
G01 X-40.0994 Y28.5386 
G01 X-39.9686 Y28.6694 
G01 X-39.8148 Y28.7721 
G01 X-39.6439 Y28.8429 
G01 X-39.4625 Y28.8790 
G01 X-39.2775 Y28.8790 
G01 X-39.0961 Y28.8429 
G01 X-38.9252 Y28.7721 
G01 X-38.7714 Y28.6694 
G01 X-38.6406 Y28.5386 
G01 X-38.5379 Y28.3848 
G01 X-38.4671 Y28.2139 
G01 X-38.4310 Y28.0325 
G01 X-38.4310 Y27.8475 
G01 X-38.4671 Y27.6661 
G01 X-38.5379 Y27.4952 
G01 X-38.6406 Y27.3414 
G01 X-38.7714 Y27.2106 
G01 X-38.9252 Y27.1079 
G01 X-39.0961 Y27.0371 
G01 X-39.2775 Y27.0010 
G01 X-39.4625 Y27.0010 
G01 X-39.6439 Y27.0371 
G01 X-39.8148 Y27.1079 
G01 X-39.9686 Y27.2106 
G01 X-40.0994 Y27.3414 
G01 X-40.2021 Y27.4952 
G01 X-40.2729 Y27.6661 
G01 X-40.3090 Y27.8475 
G00 Z2.5400 
G00 X-40.3090 Y25.3075 
G01 Z-0.1000 F40.00 
G01 X-40.3090 Y25.4925 F208.00 
G01 X-40.2729 Y25.6739 
G01 X-40.2021 Y25.8448 
G01 X-40.0994 Y25.9986 
G01 X-39.9686 Y26.1294 
G01 X-39.8148 Y26.2321 
G01 X-39.6439 Y26.3029 
G01 X-39.4625 Y26.3390 
G01 X-39.2775 Y26.3390 
G01 X-39.0961 Y26.3029 
G01 X-38.9252 Y26.2321 
G01 X-38.7714 Y26.1294 
G01 X-38.6406 Y25.9986 
G01 X-38.5379 Y25.8448 
G01 X-38.4671 Y25.6739 
G01 X-38.4310 Y25.4925 
G01 X-38.4310 Y25.3075 
G01 X-38.4671 Y25.1261 
G01 X-38.5379 Y24.9552 
G01 X-38.6406 Y24.8014 
G01 X-38.7714 Y24.6706 
G01 X-38.9252 Y24.5679 
G01 X-39.0961 Y24.4971 
G01 X-39.2775 Y24.4610 
G01 X-39.4625 Y24.4610 
G01 X-39.6439 Y24.4971 
G01 X-39.8148 Y24.5679 
G01 X-39.9686 Y24.6706 
G01 X-40.0994 Y24.8014 
G01 X-40.2021 Y24.9552 
G01 X-40.2729 Y25.1261 
G01 X-40.3090 Y25.3075 
G00 Z2.5400 
G00 X-40.3090 Y22.7675 
G01 Z-0.1000 F40.00 
G01 X-40.3090 Y22.9525 F208.00 
G01 X-40.2729 Y23.1339 
G01 X-40.2021 Y23.3048 
G01 X-40.0994 Y23.4586 
G01 X-39.9686 Y23.5894 
G01 X-39.8148 Y23.6921 
G01 X-39.6439 Y23.7629 
G01 X-39.4625 Y23.7990 
G01 X-39.2775 Y23.7990 
G01 X-39.0961 Y23.7629 
G01 X-38.9252 Y23.6921 
G01 X-38.7714 Y23.5894 
G01 X-38.6406 Y23.4586 
G01 X-38.5379 Y23.3048 
G01 X-38.4671 Y23.1339 
G01 X-38.4310 Y22.9525 
G01 X-38.4310 Y22.7675 
G01 X-38.4671 Y22.5861 
G01 X-38.5379 Y22.4152 
G01 X-38.6406 Y22.2614 
G01 X-38.7714 Y22.1306 
G01 X-38.9252 Y22.0279 
G01 X-39.0961 Y21.9571 
G01 X-39.2775 Y21.9210 
G01 X-39.4625 Y21.9210 
G01 X-39.6439 Y21.9571 
G01 X-39.8148 Y22.0279 
G01 X-39.9686 Y22.1306 
G01 X-40.0994 Y22.2614 
G01 X-40.2021 Y22.4152 
G01 X-40.2729 Y22.5861 
G01 X-40.3090 Y22.7675 
G00 Z2.5400 
G00 X-9.8290 Y29.1175 
G01 Z-0.1000 F40.00 
G01 X-9.8290 Y29.3025 F208.00 
G01 X-9.7929 Y29.4839 
G01 X-9.7221 Y29.6548 
G01 X-9.6194 Y29.8086 
G01 X-9.4886 Y29.9394 
G01 X-9.3348 Y30.0421 
G01 X-9.1639 Y30.1129 
G01 X-8.9825 Y30.1490 
G01 X-8.7975 Y30.1490 
G01 X-8.6161 Y30.1129 
G01 X-8.4452 Y30.0421 
G01 X-8.2914 Y29.9394 
G01 X-8.1606 Y29.8086 
G01 X-8.0579 Y29.6548 
G01 X-7.9871 Y29.4839 
G01 X-7.9510 Y29.3025 
G01 X-7.9510 Y29.1175 
G01 X-7.9871 Y28.9361 
G01 X-8.0579 Y28.7652 
G01 X-8.1606 Y28.6114 
G01 X-8.2914 Y28.4806 
G01 X-8.4452 Y28.3779 
G01 X-8.6161 Y28.3071 
G01 X-8.7975 Y28.2710 
G01 X-8.9825 Y28.2710 
G01 X-9.1639 Y28.3071 
G01 X-9.3348 Y28.3779 
G01 X-9.4886 Y28.4806 
G01 X-9.6194 Y28.6114 
G01 X-9.7221 Y28.7652 
G01 X-9.7929 Y28.9361 
G01 X-9.8290 Y29.1175 
G00 Z2.5400 
G00 X-9.8290 Y26.5775 
G01 Z-0.1000 F40.00 
G01 X-9.8290 Y26.7625 F208.00 
G01 X-9.7929 Y26.9439 
G01 X-9.7221 Y27.1148 
G01 X-9.6194 Y27.2686 
G01 X-9.4886 Y27.3994 
G01 X-9.3348 Y27.5021 
G01 X-9.1639 Y27.5729 
G01 X-8.9825 Y27.6090 
G01 X-8.7975 Y27.6090 
G01 X-8.6161 Y27.5729 
G01 X-8.4452 Y27.5021 
G01 X-8.2914 Y27.3994 
G01 X-8.1606 Y27.2686 
G01 X-8.0579 Y27.1148 
G01 X-7.9871 Y26.9439 
G01 X-7.9510 Y26.7625 
G01 X-7.9510 Y26.5775 
G01 X-7.9871 Y26.3961 
G01 X-8.0579 Y26.2252 
G01 X-8.1606 Y26.0714 
G01 X-8.2914 Y25.9406 
G01 X-8.4452 Y25.8379 
G01 X-8.6161 Y25.7671 
G01 X-8.7975 Y25.7310 
G01 X-8.9825 Y25.7310 
G01 X-9.1639 Y25.7671 
G01 X-9.3348 Y25.8379 
G01 X-9.4886 Y25.9406 
G01 X-9.6194 Y26.0714 
G01 X-9.7221 Y26.2252 
G01 X-9.7929 Y26.3961 
G01 X-9.8290 Y26.5775 
G00 Z2.5400 
G00 X-9.8290 Y24.0375 
G01 Z-0.1000 F40.00 
G01 X-9.8290 Y24.2225 F208.00 
G01 X-9.7929 Y24.4039 
G01 X-9.7221 Y24.5748 
G01 X-9.6194 Y24.7286 
G01 X-9.4886 Y24.8594 
G01 X-9.3348 Y24.9621 
G01 X-9.1639 Y25.0329 
G01 X-8.9825 Y25.0690 
G01 X-8.7975 Y25.0690 
G01 X-8.6161 Y25.0329 
G01 X-8.4452 Y24.9621 
G01 X-8.2914 Y24.8594 
G01 X-8.1606 Y24.7286 
G01 X-8.0579 Y24.5748 
G01 X-7.9871 Y24.4039 
G01 X-7.9510 Y24.2225 
G01 X-7.9510 Y24.0375 
G01 X-7.9871 Y23.8561 
G01 X-8.0579 Y23.6852 
G01 X-8.1606 Y23.5314 
G01 X-8.2914 Y23.4006 
G01 X-8.4452 Y23.2979 
G01 X-8.6161 Y23.2271 
G01 X-8.7975 Y23.1910 
G01 X-8.9825 Y23.1910 
G01 X-9.1639 Y23.2271 
G01 X-9.3348 Y23.2979 
G01 X-9.4886 Y23.4006 
G01 X-9.6194 Y23.5314 
G01 X-9.7221 Y23.6852 
G01 X-9.7929 Y23.8561 
G01 X-9.8290 Y24.0375 
G00 Z2.5400 
G00 X-9.8290 Y21.4975 
G01 Z-0.1000 F40.00 
G01 X-9.8290 Y21.6825 F208.00 
G01 X-9.7929 Y21.8639 
G01 X-9.7221 Y22.0348 
G01 X-9.6194 Y22.1886 
G01 X-9.4886 Y22.3194 
G01 X-9.3348 Y22.4221 
G01 X-9.1639 Y22.4929 
G01 X-8.9825 Y22.5290 
G01 X-8.7975 Y22.5290 
G01 X-8.6161 Y22.4929 
G01 X-8.4452 Y22.4221 
G01 X-8.2914 Y22.3194 
G01 X-8.1606 Y22.1886 
G01 X-8.0579 Y22.0348 
G01 X-7.9871 Y21.8639 
G01 X-7.9510 Y21.6825 
G01 X-7.9510 Y21.4975 
G01 X-7.9871 Y21.3161 
G01 X-8.0579 Y21.1452 
G01 X-8.1606 Y20.9914 
G01 X-8.2914 Y20.8606 
G01 X-8.4452 Y20.7579 
G01 X-8.6161 Y20.6871 
G01 X-8.7975 Y20.6510 
G01 X-8.9825 Y20.6510 
G01 X-9.1639 Y20.6871 
G01 X-9.3348 Y20.7579 
G01 X-9.4886 Y20.8606 
G01 X-9.6194 Y20.9914 
G01 X-9.7221 Y21.1452 
G01 X-9.7929 Y21.3161 
G01 X-9.8290 Y21.4975 
G00 Z2.5400 
G00 X-9.8290 Y18.9575 
G01 Z-0.1000 F40.00 
G01 X-9.8290 Y19.1425 F208.00 
G01 X-9.7929 Y19.3239 
G01 X-9.7221 Y19.4948 
G01 X-9.6194 Y19.6486 
G01 X-9.4886 Y19.7794 
G01 X-9.3348 Y19.8821 
G01 X-9.1639 Y19.9529 
G01 X-8.9825 Y19.9890 
G01 X-8.7975 Y19.9890 
G01 X-8.6161 Y19.9529 
G01 X-8.4452 Y19.8821 
G01 X-8.2914 Y19.7794 
G01 X-8.1606 Y19.6486 
G01 X-8.0579 Y19.4948 
G01 X-7.9871 Y19.3239 
G01 X-7.9510 Y19.1425 
G01 X-7.9510 Y18.9575 
G01 X-7.9871 Y18.7761 
G01 X-8.0579 Y18.6052 
G01 X-8.1606 Y18.4514 
G01 X-8.2914 Y18.3206 
G01 X-8.4452 Y18.2179 
G01 X-8.6161 Y18.1471 
G01 X-8.7975 Y18.1110 
G01 X-8.9825 Y18.1110 
G01 X-9.1639 Y18.1471 
G01 X-9.3348 Y18.2179 
G01 X-9.4886 Y18.3206 
G01 X-9.6194 Y18.4514 
G01 X-9.7221 Y18.6052 
G01 X-9.7929 Y18.7761 
G01 X-9.8290 Y18.9575 
G00 Z2.5400 
G00 X-9.8290 Y16.4175 
G01 Z-0.1000 F40.00 
G01 X-9.8290 Y16.6025 F208.00 
G01 X-9.7929 Y16.7839 
G01 X-9.7221 Y16.9548 
G01 X-9.6194 Y17.1086 
G01 X-9.4886 Y17.2394 
G01 X-9.3348 Y17.3421 
G01 X-9.1639 Y17.4129 
G01 X-8.9825 Y17.4490 
G01 X-8.7975 Y17.4490 
G01 X-8.6161 Y17.4129 
G01 X-8.4452 Y17.3421 
G01 X-8.2914 Y17.2394 
G01 X-8.1606 Y17.1086 
G01 X-8.0579 Y16.9548 
G01 X-7.9871 Y16.7839 
G01 X-7.9510 Y16.6025 
G01 X-7.9510 Y16.4175 
G01 X-7.9871 Y16.2361 
G01 X-8.0579 Y16.0652 
G01 X-8.1606 Y15.9114 
G01 X-8.2914 Y15.7806 
G01 X-8.4452 Y15.6779 
G01 X-8.6161 Y15.6071 
G01 X-8.7975 Y15.5710 
G01 X-8.9825 Y15.5710 
G01 X-9.1639 Y15.6071 
G01 X-9.3348 Y15.6779 
G01 X-9.4886 Y15.7806 
G01 X-9.6194 Y15.9114 
G01 X-9.7221 Y16.0652 
G01 X-9.7929 Y16.2361 
G01 X-9.8290 Y16.4175 
G00 Z2.5400 
G00 X-21.2590 Y27.8475 
G01 Z-0.1000 F40.00 
G01 X-21.2590 Y28.0325 F208.00 
G01 X-21.2229 Y28.2139 
G01 X-21.1521 Y28.3848 
G01 X-21.0494 Y28.5386 
G01 X-20.9186 Y28.6694 
G01 X-20.7648 Y28.7721 
G01 X-20.5939 Y28.8429 
G01 X-20.4125 Y28.8790 
G01 X-20.2275 Y28.8790 
G01 X-20.0461 Y28.8429 
G01 X-19.8752 Y28.7721 
G01 X-19.7214 Y28.6694 
G01 X-19.5906 Y28.5386 
G01 X-19.4879 Y28.3848 
G01 X-19.4171 Y28.2139 
G01 X-19.3810 Y28.0325 
G01 X-19.3810 Y27.8475 
G01 X-19.3888 Y27.8082 
G01 X-19.3805 Y27.8047 
G01 X-19.2836 Y27.7400 
G01 X-19.2012 Y27.6576 
G01 X-19.1365 Y27.5607 
G01 X-19.0919 Y27.4531 
G01 X-19.0692 Y27.3388 
G01 X-19.0692 Y23.4232 
G01 X-18.9759 Y23.4232 
G01 X-18.8326 Y23.3848 
G01 X-18.7042 Y23.3107 
G01 X-18.5993 Y23.2058 
G01 X-18.5252 Y23.0774 
G01 X-18.4868 Y22.9341 
G01 X-18.4868 Y22.7858 
G01 X-18.5252 Y22.6426 
G01 X-18.5993 Y22.5142 
G01 X-18.7042 Y22.4093 
G01 X-18.8326 Y22.3352 
G01 X-18.9759 Y22.2968 
G01 X-19.1241 Y22.2968 
G01 X-19.2674 Y22.3352 
G01 X-19.3286 Y22.3705 
G01 X-19.3805 Y22.3359 
G01 X-19.4881 Y22.2913 
G01 X-19.6024 Y22.2686 
G01 X-19.7188 Y22.2686 
G01 X-19.8331 Y22.2913 
G01 X-19.9407 Y22.3359 
G01 X-20.0376 Y22.4006 
G01 X-20.1200 Y22.4830 
G01 X-20.1847 Y22.5799 
G01 X-20.2293 Y22.6875 
G01 X-20.2520 Y22.8018 
G01 X-20.2520 Y27.0010 
G01 X-20.4125 Y27.0010 
G01 X-20.5939 Y27.0371 
G01 X-20.7648 Y27.1079 
G01 X-20.9186 Y27.2106 
G01 X-21.0494 Y27.3414 
G01 X-21.1521 Y27.4952 
G01 X-21.2229 Y27.6661 
G01 X-21.2590 Y27.8475 
G00 Z2.5400 
G00 X-40.3090 Y15.1475 
G01 Z-0.1000 F40.00 
G01 X-40.3090 Y15.3325 F208.00 
G01 X-40.2729 Y15.5139 
G01 X-40.2021 Y15.6848 
G01 X-40.0994 Y15.8386 
G01 X-39.9686 Y15.9694 
G01 X-39.8148 Y16.0721 
G01 X-39.6439 Y16.1429 
G01 X-39.4625 Y16.1790 
G01 X-39.2775 Y16.1790 
G01 X-39.0961 Y16.1429 
G01 X-38.9252 Y16.0721 
G01 X-38.7714 Y15.9694 
G01 X-38.6406 Y15.8386 
G01 X-38.5379 Y15.6848 
G01 X-38.4671 Y15.5139 
G01 X-38.4310 Y15.3325 
G01 X-38.4310 Y15.1475 
G01 X-38.4671 Y14.9661 
G01 X-38.5379 Y14.7952 
G01 X-38.6406 Y14.6414 
G01 X-38.7714 Y14.5106 
G01 X-38.9252 Y14.4079 
G01 X-39.0961 Y14.3371 
G01 X-39.2775 Y14.3010 
G01 X-39.4625 Y14.3010 
G01 X-39.6439 Y14.3371 
G01 X-39.8148 Y14.4079 
G01 X-39.9686 Y14.5106 
G01 X-40.0994 Y14.6414 
G01 X-40.2021 Y14.7952 
G01 X-40.2729 Y14.9661 
G01 X-40.3090 Y15.1475 
G00 Z2.5400 
G00 X-35.2290 Y15.1475 
G01 Z-0.1000 F40.00 
G01 X-35.2290 Y15.3325 F208.00 
G01 X-35.1929 Y15.5139 
G01 X-35.1221 Y15.6848 
G01 X-35.0194 Y15.8386 
G01 X-34.8886 Y15.9694 
G01 X-34.7348 Y16.0721 
G01 X-34.5639 Y16.1429 
G01 X-34.3825 Y16.1790 
G01 X-34.1975 Y16.1790 
G01 X-34.0161 Y16.1429 
G01 X-33.8452 Y16.0721 
G01 X-33.6914 Y15.9694 
G01 X-33.5606 Y15.8386 
G01 X-33.4579 Y15.6848 
G01 X-33.3871 Y15.5139 
G01 X-33.3510 Y15.3325 
G01 X-33.3510 Y15.1475 
G01 X-33.3871 Y14.9661 
G01 X-33.4579 Y14.7952 
G01 X-33.5606 Y14.6414 
G01 X-33.6914 Y14.5106 
G01 X-33.8452 Y14.4079 
G01 X-34.0161 Y14.3371 
G01 X-34.1975 Y14.3010 
G01 X-34.3825 Y14.3010 
G01 X-34.5639 Y14.3371 
G01 X-34.7348 Y14.4079 
G01 X-34.8886 Y14.5106 
G01 X-35.0194 Y14.6414 
G01 X-35.1221 Y14.7952 
G01 X-35.1929 Y14.9661 
G01 X-35.2290 Y15.1475 
G00 Z2.5400 
G00 X-32.6890 Y15.1475 
G01 Z-0.1000 F40.00 
G01 X-32.6890 Y15.3325 F208.00 
G01 X-32.6529 Y15.5139 
G01 X-32.5821 Y15.6848 
G01 X-32.4794 Y15.8386 
G01 X-32.3486 Y15.9694 
G01 X-32.1948 Y16.0721 
G01 X-32.0239 Y16.1429 
G01 X-31.8425 Y16.1790 
G01 X-31.6575 Y16.1790 
G01 X-31.4761 Y16.1429 
G01 X-31.3052 Y16.0721 
G01 X-31.1514 Y15.9694 
G01 X-31.0206 Y15.8386 
G01 X-30.9179 Y15.6848 
G01 X-30.8471 Y15.5139 
G01 X-30.8110 Y15.3325 
G01 X-30.8110 Y15.1475 
G01 X-30.8471 Y14.9661 
G01 X-30.9179 Y14.7952 
G01 X-31.0206 Y14.6414 
G01 X-31.1514 Y14.5106 
G01 X-31.3052 Y14.4079 
G01 X-31.4761 Y14.3371 
G01 X-31.6575 Y14.3010 
G01 X-31.8425 Y14.3010 
G01 X-32.0239 Y14.3371 
G01 X-32.1948 Y14.4079 
G01 X-32.3486 Y14.5106 
G01 X-32.4794 Y14.6414 
G01 X-32.5821 Y14.7952 
G01 X-32.6529 Y14.9661 
G01 X-32.6890 Y15.1475 
G00 Z2.5400 
G00 X-30.1490 Y15.1475 
G01 Z-0.1000 F40.00 
G01 X-30.1490 Y15.3325 F208.00 
G01 X-30.1129 Y15.5139 
G01 X-30.0421 Y15.6848 
G01 X-29.9394 Y15.8386 
G01 X-29.8086 Y15.9694 
G01 X-29.6548 Y16.0721 
G01 X-29.4839 Y16.1429 
G01 X-29.3025 Y16.1790 
G01 X-29.1175 Y16.1790 
G01 X-28.9361 Y16.1429 
G01 X-28.7652 Y16.0721 
G01 X-28.6114 Y15.9694 
G01 X-28.4806 Y15.8386 
G01 X-28.3779 Y15.6848 
G01 X-28.3071 Y15.5139 
G01 X-28.2710 Y15.3325 
G01 X-28.2710 Y15.1475 
G01 X-28.3071 Y14.9661 
G01 X-28.3779 Y14.7952 
G01 X-28.4806 Y14.6414 
G01 X-28.6114 Y14.5106 
G01 X-28.7652 Y14.4079 
G01 X-28.9361 Y14.3371 
G01 X-29.1175 Y14.3010 
G01 X-29.3025 Y14.3010 
G01 X-29.4839 Y14.3371 
G01 X-29.6548 Y14.4079 
G01 X-29.8086 Y14.5106 
G01 X-29.9394 Y14.6414 
G01 X-30.0421 Y14.7952 
G01 X-30.1129 Y14.9661 
G01 X-30.1490 Y15.1475 
G00 Z2.5400 
G00 X-27.6090 Y15.1475 
G01 Z-0.1000 F40.00 
G01 X-27.6090 Y15.3325 F208.00 
G01 X-27.5729 Y15.5139 
G01 X-27.5021 Y15.6848 
G01 X-27.3994 Y15.8386 
G01 X-27.2686 Y15.9694 
G01 X-27.1598 Y16.0420 
G01 X-27.1598 Y17.5771 
G01 X-29.5107 Y19.9281 
G01 X-29.6019 Y20.0193 
G01 X-29.6664 Y20.1309 
G01 X-29.6998 Y20.2555 
G01 X-29.6998 Y26.3920 
G01 X-29.7348 Y26.4526 
G01 X-29.7732 Y26.5959 
G01 X-29.7732 Y26.7441 
G01 X-29.7348 Y26.8874 
G01 X-29.6607 Y27.0158 
G01 X-29.5558 Y27.1207 
G01 X-29.4274 Y27.1948 
G01 X-29.2841 Y27.2332 
G01 X-29.1359 Y27.2332 
G01 X-28.9926 Y27.1948 
G01 X-28.8642 Y27.1207 
G01 X-28.7593 Y27.0158 
G01 X-28.6852 Y26.8874 
G01 X-28.6468 Y26.7441 
G01 X-28.6468 Y26.5959 
G01 X-28.6852 Y26.4526 
G01 X-28.7202 Y26.3920 
G01 X-28.7202 Y20.5229 
G01 X-26.2781 Y18.0807 
G01 X-26.2136 Y17.9691 
G01 X-26.1802 Y17.8445 
G01 X-26.1802 Y16.0420 
G01 X-26.0714 Y15.9694 
G01 X-25.9406 Y15.8386 
G01 X-25.8379 Y15.6848 
G01 X-25.7671 Y15.5139 
G01 X-25.7310 Y15.3325 
G01 X-25.7310 Y15.1475 
G01 X-25.7671 Y14.9661 
G01 X-25.8379 Y14.7952 
G01 X-25.9406 Y14.6414 
G01 X-26.0714 Y14.5106 
G01 X-26.2252 Y14.4079 
G01 X-26.3961 Y14.3371 
G01 X-26.5775 Y14.3010 
G01 X-26.7625 Y14.3010 
G01 X-26.9439 Y14.3371 
G01 X-27.1148 Y14.4079 
G01 X-27.2686 Y14.5106 
G01 X-27.3994 Y14.6414 
G01 X-27.5021 Y14.7952 
G01 X-27.5729 Y14.9661 
G01 X-27.6090 Y15.1475 
G00 Z2.5400 
G00 X-22.5290 Y15.1475 
G01 Z-0.1000 F40.00 
G01 X-22.5290 Y15.3325 F208.00 
G01 X-22.4929 Y15.5139 
G01 X-22.4221 Y15.6848 
G01 X-22.3194 Y15.8386 
G01 X-22.1886 Y15.9694 
G01 X-22.0348 Y16.0721 
G01 X-21.8639 Y16.1429 
G01 X-21.6825 Y16.1790 
G01 X-21.4975 Y16.1790 
G01 X-21.3161 Y16.1429 
G01 X-21.1452 Y16.0721 
G01 X-20.9914 Y15.9694 
G01 X-20.8606 Y15.8386 
G01 X-20.7579 Y15.6848 
G01 X-20.6871 Y15.5139 
G01 X-20.6510 Y15.3325 
G01 X-20.6510 Y15.1475 
G01 X-20.6871 Y14.9661 
G01 X-20.7579 Y14.7952 
G01 X-20.8606 Y14.6414 
G01 X-20.9914 Y14.5106 
G01 X-21.1002 Y14.4380 
G01 X-21.1002 Y8.8255 
G01 X-21.1336 Y8.7009 
G01 X-21.1981 Y8.5893 
G01 X-21.2893 Y8.4981 
G01 X-21.4009 Y8.4336 
G01 X-21.5255 Y8.4002 
G01 X-50.7545 Y8.4002 
G01 X-50.8791 Y8.4336 
G01 X-50.9907 Y8.4981 
G01 X-51.0819 Y8.5893 
G01 X-51.1464 Y8.7009 
G01 X-51.1798 Y8.8255 
G01 X-51.1798 Y15.3845 
G01 X-51.1464 Y15.5091 
G01 X-51.0819 Y15.6207 
G01 X-50.9907 Y15.7119 
G01 X-50.8791 Y15.7764 
G01 X-50.7545 Y15.8098 
G01 X-46.3519 Y15.8098 
G01 X-46.3005 Y15.8867 
G01 X-46.1767 Y16.0105 
G01 X-46.0311 Y16.1078 
G01 X-45.8693 Y16.1748 
G01 X-45.6976 Y16.2090 
G01 X-45.5224 Y16.2090 
G01 X-45.3507 Y16.1748 
G01 X-45.1889 Y16.1078 
G01 X-45.0433 Y16.0105 
G01 X-44.9195 Y15.8867 
G01 X-44.8222 Y15.7411 
G01 X-44.7552 Y15.5793 
G01 X-44.7210 Y15.4076 
G01 X-44.7210 Y15.2324 
G01 X-44.7552 Y15.0607 
G01 X-44.8222 Y14.8989 
G01 X-44.9195 Y14.7533 
G01 X-45.0433 Y14.6295 
G01 X-45.1889 Y14.5322 
G01 X-45.3507 Y14.4652 
G01 X-45.5224 Y14.4310 
G01 X-45.6976 Y14.4310 
G01 X-45.8693 Y14.4652 
G01 X-46.0311 Y14.5322 
G01 X-46.1767 Y14.6295 
G01 X-46.3005 Y14.7533 
G01 X-46.3519 Y14.8302 
G01 X-50.2002 Y14.8302 
G01 X-50.2002 Y9.3798 
G01 X-22.0798 Y9.3798 
G01 X-22.0798 Y14.4380 
G01 X-22.1886 Y14.5106 
G01 X-22.3194 Y14.6414 
G01 X-22.4221 Y14.7952 
G01 X-22.4929 Y14.9661 
G01 X-22.5290 Y15.1475 
G00 Z2.5400 
G00 X-19.9890 Y15.1475 
G01 Z-0.1000 F40.00 
G01 X-19.9890 Y15.3325 F208.00 
G01 X-19.9529 Y15.5139 
G01 X-19.8821 Y15.6848 
G01 X-19.7794 Y15.8386 
G01 X-19.6486 Y15.9694 
G01 X-19.4948 Y16.0721 
G01 X-19.3239 Y16.1429 
G01 X-19.1425 Y16.1790 
G01 X-18.9575 Y16.1790 
G01 X-18.7761 Y16.1429 
G01 X-18.6052 Y16.0721 
G01 X-18.4514 Y15.9694 
G01 X-18.3206 Y15.8386 
G01 X-18.2179 Y15.6848 
G01 X-18.1471 Y15.5139 
G01 X-18.1110 Y15.3325 
G01 X-18.1110 Y15.1475 
G01 X-18.1471 Y14.9661 
G01 X-18.2179 Y14.7952 
G01 X-18.3206 Y14.6414 
G01 X-18.4514 Y14.5106 
G01 X-18.6052 Y14.4079 
G01 X-18.7761 Y14.3371 
G01 X-18.9575 Y14.3010 
G01 X-19.1425 Y14.3010 
G01 X-19.3239 Y14.3371 
G01 X-19.4948 Y14.4079 
G01 X-19.6486 Y14.5106 
G01 X-19.7794 Y14.6414 
G01 X-19.8821 Y14.7952 
G01 X-19.9529 Y14.9661 
G01 X-19.9890 Y15.1475 
G00 Z2.5400 
G00 X-14.9090 Y15.1475 
G01 Z-0.1000 F40.00 
G01 X-14.9090 Y15.3325 F208.00 
G01 X-14.8729 Y15.5139 
G01 X-14.8021 Y15.6848 
G01 X-14.6994 Y15.8386 
G01 X-14.5686 Y15.9694 
G01 X-14.4148 Y16.0721 
G01 X-14.2439 Y16.1429 
G01 X-14.0625 Y16.1790 
G01 X-13.8775 Y16.1790 
G01 X-13.6961 Y16.1429 
G01 X-13.5252 Y16.0721 
G01 X-13.3714 Y15.9694 
G01 X-13.2406 Y15.8386 
G01 X-13.1379 Y15.6848 
G01 X-13.0671 Y15.5139 
G01 X-13.0310 Y15.3325 
G01 X-13.0310 Y15.1475 
G01 X-13.0671 Y14.9661 
G01 X-13.1379 Y14.7952 
G01 X-13.2406 Y14.6414 
G01 X-13.3714 Y14.5106 
G01 X-13.5252 Y14.4079 
G01 X-13.6961 Y14.3371 
G01 X-13.8775 Y14.3010 
G01 X-14.0625 Y14.3010 
G01 X-14.2439 Y14.3371 
G01 X-14.4148 Y14.4079 
G01 X-14.5686 Y14.5106 
G01 X-14.6994 Y14.6414 
G01 X-14.8021 Y14.7952 
G01 X-14.8729 Y14.9661 
G01 X-14.9090 Y15.1475 
G00 Z2.5400 
G00 X-12.3690 Y15.1475 
G01 Z-0.1000 F40.00 
G01 X-12.3690 Y15.3325 F208.00 
G01 X-12.3329 Y15.5139 
G01 X-12.2621 Y15.6848 
G01 X-12.1594 Y15.8386 
G01 X-12.0286 Y15.9694 
G01 X-11.8748 Y16.0721 
G01 X-11.7039 Y16.1429 
G01 X-11.5225 Y16.1790 
G01 X-11.3375 Y16.1790 
G01 X-11.1561 Y16.1429 
G01 X-10.9852 Y16.0721 
G01 X-10.8314 Y15.9694 
G01 X-10.7006 Y15.8386 
G01 X-10.5979 Y15.6848 
G01 X-10.5271 Y15.5139 
G01 X-10.4910 Y15.3325 
G01 X-10.4910 Y15.1475 
G01 X-10.5271 Y14.9661 
G01 X-10.5979 Y14.7952 
G01 X-10.7006 Y14.6414 
G01 X-10.8314 Y14.5106 
G01 X-10.9852 Y14.4079 
G01 X-11.1561 Y14.3371 
G01 X-11.3375 Y14.3010 
G01 X-11.5225 Y14.3010 
G01 X-11.7039 Y14.3371 
G01 X-11.8748 Y14.4079 
G01 X-12.0286 Y14.5106 
G01 X-12.1594 Y14.6414 
G01 X-12.2621 Y14.7952 
G01 X-12.3329 Y14.9661 
G01 X-12.3690 Y15.1475 
G00 Z2.5400 
G00 X-17.4490 Y15.1475 
G01 Z-0.1000 F40.00 
G01 X-17.4490 Y15.3325 F208.00 
G01 X-17.4129 Y15.5139 
G01 X-17.3421 Y15.6848 
G01 X-17.2394 Y15.8386 
G01 X-17.1086 Y15.9694 
G01 X-16.9548 Y16.0721 
G01 X-16.7839 Y16.1429 
G01 X-16.6025 Y16.1790 
G01 X-16.4175 Y16.1790 
G01 X-16.2361 Y16.1429 
G01 X-16.0652 Y16.0721 
G01 X-15.9114 Y15.9694 
G01 X-15.7806 Y15.8386 
G01 X-15.6779 Y15.6848 
G01 X-15.6071 Y15.5139 
G01 X-15.5710 Y15.3325 
G01 X-15.5710 Y15.1475 
G01 X-15.6071 Y14.9661 
G01 X-15.6779 Y14.7952 
G01 X-15.7806 Y14.6414 
G01 X-15.9114 Y14.5106 
G01 X-16.0652 Y14.4079 
G01 X-16.2361 Y14.3371 
G01 X-16.4175 Y14.3010 
G01 X-16.6025 Y14.3010 
G01 X-16.7839 Y14.3371 
G01 X-16.9548 Y14.4079 
G01 X-17.1086 Y14.5106 
G01 X-17.2394 Y14.6414 
G01 X-17.3421 Y14.7952 
G01 X-17.4129 Y14.9661 
G01 X-17.4490 Y15.1475 
G00 Z2.5400 
G00 X-25.0690 Y15.1475 
G01 Z-0.1000 F40.00 
G01 X-25.0690 Y15.3325 F208.00 
G01 X-25.0329 Y15.5139 
G01 X-24.9621 Y15.6848 
G01 X-24.8594 Y15.8386 
G01 X-24.7286 Y15.9694 
G01 X-24.5748 Y16.0721 
G01 X-24.4039 Y16.1429 
G01 X-24.2225 Y16.1790 
G01 X-24.0375 Y16.1790 
G01 X-23.8561 Y16.1429 
G01 X-23.6852 Y16.0721 
G01 X-23.5314 Y15.9694 
G01 X-23.4006 Y15.8386 
G01 X-23.2979 Y15.6848 
G01 X-23.2271 Y15.5139 
G01 X-23.1910 Y15.3325 
G01 X-23.1910 Y15.1475 
G01 X-23.2271 Y14.9661 
G01 X-23.2979 Y14.7952 
G01 X-23.4006 Y14.6414 
G01 X-23.5314 Y14.5106 
G01 X-23.6852 Y14.4079 
G01 X-23.8561 Y14.3371 
G01 X-24.0375 Y14.3010 
G01 X-24.2225 Y14.3010 
G01 X-24.4039 Y14.3371 
G01 X-24.5748 Y14.4079 
G01 X-24.7286 Y14.5106 
G01 X-24.8594 Y14.6414 
G01 X-24.9621 Y14.7952 
G01 X-25.0329 Y14.9661 
G01 X-25.0690 Y15.1475 
G00 Z2.5400 
G00 X-21.1654 Y36.4798 
G01 Z-0.1000 F40.00 
G01 X-21.1654 Y37.1802 F208.00 
G01 X-20.6702 Y37.6754 
G01 X-19.9698 Y37.6754 
G01 X-19.6142 Y37.3198 
G01 X-14.6758 Y37.3198 
G01 X-14.3202 Y37.6754 
G01 X-13.6198 Y37.6754 
G01 X-13.1246 Y37.1802 
G01 X-13.1246 Y36.4798 
G01 X-13.6198 Y35.9846 
G01 X-14.3202 Y35.9846 
G01 X-14.6758 Y36.3402 
G01 X-19.6142 Y36.3402 
G01 X-19.9698 Y35.9846 
G01 X-20.6702 Y35.9846 
G01 X-21.1654 Y36.4798 
G00 Z2.5400 
G00 X-28.7854 Y37.1802 
G01 Z-0.1000 F40.00 
G01 X-28.2902 Y37.6754 F208.00 
G01 X-27.5898 Y37.6754 
G01 X-27.0946 Y37.1802 
G01 X-27.0946 Y36.4798 
G01 X-27.5898 Y35.9846 
G01 X-28.0927 Y35.9846 
G01 X-28.7202 Y35.3571 
G01 X-28.7202 Y34.5680 
G01 X-28.6852 Y34.5074 
G01 X-28.6468 Y34.3641 
G01 X-28.6468 Y34.2159 
G01 X-28.6852 Y34.0726 
G01 X-28.7593 Y33.9442 
G01 X-28.8642 Y33.8393 
G01 X-28.9926 Y33.7652 
G01 X-29.1359 Y33.7268 
G01 X-29.2841 Y33.7268 
G01 X-29.4274 Y33.7652 
G01 X-29.5558 Y33.8393 
G01 X-29.6607 Y33.9442 
G01 X-29.7348 Y34.0726 
G01 X-29.7732 Y34.2159 
G01 X-29.7732 Y34.3641 
G01 X-29.7348 Y34.5074 
G01 X-29.6998 Y34.5680 
G01 X-29.6998 Y35.6245 
G01 X-29.6664 Y35.7491 
G01 X-29.6019 Y35.8607 
G01 X-29.5107 Y35.9519 
G01 X-28.7854 Y36.6773 
G01 X-28.7854 Y37.1802 
G00 Z2.5400 
G00 X-35.7041 Y12.0976 
G01 Z-0.1000 F40.00 
G01 X-33.9935 Y12.0976 F208.00 
G01 X-33.8106 Y12.0612 
G01 X-33.6382 Y11.9898 
G01 X-33.4831 Y11.8862 
G01 X-33.3512 Y11.7543 
G01 X-33.2476 Y11.5992 
G01 X-33.1762 Y11.4268 
G01 X-33.1398 Y11.2439 
G01 X-33.1398 Y11.0573 
G01 X-33.1762 Y10.8744 
G01 X-33.2476 Y10.7020 
G01 X-33.3512 Y10.5469 
G01 X-33.4831 Y10.4150 
G01 X-33.6382 Y10.3114 
G01 X-33.8106 Y10.2400 
G01 X-33.9935 Y10.2036 
G01 X-35.7041 Y10.2036 
G01 X-35.8870 Y10.2400 
G01 X-36.0594 Y10.3114 
G01 X-36.2145 Y10.4150 
G01 X-36.3464 Y10.5469 
G01 X-36.4500 Y10.7020 
G01 X-36.5214 Y10.8744 
G01 X-36.5578 Y11.0573 
G01 X-36.5578 Y11.2439 
G01 X-36.5214 Y11.4268 
G01 X-36.4500 Y11.5992 
G01 X-36.3464 Y11.7543 
G01 X-36.2145 Y11.8862 
G01 X-36.0594 Y11.9898 
G01 X-35.8870 Y12.0612 
G01 X-35.7041 Y12.0976 
G00 Z2.5400 
G00 X-35.7041 Y7.5764 
G01 Z-0.1000 F40.00 
G01 X-33.9935 Y7.5764 F208.00 
G01 X-33.8106 Y7.5400 
G01 X-33.6382 Y7.4686 
G01 X-33.4831 Y7.3650 
G01 X-33.3512 Y7.2331 
G01 X-33.2476 Y7.0780 
G01 X-33.1762 Y6.9056 
G01 X-33.1398 Y6.7227 
G01 X-33.1398 Y6.5361 
G01 X-33.1762 Y6.3532 
G01 X-33.2476 Y6.1808 
G01 X-33.3512 Y6.0257 
G01 X-33.4831 Y5.8938 
G01 X-33.6382 Y5.7902 
G01 X-33.8106 Y5.7188 
G01 X-33.9935 Y5.6824 
G01 X-35.7041 Y5.6824 
G01 X-35.8870 Y5.7188 
G01 X-36.0594 Y5.7902 
G01 X-36.2145 Y5.8938 
G01 X-36.3464 Y6.0257 
G01 X-36.4500 Y6.1808 
G01 X-36.5214 Y6.3532 
G01 X-36.5578 Y6.5361 
G01 X-36.5578 Y6.7227 
G01 X-36.5214 Y6.9056 
G01 X-36.4500 Y7.0780 
G01 X-36.3464 Y7.2331 
G01 X-36.2145 Y7.3650 
G01 X-36.0594 Y7.4686 
G01 X-35.8870 Y7.5400 
G01 X-35.7041 Y7.5764 
G00 Z2.5400 
G00 X-42.2065 Y12.0976 
G01 Z-0.1000 F40.00 
G01 X-41.8276 Y12.0976 F208.00 
G01 X-41.8056 Y12.1799 
G01 X-41.7411 Y12.2916 
G01 X-41.6499 Y12.3828 
G01 X-40.9407 Y13.0919 
G01 X-40.8291 Y13.1564 
G01 X-40.7045 Y13.1898 
G01 X-37.3198 Y13.1898 
G01 X-37.3198 Y14.4379 
G01 X-37.4286 Y14.5106 
G01 X-37.5594 Y14.6414 
G01 X-37.6621 Y14.7952 
G01 X-37.7329 Y14.9661 
G01 X-37.7690 Y15.1475 
G01 X-37.7690 Y15.3325 
G01 X-37.7329 Y15.5139 
G01 X-37.6621 Y15.6848 
G01 X-37.5594 Y15.8386 
G01 X-37.4286 Y15.9694 
G01 X-37.2748 Y16.0721 
G01 X-37.1039 Y16.1429 
G01 X-36.9225 Y16.1790 
G01 X-36.7375 Y16.1790 
G01 X-36.5561 Y16.1429 
G01 X-36.3852 Y16.0721 
G01 X-36.2314 Y15.9694 
G01 X-36.1006 Y15.8386 
G01 X-35.9979 Y15.6848 
G01 X-35.9271 Y15.5139 
G01 X-35.8910 Y15.3325 
G01 X-35.8910 Y15.1475 
G01 X-35.9271 Y14.9661 
G01 X-35.9979 Y14.7952 
G01 X-36.1006 Y14.6414 
G01 X-36.2314 Y14.5106 
G01 X-36.3402 Y14.4379 
G01 X-36.3402 Y12.6355 
G01 X-36.3736 Y12.5109 
G01 X-36.4381 Y12.3993 
G01 X-36.5293 Y12.3081 
G01 X-36.6409 Y12.2436 
G01 X-36.7655 Y12.2102 
G01 X-40.4371 Y12.2102 
G01 X-40.5497 Y12.0976 
G01 X-40.4959 Y12.0976 
G01 X-40.3130 Y12.0612 
G01 X-40.1406 Y11.9898 
G01 X-39.9855 Y11.8862 
G01 X-39.8536 Y11.7543 
G01 X-39.7500 Y11.5992 
G01 X-39.6786 Y11.4268 
G01 X-39.6422 Y11.2439 
G01 X-39.6422 Y11.0573 
G01 X-39.6786 Y10.8744 
G01 X-39.7500 Y10.7020 
G01 X-39.8536 Y10.5469 
G01 X-39.9855 Y10.4150 
G01 X-40.1406 Y10.3114 
G01 X-40.3130 Y10.2400 
G01 X-40.4959 Y10.2036 
G01 X-42.2065 Y10.2036 
G01 X-42.3894 Y10.2400 
G01 X-42.5618 Y10.3114 
G01 X-42.7169 Y10.4150 
G01 X-42.8488 Y10.5469 
G01 X-42.9524 Y10.7020 
G01 X-43.0238 Y10.8744 
G01 X-43.0602 Y11.0573 
G01 X-43.0602 Y11.2439 
G01 X-43.0238 Y11.4268 
G01 X-42.9524 Y11.5992 
G01 X-42.8488 Y11.7543 
G01 X-42.7169 Y11.8862 
G01 X-42.5618 Y11.9898 
G01 X-42.3894 Y12.0612 
G01 X-42.2065 Y12.0976 
G00 Z2.5400 
G00 X-42.2065 Y7.5764 
G01 Z-0.1000 F40.00 
G01 X-40.4959 Y7.5764 F208.00 
G01 X-40.3130 Y7.5400 
G01 X-40.1406 Y7.4686 
G01 X-39.9855 Y7.3650 
G01 X-39.8536 Y7.2331 
G01 X-39.7500 Y7.0780 
G01 X-39.6786 Y6.9056 
G01 X-39.6422 Y6.7227 
G01 X-39.6422 Y6.5361 
G01 X-39.6786 Y6.3532 
G01 X-39.7500 Y6.1808 
G01 X-39.8536 Y6.0257 
G01 X-39.9855 Y5.8938 
G01 X-40.1406 Y5.7902 
G01 X-40.3130 Y5.7188 
G01 X-40.4959 Y5.6824 
G01 X-40.8044 Y5.6824 
G01 X-40.6918 Y5.5698 
G01 X-24.4615 Y5.5698 
G01 X-24.4101 Y5.6041 
G01 X-24.3025 Y5.6487 
G01 X-24.1882 Y5.6714 
G01 X-24.0718 Y5.6714 
G01 X-23.9575 Y5.6487 
G01 X-23.8499 Y5.6041 
G01 X-23.7985 Y5.5698 
G01 X-6.8398 Y5.5698 
G01 X-6.8398 Y33.8002 
G01 X-13.2642 Y33.8002 
G01 X-13.4802 Y33.5842 
G01 X-13.4802 Y31.2820 
G01 X-13.3714 Y31.2094 
G01 X-13.2406 Y31.0786 
G01 X-13.1379 Y30.9248 
G01 X-13.0671 Y30.7539 
G01 X-13.0310 Y30.5725 
G01 X-13.0310 Y30.3875 
G01 X-13.0671 Y30.2061 
G01 X-13.1379 Y30.0352 
G01 X-13.2406 Y29.8814 
G01 X-13.3714 Y29.7506 
G01 X-13.5252 Y29.6479 
G01 X-13.6961 Y29.5771 
G01 X-13.8775 Y29.5410 
G01 X-14.0625 Y29.5410 
G01 X-14.2439 Y29.5771 
G01 X-14.4148 Y29.6479 
G01 X-14.5686 Y29.7506 
G01 X-14.6994 Y29.8814 
G01 X-14.8021 Y30.0352 
G01 X-14.8729 Y30.2061 
G01 X-14.9090 Y30.3875 
G01 X-14.9090 Y30.5725 
G01 X-14.8729 Y30.7539 
G01 X-14.8021 Y30.9248 
G01 X-14.6994 Y31.0786 
G01 X-14.5686 Y31.2094 
G01 X-14.4598 Y31.2820 
G01 X-14.4598 Y33.5842 
G01 X-14.8154 Y33.9398 
G01 X-14.8154 Y34.6402 
G01 X-14.3202 Y35.1354 
G01 X-13.6198 Y35.1354 
G01 X-13.2642 Y34.7798 
G01 X-6.2855 Y34.7798 
G01 X-6.1609 Y34.7464 
G01 X-6.0493 Y34.6819 
G01 X-5.9581 Y34.5907 
G01 X-5.8936 Y34.4791 
G01 X-5.8602 Y34.3545 
G01 X-5.8602 Y5.0155 
G01 X-5.8936 Y4.8909 
G01 X-5.9581 Y4.7793 
G01 X-6.0493 Y4.6881 
G01 X-6.1609 Y4.6236 
G01 X-6.2855 Y4.5902 
G01 X-23.5386 Y4.5902 
G01 X-23.5386 Y3.7369 
G01 X-22.8655 Y3.0638 
G01 X-22.8655 Y2.0162 
G01 X-23.6062 Y1.2755 
G01 X-24.6538 Y1.2755 
G01 X-25.3945 Y2.0162 
G01 X-25.3945 Y3.0638 
G01 X-24.7214 Y3.7369 
G01 X-24.7214 Y4.5902 
G01 X-40.9592 Y4.5902 
G01 X-41.0838 Y4.6236 
G01 X-41.1954 Y4.6881 
G01 X-41.2866 Y4.7793 
G01 X-41.7431 Y5.2358 
G01 X-41.8076 Y5.3474 
G01 X-41.8410 Y5.4720 
G01 X-41.8410 Y5.6824 
G01 X-42.2065 Y5.6824 
G01 X-42.3894 Y5.7188 
G01 X-42.5618 Y5.7902 
G01 X-42.6666 Y5.8602 
G01 X-61.0245 Y5.8602 
G01 X-61.1491 Y5.8936 
G01 X-61.2607 Y5.9581 
G01 X-61.3519 Y6.0493 
G01 X-61.4164 Y6.1609 
G01 X-61.4498 Y6.2855 
G01 X-61.4498 Y16.3071 
G01 X-61.4729 Y16.3302 
G01 X-62.7226 Y16.3302 
G01 X-62.8255 Y16.1762 
G01 X-62.9662 Y16.0355 
G01 X-63.1316 Y15.9250 
G01 X-63.3154 Y15.8488 
G01 X-63.5105 Y15.8100 
G01 X-63.7095 Y15.8100 
G01 X-63.9046 Y15.8488 
G01 X-64.0884 Y15.9250 
G01 X-64.2538 Y16.0355 
G01 X-64.3945 Y16.1762 
G01 X-64.5050 Y16.3416 
G01 X-64.5812 Y16.5254 
G01 X-64.6200 Y16.7205 
G01 X-64.6200 Y16.9195 
G01 X-64.5812 Y17.1146 
G01 X-64.5050 Y17.2984 
G01 X-64.3945 Y17.4638 
G01 X-64.2538 Y17.6045 
G01 X-64.0884 Y17.7150 
G01 X-63.9046 Y17.7912 
G01 X-63.7095 Y17.8300 
G01 X-63.5105 Y17.8300 
G01 X-63.3154 Y17.7912 
G01 X-63.1316 Y17.7150 
G01 X-62.9662 Y17.6045 
G01 X-62.8255 Y17.4638 
G01 X-62.7226 Y17.3098 
G01 X-61.2055 Y17.3098 
G01 X-61.0809 Y17.2764 
G01 X-60.9693 Y17.2119 
G01 X-60.8781 Y17.1207 
G01 X-60.8590 Y17.1016 
G01 X-60.5681 Y16.8107 
G01 X-60.5036 Y16.6991 
G01 X-60.4702 Y16.5745 
G01 X-60.4702 Y6.8398 
G01 X-43.0369 Y6.8398 
G01 X-43.0238 Y6.9056 
G01 X-42.9524 Y7.0780 
G01 X-42.8488 Y7.2331 
G01 X-42.7169 Y7.3650 
G01 X-42.5618 Y7.4686 
G01 X-42.3894 Y7.5400 
G01 X-42.2065 Y7.5764 
G00 Z2.5400 
G00 X-7.6145 Y2.0162 
G01 Z-0.1000 F40.00 
G01 X-7.6145 Y3.0638 F208.00 
G01 X-6.8738 Y3.8045 
G01 X-5.8262 Y3.8045 
G01 X-5.1531 Y3.1314 
G01 X-4.5538 Y3.1314 
G01 X-4.5538 Y38.7786 
G01 X-23.6402 Y38.7786 
G01 X-23.6402 Y37.0329 
G01 X-21.3871 Y34.7798 
G01 X-18.9855 Y34.7798 
G01 X-18.8609 Y34.7464 
G01 X-18.7493 Y34.6819 
G01 X-18.6581 Y34.5907 
G01 X-18.5936 Y34.4791 
G01 X-18.5602 Y34.3545 
G01 X-18.5602 Y31.2820 
G01 X-18.4514 Y31.2094 
G01 X-18.3206 Y31.0786 
G01 X-18.2179 Y30.9248 
G01 X-18.1471 Y30.7539 
G01 X-18.1110 Y30.5725 
G01 X-18.1110 Y30.3875 
G01 X-18.1471 Y30.2061 
G01 X-18.2179 Y30.0352 
G01 X-18.3206 Y29.8814 
G01 X-18.4514 Y29.7506 
G01 X-18.6052 Y29.6479 
G01 X-18.7761 Y29.5771 
G01 X-18.9575 Y29.5410 
G01 X-19.1425 Y29.5410 
G01 X-19.3239 Y29.5771 
G01 X-19.4948 Y29.6479 
G01 X-19.6486 Y29.7506 
G01 X-19.7794 Y29.8814 
G01 X-19.8821 Y30.0352 
G01 X-19.9529 Y30.2061 
G01 X-19.9890 Y30.3875 
G01 X-19.9890 Y30.5725 
G01 X-19.9529 Y30.7539 
G01 X-19.8821 Y30.9248 
G01 X-19.7794 Y31.0786 
G01 X-19.6486 Y31.2094 
G01 X-19.5398 Y31.2820 
G01 X-19.5398 Y33.8002 
G01 X-21.6545 Y33.8002 
G01 X-21.7791 Y33.8336 
G01 X-21.8907 Y33.8981 
G01 X-24.4307 Y36.4381 
G01 X-24.5219 Y36.5293 
G01 X-24.5864 Y36.6409 
G01 X-24.6198 Y36.7655 
G01 X-24.6198 Y38.8802 
G01 X-36.3402 Y38.8802 
G01 X-36.3402 Y36.5455 
G01 X-36.3736 Y36.4209 
G01 X-36.4381 Y36.3093 
G01 X-36.5293 Y36.2181 
G01 X-36.6409 Y36.1536 
G01 X-36.7655 Y36.1202 
G01 X-47.7702 Y36.1202 
G01 X-47.7702 Y30.6829 
G01 X-45.3093 Y28.2219 
G01 X-45.2181 Y28.1307 
G01 X-45.2098 Y28.1165 
G01 X-45.1889 Y28.1078 
G01 X-45.0433 Y28.0105 
G01 X-44.9195 Y27.8867 
G01 X-44.8222 Y27.7411 
G01 X-44.7552 Y27.5793 
G01 X-44.7210 Y27.4076 
G01 X-44.7210 Y27.2324 
G01 X-44.7552 Y27.0607 
G01 X-44.8222 Y26.8989 
G01 X-44.9195 Y26.7533 
G01 X-45.0433 Y26.6295 
G01 X-45.1889 Y26.5322 
G01 X-45.3507 Y26.4652 
G01 X-45.5224 Y26.4310 
G01 X-45.6976 Y26.4310 
G01 X-45.8693 Y26.4652 
G01 X-46.0311 Y26.5322 
G01 X-46.1767 Y26.6295 
G01 X-46.3005 Y26.7533 
G01 X-46.3978 Y26.8989 
G01 X-46.4648 Y27.0607 
G01 X-46.4990 Y27.2324 
G01 X-46.4990 Y27.4076 
G01 X-46.4648 Y27.5793 
G01 X-46.3978 Y27.7411 
G01 X-46.3241 Y27.8514 
G01 X-48.5607 Y30.0881 
G01 X-51.0999 Y32.6272 
G01 X-51.2486 Y32.6888 
G01 X-51.4037 Y32.7924 
G01 X-51.5356 Y32.9243 
G01 X-51.6392 Y33.0794 
G01 X-51.7106 Y33.2518 
G01 X-51.7470 Y33.4347 
G01 X-51.7470 Y35.1453 
G01 X-51.7106 Y35.3282 
G01 X-51.6392 Y35.5006 
G01 X-51.5356 Y35.6557 
G01 X-51.4037 Y35.7876 
G01 X-51.2486 Y35.8912 
G01 X-51.0762 Y35.9626 
G01 X-50.8933 Y35.9990 
G01 X-50.7067 Y35.9990 
G01 X-50.5238 Y35.9626 
G01 X-50.3514 Y35.8912 
G01 X-50.1963 Y35.7876 
G01 X-50.0644 Y35.6557 
G01 X-49.9608 Y35.5006 
G01 X-49.8894 Y35.3282 
G01 X-49.8530 Y35.1453 
G01 X-49.8530 Y33.4347 
G01 X-49.8894 Y33.2518 
G01 X-49.9608 Y33.0794 
G01 X-50.0433 Y32.9560 
G01 X-48.7498 Y31.6625 
G01 X-48.7498 Y36.6745 
G01 X-48.7164 Y36.7991 
G01 X-48.6519 Y36.9107 
G01 X-48.5607 Y37.0019 
G01 X-48.4491 Y37.0664 
G01 X-48.3245 Y37.0998 
G01 X-37.3198 Y37.0998 
G01 X-37.3198 Y39.4345 
G01 X-37.2864 Y39.5591 
G01 X-37.2219 Y39.6707 
G01 X-37.1307 Y39.7619 
G01 X-37.0191 Y39.8264 
G01 X-36.8945 Y39.8598 
G01 X-24.4615 Y39.8598 
G01 X-24.4101 Y39.8941 
G01 X-24.3025 Y39.9387 
G01 X-24.1882 Y39.9614 
G01 X-3.9042 Y39.9614 
G01 X-3.7899 Y39.9387 
G01 X-3.6823 Y39.8941 
G01 X-3.5854 Y39.8294 
G01 X-3.5030 Y39.7470 
G01 X-3.4383 Y39.6501 
G01 X-3.3937 Y39.5425 
G01 X-3.3710 Y39.4282 
G01 X-3.3710 Y2.4817 
G01 X-3.3937 Y2.3675 
G01 X-3.4383 Y2.2599 
G01 X-3.5030 Y2.1630 
G01 X-3.5854 Y2.0806 
G01 X-3.6823 Y2.0159 
G01 X-3.7899 Y1.9713 
G01 X-3.9042 Y1.9486 
G01 X-5.1531 Y1.9486 
G01 X-5.8262 Y1.2755 
G01 X-6.8738 Y1.2755 
G01 X-7.6145 Y2.0162 
G00 Z2.5400 
G00 X-46.4990 Y21.2324 
G01 Z-0.1000 F40.00 
G01 X-46.4990 Y21.4076 F208.00 
G01 X-46.4648 Y21.5793 
G01 X-46.3978 Y21.7411 
G01 X-46.3005 Y21.8867 
G01 X-46.1767 Y22.0105 
G01 X-46.0311 Y22.1078 
G01 X-45.8693 Y22.1748 
G01 X-45.6976 Y22.2090 
G01 X-45.5224 Y22.2090 
G01 X-45.3507 Y22.1748 
G01 X-45.1889 Y22.1078 
G01 X-45.0433 Y22.0105 
G01 X-44.9195 Y21.8867 
G01 X-44.8681 Y21.8098 
G01 X-44.2635 Y21.8098 
G01 X-44.1389 Y21.7764 
G01 X-44.0272 Y21.7119 
G01 X-43.9360 Y21.6207 
G01 X-42.9360 Y20.6207 
G01 X-42.8715 Y20.5091 
G01 X-42.8381 Y20.3845 
G01 X-42.8381 Y18.2698 
G01 X-32.2398 Y18.2698 
G01 X-32.2398 Y29.6780 
