(.../Documents/EAGLE/ulps/pcb-gcode.ulp)
(Copyright 2005 - 2012 by John Johnson)
(See readme.txt for licensing terms.)
(This file generated from the board:)
(.../projects/HM_SHT21/HM_SHT21.brd)
(Current profile is .../EAGLE/ulps/profiles/generic.pp  )
(This file generated 28.09.19 16:25)
(Settings from pcb-machine.h)
(  Tool Size)
(1.8000 )
(Z Axis Settings)
(  High     Up        Down     Drill)
(10.4000 	2.5400 	-0.1000 	-1.8000 )
(spindle on time = 3.0000)
(milling depth = -1.8000)
(text depth = -0.1000)
(tool change at 0.0000 0.0000 20.4000 )
(feed rate xy = F208.00 )
(feed rate z  = F40.00 )
(Settings from pcb-defaults.h)
(isolate min = 0.0100)
(isolate max = 0.2500)
(isolate step = 0.1000)
(Generated bottom outlines, bottom drill, )
(Unit of measure: mm)
(Metric Mode)
G21
(Absolute Coordinates)
G90
G00 X0.0000 Y0.0000 
M03
G04 P3.000000
G00 Z2.5400 
G00 X-67.3100 Y40.6400 
G01 Z-1.8000 F40.00 
G01 X-67.3100 Y0.0000 F208.00 
G00 Z2.5400 
G00 X0.0000 Y41.9100 
G01 Z-1.8000 F40.00 
G01 X-67.3100 Y41.9100 F208.00 
G00 Z10.4000 
M05
M02
