(.../Documents/EAGLE/ulps/pcb-gcode.ulp)
(Copyright 2005 - 2012 by John Johnson)
(See readme.txt for licensing terms.)
(This file generated from the board:)
(.../EAGLE/projects/SMD Sop16/Sop16.brd)
(Current profile is .../EAGLE/ulps/profiles/generic.pp  )
(This file generated 15.11.19 17:09)
(Settings from pcb-machine.h)
(  Tool Size)
(0.1500 )
(Z Axis Settings)
(  High     Up        Down     Drill)
(20.4000 	2.0000 	-0.1500 	-1.8000 )
(spindle on time = 3.0000)
(milling depth = -1.3000)
(text depth = -0.1000)
(tool change at 0.0000 0.0000 20.4000 )
(feed rate xy = F208.00 )
(feed rate z  = F100.00 )
(Settings from pcb-defaults.h)
(isolate min = 0.0100)
(isolate max = 0.5000)
(isolate step = 0.1000)
(Generated bottom outlines, bottom drill, )
(Unit of measure: mm)
( Tool|       Size       |  Min Sub |  Max Sub |   Count )
( T01  1.016mm 0.0400in 0.0000in 0.0000in )
(Metric Mode)
G21
(Absolute Coordinates)
G90
M05
G00 Z20.4000 
G00 X0.0000 Y0.0000 
M06 T01  ; 1.0160 
G00 Z2.0000 
M03
G04 P3.000000
G00 Z2.000000
G00 X-6.3500 Y3.8100 
G01 Z-1.8000 F100.00 
G01 Z2.000000
(R2.0000  P2.000000)
(G00 Z2.000000)
G00 X-6.3500 Y22.8600 
G01 Z-1.800000
G01 Z2.000000
(G00 Z2.000000)
G00 X-8.8900 Y3.8100 
G01 Z-1.800000
G01 Z2.000000
(G00 Z2.000000)
G00 X-8.8900 Y22.8600 
G01 Z-1.800000
G01 Z2.000000
(G00 Z2.000000)
G00 X-11.4300 Y3.8100 
G01 Z-1.800000
G01 Z2.000000
(G00 Z2.000000)
G00 X-11.4300 Y22.8600 
G01 Z-1.800000
G01 Z2.000000
(G00 Z2.000000)
G00 X-13.9700 Y3.8100 
G01 Z-1.800000
G01 Z2.000000
(G00 Z2.000000)
G00 X-13.9700 Y22.8600 
G01 Z-1.800000
G01 Z2.000000
(G00 Z2.000000)
G00 X-16.5100 Y3.8100 
G01 Z-1.800000
G01 Z2.000000
(G00 Z2.000000)
G00 X-16.5100 Y22.8600 
G01 Z-1.800000
G01 Z2.000000
(G00 Z2.000000)
G00 X-19.0500 Y3.8100 
G01 Z-1.800000
G01 Z2.000000
(G00 Z2.000000)
G00 X-19.0500 Y22.8600 
G01 Z-1.800000
G01 Z2.000000
(G00 Z2.000000)
G00 X-21.5900 Y3.8100 
G01 Z-1.800000
G01 Z2.000000
(G00 Z2.000000)
G00 X-21.5900 Y22.8600 
G01 Z-1.800000
G01 Z2.000000
(G00 Z2.000000)
G00 X-24.1300 Y3.8100 
G01 Z-1.800000
G01 Z2.000000
(G00 Z2.000000)
G00 X-24.1300 Y22.8600 
G01 Z-1.800000
G01 Z2.000000
T01 
G00 Z20.4000 
M05
M02
