(.../Documents/EAGLE/ulps/pcb-gcode.ulp)
(Copyright 2005 - 2012 by John Johnson)
(See readme.txt for licensing terms.)
(This file generated from the board:)
(.../EAGLE/projects/SMD Sop16/Sop16.brd)
(Current profile is .../EAGLE/ulps/profiles/generic.pp  )
(This file generated 15.11.19 17:09)
(Settings from pcb-machine.h)
(  Tool Size)
(0.1500 )
(Z Axis Settings)
(  High     Up        Down     Drill)
(20.4000 	2.0000 	-0.1500 	-1.8000 )
(spindle on time = 3.0000)
(milling depth = -1.3000)
(text depth = -0.1000)
(tool change at 0.0000 0.0000 20.4000 )
(feed rate xy = F208.00 )
(feed rate z  = F100.00 )
(Settings from pcb-defaults.h)
(isolate min = 0.0100)
(isolate max = 0.5000)
(isolate step = 0.1000)
(Generated bottom outlines, bottom drill, )
(Unit of measure: mm)
(Metric Mode)
G21
(Absolute Coordinates)
G90
G00 X0.0000 Y0.0000 
M03
G04 P3.000000
G00 Z2.0000 
G00 X-17.3570 Y2.9646 
G01 Z-0.1500 F100.00 
G01 X-17.3570 Y4.6554 F208.00 
G01 X-17.3244 Y4.8191 
G01 X-17.2606 Y4.9732 
G01 X-17.1679 Y5.1119 
G01 X-17.0499 Y5.2299 
G01 X-17.0014 Y5.2623 
G01 X-17.0014 Y6.4147 
G01 X-16.9679 Y6.5397 
G01 X-16.9032 Y6.6517 
G01 X-16.3664 Y7.1885 
G01 X-16.3664 Y10.9613 
G01 X-16.3329 Y11.0863 
G01 X-16.2902 Y11.1603 
G01 X-16.2902 Y11.9295 
G01 X-16.2773 Y11.9607 
G01 X-16.2533 Y11.9847 
G01 X-16.2221 Y11.9976 
G01 X-15.5279 Y11.9976 
G01 X-15.4967 Y11.9847 
G01 X-15.4727 Y11.9607 
G01 X-15.4598 Y11.9295 
G01 X-15.4598 Y11.1603 
G01 X-15.4171 Y11.0863 
G01 X-15.3836 Y10.9613 
G01 X-15.3836 Y6.9203 
G01 X-15.4171 Y6.7953 
G01 X-15.4818 Y6.6833 
G01 X-16.0186 Y6.1465 
G01 X-16.0186 Y5.2623 
G01 X-15.9701 Y5.2299 
G01 X-15.8521 Y5.1119 
G01 X-15.7594 Y4.9732 
G01 X-15.6956 Y4.8191 
G01 X-15.6630 Y4.6554 
G01 X-15.6630 Y2.9646 
G01 X-15.6956 Y2.8009 
G01 X-15.7594 Y2.6468 
G01 X-15.8521 Y2.5081 
G01 X-15.9701 Y2.3901 
G01 X-16.1088 Y2.2974 
G01 X-16.2629 Y2.2336 
G01 X-16.4266 Y2.2010 
G01 X-16.5934 Y2.2010 
G01 X-16.7571 Y2.2336 
G01 X-16.9112 Y2.2974 
G01 X-17.0499 Y2.3901 
G01 X-17.1679 Y2.5081 
G01 X-17.2606 Y2.6468 
G01 X-17.3244 Y2.8009 
G01 X-17.3570 Y2.9646 
G00 Z2.0000 
G00 X-19.8970 Y2.9646 
G01 Z-0.1500 F100.00 
G01 X-19.8970 Y4.6554 F208.00 
G01 X-19.8644 Y4.8191 
G01 X-19.8006 Y4.9732 
G01 X-19.7079 Y5.1119 
G01 X-19.5899 Y5.2299 
G01 X-19.5414 Y5.2623 
G01 X-19.5414 Y6.4147 
G01 X-19.5079 Y6.5397 
G01 X-19.4432 Y6.6517 
G01 X-17.6364 Y8.4585 
G01 X-17.6364 Y10.9613 
G01 X-17.6029 Y11.0863 
G01 X-17.5602 Y11.1603 
G01 X-17.5602 Y11.9295 
G01 X-17.5473 Y11.9607 
G01 X-17.5233 Y11.9847 
G01 X-17.4921 Y11.9976 
G01 X-16.7979 Y11.9976 
G01 X-16.7667 Y11.9847 
G01 X-16.7427 Y11.9607 
G01 X-16.7298 Y11.9295 
G01 X-16.7298 Y11.1603 
G01 X-16.6871 Y11.0863 
G01 X-16.6536 Y10.9613 
G01 X-16.6536 Y8.1903 
G01 X-16.6871 Y8.0653 
G01 X-16.7518 Y7.9533 
G01 X-18.5586 Y6.1465 
G01 X-18.5586 Y5.2623 
G01 X-18.5101 Y5.2299 
G01 X-18.3921 Y5.1119 
G01 X-18.2994 Y4.9732 
G01 X-18.2355 Y4.8191 
G01 X-18.2030 Y4.6554 
G01 X-18.2030 Y2.9646 
G01 X-18.2355 Y2.8009 
G01 X-18.2994 Y2.6468 
G01 X-18.3921 Y2.5081 
G01 X-18.5101 Y2.3901 
G01 X-18.6488 Y2.2974 
G01 X-18.8029 Y2.2336 
G01 X-18.9666 Y2.2010 
G01 X-19.1334 Y2.2010 
G01 X-19.2971 Y2.2336 
G01 X-19.4512 Y2.2974 
G01 X-19.5899 Y2.3901 
G01 X-19.7079 Y2.5081 
G01 X-19.8006 Y2.6468 
G01 X-19.8644 Y2.8009 
G01 X-19.8970 Y2.9646 
G00 Z2.0000 
G00 X-24.9770 Y2.9646 
G01 Z-0.1500 F100.00 
G01 X-24.9770 Y4.6554 F208.00 
G01 X-24.9444 Y4.8191 
G01 X-24.8806 Y4.9732 
G01 X-24.7879 Y5.1119 
G01 X-24.6699 Y5.2299 
G01 X-24.6214 Y5.2623 
G01 X-24.6214 Y7.6847 
G01 X-24.5879 Y7.8097 
G01 X-24.5232 Y7.9217 
G01 X-24.4317 Y8.0132 
G01 X-23.1617 Y9.2832 
G01 X-23.0497 Y9.3479 
G01 X-22.9247 Y9.3814 
G01 X-21.8951 Y9.3814 
G01 X-20.1002 Y11.1763 
G01 X-20.1002 Y11.9295 
G01 X-20.0873 Y11.9607 
G01 X-20.0633 Y11.9847 
G01 X-20.0321 Y11.9976 
G01 X-19.3379 Y11.9976 
G01 X-19.3067 Y11.9847 
G01 X-19.2827 Y11.9607 
G01 X-19.2698 Y11.9295 
G01 X-19.2698 Y11.1603 
G01 X-19.2271 Y11.0863 
G01 X-19.1936 Y10.9613 
G01 X-19.1936 Y10.8319 
G01 X-19.2271 Y10.7069 
G01 X-19.2698 Y10.6329 
G01 X-19.2698 Y9.8637 
G01 X-19.2827 Y9.8324 
G01 X-19.3067 Y9.8085 
G01 X-19.3379 Y9.7956 
G01 X-20.0321 Y9.7956 
G01 X-20.0633 Y9.8085 
G01 X-20.0707 Y9.8159 
G01 X-21.2984 Y8.5883 
G01 X-21.3899 Y8.4968 
G01 X-21.5019 Y8.4321 
G01 X-21.6269 Y8.3986 
G01 X-22.6565 Y8.3986 
G01 X-23.6386 Y7.4165 
G01 X-23.6386 Y5.2623 
G01 X-23.5901 Y5.2299 
G01 X-23.4721 Y5.1119 
G01 X-23.3794 Y4.9732 
G01 X-23.3156 Y4.8191 
G01 X-23.2830 Y4.6554 
G01 X-23.2830 Y2.9646 
G01 X-23.3156 Y2.8009 
G01 X-23.3794 Y2.6468 
G01 X-23.4721 Y2.5081 
G01 X-23.5901 Y2.3901 
G01 X-23.7288 Y2.2974 
G01 X-23.8829 Y2.2336 
G01 X-24.0466 Y2.2010 
G01 X-24.2134 Y2.2010 
G01 X-24.3771 Y2.2336 
G01 X-24.5312 Y2.2974 
G01 X-24.6699 Y2.3901 
G01 X-24.7879 Y2.5081 
G01 X-24.8806 Y2.6468 
G01 X-24.9444 Y2.8009 
G01 X-24.9770 Y2.9646 
G00 Z2.0000 
G00 X-23.2830 Y23.7054 
G01 Z-0.1500 F100.00 
G01 X-23.2830 Y22.0146 F208.00 
G01 X-23.3156 Y21.8509 
G01 X-23.3794 Y21.6968 
G01 X-23.4721 Y21.5581 
G01 X-23.5901 Y21.4401 
G01 X-23.6386 Y21.4077 
G01 X-23.6386 Y20.8114 
G01 X-22.8969 Y20.8114 
G01 X-22.7719 Y20.7779 
G01 X-22.6599 Y20.7132 
G01 X-22.5684 Y20.6217 
G01 X-20.0707 Y18.1241 
G01 X-20.0633 Y18.1315 
G01 X-20.0321 Y18.1444 
G01 X-19.3379 Y18.1444 
G01 X-19.3067 Y18.1315 
G01 X-19.2827 Y18.1075 
G01 X-19.2698 Y18.0763 
G01 X-19.2698 Y17.3071 
G01 X-19.2271 Y17.2331 
G01 X-19.1936 Y17.1081 
G01 X-19.1936 Y16.9787 
G01 X-19.2271 Y16.8537 
G01 X-19.2698 Y16.7797 
G01 X-19.2698 Y16.0105 
G01 X-19.2827 Y15.9793 
G01 X-19.3067 Y15.9553 
G01 X-19.3379 Y15.9424 
G01 X-20.0321 Y15.9424 
G01 X-20.0633 Y15.9553 
G01 X-20.0873 Y15.9793 
G01 X-20.1002 Y16.0105 
G01 X-20.1002 Y16.7637 
G01 X-23.1651 Y19.8286 
G01 X-24.1947 Y19.8286 
G01 X-24.3197 Y19.8621 
G01 X-24.4317 Y19.9268 
G01 X-24.5232 Y20.0183 
G01 X-24.5879 Y20.1303 
G01 X-24.6214 Y20.2553 
G01 X-24.6214 Y21.4077 
G01 X-24.6699 Y21.4401 
G01 X-24.7879 Y21.5581 
G01 X-24.8806 Y21.6968 
G01 X-24.9444 Y21.8509 
G01 X-24.9770 Y22.0146 
G01 X-24.9770 Y23.7054 
G01 X-24.9444 Y23.8691 
G01 X-24.8806 Y24.0232 
G01 X-24.7879 Y24.1619 
G01 X-24.6699 Y24.2799 
G01 X-24.5312 Y24.3726 
G01 X-24.3771 Y24.4364 
G01 X-24.2134 Y24.4690 
G01 X-24.0466 Y24.4690 
G01 X-23.8829 Y24.4364 
G01 X-23.7288 Y24.3726 
G01 X-23.5901 Y24.2799 
G01 X-23.4721 Y24.1619 
G01 X-23.3794 Y24.0232 
G01 X-23.3156 Y23.8691 
G01 X-23.2830 Y23.7054 
G00 Z2.0000 
G00 X-20.7430 Y23.7054 
G01 Z-0.1500 F100.00 
G01 X-20.7430 Y22.0146 F208.00 
G01 X-20.7756 Y21.8509 
G01 X-20.8394 Y21.6968 
G01 X-20.8664 Y21.6564 
G01 X-18.0218 Y18.8117 
G01 X-17.9571 Y18.6997 
G01 X-17.9236 Y18.5747 
G01 X-17.9236 Y16.9787 
G01 X-17.9571 Y16.8537 
G01 X-17.9998 Y16.7797 
G01 X-17.9998 Y16.0105 
G01 X-18.0127 Y15.9793 
G01 X-18.0367 Y15.9553 
G01 X-18.0679 Y15.9424 
G01 X-18.7621 Y15.9424 
G01 X-18.7933 Y15.9553 
G01 X-18.8173 Y15.9793 
G01 X-18.8302 Y16.0105 
G01 X-18.8302 Y16.7797 
G01 X-18.8729 Y16.8537 
G01 X-18.9064 Y16.9787 
G01 X-18.9064 Y18.3065 
G01 X-21.7146 Y21.1147 
G01 X-21.7797 Y21.1321 
G01 X-21.8917 Y21.1968 
G01 X-21.9832 Y21.2883 
G01 X-22.0338 Y21.3758 
G01 X-22.1299 Y21.4401 
G01 X-22.2479 Y21.5581 
G01 X-22.3406 Y21.6968 
G01 X-22.4044 Y21.8509 
G01 X-22.4370 Y22.0146 
G01 X-22.4370 Y23.7054 
G01 X-22.4044 Y23.8691 
G01 X-22.3406 Y24.0232 
G01 X-22.2479 Y24.1619 
G01 X-22.1299 Y24.2799 
G01 X-21.9912 Y24.3726 
G01 X-21.8371 Y24.4364 
G01 X-21.6734 Y24.4690 
G01 X-21.5066 Y24.4690 
G01 X-21.3429 Y24.4364 
G01 X-21.1888 Y24.3726 
G01 X-21.0501 Y24.2799 
G01 X-20.9321 Y24.1619 
G01 X-20.8394 Y24.0232 
G01 X-20.7756 Y23.8691 
G01 X-20.7430 Y23.7054 
G00 Z2.0000 
G00 X-18.2030 Y23.7054 
G01 Z-0.1500 F100.00 
G01 X-18.2030 Y22.0146 F208.00 
G01 X-18.2355 Y21.8509 
G01 X-18.2994 Y21.6968 
G01 X-18.3645 Y21.5994 
G01 X-16.7518 Y19.9867 
G01 X-16.6871 Y19.8747 
G01 X-16.6536 Y19.7497 
G01 X-16.6536 Y16.9787 
G01 X-16.6871 Y16.8537 
G01 X-16.7298 Y16.7797 
G01 X-16.7298 Y16.0105 
G01 X-16.7427 Y15.9793 
G01 X-16.7667 Y15.9553 
G01 X-16.7979 Y15.9424 
G01 X-17.4921 Y15.9424 
G01 X-17.5233 Y15.9553 
G01 X-17.5473 Y15.9793 
G01 X-17.5602 Y16.0105 
G01 X-17.5602 Y16.7797 
G01 X-17.6029 Y16.8537 
G01 X-17.6364 Y16.9787 
G01 X-17.6364 Y19.4815 
G01 X-19.4432 Y21.2883 
G01 X-19.4938 Y21.3758 
G01 X-19.5899 Y21.4401 
G01 X-19.7079 Y21.5581 
G01 X-19.8006 Y21.6968 
G01 X-19.8644 Y21.8509 
G01 X-19.8970 Y22.0146 
G01 X-19.8970 Y23.7054 
G01 X-19.8644 Y23.8691 
G01 X-19.8006 Y24.0232 
G01 X-19.7079 Y24.1619 
G01 X-19.5899 Y24.2799 
G01 X-19.4512 Y24.3726 
G01 X-19.2971 Y24.4364 
G01 X-19.1334 Y24.4690 
G01 X-18.9666 Y24.4690 
G01 X-18.8029 Y24.4364 
G01 X-18.6488 Y24.3726 
G01 X-18.5101 Y24.2799 
G01 X-18.3921 Y24.1619 
G01 X-18.2994 Y24.0232 
G01 X-18.2355 Y23.8691 
G01 X-18.2030 Y23.7054 
G00 Z2.0000 
G00 X-13.1230 Y23.7054 
G01 Z-0.1500 F100.00 
G01 X-13.1230 Y22.0146 F208.00 
G01 X-13.1555 Y21.8509 
G01 X-13.2194 Y21.6968 
G01 X-13.3121 Y21.5581 
G01 X-13.4301 Y21.4401 
G01 X-13.5262 Y21.3758 
G01 X-13.5768 Y21.2883 
G01 X-13.6683 Y21.1968 
G01 X-14.1136 Y20.7515 
G01 X-14.1136 Y16.9787 
G01 X-14.1471 Y16.8537 
G01 X-14.1898 Y16.7797 
G01 X-14.1898 Y16.0105 
G01 X-14.2027 Y15.9793 
G01 X-14.2267 Y15.9553 
G01 X-14.2579 Y15.9424 
G01 X-14.9521 Y15.9424 
G01 X-14.9833 Y15.9553 
G01 X-15.0073 Y15.9793 
G01 X-15.0202 Y16.0105 
G01 X-15.0202 Y16.7797 
G01 X-15.0629 Y16.8537 
G01 X-15.0964 Y16.9787 
G01 X-15.0964 Y21.0197 
G01 X-15.0629 Y21.1447 
G01 X-14.9982 Y21.2567 
G01 X-14.6555 Y21.5994 
G01 X-14.7206 Y21.6968 
G01 X-14.7844 Y21.8509 
G01 X-14.8170 Y22.0146 
G01 X-14.8170 Y23.7054 
G01 X-14.7844 Y23.8691 
G01 X-14.7206 Y24.0232 
G01 X-14.6279 Y24.1619 
G01 X-14.5099 Y24.2799 
G01 X-14.3712 Y24.3726 
G01 X-14.2171 Y24.4364 
G01 X-14.0534 Y24.4690 
G01 X-13.8866 Y24.4690 
G01 X-13.7229 Y24.4364 
G01 X-13.5688 Y24.3726 
G01 X-13.4301 Y24.2799 
G01 X-13.3121 Y24.1619 
G01 X-13.2194 Y24.0232 
G01 X-13.1555 Y23.8691 
G01 X-13.1230 Y23.7054 
G00 Z2.0000 
G00 X-10.5830 Y23.7054 
G01 Z-0.1500 F100.00 
G01 X-10.5830 Y22.0146 F208.00 
G01 X-10.6156 Y21.8509 
G01 X-10.6794 Y21.6968 
G01 X-10.7721 Y21.5581 
G01 X-10.8901 Y21.4401 
G01 X-10.9477 Y21.4016 
G01 X-10.9721 Y21.3104 
G01 X-11.0368 Y21.1984 
G01 X-11.1283 Y21.1069 
G01 X-12.2560 Y19.9792 
G01 X-12.8436 Y19.3916 
G01 X-12.8436 Y16.9787 
G01 X-12.8771 Y16.8537 
G01 X-12.9198 Y16.7797 
G01 X-12.9198 Y16.0105 
G01 X-12.9327 Y15.9793 
G01 X-12.9566 Y15.9553 
G01 X-12.9879 Y15.9424 
G01 X-13.6821 Y15.9424 
G01 X-13.7133 Y15.9553 
G01 X-13.7373 Y15.9793 
G01 X-13.7502 Y16.0105 
G01 X-13.7502 Y16.7797 
G01 X-13.7929 Y16.8537 
G01 X-13.8264 Y16.9787 
G01 X-13.8264 Y19.6598 
G01 X-13.7929 Y19.7848 
G01 X-13.7282 Y19.8968 
G01 X-13.0958 Y20.5292 
G01 X-13.0424 Y20.6217 
G01 X-12.9509 Y20.7132 
G01 X-12.8584 Y20.7666 
G01 X-12.0774 Y21.5476 
G01 X-12.0879 Y21.5581 
G01 X-12.1806 Y21.6968 
G01 X-12.2444 Y21.8509 
G01 X-12.2770 Y22.0146 
G01 X-12.2770 Y23.7054 
G01 X-12.2444 Y23.8691 
G01 X-12.1806 Y24.0232 
G01 X-12.0879 Y24.1619 
G01 X-11.9699 Y24.2799 
G01 X-11.8312 Y24.3726 
G01 X-11.6771 Y24.4364 
G01 X-11.5134 Y24.4690 
G01 X-11.3466 Y24.4690 
G01 X-11.1829 Y24.4364 
G01 X-11.0288 Y24.3726 
G01 X-10.8901 Y24.2799 
G01 X-10.7721 Y24.1619 
G01 X-10.6794 Y24.0232 
G01 X-10.6156 Y23.8691 
G01 X-10.5830 Y23.7054 
G00 Z2.0000 
G00 X-8.0430 Y23.7054 
G01 Z-0.1500 F100.00 
G01 X-8.0430 Y22.0146 F208.00 
G01 X-8.0755 Y21.8509 
G01 X-8.1394 Y21.6968 
G01 X-8.2321 Y21.5581 
G01 X-8.3501 Y21.4401 
G01 X-8.3986 Y21.4077 
G01 X-8.3986 Y18.9853 
G01 X-8.4321 Y18.8603 
G01 X-8.4968 Y18.7483 
G01 X-8.5883 Y18.6568 
G01 X-8.7003 Y18.5921 
G01 X-8.8253 Y18.5586 
G01 X-11.2265 Y18.5586 
G01 X-11.5736 Y18.2115 
G01 X-11.5736 Y16.9787 
G01 X-11.6071 Y16.8537 
G01 X-11.6498 Y16.7797 
G01 X-11.6498 Y16.0105 
G01 X-11.6627 Y15.9793 
G01 X-11.6867 Y15.9553 
G01 X-11.7179 Y15.9424 
G01 X-12.4121 Y15.9424 
G01 X-12.4433 Y15.9553 
G01 X-12.4673 Y15.9793 
G01 X-12.4802 Y16.0105 
G01 X-12.4802 Y16.7797 
G01 X-12.5229 Y16.8537 
G01 X-12.5564 Y16.9787 
G01 X-12.5564 Y18.4797 
G01 X-12.5229 Y18.6047 
G01 X-12.4582 Y18.7167 
G01 X-11.8232 Y19.3517 
G01 X-11.7317 Y19.4432 
G01 X-11.6197 Y19.5079 
G01 X-11.4947 Y19.5414 
G01 X-9.3814 Y19.5414 
G01 X-9.3814 Y21.4077 
G01 X-9.4299 Y21.4401 
G01 X-9.5479 Y21.5581 
G01 X-9.6406 Y21.6968 
G01 X-9.7044 Y21.8509 
G01 X-9.7370 Y22.0146 
G01 X-9.7370 Y23.7054 
G01 X-9.7044 Y23.8691 
G01 X-9.6406 Y24.0232 
G01 X-9.5479 Y24.1619 
G01 X-9.4299 Y24.2799 
G01 X-9.2912 Y24.3726 
G01 X-9.1371 Y24.4364 
G01 X-8.9734 Y24.4690 
G01 X-8.8066 Y24.4690 
G01 X-8.6429 Y24.4364 
G01 X-8.4888 Y24.3726 
G01 X-8.3501 Y24.2799 
G01 X-8.2321 Y24.1619 
G01 X-8.1394 Y24.0232 
G01 X-8.0755 Y23.8691 
G01 X-8.0430 Y23.7054 
G00 Z2.0000 
G00 X-5.5030 Y23.7054 
G01 Z-0.1500 F100.00 
G01 X-5.5030 Y22.0146 F208.00 
G01 X-5.5356 Y21.8509 
G01 X-5.5994 Y21.6968 
G01 X-5.6921 Y21.5581 
G01 X-5.8101 Y21.4401 
G01 X-5.8586 Y21.4077 
G01 X-5.8586 Y17.7153 
G01 X-5.8921 Y17.5903 
G01 X-5.9568 Y17.4783 
G01 X-6.0483 Y17.3868 
G01 X-6.1603 Y17.3221 
G01 X-6.2853 Y17.2886 
G01 X-9.8549 Y17.2886 
G01 X-10.3798 Y16.7637 
G01 X-10.3798 Y16.0105 
G01 X-10.3927 Y15.9793 
G01 X-10.4167 Y15.9553 
G01 X-10.4479 Y15.9424 
G01 X-11.1421 Y15.9424 
G01 X-11.1733 Y15.9553 
G01 X-11.1973 Y15.9793 
G01 X-11.2102 Y16.0105 
G01 X-11.2102 Y16.7797 
G01 X-11.2529 Y16.8537 
G01 X-11.2864 Y16.9787 
G01 X-11.2864 Y17.1081 
G01 X-11.2529 Y17.2331 
G01 X-11.2102 Y17.3071 
G01 X-11.2102 Y18.0763 
G01 X-11.1973 Y18.1075 
G01 X-11.1733 Y18.1315 
G01 X-11.1421 Y18.1444 
G01 X-10.4479 Y18.1444 
G01 X-10.4167 Y18.1315 
G01 X-10.4093 Y18.1241 
G01 X-10.3601 Y18.1732 
G01 X-10.2481 Y18.2379 
G01 X-10.1231 Y18.2714 
G01 X-6.8414 Y18.2714 
G01 X-6.8414 Y21.4077 
G01 X-6.8899 Y21.4401 
G01 X-7.0079 Y21.5581 
G01 X-7.1006 Y21.6968 
G01 X-7.1644 Y21.8509 
G01 X-7.1970 Y22.0146 
G01 X-7.1970 Y23.7054 
G01 X-7.1644 Y23.8691 
G01 X-7.1006 Y24.0232 
G01 X-7.0079 Y24.1619 
G01 X-6.8899 Y24.2799 
G01 X-6.7512 Y24.3726 
G01 X-6.5971 Y24.4364 
G01 X-6.4334 Y24.4690 
G01 X-6.2666 Y24.4690 
G01 X-6.1029 Y24.4364 
G01 X-5.9488 Y24.3726 
G01 X-5.8101 Y24.2799 
G01 X-5.6921 Y24.1619 
G01 X-5.5994 Y24.0232 
G01 X-5.5356 Y23.8691 
G01 X-5.5030 Y23.7054 
G00 Z2.0000 
G00 X-10.3798 Y11.9295 
G01 Z-0.1500 F100.00 
G01 X-10.3798 Y11.1763 F208.00 
G01 X-8.5849 Y9.3814 
G01 X-6.2853 Y9.3814 
G01 X-6.1603 Y9.3479 
G01 X-6.0483 Y9.2832 
G01 X-5.9568 Y9.1917 
G01 X-5.8921 Y9.0797 
G01 X-5.8586 Y8.9547 
G01 X-5.8586 Y5.2623 
G01 X-5.8101 Y5.2299 
G01 X-5.6921 Y5.1119 
G01 X-5.5994 Y4.9732 
G01 X-5.5356 Y4.8191 
G01 X-5.5030 Y4.6554 
G01 X-5.5030 Y2.9646 
G01 X-5.5356 Y2.8009 
G01 X-5.5994 Y2.6468 
G01 X-5.6921 Y2.5081 
G01 X-5.8101 Y2.3901 
G01 X-5.9488 Y2.2974 
G01 X-6.1029 Y2.2336 
G01 X-6.2666 Y2.2010 
G01 X-6.4334 Y2.2010 
G01 X-6.5971 Y2.2336 
G01 X-6.7512 Y2.2974 
G01 X-6.8899 Y2.3901 
G01 X-7.0079 Y2.5081 
G01 X-7.1006 Y2.6468 
G01 X-7.1644 Y2.8009 
G01 X-7.1970 Y2.9646 
G01 X-7.1970 Y4.6554 
G01 X-7.1644 Y4.8191 
G01 X-7.1006 Y4.9732 
G01 X-7.0079 Y5.1119 
G01 X-6.8899 Y5.2299 
G01 X-6.8414 Y5.2623 
G01 X-6.8414 Y8.3986 
G01 X-8.8531 Y8.3986 
G01 X-8.9781 Y8.4321 
G01 X-9.0901 Y8.4968 
G01 X-9.1816 Y8.5883 
G01 X-10.4093 Y9.8159 
G01 X-10.4167 Y9.8085 
G01 X-10.4479 Y9.7956 
G01 X-11.1421 Y9.7956 
G01 X-11.1733 Y9.8085 
G01 X-11.1973 Y9.8324 
G01 X-11.2102 Y9.8637 
G01 X-11.2102 Y10.6329 
G01 X-11.2529 Y10.7069 
G01 X-11.2864 Y10.8319 
G01 X-11.2864 Y10.9613 
G01 X-11.2529 Y11.0863 
G01 X-11.2102 Y11.1603 
G01 X-11.2102 Y11.9295 
G01 X-11.1973 Y11.9607 
G01 X-11.1733 Y11.9847 
G01 X-11.1421 Y11.9976 
G01 X-10.4479 Y11.9976 
G01 X-10.4167 Y11.9847 
G01 X-10.3927 Y11.9607 
G01 X-10.3798 Y11.9295 
G00 Z2.0000 
G00 X-11.6498 Y11.9295 
G01 Z-0.1500 F100.00 
G01 X-11.6498 Y11.1603 F208.00 
G01 X-11.6071 Y11.0863 
G01 X-11.5736 Y10.9613 
G01 X-11.5736 Y9.7285 
G01 X-10.4933 Y8.6482 
G01 X-8.5883 Y6.7432 
G01 X-8.4968 Y6.6517 
G01 X-8.4321 Y6.5397 
G01 X-8.3986 Y6.4147 
G01 X-8.3986 Y5.2623 
G01 X-8.3501 Y5.2299 
G01 X-8.2321 Y5.1119 
G01 X-8.1394 Y4.9732 
G01 X-8.0755 Y4.8191 
G01 X-8.0430 Y4.6554 
G01 X-8.0430 Y2.9646 
G01 X-8.0755 Y2.8009 
G01 X-8.1394 Y2.6468 
G01 X-8.2321 Y2.5081 
G01 X-8.3501 Y2.3901 
G01 X-8.4888 Y2.2974 
G01 X-8.6429 Y2.2336 
G01 X-8.8066 Y2.2010 
G01 X-8.9734 Y2.2010 
G01 X-9.1371 Y2.2336 
G01 X-9.2912 Y2.2974 
G01 X-9.4299 Y2.3901 
G01 X-9.5479 Y2.5081 
G01 X-9.6406 Y2.6468 
G01 X-9.7044 Y2.8009 
G01 X-9.7370 Y2.9646 
G01 X-9.7370 Y4.6554 
G01 X-9.7044 Y4.8191 
G01 X-9.6406 Y4.9732 
G01 X-9.5479 Y5.1119 
G01 X-9.4299 Y5.2299 
G01 X-9.3814 Y5.2623 
G01 X-9.3814 Y6.1465 
G01 X-11.1882 Y7.9533 
G01 X-12.4582 Y9.2233 
G01 X-12.5229 Y9.3353 
G01 X-12.5564 Y9.4603 
G01 X-12.5564 Y10.9613 
G01 X-12.5229 Y11.0863 
G01 X-12.4802 Y11.1603 
G01 X-12.4802 Y11.9295 
G01 X-12.4673 Y11.9607 
G01 X-12.4433 Y11.9847 
G01 X-12.4121 Y11.9976 
G01 X-11.7179 Y11.9976 
G01 X-11.6867 Y11.9847 
G01 X-11.6627 Y11.9607 
G01 X-11.6498 Y11.9295 
G00 Z2.0000 
G00 X-12.9198 Y11.9295 
G01 Z-0.1500 F100.00 
G01 X-12.9198 Y11.1603 F208.00 
G01 X-12.8771 Y11.0863 
G01 X-12.8436 Y10.9613 
G01 X-12.8436 Y8.9985 
G01 X-11.0368 Y7.1917 
G01 X-10.9721 Y7.0797 
G01 X-10.9386 Y6.9547 
G01 X-10.9386 Y5.2623 
G01 X-10.8901 Y5.2299 
G01 X-10.7721 Y5.1119 
G01 X-10.6794 Y4.9732 
G01 X-10.6156 Y4.8191 
G01 X-10.5830 Y4.6554 
G01 X-10.5830 Y2.9646 
G01 X-10.6156 Y2.8009 
G01 X-10.6794 Y2.6468 
G01 X-10.7721 Y2.5081 
G01 X-10.8901 Y2.3901 
G01 X-11.0288 Y2.2974 
G01 X-11.1829 Y2.2336 
G01 X-11.3466 Y2.2010 
G01 X-11.5134 Y2.2010 
G01 X-11.6771 Y2.2336 
G01 X-11.8312 Y2.2974 
G01 X-11.9699 Y2.3901 
G01 X-12.0879 Y2.5081 
G01 X-12.1806 Y2.6468 
G01 X-12.2444 Y2.8009 
G01 X-12.2770 Y2.9646 
G01 X-12.2770 Y4.6554 
G01 X-12.2444 Y4.8191 
G01 X-12.1806 Y4.9732 
G01 X-12.0879 Y5.1119 
G01 X-11.9699 Y5.2299 
G01 X-11.9214 Y5.2623 
G01 X-11.9214 Y6.6865 
G01 X-13.7282 Y8.4933 
G01 X-13.7929 Y8.6053 
G01 X-13.8264 Y8.7303 
G01 X-13.8264 Y10.9613 
G01 X-13.7929 Y11.0863 
G01 X-13.7502 Y11.1603 
G01 X-13.7502 Y11.9295 
G01 X-13.7373 Y11.9607 
G01 X-13.7133 Y11.9847 
G01 X-13.6821 Y11.9976 
G01 X-12.9879 Y11.9976 
G01 X-12.9566 Y11.9847 
G01 X-12.9327 Y11.9607 
G01 X-12.9198 Y11.9295 
G00 Z2.0000 
G00 X-14.1898 Y11.9295 
G01 Z-0.1500 F100.00 
G01 X-14.1898 Y11.1603 F208.00 
G01 X-14.1471 Y11.0863 
G01 X-14.1136 Y10.9613 
G01 X-14.1136 Y8.4585 
G01 X-13.6683 Y8.0132 
G01 X-13.5768 Y7.9217 
G01 X-13.5121 Y7.8097 
G01 X-13.4786 Y7.6847 
G01 X-13.4786 Y5.2623 
G01 X-13.4301 Y5.2299 
G01 X-13.3121 Y5.1119 
G01 X-13.2194 Y4.9732 
G01 X-13.1555 Y4.8191 
G01 X-13.1230 Y4.6554 
G01 X-13.1230 Y2.9646 
G01 X-13.1555 Y2.8009 
G01 X-13.2194 Y2.6468 
G01 X-13.3121 Y2.5081 
G01 X-13.4301 Y2.3901 
G01 X-13.5688 Y2.2974 
G01 X-13.7229 Y2.2336 
G01 X-13.8866 Y2.2010 
G01 X-14.0534 Y2.2010 
G01 X-14.2171 Y2.2336 
G01 X-14.3712 Y2.2974 
G01 X-14.5099 Y2.3901 
G01 X-14.6279 Y2.5081 
G01 X-14.7206 Y2.6468 
G01 X-14.7844 Y2.8009 
G01 X-14.8170 Y2.9646 
G01 X-14.8170 Y4.6554 
G01 X-14.7844 Y4.8191 
G01 X-14.7206 Y4.9732 
G01 X-14.6279 Y5.1119 
G01 X-14.5099 Y5.2299 
G01 X-14.4614 Y5.2623 
G01 X-14.4614 Y7.4165 
G01 X-14.9982 Y7.9533 
G01 X-15.0629 Y8.0653 
G01 X-15.0964 Y8.1903 
G01 X-15.0964 Y10.9613 
G01 X-15.0629 Y11.0863 
G01 X-15.0202 Y11.1603 
G01 X-15.0202 Y11.9295 
G01 X-15.0073 Y11.9607 
G01 X-14.9833 Y11.9847 
G01 X-14.9521 Y11.9976 
G01 X-14.2579 Y11.9976 
G01 X-14.2267 Y11.9847 
G01 X-14.2027 Y11.9607 
G01 X-14.1898 Y11.9295 
G00 Z2.0000 
G00 X-15.4598 Y16.0105 
G01 Z-0.1500 F100.00 
G01 X-15.4727 Y15.9793 F208.00 
G01 X-15.4967 Y15.9553 
G01 X-15.5279 Y15.9424 
G01 X-16.2221 Y15.9424 
G01 X-16.2533 Y15.9553 
G01 X-16.2773 Y15.9793 
G01 X-16.2902 Y16.0105 
G01 X-16.2902 Y16.7797 
G01 X-16.3329 Y16.8537 
G01 X-16.3664 Y16.9787 
G01 X-16.3664 Y20.7515 
G01 X-16.8117 Y21.1968 
G01 X-16.9032 Y21.2883 
G01 X-16.9538 Y21.3758 
G01 X-17.0499 Y21.4401 
G01 X-17.1679 Y21.5581 
G01 X-17.2606 Y21.6968 
G01 X-17.3244 Y21.8509 
G01 X-17.3570 Y22.0146 
G01 X-17.3570 Y23.7054 
G01 X-17.3244 Y23.8691 
G01 X-17.2606 Y24.0232 
G01 X-17.1679 Y24.1619 
G01 X-17.0499 Y24.2799 
G01 X-16.9112 Y24.3726 
G01 X-16.7571 Y24.4364 
G01 X-16.5934 Y24.4690 
G01 X-16.4266 Y24.4690 
G01 X-16.2629 Y24.4364 
G01 X-16.1088 Y24.3726 
G01 X-15.9701 Y24.2799 
G01 X-15.8521 Y24.1619 
G01 X-15.7594 Y24.0232 
G01 X-15.6956 Y23.8691 
G01 X-15.6630 Y23.7054 
G01 X-15.6630 Y22.0146 
G01 X-15.6956 Y21.8509 
G01 X-15.7594 Y21.6968 
G01 X-15.8245 Y21.5994 
G01 X-15.4818 Y21.2567 
G01 X-15.4171 Y21.1447 
G01 X-15.3836 Y21.0197 
G01 X-15.3836 Y16.9787 
G01 X-15.4171 Y16.8537 
G01 X-15.4598 Y16.7797 
G01 X-15.4598 Y16.0105 
G00 Z2.0000 
G00 X-17.9998 Y11.9295 
G01 Z-0.1500 F100.00 
G01 X-17.9998 Y11.1603 F208.00 
G01 X-17.9571 Y11.0863 
G01 X-17.9236 Y10.9613 
G01 X-17.9236 Y9.4603 
G01 X-17.9571 Y9.3353 
G01 X-18.0218 Y9.2233 
G01 X-21.0986 Y6.1465 
G01 X-21.0986 Y5.2623 
G01 X-21.0501 Y5.2299 
G01 X-20.9321 Y5.1119 
G01 X-20.8394 Y4.9732 
G01 X-20.7756 Y4.8191 
G01 X-20.7430 Y4.6554 
G01 X-20.7430 Y2.9646 
G01 X-20.7756 Y2.8009 
G01 X-20.8394 Y2.6468 
G01 X-20.9321 Y2.5081 
G01 X-21.0501 Y2.3901 
G01 X-21.1888 Y2.2974 
G01 X-21.3429 Y2.2336 
G01 X-21.5066 Y2.2010 
G01 X-21.6734 Y2.2010 
G01 X-21.8371 Y2.2336 
G01 X-21.9912 Y2.2974 
G01 X-22.1299 Y2.3901 
G01 X-22.2479 Y2.5081 
G01 X-22.3406 Y2.6468 
G01 X-22.4044 Y2.8009 
G01 X-22.4370 Y2.9646 
G01 X-22.4370 Y4.6554 
G01 X-22.4044 Y4.8191 
G01 X-22.3406 Y4.9732 
G01 X-22.2479 Y5.1119 
G01 X-22.1299 Y5.2299 
G01 X-22.0814 Y5.2623 
G01 X-22.0814 Y6.4147 
G01 X-22.0479 Y6.5397 
G01 X-21.9832 Y6.6517 
G01 X-21.8917 Y6.7432 
G01 X-18.9064 Y9.7285 
G01 X-18.9064 Y10.9613 
G01 X-18.8729 Y11.0863 
G01 X-18.8302 Y11.1603 
G01 X-18.8302 Y11.9295 
G01 X-18.8173 Y11.9607 
G01 X-18.7933 Y11.9847 
G01 X-18.7621 Y11.9976 
G01 X-18.0679 Y11.9976 
G01 X-18.0367 Y11.9847 
G01 X-18.0127 Y11.9607 
G01 X-17.9998 Y11.9295 
G00 Z2.0000 
G00 X-17.4570 Y2.9547 
G01 Z-0.1500 F100.00 
G01 X-17.4570 Y4.6653 F208.00 
G01 X-17.4206 Y4.8482 
G01 X-17.3492 Y5.0206 
G01 X-17.2456 Y5.1757 
G01 X-17.1137 Y5.3076 
G01 X-17.1014 Y5.3158 
G01 X-17.1014 Y6.4082 
G01 X-17.0787 Y6.5225 
G01 X-17.0341 Y6.6301 
G01 X-16.9694 Y6.7270 
G01 X-16.4664 Y7.2300 
G01 X-16.4664 Y10.9548 
G01 X-16.4437 Y11.0691 
G01 X-16.3991 Y11.1767 
G01 X-16.3902 Y11.1900 
G01 X-16.3902 Y11.9494 
G01 X-16.3620 Y12.0174 
G01 X-16.3100 Y12.0694 
G01 X-16.2420 Y12.0976 
G01 X-15.5080 Y12.0976 
G01 X-15.4400 Y12.0694 
G01 X-15.3880 Y12.0174 
G01 X-15.3598 Y11.9494 
G01 X-15.3598 Y11.1900 
G01 X-15.3509 Y11.1767 
G01 X-15.3063 Y11.0691 
G01 X-15.2836 Y10.9548 
G01 X-15.2836 Y6.9268 
G01 X-15.3063 Y6.8125 
G01 X-15.3509 Y6.7049 
G01 X-15.4156 Y6.6080 
G01 X-15.9186 Y6.1050 
G01 X-15.9186 Y5.3158 
G01 X-15.9063 Y5.3076 
G01 X-15.7744 Y5.1757 
G01 X-15.6708 Y5.0206 
G01 X-15.5994 Y4.8482 
G01 X-15.5630 Y4.6653 
G01 X-15.5630 Y2.9547 
G01 X-15.5994 Y2.7718 
G01 X-15.6708 Y2.5994 
G01 X-15.7744 Y2.4443 
G01 X-15.9063 Y2.3124 
G01 X-16.0614 Y2.2088 
G01 X-16.2338 Y2.1374 
G01 X-16.4167 Y2.1010 
G01 X-16.6033 Y2.1010 
G01 X-16.7862 Y2.1374 
G01 X-16.9586 Y2.2088 
G01 X-17.1137 Y2.3124 
G01 X-17.2456 Y2.4443 
G01 X-17.3492 Y2.5994 
G01 X-17.4206 Y2.7718 
G01 X-17.4570 Y2.9547 
G00 Z2.0000 
G00 X-19.9970 Y2.9547 
G01 Z-0.1500 F100.00 
G01 X-19.9970 Y4.6653 F208.00 
G01 X-19.9606 Y4.8482 
G01 X-19.8892 Y5.0206 
G01 X-19.7856 Y5.1757 
G01 X-19.6537 Y5.3076 
G01 X-19.6414 Y5.3158 
G01 X-19.6414 Y6.4082 
G01 X-19.6187 Y6.5225 
G01 X-19.5741 Y6.6301 
G01 X-19.5094 Y6.7270 
G01 X-17.7364 Y8.5000 
G01 X-17.7364 Y10.9548 
G01 X-17.7137 Y11.0691 
G01 X-17.6691 Y11.1767 
G01 X-17.6602 Y11.1900 
G01 X-17.6602 Y11.9494 
G01 X-17.6320 Y12.0174 
G01 X-17.5800 Y12.0694 
G01 X-17.5120 Y12.0976 
G01 X-16.7780 Y12.0976 
G01 X-16.7100 Y12.0694 
G01 X-16.6580 Y12.0174 
G01 X-16.6298 Y11.9494 
G01 X-16.6298 Y11.1900 
G01 X-16.6209 Y11.1767 
G01 X-16.5763 Y11.0691 
G01 X-16.5536 Y10.9548 
G01 X-16.5536 Y8.1967 
G01 X-16.5763 Y8.0825 
G01 X-16.6209 Y7.9749 
G01 X-16.6856 Y7.8780 
G01 X-18.4586 Y6.1050 
G01 X-18.4586 Y5.3158 
G01 X-18.4463 Y5.3076 
G01 X-18.3144 Y5.1757 
G01 X-18.2108 Y5.0206 
G01 X-18.1394 Y4.8482 
G01 X-18.1030 Y4.6653 
G01 X-18.1030 Y2.9547 
G01 X-18.1394 Y2.7718 
G01 X-18.2108 Y2.5994 
G01 X-18.3144 Y2.4443 
G01 X-18.4463 Y2.3124 
G01 X-18.6014 Y2.2088 
G01 X-18.7738 Y2.1374 
G01 X-18.9567 Y2.1010 
G01 X-19.1433 Y2.1010 
G01 X-19.3262 Y2.1374 
G01 X-19.4986 Y2.2088 
G01 X-19.6537 Y2.3124 
G01 X-19.7856 Y2.4443 
G01 X-19.8892 Y2.5994 
G01 X-19.9606 Y2.7718 
G01 X-19.9970 Y2.9547 
G00 Z2.0000 
G00 X-25.0770 Y2.9547 
G01 Z-0.1500 F100.00 
G01 X-25.0770 Y4.6653 F208.00 
G01 X-25.0406 Y4.8482 
G01 X-24.9692 Y5.0206 
G01 X-24.8656 Y5.1757 
G01 X-24.7337 Y5.3076 
G01 X-24.7214 Y5.3158 
G01 X-24.7214 Y7.6782 
G01 X-24.6987 Y7.7925 
G01 X-24.6541 Y7.9001 
G01 X-24.5894 Y7.9970 
G01 X-24.5070 Y8.0794 
G01 X-23.2370 Y9.3494 
G01 X-23.1401 Y9.4141 
G01 X-23.0325 Y9.4587 
G01 X-22.9182 Y9.4814 
G01 X-21.9366 Y9.4814 
G01 X-20.2002 Y11.2178 
G01 X-20.2002 Y11.9494 
G01 X-20.1720 Y12.0174 
G01 X-20.1200 Y12.0694 
G01 X-20.0520 Y12.0976 
G01 X-19.3180 Y12.0976 
G01 X-19.2500 Y12.0694 
G01 X-19.1980 Y12.0174 
G01 X-19.1698 Y11.9494 
G01 X-19.1698 Y11.1900 
G01 X-19.1609 Y11.1767 
G01 X-19.1163 Y11.0691 
G01 X-19.0936 Y10.9548 
G01 X-19.0936 Y10.8384 
G01 X-19.1163 Y10.7241 
G01 X-19.1609 Y10.6165 
G01 X-19.1698 Y10.6032 
G01 X-19.1698 Y9.8438 
G01 X-19.1980 Y9.7758 
G01 X-19.2500 Y9.7238 
G01 X-19.3180 Y9.6956 
G01 X-20.0496 Y9.6956 
G01 X-21.2322 Y8.5130 
G01 X-21.3146 Y8.4306 
G01 X-21.4115 Y8.3659 
G01 X-21.5191 Y8.3213 
G01 X-21.6334 Y8.2986 
G01 X-22.6150 Y8.2986 
G01 X-23.5386 Y7.3750 
G01 X-23.5386 Y5.3158 
G01 X-23.5263 Y5.3076 
G01 X-23.3944 Y5.1757 
G01 X-23.2908 Y5.0206 
G01 X-23.2194 Y4.8482 
G01 X-23.1830 Y4.6653 
G01 X-23.1830 Y2.9547 
G01 X-23.2194 Y2.7718 
G01 X-23.2908 Y2.5994 
G01 X-23.3944 Y2.4443 
G01 X-23.5263 Y2.3124 
G01 X-23.6814 Y2.2088 
G01 X-23.8538 Y2.1374 
G01 X-24.0367 Y2.1010 
G01 X-24.2233 Y2.1010 
G01 X-24.4062 Y2.1374 
G01 X-24.5786 Y2.2088 
G01 X-24.7337 Y2.3124 
G01 X-24.8656 Y2.4443 
G01 X-24.9692 Y2.5994 
G01 X-25.0406 Y2.7718 
G01 X-25.0770 Y2.9547 
G00 Z2.0000 
G00 X-23.1830 Y23.7153 
G01 Z-0.1500 F100.00 
G01 X-23.1830 Y22.0047 F208.00 
G01 X-23.2194 Y21.8218 
G01 X-23.2908 Y21.6494 
G01 X-23.3944 Y21.4943 
G01 X-23.5263 Y21.3624 
G01 X-23.5386 Y21.3542 
G01 X-23.5386 Y20.9114 
G01 X-22.9033 Y20.9114 
G01 X-22.7891 Y20.8887 
G01 X-22.6815 Y20.8441 
G01 X-22.5846 Y20.7794 
G01 X-22.5022 Y20.6970 
G01 X-20.0496 Y18.2444 
G01 X-19.3180 Y18.2444 
G01 X-19.2500 Y18.2162 
G01 X-19.1980 Y18.1642 
G01 X-19.1698 Y18.0962 
G01 X-19.1698 Y17.3368 
G01 X-19.1609 Y17.3235 
G01 X-19.1163 Y17.2159 
G01 X-19.0936 Y17.1016 
G01 X-19.0936 Y16.9852 
G01 X-19.1163 Y16.8709 
G01 X-19.1609 Y16.7633 
G01 X-19.1698 Y16.7500 
G01 X-19.1698 Y15.9906 
G01 X-19.1980 Y15.9226 
G01 X-19.2500 Y15.8706 
G01 X-19.3180 Y15.8424 
G01 X-20.0520 Y15.8424 
G01 X-20.1200 Y15.8706 
G01 X-20.1720 Y15.9226 
G01 X-20.2002 Y15.9906 
G01 X-20.2002 Y16.7222 
G01 X-23.2066 Y19.7286 
G01 X-24.1882 Y19.7286 
G01 X-24.3025 Y19.7513 
G01 X-24.4101 Y19.7959 
G01 X-24.5070 Y19.8606 
G01 X-24.5894 Y19.9430 
G01 X-24.6541 Y20.0399 
G01 X-24.6987 Y20.1475 
G01 X-24.7214 Y20.2617 
G01 X-24.7214 Y21.3542 
G01 X-24.7337 Y21.3624 
G01 X-24.8656 Y21.4943 
G01 X-24.9692 Y21.6494 
G01 X-25.0406 Y21.8218 
G01 X-25.0770 Y22.0047 
G01 X-25.0770 Y23.7153 
G01 X-25.0406 Y23.8982 
G01 X-24.9692 Y24.0706 
G01 X-24.8656 Y24.2257 
G01 X-24.7337 Y24.3576 
G01 X-24.5786 Y24.4612 
G01 X-24.4062 Y24.5326 
G01 X-24.2233 Y24.5690 
G01 X-24.0367 Y24.5690 
G01 X-23.8538 Y24.5326 
G01 X-23.6814 Y24.4612 
G01 X-23.5263 Y24.3576 
G01 X-23.3944 Y24.2257 
G01 X-23.2908 Y24.0706 
G01 X-23.2194 Y23.8982 
G01 X-23.1830 Y23.7153 
G00 Z2.0000 
G00 X-20.6430 Y23.7153 
G01 Z-0.1500 F100.00 
G01 X-20.6430 Y22.0047 F208.00 
G01 X-20.6794 Y21.8218 
G01 X-20.7412 Y21.6726 
G01 X-17.9556 Y18.8870 
G01 X-17.8909 Y18.7901 
G01 X-17.8463 Y18.6825 
G01 X-17.8236 Y18.5682 
G01 X-17.8236 Y16.9852 
G01 X-17.8463 Y16.8709 
G01 X-17.8909 Y16.7633 
G01 X-17.8998 Y16.7500 
G01 X-17.8998 Y15.9906 
G01 X-17.9280 Y15.9226 
G01 X-17.9800 Y15.8706 
G01 X-18.0480 Y15.8424 
G01 X-18.7820 Y15.8424 
G01 X-18.8500 Y15.8706 
G01 X-18.9020 Y15.9226 
G01 X-18.9302 Y15.9906 
G01 X-18.9302 Y16.7500 
G01 X-18.9391 Y16.7633 
G01 X-18.9837 Y16.8709 
G01 X-19.0064 Y16.9852 
G01 X-19.0064 Y18.2650 
G01 X-21.7628 Y21.0215 
G01 X-21.8701 Y21.0659 
G01 X-21.9670 Y21.1306 
G01 X-22.0494 Y21.2130 
G01 X-22.1133 Y21.3087 
G01 X-22.1937 Y21.3624 
G01 X-22.3256 Y21.4943 
G01 X-22.4292 Y21.6494 
G01 X-22.5006 Y21.8218 
G01 X-22.5370 Y22.0047 
G01 X-22.5370 Y23.7153 
G01 X-22.5006 Y23.8982 
G01 X-22.4292 Y24.0706 
G01 X-22.3256 Y24.2257 
G01 X-22.1937 Y24.3576 
G01 X-22.0386 Y24.4612 
G01 X-21.8662 Y24.5326 
G01 X-21.6833 Y24.5690 
G01 X-21.4967 Y24.5690 
G01 X-21.3138 Y24.5326 
G01 X-21.1414 Y24.4612 
G01 X-20.9863 Y24.3576 
G01 X-20.8544 Y24.2257 
G01 X-20.7508 Y24.0706 
G01 X-20.6794 Y23.8982 
G01 X-20.6430 Y23.7153 
G00 Z2.0000 
G00 X-18.1030 Y23.7153 
G01 Z-0.1500 F100.00 
G01 X-18.1030 Y22.0047 F208.00 
G01 X-18.1394 Y21.8218 
G01 X-18.2108 Y21.6494 
G01 X-18.2357 Y21.6121 
G01 X-16.6856 Y20.0620 
G01 X-16.6209 Y19.9651 
G01 X-16.5763 Y19.8575 
G01 X-16.5536 Y19.7432 
G01 X-16.5536 Y16.9852 
G01 X-16.5763 Y16.8709 
G01 X-16.6209 Y16.7633 
G01 X-16.6298 Y16.7500 
G01 X-16.6298 Y15.9906 
G01 X-16.6580 Y15.9226 
G01 X-16.7100 Y15.8706 
G01 X-16.7780 Y15.8424 
G01 X-17.5120 Y15.8424 
G01 X-17.5800 Y15.8706 
G01 X-17.6320 Y15.9226 
G01 X-17.6602 Y15.9906 
G01 X-17.6602 Y16.7500 
G01 X-17.6691 Y16.7633 
G01 X-17.7137 Y16.8709 
G01 X-17.7364 Y16.9852 
G01 X-17.7364 Y19.4400 
G01 X-19.5094 Y21.2130 
G01 X-19.5733 Y21.3087 
G01 X-19.6537 Y21.3624 
G01 X-19.7856 Y21.4943 
G01 X-19.8892 Y21.6494 
G01 X-19.9606 Y21.8218 
G01 X-19.9970 Y22.0047 
G01 X-19.9970 Y23.7153 
G01 X-19.9606 Y23.8982 
G01 X-19.8892 Y24.0706 
G01 X-19.7856 Y24.2257 
G01 X-19.6537 Y24.3576 
G01 X-19.4986 Y24.4612 
G01 X-19.3262 Y24.5326 
G01 X-19.1433 Y24.5690 
G01 X-18.9567 Y24.5690 
G01 X-18.7738 Y24.5326 
G01 X-18.6014 Y24.4612 
G01 X-18.4463 Y24.3576 
G01 X-18.3144 Y24.2257 
G01 X-18.2108 Y24.0706 
G01 X-18.1394 Y23.8982 
G01 X-18.1030 Y23.7153 
G00 Z2.0000 
G00 X-13.0230 Y23.7153 
G01 Z-0.1500 F100.00 
G01 X-13.0230 Y22.0047 F208.00 
G01 X-13.0594 Y21.8218 
G01 X-13.1308 Y21.6494 
G01 X-13.2344 Y21.4943 
G01 X-13.3663 Y21.3624 
G01 X-13.4467 Y21.3087 
G01 X-13.5106 Y21.2130 
G01 X-13.5930 Y21.1306 
G01 X-14.0136 Y20.7100 
G01 X-14.0136 Y16.9852 
G01 X-14.0363 Y16.8709 
G01 X-14.0809 Y16.7633 
G01 X-14.0898 Y16.7500 
G01 X-14.0898 Y15.9906 
G01 X-14.1180 Y15.9226 
G01 X-14.1700 Y15.8706 
G01 X-14.2380 Y15.8424 
G01 X-14.9720 Y15.8424 
G01 X-15.0400 Y15.8706 
G01 X-15.0920 Y15.9226 
G01 X-15.1202 Y15.9906 
G01 X-15.1202 Y16.7500 
G01 X-15.1291 Y16.7633 
G01 X-15.1737 Y16.8709 
G01 X-15.1964 Y16.9852 
G01 X-15.1964 Y21.0132 
G01 X-15.1737 Y21.1275 
G01 X-15.1291 Y21.2351 
G01 X-15.0644 Y21.3320 
G01 X-14.7843 Y21.6121 
G01 X-14.8092 Y21.6494 
G01 X-14.8806 Y21.8218 
G01 X-14.9170 Y22.0047 
G01 X-14.9170 Y23.7153 
G01 X-14.8806 Y23.8982 
G01 X-14.8092 Y24.0706 
G01 X-14.7056 Y24.2257 
G01 X-14.5737 Y24.3576 
G01 X-14.4186 Y24.4612 
G01 X-14.2462 Y24.5326 
G01 X-14.0633 Y24.5690 
G01 X-13.8767 Y24.5690 
G01 X-13.6938 Y24.5326 
G01 X-13.5214 Y24.4612 
G01 X-13.3663 Y24.3576 
G01 X-13.2344 Y24.2257 
G01 X-13.1308 Y24.0706 
G01 X-13.0594 Y23.8982 
G01 X-13.0230 Y23.7153 
G00 Z2.0000 
G00 X-10.4830 Y23.7153 
G01 Z-0.1500 F100.00 
G01 X-10.4830 Y22.0047 F208.00 
G01 X-10.5194 Y21.8218 
G01 X-10.5908 Y21.6494 
G01 X-10.6944 Y21.4943 
G01 X-10.8263 Y21.3624 
G01 X-10.8587 Y21.3408 
G01 X-10.8613 Y21.3276 
G01 X-10.9059 Y21.2200 
G01 X-10.9706 Y21.1231 
G01 X-11.0530 Y21.0407 
G01 X-12.1898 Y19.9039 
G01 X-12.7436 Y19.3501 
G01 X-12.7436 Y16.9852 
G01 X-12.7663 Y16.8709 
G01 X-12.8109 Y16.7633 
G01 X-12.8198 Y16.7500 
G01 X-12.8198 Y15.9906 
G01 X-12.8480 Y15.9226 
G01 X-12.9000 Y15.8706 
G01 X-12.9680 Y15.8424 
G01 X-13.7020 Y15.8424 
G01 X-13.7700 Y15.8706 
G01 X-13.8220 Y15.9226 
G01 X-13.8502 Y15.9906 
G01 X-13.8502 Y16.7500 
G01 X-13.8591 Y16.7633 
G01 X-13.9037 Y16.8709 
G01 X-13.9264 Y16.9852 
G01 X-13.9264 Y19.6534 
G01 X-13.9037 Y19.7676 
G01 X-13.8591 Y19.8752 
G01 X-13.7944 Y19.9721 
G01 X-13.1782 Y20.5883 
G01 X-13.1733 Y20.6001 
G01 X-13.1086 Y20.6970 
G01 X-13.0262 Y20.7794 
G01 X-12.9293 Y20.8441 
G01 X-12.9175 Y20.8490 
G01 X-12.2083 Y21.5582 
G01 X-12.2692 Y21.6494 
G01 X-12.3406 Y21.8218 
G01 X-12.3770 Y22.0047 
G01 X-12.3770 Y23.7153 
G01 X-12.3406 Y23.8982 
G01 X-12.2692 Y24.0706 
G01 X-12.1656 Y24.2257 
G01 X-12.0337 Y24.3576 
G01 X-11.8786 Y24.4612 
G01 X-11.7062 Y24.5326 
G01 X-11.5233 Y24.5690 
G01 X-11.3367 Y24.5690 
G01 X-11.1538 Y24.5326 
G01 X-10.9814 Y24.4612 
G01 X-10.8263 Y24.3576 
G01 X-10.6944 Y24.2257 
G01 X-10.5908 Y24.0706 
G01 X-10.5194 Y23.8982 
G01 X-10.4830 Y23.7153 
G00 Z2.0000 
G00 X-7.9430 Y23.7153 
G01 Z-0.1500 F100.00 
G01 X-7.9430 Y22.0047 F208.00 
G01 X-7.9794 Y21.8218 
G01 X-8.0508 Y21.6494 
G01 X-8.1544 Y21.4943 
G01 X-8.2863 Y21.3624 
G01 X-8.2986 Y21.3542 
G01 X-8.2986 Y18.9917 
G01 X-8.3213 Y18.8775 
G01 X-8.3659 Y18.7699 
G01 X-8.4306 Y18.6730 
G01 X-8.5130 Y18.5906 
G01 X-8.6099 Y18.5259 
G01 X-8.7175 Y18.4813 
G01 X-8.8317 Y18.4586 
G01 X-11.1850 Y18.4586 
G01 X-11.4736 Y18.1700 
G01 X-11.4736 Y16.9852 
G01 X-11.4963 Y16.8709 
G01 X-11.5409 Y16.7633 
G01 X-11.5498 Y16.7500 
G01 X-11.5498 Y15.9906 
G01 X-11.5780 Y15.9226 
G01 X-11.6300 Y15.8706 
G01 X-11.6980 Y15.8424 
G01 X-12.4320 Y15.8424 
G01 X-12.5000 Y15.8706 
G01 X-12.5520 Y15.9226 
G01 X-12.5802 Y15.9906 
G01 X-12.5802 Y16.7500 
G01 X-12.5891 Y16.7633 
G01 X-12.6337 Y16.8709 
G01 X-12.6564 Y16.9852 
G01 X-12.6564 Y18.4732 
G01 X-12.6337 Y18.5875 
G01 X-12.5891 Y18.6951 
G01 X-12.5244 Y18.7920 
G01 X-11.8894 Y19.4270 
G01 X-11.8070 Y19.5094 
G01 X-11.7101 Y19.5741 
G01 X-11.6025 Y19.6187 
G01 X-11.4882 Y19.6414 
G01 X-9.4814 Y19.6414 
G01 X-9.4814 Y21.3542 
G01 X-9.4937 Y21.3624 
G01 X-9.6256 Y21.4943 
G01 X-9.7292 Y21.6494 
G01 X-9.8006 Y21.8218 
G01 X-9.8370 Y22.0047 
G01 X-9.8370 Y23.7153 
G01 X-9.8006 Y23.8982 
G01 X-9.7292 Y24.0706 
G01 X-9.6256 Y24.2257 
G01 X-9.4937 Y24.3576 
G01 X-9.3386 Y24.4612 
G01 X-9.1662 Y24.5326 
G01 X-8.9833 Y24.5690 
G01 X-8.7967 Y24.5690 
G01 X-8.6138 Y24.5326 
G01 X-8.4414 Y24.4612 
G01 X-8.2863 Y24.3576 
G01 X-8.1544 Y24.2257 
G01 X-8.0508 Y24.0706 
G01 X-7.9794 Y23.8982 
G01 X-7.9430 Y23.7153 
G00 Z2.0000 
G00 X-5.4030 Y23.7153 
G01 Z-0.1500 F100.00 
G01 X-5.4030 Y22.0047 F208.00 
G01 X-5.4394 Y21.8218 
G01 X-5.5108 Y21.6494 
G01 X-5.6144 Y21.4943 
G01 X-5.7463 Y21.3624 
G01 X-5.7586 Y21.3542 
G01 X-5.7586 Y17.7218 
G01 X-5.7813 Y17.6075 
G01 X-5.8259 Y17.4999 
G01 X-5.8906 Y17.4030 
G01 X-5.9730 Y17.3206 
G01 X-6.0699 Y17.2559 
G01 X-6.1775 Y17.2113 
G01 X-6.2918 Y17.1886 
G01 X-9.8134 Y17.1886 
G01 X-10.2798 Y16.7222 
G01 X-10.2798 Y15.9906 
G01 X-10.3080 Y15.9226 
G01 X-10.3600 Y15.8706 
G01 X-10.4280 Y15.8424 
G01 X-11.1620 Y15.8424 
G01 X-11.2300 Y15.8706 
G01 X-11.2820 Y15.9226 
G01 X-11.3102 Y15.9906 
G01 X-11.3102 Y16.7500 
G01 X-11.3191 Y16.7633 
G01 X-11.3637 Y16.8709 
G01 X-11.3864 Y16.9852 
G01 X-11.3864 Y17.1016 
G01 X-11.3637 Y17.2159 
G01 X-11.3191 Y17.3235 
G01 X-11.3102 Y17.3368 
G01 X-11.3102 Y18.0962 
G01 X-11.2820 Y18.1642 
G01 X-11.2300 Y18.2162 
G01 X-11.1620 Y18.2444 
G01 X-10.4280 Y18.2444 
G01 X-10.3385 Y18.3041 
G01 X-10.2309 Y18.3487 
G01 X-10.1166 Y18.3714 
G01 X-6.9414 Y18.3714 
G01 X-6.9414 Y21.3542 
G01 X-6.9537 Y21.3624 
G01 X-7.0856 Y21.4943 
G01 X-7.1892 Y21.6494 
G01 X-7.2606 Y21.8218 
G01 X-7.2970 Y22.0047 
G01 X-7.2970 Y23.7153 
G01 X-7.2606 Y23.8982 
G01 X-7.1892 Y24.0706 
G01 X-7.0856 Y24.2257 
G01 X-6.9537 Y24.3576 
G01 X-6.7986 Y24.4612 
G01 X-6.6262 Y24.5326 
G01 X-6.4433 Y24.5690 
G01 X-6.2567 Y24.5690 
G01 X-6.0738 Y24.5326 
G01 X-5.9014 Y24.4612 
G01 X-5.7463 Y24.3576 
G01 X-5.6144 Y24.2257 
G01 X-5.5108 Y24.0706 
G01 X-5.4394 Y23.8982 
G01 X-5.4030 Y23.7153 
G00 Z2.0000 
G00 X-10.2798 Y11.9494 
G01 Z-0.1500 F100.00 
G01 X-10.2798 Y11.2178 F208.00 
G01 X-8.5434 Y9.4814 
G01 X-6.2918 Y9.4814 
G01 X-6.1775 Y9.4587 
G01 X-6.0699 Y9.4141 
G01 X-5.9730 Y9.3494 
G01 X-5.8906 Y9.2670 
G01 X-5.8259 Y9.1701 
G01 X-5.7813 Y9.0625 
G01 X-5.7586 Y8.9482 
G01 X-5.7586 Y5.3158 
G01 X-5.7463 Y5.3076 
G01 X-5.6144 Y5.1757 
G01 X-5.5108 Y5.0206 
G01 X-5.4394 Y4.8482 
G01 X-5.4030 Y4.6653 
G01 X-5.4030 Y2.9547 
G01 X-5.4394 Y2.7718 
G01 X-5.5108 Y2.5994 
G01 X-5.6144 Y2.4443 
G01 X-5.7463 Y2.3124 
G01 X-5.9014 Y2.2088 
G01 X-6.0738 Y2.1374 
G01 X-6.2567 Y2.1010 
G01 X-6.4433 Y2.1010 
G01 X-6.6262 Y2.1374 
G01 X-6.7986 Y2.2088 
G01 X-6.9537 Y2.3124 
G01 X-7.0856 Y2.4443 
G01 X-7.1892 Y2.5994 
G01 X-7.2606 Y2.7718 
G01 X-7.2970 Y2.9547 
G01 X-7.2970 Y4.6653 
G01 X-7.2606 Y4.8482 
G01 X-7.1892 Y5.0206 
G01 X-7.0856 Y5.1757 
G01 X-6.9537 Y5.3076 
G01 X-6.9414 Y5.3158 
G01 X-6.9414 Y8.2986 
G01 X-8.8466 Y8.2986 
G01 X-8.9609 Y8.3213 
G01 X-9.0685 Y8.3659 
G01 X-9.1654 Y8.4306 
G01 X-9.2478 Y8.5130 
G01 X-10.4304 Y9.6956 
G01 X-11.1620 Y9.6956 
G01 X-11.2300 Y9.7238 
G01 X-11.2820 Y9.7758 
G01 X-11.3102 Y9.8438 
G01 X-11.3102 Y10.6032 
G01 X-11.3191 Y10.6165 
G01 X-11.3637 Y10.7241 
G01 X-11.3864 Y10.8384 
G01 X-11.3864 Y10.9548 
G01 X-11.3637 Y11.0691 
G01 X-11.3191 Y11.1767 
G01 X-11.3102 Y11.1900 
G01 X-11.3102 Y11.9494 
G01 X-11.2820 Y12.0174 
G01 X-11.2300 Y12.0694 
G01 X-11.1620 Y12.0976 
G01 X-10.4280 Y12.0976 
G01 X-10.3600 Y12.0694 
G01 X-10.3080 Y12.0174 
G01 X-10.2798 Y11.9494 
G00 Z2.0000 
G00 X-11.5498 Y11.9494 
G01 Z-0.1500 F100.00 
G01 X-11.5498 Y11.1900 F208.00 
G01 X-11.5409 Y11.1767 
G01 X-11.4963 Y11.0691 
G01 X-11.4736 Y10.9548 
G01 X-11.4736 Y9.7700 
G01 X-10.4180 Y8.7144 
G01 X-8.5130 Y6.8094 
G01 X-8.4306 Y6.7270 
G01 X-8.3659 Y6.6301 
G01 X-8.3213 Y6.5225 
G01 X-8.2986 Y6.4082 
G01 X-8.2986 Y5.3158 
G01 X-8.2863 Y5.3076 
G01 X-8.1544 Y5.1757 
G01 X-8.0508 Y5.0206 
G01 X-7.9794 Y4.8482 
G01 X-7.9430 Y4.6653 
G01 X-7.9430 Y2.9547 
G01 X-7.9794 Y2.7718 
G01 X-8.0508 Y2.5994 
G01 X-8.1544 Y2.4443 
G01 X-8.2863 Y2.3124 
G01 X-8.4414 Y2.2088 
G01 X-8.6138 Y2.1374 
G01 X-8.7967 Y2.1010 
G01 X-8.9833 Y2.1010 
G01 X-9.1662 Y2.1374 
G01 X-9.3386 Y2.2088 
G01 X-9.4937 Y2.3124 
G01 X-9.6256 Y2.4443 
G01 X-9.7292 Y2.5994 
G01 X-9.8006 Y2.7718 
G01 X-9.8370 Y2.9547 
G01 X-9.8370 Y4.6653 
G01 X-9.8006 Y4.8482 
G01 X-9.7292 Y5.0206 
G01 X-9.6256 Y5.1757 
G01 X-9.4937 Y5.3076 
G01 X-9.4814 Y5.3158 
G01 X-9.4814 Y6.1050 
G01 X-11.2544 Y7.8780 
G01 X-12.5244 Y9.1480 
G01 X-12.5891 Y9.2449 
G01 X-12.6337 Y9.3525 
G01 X-12.6564 Y9.4668 
G01 X-12.6564 Y10.9548 
G01 X-12.6337 Y11.0691 
G01 X-12.5891 Y11.1767 
G01 X-12.5802 Y11.1900 
G01 X-12.5802 Y11.9494 
G01 X-12.5520 Y12.0174 
G01 X-12.5000 Y12.0694 
G01 X-12.4320 Y12.0976 
G01 X-11.6980 Y12.0976 
G01 X-11.6300 Y12.0694 
G01 X-11.5780 Y12.0174 
G01 X-11.5498 Y11.9494 
G00 Z2.0000 
G00 X-12.8198 Y11.9494 
G01 Z-0.1500 F100.00 
G01 X-12.8198 Y11.1900 F208.00 
G01 X-12.8109 Y11.1767 
G01 X-12.7663 Y11.0691 
G01 X-12.7436 Y10.9548 
G01 X-12.7436 Y9.0400 
G01 X-10.9706 Y7.2670 
G01 X-10.9059 Y7.1701 
G01 X-10.8613 Y7.0625 
G01 X-10.8386 Y6.9482 
G01 X-10.8386 Y5.3158 
G01 X-10.8263 Y5.3076 
G01 X-10.6944 Y5.1757 
G01 X-10.5908 Y5.0206 
G01 X-10.5194 Y4.8482 
G01 X-10.4830 Y4.6653 
G01 X-10.4830 Y2.9547 
G01 X-10.5194 Y2.7718 
G01 X-10.5908 Y2.5994 
G01 X-10.6944 Y2.4443 
G01 X-10.8263 Y2.3124 
G01 X-10.9814 Y2.2088 
G01 X-11.1538 Y2.1374 
G01 X-11.3367 Y2.1010 
G01 X-11.5233 Y2.1010 
G01 X-11.7062 Y2.1374 
G01 X-11.8786 Y2.2088 
G01 X-12.0337 Y2.3124 
G01 X-12.1656 Y2.4443 
G01 X-12.2692 Y2.5994 
G01 X-12.3406 Y2.7718 
G01 X-12.3770 Y2.9547 
G01 X-12.3770 Y4.6653 
G01 X-12.3406 Y4.8482 
G01 X-12.2692 Y5.0206 
G01 X-12.1656 Y5.1757 
G01 X-12.0337 Y5.3076 
G01 X-12.0214 Y5.3158 
G01 X-12.0214 Y6.6450 
G01 X-13.7944 Y8.4180 
G01 X-13.8591 Y8.5149 
G01 X-13.9037 Y8.6225 
G01 X-13.9264 Y8.7368 
G01 X-13.9264 Y10.9548 
G01 X-13.9037 Y11.0691 
G01 X-13.8591 Y11.1767 
G01 X-13.8502 Y11.1900 
G01 X-13.8502 Y11.9494 
G01 X-13.8220 Y12.0174 
G01 X-13.7700 Y12.0694 
G01 X-13.7020 Y12.0976 
G01 X-12.9680 Y12.0976 
G01 X-12.9000 Y12.0694 
G01 X-12.8480 Y12.0174 
G01 X-12.8198 Y11.9494 
G00 Z2.0000 
G00 X-14.0898 Y11.9494 
G01 Z-0.1500 F100.00 
G01 X-14.0898 Y11.1900 F208.00 
G01 X-14.0809 Y11.1767 
G01 X-14.0363 Y11.0691 
G01 X-14.0136 Y10.9548 
G01 X-14.0136 Y8.5000 
G01 X-13.5930 Y8.0794 
G01 X-13.5106 Y7.9970 
G01 X-13.4459 Y7.9001 
G01 X-13.4013 Y7.7925 
G01 X-13.3786 Y7.6782 
G01 X-13.3786 Y5.3158 
G01 X-13.3663 Y5.3076 
G01 X-13.2344 Y5.1757 
G01 X-13.1308 Y5.0206 
G01 X-13.0594 Y4.8482 
G01 X-13.0230 Y4.6653 
G01 X-13.0230 Y2.9547 
G01 X-13.0594 Y2.7718 
G01 X-13.1308 Y2.5994 
G01 X-13.2344 Y2.4443 
G01 X-13.3663 Y2.3124 
G01 X-13.5214 Y2.2088 
G01 X-13.6938 Y2.1374 
G01 X-13.8767 Y2.1010 
G01 X-14.0633 Y2.1010 
G01 X-14.2462 Y2.1374 
G01 X-14.4186 Y2.2088 
G01 X-14.5737 Y2.3124 
G01 X-14.7056 Y2.4443 
G01 X-14.8092 Y2.5994 
G01 X-14.8806 Y2.7718 
G01 X-14.9170 Y2.9547 
G01 X-14.9170 Y4.6653 
G01 X-14.8806 Y4.8482 
G01 X-14.8092 Y5.0206 
G01 X-14.7056 Y5.1757 
G01 X-14.5737 Y5.3076 
G01 X-14.5614 Y5.3158 
G01 X-14.5614 Y7.3750 
G01 X-15.0644 Y7.8780 
G01 X-15.1291 Y7.9749 
G01 X-15.1737 Y8.0825 
G01 X-15.1964 Y8.1967 
G01 X-15.1964 Y10.9548 
G01 X-15.1737 Y11.0691 
G01 X-15.1291 Y11.1767 
G01 X-15.1202 Y11.1900 
G01 X-15.1202 Y11.9494 
G01 X-15.0920 Y12.0174 
G01 X-15.0400 Y12.0694 
G01 X-14.9720 Y12.0976 
G01 X-14.2380 Y12.0976 
G01 X-14.1700 Y12.0694 
G01 X-14.1180 Y12.0174 
G01 X-14.0898 Y11.9494 
G00 Z2.0000 
G00 X-15.3598 Y15.9906 
G01 Z-0.1500 F100.00 
G01 X-15.3880 Y15.9226 F208.00 
G01 X-15.4400 Y15.8706 
G01 X-15.5080 Y15.8424 
G01 X-16.2420 Y15.8424 
G01 X-16.3100 Y15.8706 
G01 X-16.3620 Y15.9226 
G01 X-16.3902 Y15.9906 
G01 X-16.3902 Y16.7500 
G01 X-16.3991 Y16.7633 
G01 X-16.4437 Y16.8709 
G01 X-16.4664 Y16.9852 
G01 X-16.4664 Y20.7100 
G01 X-16.8870 Y21.1306 
G01 X-16.9694 Y21.2130 
G01 X-17.0333 Y21.3087 
G01 X-17.1137 Y21.3624 
G01 X-17.2456 Y21.4943 
G01 X-17.3492 Y21.6494 
G01 X-17.4206 Y21.8218 
G01 X-17.4570 Y22.0047 
G01 X-17.4570 Y23.7153 
G01 X-17.4206 Y23.8982 
G01 X-17.3492 Y24.0706 
G01 X-17.2456 Y24.2257 
G01 X-17.1137 Y24.3576 
G01 X-16.9586 Y24.4612 
G01 X-16.7862 Y24.5326 
G01 X-16.6033 Y24.5690 
G01 X-16.4167 Y24.5690 
G01 X-16.2338 Y24.5326 
G01 X-16.0614 Y24.4612 
G01 X-15.9063 Y24.3576 
G01 X-15.7744 Y24.2257 
G01 X-15.6708 Y24.0706 
G01 X-15.5994 Y23.8982 
G01 X-15.5630 Y23.7153 
G01 X-15.5630 Y22.0047 
G01 X-15.5994 Y21.8218 
G01 X-15.6708 Y21.6494 
G01 X-15.6957 Y21.6121 
G01 X-15.4156 Y21.3320 
G01 X-15.3509 Y21.2351 
G01 X-15.3063 Y21.1275 
G01 X-15.2836 Y21.0132 
G01 X-15.2836 Y16.9852 
G01 X-15.3063 Y16.8709 
G01 X-15.3509 Y16.7633 
G01 X-15.3598 Y16.7500 
G01 X-15.3598 Y15.9906 
G00 Z2.0000 
G00 X-17.8998 Y11.9494 
G01 Z-0.1500 F100.00 
G01 X-17.8998 Y11.1900 F208.00 
G01 X-17.8909 Y11.1767 
G01 X-17.8463 Y11.0691 
G01 X-17.8236 Y10.9548 
G01 X-17.8236 Y9.4668 
G01 X-17.8463 Y9.3525 
G01 X-17.8909 Y9.2449 
G01 X-17.9556 Y9.1480 
G01 X-20.9986 Y6.1050 
G01 X-20.9986 Y5.3158 
G01 X-20.9863 Y5.3076 
G01 X-20.8544 Y5.1757 
G01 X-20.7508 Y5.0206 
G01 X-20.6794 Y4.8482 
G01 X-20.6430 Y4.6653 
G01 X-20.6430 Y2.9547 
G01 X-20.6794 Y2.7718 
G01 X-20.7508 Y2.5994 
G01 X-20.8544 Y2.4443 
G01 X-20.9863 Y2.3124 
G01 X-21.1414 Y2.2088 
G01 X-21.3138 Y2.1374 
G01 X-21.4967 Y2.1010 
G01 X-21.6833 Y2.1010 
G01 X-21.8662 Y2.1374 
G01 X-22.0386 Y2.2088 
G01 X-22.1937 Y2.3124 
G01 X-22.3256 Y2.4443 
G01 X-22.4292 Y2.5994 
G01 X-22.5006 Y2.7718 
G01 X-22.5370 Y2.9547 
G01 X-22.5370 Y4.6653 
G01 X-22.5006 Y4.8482 
G01 X-22.4292 Y5.0206 
G01 X-22.3256 Y5.1757 
G01 X-22.1937 Y5.3076 
G01 X-22.1814 Y5.3158 
G01 X-22.1814 Y6.4082 
G01 X-22.1587 Y6.5225 
G01 X-22.1141 Y6.6301 
G01 X-22.0494 Y6.7270 
G01 X-21.9670 Y6.8094 
G01 X-19.0064 Y9.7700 
G01 X-19.0064 Y10.9548 
G01 X-18.9837 Y11.0691 
G01 X-18.9391 Y11.1767 
G01 X-18.9302 Y11.1900 
G01 X-18.9302 Y11.9494 
G01 X-18.9020 Y12.0174 
G01 X-18.8500 Y12.0694 
G01 X-18.7820 Y12.0976 
G01 X-18.0480 Y12.0976 
G01 X-17.9800 Y12.0694 
G01 X-17.9280 Y12.0174 
G01 X-17.8998 Y11.9494 
G00 Z2.0000 
G00 X-11.1578 Y18.3444 
G01 Z-0.1500 F100.00 
G01 X-10.4582 Y18.3444 F208.00 
G01 X-10.4369 Y18.3586 
G01 X-11.1436 Y18.3586 
G01 X-11.1578 Y18.3444 
G00 Z2.0000 
G00 X-23.0830 Y23.7044 
G01 Z-0.1500 F100.00 
G01 X-23.0830 Y22.0156 F208.00 
G01 X-23.1088 Y21.8528 
G01 X-23.1597 Y21.6961 
G01 X-23.2345 Y21.5493 
G01 X-23.3314 Y21.4159 
G01 X-23.4386 Y21.3087 
G01 X-23.4386 Y21.0114 
G01 X-22.8935 Y21.0114 
G01 X-22.7599 Y20.9848 
G01 X-22.6341 Y20.9327 
G01 X-22.5209 Y20.8570 
G01 X-22.4246 Y20.7607 
G01 X-20.0082 Y18.3444 
G01 X-19.3173 Y18.3444 
G01 X-19.2448 Y18.3250 
G01 X-19.1798 Y18.2875 
G01 X-19.1267 Y18.2344 
G01 X-19.1064 Y18.1991 
G01 X-19.1064 Y18.2236 
G01 X-21.8195 Y20.9367 
G01 X-21.9175 Y20.9773 
G01 X-22.0307 Y21.0530 
G01 X-22.1270 Y21.1493 
G01 X-22.1852 Y21.2363 
G01 X-22.2721 Y21.2994 
G01 X-22.3886 Y21.4159 
G01 X-22.4855 Y21.5493 
G01 X-22.5603 Y21.6961 
G01 X-22.6112 Y21.8528 
G01 X-22.6370 Y22.0156 
G01 X-22.6370 Y23.7044 
G01 X-22.6112 Y23.8672 
G01 X-22.5603 Y24.0239 
G01 X-22.4855 Y24.1707 
G01 X-22.3886 Y24.3041 
G01 X-22.2721 Y24.4206 
G01 X-22.1387 Y24.5175 
G01 X-21.9919 Y24.5923 
G01 X-21.8352 Y24.6432 
G01 X-21.6724 Y24.6690 
G01 X-21.5076 Y24.6690 
G01 X-21.3448 Y24.6432 
G01 X-21.1881 Y24.5923 
G01 X-21.0413 Y24.5175 
G01 X-20.9079 Y24.4206 
G01 X-20.7914 Y24.3041 
G01 X-20.6945 Y24.1707 
G01 X-20.6197 Y24.0239 
G01 X-20.5688 Y23.8672 
G01 X-20.5430 Y23.7044 
G01 X-20.5430 Y22.0156 
G01 X-20.5688 Y21.8528 
G01 X-20.6197 Y21.6961 
G01 X-17.8780 Y18.9507 
G01 X-17.8364 Y18.8885 
G01 X-17.8364 Y19.3986 
G01 X-19.5870 Y21.1493 
G01 X-19.6452 Y21.2363 
G01 X-19.7321 Y21.2994 
G01 X-19.8486 Y21.4159 
G01 X-19.9455 Y21.5493 
G01 X-20.0203 Y21.6961 
G01 X-20.0712 Y21.8528 
G01 X-20.0970 Y22.0156 
G01 X-20.0970 Y23.7044 
G01 X-20.0712 Y23.8672 
G01 X-20.0203 Y24.0239 
G01 X-19.9455 Y24.1707 
G01 X-19.8486 Y24.3041 
G01 X-19.7321 Y24.4206 
G01 X-19.5987 Y24.5175 
G01 X-19.4519 Y24.5923 
G01 X-19.2952 Y24.6432 
G01 X-19.1324 Y24.6690 
G01 X-18.9676 Y24.6690 
G01 X-18.8048 Y24.6432 
G01 X-18.6481 Y24.5923 
G01 X-18.5013 Y24.5175 
G01 X-18.3679 Y24.4206 
G01 X-18.2514 Y24.3041 
G01 X-18.1545 Y24.1707 
G01 X-18.0797 Y24.0239 
G01 X-18.0288 Y23.8672 
G01 X-18.0030 Y23.7044 
G01 X-18.0030 Y22.0156 
G01 X-18.0288 Y21.8528 
G01 X-18.0797 Y21.6961 
G01 X-18.1130 Y21.6308 
G01 X-16.6080 Y20.1257 
G01 X-16.5664 Y20.0635 
G01 X-16.5664 Y20.6686 
G01 X-16.9507 Y21.0530 
G01 X-17.0470 Y21.1493 
G01 X-17.1052 Y21.2363 
G01 X-17.1921 Y21.2994 
G01 X-17.3086 Y21.4159 
G01 X-17.4055 Y21.5493 
G01 X-17.4803 Y21.6961 
G01 X-17.5312 Y21.8528 
G01 X-17.5570 Y22.0156 
G01 X-17.5570 Y23.7044 
G01 X-17.5312 Y23.8672 
G01 X-17.4803 Y24.0239 
G01 X-17.4055 Y24.1707 
G01 X-17.3086 Y24.3041 
G01 X-17.1921 Y24.4206 
G01 X-17.0587 Y24.5175 
G01 X-16.9119 Y24.5923 
G01 X-16.7552 Y24.6432 
G01 X-16.5924 Y24.6690 
G01 X-16.4276 Y24.6690 
G01 X-16.2648 Y24.6432 
G01 X-16.1081 Y24.5923 
G01 X-15.9613 Y24.5175 
G01 X-15.8279 Y24.4206 
G01 X-15.7114 Y24.3041 
G01 X-15.6145 Y24.1707 
G01 X-15.5397 Y24.0239 
G01 X-15.4888 Y23.8672 
G01 X-15.4630 Y23.7044 
G01 X-15.4630 Y22.0156 
G01 X-15.4888 Y21.8528 
G01 X-15.5397 Y21.6961 
G01 X-15.5730 Y21.6308 
G01 X-15.3380 Y21.3957 
G01 X-15.2623 Y21.2825 
G01 X-15.2400 Y21.2287 
G01 X-15.2177 Y21.2825 
G01 X-15.1420 Y21.3957 
G01 X-14.9070 Y21.6308 
G01 X-14.9403 Y21.6961 
G01 X-14.9912 Y21.8528 
G01 X-15.0170 Y22.0156 
G01 X-15.0170 Y23.7044 
G01 X-14.9912 Y23.8672 
G01 X-14.9403 Y24.0239 
G01 X-14.8655 Y24.1707 
G01 X-14.7686 Y24.3041 
G01 X-14.6521 Y24.4206 
G01 X-14.5187 Y24.5175 
G01 X-14.3719 Y24.5923 
G01 X-14.2152 Y24.6432 
G01 X-14.0524 Y24.6690 
G01 X-13.8876 Y24.6690 
G01 X-13.7248 Y24.6432 
G01 X-13.5681 Y24.5923 
G01 X-13.4213 Y24.5175 
G01 X-13.2879 Y24.4206 
G01 X-13.1714 Y24.3041 
G01 X-13.0745 Y24.1707 
G01 X-12.9997 Y24.0239 
G01 X-12.9488 Y23.8672 
G01 X-12.9230 Y23.7044 
G01 X-12.9230 Y22.0156 
G01 X-12.9488 Y21.8528 
G01 X-12.9997 Y21.6961 
G01 X-13.0745 Y21.5493 
G01 X-13.1714 Y21.4159 
G01 X-13.2879 Y21.2994 
G01 X-13.3748 Y21.2363 
G01 X-13.4330 Y21.1493 
G01 X-13.5293 Y21.0530 
G01 X-13.9136 Y20.6686 
G01 X-13.9136 Y19.9736 
G01 X-13.8720 Y20.0358 
G01 X-13.2630 Y20.6449 
G01 X-13.2619 Y20.6475 
G01 X-13.1862 Y20.7607 
G01 X-13.0899 Y20.8570 
G01 X-12.9767 Y20.9327 
G01 X-12.9741 Y20.9338 
G01 X-12.3367 Y21.5712 
G01 X-12.4003 Y21.6961 
G01 X-12.4512 Y21.8528 
G01 X-12.4770 Y22.0156 
G01 X-12.4770 Y23.7044 
G01 X-12.4512 Y23.8672 
G01 X-12.4003 Y24.0239 
G01 X-12.3255 Y24.1707 
G01 X-12.2286 Y24.3041 
G01 X-12.1121 Y24.4206 
G01 X-11.9787 Y24.5175 
G01 X-11.8319 Y24.5923 
G01 X-11.6752 Y24.6432 
G01 X-11.5124 Y24.6690 
G01 X-11.3476 Y24.6690 
G01 X-11.1848 Y24.6432 
G01 X-11.0281 Y24.5923 
G01 X-10.8812 Y24.5175 
G01 X-10.7479 Y24.4206 
G01 X-10.6314 Y24.3041 
G01 X-10.5345 Y24.1707 
G01 X-10.4597 Y24.0239 
G01 X-10.4088 Y23.8672 
G01 X-10.3830 Y23.7044 
G01 X-10.3830 Y22.0156 
G01 X-10.4088 Y21.8528 
G01 X-10.4597 Y21.6961 
G01 X-10.5345 Y21.5493 
G01 X-10.6314 Y21.4159 
G01 X-10.7479 Y21.2994 
G01 X-10.7720 Y21.2819 
G01 X-10.8173 Y21.1726 
G01 X-10.8930 Y21.0594 
G01 X-10.9893 Y20.9631 
G01 X-12.1121 Y19.8402 
G01 X-12.6436 Y19.3087 
G01 X-12.6436 Y18.7935 
G01 X-12.6020 Y18.8557 
G01 X-11.9670 Y19.4907 
G01 X-11.8707 Y19.5870 
G01 X-11.7575 Y19.6627 
G01 X-11.6317 Y19.7148 
G01 X-11.4981 Y19.7414 
G01 X-9.5814 Y19.7414 
G01 X-9.5814 Y21.3087 
G01 X-9.6886 Y21.4159 
G01 X-9.7855 Y21.5493 
G01 X-9.8603 Y21.6961 
G01 X-9.9112 Y21.8528 
G01 X-9.9370 Y22.0156 
G01 X-9.9370 Y23.7044 
G01 X-9.9112 Y23.8672 
G01 X-9.8603 Y24.0239 
G01 X-9.7855 Y24.1707 
G01 X-9.6886 Y24.3041 
G01 X-9.5721 Y24.4206 
G01 X-9.4387 Y24.5175 
G01 X-9.2919 Y24.5923 
G01 X-9.1352 Y24.6432 
G01 X-8.9724 Y24.6690 
G01 X-8.8076 Y24.6690 
G01 X-8.6448 Y24.6432 
G01 X-8.4881 Y24.5923 
G01 X-8.3413 Y24.5175 
G01 X-8.2079 Y24.4206 
G01 X-8.0914 Y24.3041 
G01 X-7.9945 Y24.1707 
G01 X-7.9197 Y24.0239 
G01 X-7.8688 Y23.8672 
G01 X-7.8430 Y23.7044 
G01 X-7.8430 Y22.0156 
G01 X-7.8688 Y21.8528 
G01 X-7.9197 Y21.6961 
G01 X-7.9945 Y21.5493 
G01 X-8.0914 Y21.4159 
G01 X-8.1986 Y21.3087 
G01 X-8.1986 Y18.9819 
G01 X-8.2252 Y18.8483 
G01 X-8.2773 Y18.7225 
G01 X-8.3530 Y18.6093 
G01 X-8.4493 Y18.5130 
G01 X-8.5115 Y18.4714 
G01 X-7.0414 Y18.4714 
G01 X-7.0414 Y21.3087 
G01 X-7.1486 Y21.4159 
G01 X-7.2455 Y21.5493 
G01 X-7.3203 Y21.6961 
G01 X-7.3712 Y21.8528 
G01 X-7.3970 Y22.0156 
G01 X-7.3970 Y23.7044 
G01 X-7.3712 Y23.8672 
G01 X-7.3203 Y24.0239 
G01 X-7.2455 Y24.1707 
G01 X-7.1486 Y24.3041 
G01 X-7.0321 Y24.4206 
G01 X-6.8987 Y24.5175 
G01 X-6.7519 Y24.5923 
G01 X-6.5952 Y24.6432 
G01 X-6.4324 Y24.6690 
G01 X-6.2676 Y24.6690 
G01 X-6.1048 Y24.6432 
G01 X-5.9481 Y24.5923 
G01 X-5.8013 Y24.5175 
G01 X-5.6679 Y24.4206 
G01 X-5.5514 Y24.3041 
G01 X-5.4545 Y24.1707 
G01 X-5.3797 Y24.0239 
G01 X-5.3288 Y23.8672 
G01 X-5.3030 Y23.7044 
G01 X-5.3030 Y22.0156 
G01 X-5.3288 Y21.8528 
G01 X-5.3797 Y21.6961 
G01 X-5.4545 Y21.5493 
G01 X-5.5514 Y21.4159 
G01 X-5.6586 Y21.3087 
G01 X-5.6586 Y17.7119 
G01 X-5.6852 Y17.5783 
G01 X-5.7373 Y17.4525 
G01 X-5.8130 Y17.3393 
G01 X-5.9093 Y17.2430 
G01 X-6.0225 Y17.1673 
G01 X-6.1483 Y17.1152 
G01 X-6.2819 Y17.0886 
G01 X-9.7720 Y17.0886 
G01 X-10.1798 Y16.6808 
G01 X-10.1798 Y15.9899 
G01 X-10.1992 Y15.9174 
G01 X-10.2367 Y15.8524 
G01 X-10.2898 Y15.7993 
G01 X-10.3548 Y15.7618 
G01 X-10.4273 Y15.7424 
G01 X-11.1627 Y15.7424 
G01 X-11.2352 Y15.7618 
G01 X-11.3002 Y15.7993 
G01 X-11.3533 Y15.8524 
G01 X-11.3908 Y15.9174 
G01 X-11.4102 Y15.9899 
G01 X-11.4102 Y16.7219 
G01 X-11.4300 Y16.7697 
G01 X-11.4498 Y16.7219 
G01 X-11.4498 Y15.9899 
G01 X-11.4692 Y15.9174 
G01 X-11.5067 Y15.8524 
G01 X-11.5598 Y15.7993 
G01 X-11.6248 Y15.7618 
G01 X-11.6973 Y15.7424 
G01 X-12.4327 Y15.7424 
G01 X-12.5052 Y15.7618 
G01 X-12.5702 Y15.7993 
G01 X-12.6233 Y15.8524 
G01 X-12.6608 Y15.9174 
G01 X-12.6802 Y15.9899 
G01 X-12.6802 Y16.7219 
G01 X-12.7000 Y16.7697 
G01 X-12.7198 Y16.7219 
G01 X-12.7198 Y15.9899 
G01 X-12.7392 Y15.9174 
G01 X-12.7767 Y15.8524 
G01 X-12.8298 Y15.7993 
G01 X-12.8948 Y15.7618 
G01 X-12.9673 Y15.7424 
G01 X-13.7027 Y15.7424 
G01 X-13.7752 Y15.7618 
G01 X-13.8402 Y15.7993 
G01 X-13.8933 Y15.8524 
G01 X-13.9308 Y15.9174 
G01 X-13.9502 Y15.9899 
G01 X-13.9502 Y16.7219 
G01 X-13.9700 Y16.7697 
G01 X-13.9898 Y16.7219 
G01 X-13.9898 Y15.9899 
G01 X-14.0092 Y15.9174 
G01 X-14.0467 Y15.8524 
G01 X-14.0998 Y15.7993 
G01 X-14.1648 Y15.7618 
G01 X-14.2373 Y15.7424 
G01 X-14.9727 Y15.7424 
G01 X-15.0452 Y15.7618 
G01 X-15.1102 Y15.7993 
G01 X-15.1633 Y15.8524 
G01 X-15.2008 Y15.9174 
G01 X-15.2202 Y15.9899 
G01 X-15.2202 Y16.7219 
G01 X-15.2400 Y16.7697 
G01 X-15.2598 Y16.7219 
G01 X-15.2598 Y15.9899 
G01 X-15.2792 Y15.9174 
G01 X-15.3167 Y15.8524 
G01 X-15.3698 Y15.7993 
G01 X-15.4348 Y15.7618 
G01 X-15.5073 Y15.7424 
G01 X-16.2427 Y15.7424 
G01 X-16.3152 Y15.7618 
G01 X-16.3802 Y15.7993 
G01 X-16.4333 Y15.8524 
G01 X-16.4708 Y15.9174 
G01 X-16.4902 Y15.9899 
G01 X-16.4902 Y16.7219 
G01 X-16.5100 Y16.7697 
G01 X-16.5298 Y16.7219 
G01 X-16.5298 Y15.9899 
G01 X-16.5492 Y15.9174 
G01 X-16.5867 Y15.8524 
G01 X-16.6398 Y15.7993 
G01 X-16.7048 Y15.7618 
G01 X-16.7773 Y15.7424 
G01 X-17.5127 Y15.7424 
G01 X-17.5852 Y15.7618 
G01 X-17.6502 Y15.7993 
G01 X-17.7033 Y15.8524 
G01 X-17.7408 Y15.9174 
G01 X-17.7602 Y15.9899 
G01 X-17.7602 Y16.7219 
G01 X-17.7800 Y16.7697 
G01 X-17.7998 Y16.7219 
G01 X-17.7998 Y15.9899 
G01 X-17.8192 Y15.9174 
G01 X-17.8567 Y15.8524 
G01 X-17.9098 Y15.7993 
G01 X-17.9748 Y15.7618 
G01 X-18.0473 Y15.7424 
G01 X-18.7827 Y15.7424 
G01 X-18.8552 Y15.7618 
G01 X-18.9202 Y15.7993 
G01 X-18.9733 Y15.8524 
G01 X-19.0108 Y15.9174 
G01 X-19.0302 Y15.9899 
G01 X-19.0302 Y16.7219 
G01 X-19.0500 Y16.7697 
G01 X-19.0698 Y16.7219 
G01 X-19.0698 Y15.9899 
G01 X-19.0892 Y15.9174 
G01 X-19.1267 Y15.8524 
G01 X-19.1798 Y15.7993 
G01 X-19.2448 Y15.7618 
G01 X-19.3173 Y15.7424 
G01 X-20.0527 Y15.7424 
G01 X-20.1252 Y15.7618 
G01 X-20.1902 Y15.7993 
G01 X-20.2433 Y15.8524 
G01 X-20.2808 Y15.9174 
G01 X-20.3002 Y15.9899 
G01 X-20.3002 Y16.6808 
G01 X-23.2480 Y19.6286 
G01 X-24.1981 Y19.6286 
G01 X-24.3317 Y19.6552 
G01 X-24.4575 Y19.7073 
G01 X-24.5707 Y19.7830 
G01 X-24.6670 Y19.8793 
G01 X-24.7427 Y19.9925 
G01 X-24.7948 Y20.1183 
G01 X-24.8214 Y20.2519 
G01 X-24.8214 Y21.3087 
G01 X-24.9286 Y21.4159 
G01 X-25.0255 Y21.5493 
G01 X-25.1003 Y21.6961 
G01 X-25.1512 Y21.8528 
G01 X-25.1770 Y22.0156 
G01 X-25.1770 Y23.7044 
G01 X-25.1512 Y23.8672 
G01 X-25.1003 Y24.0239 
G01 X-25.0255 Y24.1707 
G01 X-24.9286 Y24.3041 
G01 X-24.8121 Y24.4206 
G01 X-24.6787 Y24.5175 
G01 X-24.5319 Y24.5923 
G01 X-24.3752 Y24.6432 
G01 X-24.2124 Y24.6690 
G01 X-24.0476 Y24.6690 
G01 X-23.8848 Y24.6432 
G01 X-23.7281 Y24.5923 
G01 X-23.5813 Y24.5175 
G01 X-23.4479 Y24.4206 
G01 X-23.3314 Y24.3041 
G01 X-23.2345 Y24.1707 
G01 X-23.1597 Y24.0239 
G01 X-23.1088 Y23.8672 
G01 X-23.0830 Y23.7044 
G00 Z2.0000 
G00 X-10.1798 Y11.9501 
G01 Z-0.1500 F100.00 
G01 X-10.1798 Y11.2592 F208.00 
G01 X-8.5020 Y9.5814 
G01 X-6.2819 Y9.5814 
G01 X-6.1483 Y9.5548 
G01 X-6.0225 Y9.5027 
G01 X-5.9093 Y9.4270 
G01 X-5.8130 Y9.3307 
G01 X-5.7373 Y9.2175 
G01 X-5.6852 Y9.0917 
G01 X-5.6586 Y8.9581 
G01 X-5.6586 Y5.3613 
G01 X-5.5514 Y5.2541 
G01 X-5.4545 Y5.1207 
G01 X-5.3797 Y4.9739 
G01 X-5.3288 Y4.8172 
G01 X-5.3030 Y4.6544 
G01 X-5.3030 Y2.9656 
G01 X-5.3288 Y2.8028 
G01 X-5.3797 Y2.6461 
G01 X-5.4545 Y2.4992 
G01 X-5.5514 Y2.3659 
G01 X-5.6679 Y2.2494 
G01 X-5.8013 Y2.1525 
G01 X-5.9481 Y2.0777 
G01 X-6.1048 Y2.0268 
G01 X-6.2676 Y2.0010 
G01 X-6.4324 Y2.0010 
G01 X-6.5952 Y2.0268 
G01 X-6.7519 Y2.0777 
G01 X-6.8987 Y2.1525 
G01 X-7.0321 Y2.2494 
G01 X-7.1486 Y2.3659 
G01 X-7.2455 Y2.4992 
G01 X-7.3203 Y2.6461 
G01 X-7.3712 Y2.8028 
G01 X-7.3970 Y2.9656 
G01 X-7.3970 Y4.6544 
G01 X-7.3712 Y4.8172 
G01 X-7.3203 Y4.9739 
G01 X-7.2455 Y5.1207 
G01 X-7.1486 Y5.2541 
G01 X-7.0414 Y5.3613 
G01 X-7.0414 Y8.1986 
G01 X-8.8565 Y8.1986 
G01 X-8.9901 Y8.2252 
G01 X-9.1159 Y8.2773 
G01 X-9.2291 Y8.3530 
G01 X-9.3254 Y8.4493 
G01 X-10.4718 Y9.5956 
G01 X-11.1578 Y9.5956 
G01 X-10.3543 Y8.7920 
G01 X-8.4493 Y6.8870 
G01 X-8.3530 Y6.7907 
G01 X-8.2773 Y6.6775 
G01 X-8.2252 Y6.5517 
G01 X-8.1986 Y6.4181 
G01 X-8.1986 Y5.3613 
G01 X-8.0914 Y5.2541 
G01 X-7.9945 Y5.1207 
G01 X-7.9197 Y4.9739 
G01 X-7.8688 Y4.8172 
G01 X-7.8430 Y4.6544 
G01 X-7.8430 Y2.9656 
G01 X-7.8688 Y2.8028 
G01 X-7.9197 Y2.6461 
G01 X-7.9945 Y2.4992 
G01 X-8.0914 Y2.3659 
G01 X-8.2079 Y2.2494 
G01 X-8.3413 Y2.1525 
G01 X-8.4881 Y2.0777 
G01 X-8.6448 Y2.0268 
G01 X-8.8076 Y2.0010 
G01 X-8.9724 Y2.0010 
G01 X-9.1352 Y2.0268 
G01 X-9.2919 Y2.0777 
G01 X-9.4387 Y2.1525 
G01 X-9.5721 Y2.2494 
G01 X-9.6886 Y2.3659 
G01 X-9.7855 Y2.4992 
G01 X-9.8603 Y2.6461 
G01 X-9.9112 Y2.8028 
G01 X-9.9370 Y2.9656 
G01 X-9.9370 Y4.6544 
G01 X-9.9112 Y4.8172 
G01 X-9.8603 Y4.9739 
G01 X-9.7855 Y5.1207 
G01 X-9.6886 Y5.2541 
G01 X-9.5814 Y5.3613 
G01 X-9.5814 Y6.0636 
G01 X-11.3320 Y7.8143 
G01 X-12.6020 Y9.0843 
G01 X-12.6436 Y9.1465 
G01 X-12.6436 Y9.0814 
G01 X-10.8930 Y7.3307 
G01 X-10.8173 Y7.2175 
G01 X-10.7652 Y7.0917 
G01 X-10.7386 Y6.9581 
G01 X-10.7386 Y5.3613 
G01 X-10.6314 Y5.2541 
G01 X-10.5345 Y5.1207 
G01 X-10.4597 Y4.9739 
G01 X-10.4088 Y4.8172 
G01 X-10.3830 Y4.6544 
G01 X-10.3830 Y2.9656 
G01 X-10.4088 Y2.8028 
G01 X-10.4597 Y2.6461 
G01 X-10.5345 Y2.4992 
G01 X-10.6314 Y2.3659 
G01 X-10.7479 Y2.2494 
G01 X-10.8812 Y2.1525 
G01 X-11.0281 Y2.0777 
G01 X-11.1848 Y2.0268 
G01 X-11.3476 Y2.0010 
G01 X-11.5124 Y2.0010 
G01 X-11.6752 Y2.0268 
G01 X-11.8319 Y2.0777 
G01 X-11.9787 Y2.1525 
G01 X-12.1121 Y2.2494 
G01 X-12.2286 Y2.3659 
G01 X-12.3255 Y2.4992 
G01 X-12.4003 Y2.6461 
G01 X-12.4512 Y2.8028 
G01 X-12.4770 Y2.9656 
G01 X-12.4770 Y4.6544 
G01 X-12.4512 Y4.8172 
G01 X-12.4003 Y4.9739 
G01 X-12.3255 Y5.1207 
G01 X-12.2286 Y5.2541 
G01 X-12.1214 Y5.3613 
G01 X-12.1214 Y6.6036 
G01 X-13.2967 Y7.7789 
G01 X-13.2786 Y7.6881 
G01 X-13.2786 Y5.3613 
G01 X-13.1714 Y5.2541 
G01 X-13.0745 Y5.1207 
G01 X-12.9997 Y4.9739 
G01 X-12.9488 Y4.8172 
G01 X-12.9230 Y4.6544 
G01 X-12.9230 Y2.9656 
G01 X-12.9488 Y2.8028 
G01 X-12.9997 Y2.6461 
G01 X-13.0745 Y2.4992 
G01 X-13.1714 Y2.3659 
G01 X-13.2879 Y2.2494 
G01 X-13.4213 Y2.1525 
G01 X-13.5681 Y2.0777 
G01 X-13.7248 Y2.0268 
G01 X-13.8876 Y2.0010 
G01 X-14.0524 Y2.0010 
G01 X-14.2152 Y2.0268 
G01 X-14.3719 Y2.0777 
G01 X-14.5187 Y2.1525 
G01 X-14.6521 Y2.2494 
G01 X-14.7686 Y2.3659 
G01 X-14.8655 Y2.4992 
G01 X-14.9403 Y2.6461 
G01 X-14.9912 Y2.8028 
G01 X-15.0170 Y2.9656 
G01 X-15.0170 Y4.6544 
G01 X-14.9912 Y4.8172 
G01 X-14.9403 Y4.9739 
G01 X-14.8655 Y5.1207 
G01 X-14.7686 Y5.2541 
G01 X-14.6614 Y5.3613 
G01 X-14.6614 Y7.3336 
G01 X-15.1420 Y7.8143 
G01 X-15.1836 Y7.8765 
G01 X-15.1836 Y6.9169 
G01 X-15.2102 Y6.7833 
G01 X-15.2623 Y6.6575 
G01 X-15.3380 Y6.5443 
G01 X-15.8186 Y6.0636 
G01 X-15.8186 Y5.3613 
G01 X-15.7114 Y5.2541 
G01 X-15.6145 Y5.1207 
G01 X-15.5397 Y4.9739 
G01 X-15.4888 Y4.8172 
G01 X-15.4630 Y4.6544 
G01 X-15.4630 Y2.9656 
G01 X-15.4888 Y2.8028 
G01 X-15.5397 Y2.6461 
G01 X-15.6145 Y2.4992 
G01 X-15.7114 Y2.3659 
G01 X-15.8279 Y2.2494 
G01 X-15.9613 Y2.1525 
G01 X-16.1081 Y2.0777 
G01 X-16.2648 Y2.0268 
G01 X-16.4276 Y2.0010 
G01 X-16.5924 Y2.0010 
G01 X-16.7552 Y2.0268 
G01 X-16.9119 Y2.0777 
G01 X-17.0587 Y2.1525 
G01 X-17.1921 Y2.2494 
G01 X-17.3086 Y2.3659 
G01 X-17.4055 Y2.4992 
G01 X-17.4803 Y2.6461 
G01 X-17.5312 Y2.8028 
G01 X-17.5570 Y2.9656 
G01 X-17.5570 Y4.6544 
G01 X-17.5312 Y4.8172 
G01 X-17.4803 Y4.9739 
G01 X-17.4055 Y5.1207 
G01 X-17.3086 Y5.2541 
G01 X-17.2014 Y5.3613 
G01 X-17.2014 Y6.4181 
G01 X-17.1748 Y6.5517 
G01 X-17.1227 Y6.6775 
G01 X-17.0470 Y6.7907 
G01 X-16.5664 Y7.2714 
G01 X-16.5664 Y7.8765 
G01 X-16.6080 Y7.8143 
G01 X-18.3586 Y6.0636 
G01 X-18.3586 Y5.3613 
G01 X-18.2514 Y5.2541 
G01 X-18.1545 Y5.1207 
G01 X-18.0797 Y4.9739 
G01 X-18.0288 Y4.8172 
G01 X-18.0030 Y4.6544 
G01 X-18.0030 Y2.9656 
G01 X-18.0288 Y2.8028 
G01 X-18.0797 Y2.6461 
G01 X-18.1545 Y2.4992 
G01 X-18.2514 Y2.3659 
G01 X-18.3679 Y2.2494 
G01 X-18.5013 Y2.1525 
G01 X-18.6481 Y2.0777 
G01 X-18.8048 Y2.0268 
G01 X-18.9676 Y2.0010 
G01 X-19.1324 Y2.0010 
G01 X-19.2952 Y2.0268 
G01 X-19.4519 Y2.0777 
G01 X-19.5987 Y2.1525 
G01 X-19.7321 Y2.2494 
G01 X-19.8486 Y2.3659 
G01 X-19.9455 Y2.4992 
G01 X-20.0203 Y2.6461 
G01 X-20.0712 Y2.8028 
G01 X-20.0970 Y2.9656 
G01 X-20.0970 Y4.6544 
G01 X-20.0712 Y4.8172 
G01 X-20.0203 Y4.9739 
G01 X-19.9455 Y5.1207 
G01 X-19.8486 Y5.2541 
G01 X-19.7414 Y5.3613 
G01 X-19.7414 Y6.4181 
G01 X-19.7148 Y6.5517 
G01 X-19.6627 Y6.6775 
G01 X-19.5870 Y6.7907 
G01 X-17.8364 Y8.5414 
G01 X-17.8364 Y9.1465 
G01 X-17.8780 Y9.0843 
G01 X-20.8986 Y6.0636 
G01 X-20.8986 Y5.3613 
G01 X-20.7914 Y5.2541 
G01 X-20.6945 Y5.1207 
G01 X-20.6197 Y4.9739 
G01 X-20.5688 Y4.8172 
G01 X-20.5430 Y4.6544 
G01 X-20.5430 Y2.9656 
G01 X-20.5688 Y2.8028 
G01 X-20.6197 Y2.6461 
G01 X-20.6945 Y2.4992 
G01 X-20.7914 Y2.3659 
G01 X-20.9079 Y2.2494 
G01 X-21.0413 Y2.1525 
G01 X-21.1881 Y2.0777 
G01 X-21.3448 Y2.0268 
G01 X-21.5076 Y2.0010 
G01 X-21.6724 Y2.0010 
G01 X-21.8352 Y2.0268 
G01 X-21.9919 Y2.0777 
G01 X-22.1387 Y2.1525 
G01 X-22.2721 Y2.2494 
G01 X-22.3886 Y2.3659 
G01 X-22.4855 Y2.4992 
G01 X-22.5603 Y2.6461 
G01 X-22.6112 Y2.8028 
G01 X-22.6370 Y2.9656 
G01 X-22.6370 Y4.6544 
G01 X-22.6112 Y4.8172 
G01 X-22.5603 Y4.9739 
G01 X-22.4855 Y5.1207 
G01 X-22.3886 Y5.2541 
G01 X-22.2814 Y5.3613 
G01 X-22.2814 Y6.4181 
G01 X-22.2548 Y6.5517 
G01 X-22.2027 Y6.6775 
G01 X-22.1270 Y6.7907 
G01 X-22.0307 Y6.8870 
G01 X-19.3222 Y9.5956 
G01 X-20.0082 Y9.5956 
G01 X-21.1546 Y8.4493 
G01 X-21.2509 Y8.3530 
G01 X-21.3641 Y8.2773 
G01 X-21.4899 Y8.2252 
G01 X-21.6235 Y8.1986 
G01 X-22.5736 Y8.1986 
G01 X-23.4386 Y7.3336 
G01 X-23.4386 Y5.3613 
G01 X-23.3314 Y5.2541 
G01 X-23.2345 Y5.1207 
G01 X-23.1597 Y4.9739 
G01 X-23.1088 Y4.8172 
G01 X-23.0830 Y4.6544 
G01 X-23.0830 Y2.9656 
G01 X-23.1088 Y2.8028 
G01 X-23.1597 Y2.6461 
G01 X-23.2345 Y2.4992 
G01 X-23.3314 Y2.3659 
G01 X-23.4479 Y2.2494 
G01 X-23.5813 Y2.1525 
G01 X-23.7281 Y2.0777 
G01 X-23.8848 Y2.0268 
G01 X-24.0476 Y2.0010 
G01 X-24.2124 Y2.0010 
G01 X-24.3752 Y2.0268 
G01 X-24.5319 Y2.0777 
G01 X-24.6787 Y2.1525 
G01 X-24.8121 Y2.2494 
G01 X-24.9286 Y2.3659 
G01 X-25.0255 Y2.4992 
G01 X-25.1003 Y2.6461 
G01 X-25.1512 Y2.8028 
G01 X-25.1770 Y2.9656 
G01 X-25.1770 Y4.6544 
G01 X-25.1512 Y4.8172 
G01 X-25.1003 Y4.9739 
G01 X-25.0255 Y5.1207 
G01 X-24.9286 Y5.2541 
G01 X-24.8214 Y5.3613 
G01 X-24.8214 Y7.6881 
G01 X-24.7948 Y7.8217 
G01 X-24.7427 Y7.9475 
G01 X-24.6670 Y8.0607 
G01 X-24.5707 Y8.1570 
G01 X-23.3007 Y9.4270 
G01 X-23.1875 Y9.5027 
G01 X-23.0617 Y9.5548 
G01 X-22.9281 Y9.5814 
G01 X-21.9780 Y9.5814 
G01 X-20.3002 Y11.2592 
G01 X-20.3002 Y11.9501 
G01 X-20.2808 Y12.0226 
G01 X-20.2433 Y12.0876 
G01 X-20.1902 Y12.1407 
G01 X-20.1252 Y12.1782 
G01 X-20.0527 Y12.1976 
G01 X-19.3173 Y12.1976 
G01 X-19.2448 Y12.1782 
G01 X-19.1798 Y12.1407 
G01 X-19.1267 Y12.0876 
G01 X-19.0892 Y12.0226 
G01 X-19.0698 Y11.9501 
G01 X-19.0698 Y11.2181 
G01 X-19.0500 Y11.1703 
G01 X-19.0302 Y11.2181 
G01 X-19.0302 Y11.9501 
G01 X-19.0108 Y12.0226 
G01 X-18.9733 Y12.0876 
G01 X-18.9202 Y12.1407 
G01 X-18.8552 Y12.1782 
G01 X-18.7827 Y12.1976 
G01 X-18.0473 Y12.1976 
G01 X-17.9748 Y12.1782 
G01 X-17.9098 Y12.1407 
G01 X-17.8567 Y12.0876 
G01 X-17.8192 Y12.0226 
G01 X-17.7998 Y11.9501 
G01 X-17.7998 Y11.2181 
G01 X-17.7800 Y11.1703 
G01 X-17.7602 Y11.2181 
G01 X-17.7602 Y11.9501 
G01 X-17.7408 Y12.0226 
G01 X-17.7033 Y12.0876 
G01 X-17.6502 Y12.1407 
G01 X-17.5852 Y12.1782 
G01 X-17.5127 Y12.1976 
G01 X-16.7773 Y12.1976 
G01 X-16.7048 Y12.1782 
G01 X-16.6398 Y12.1407 
G01 X-16.5867 Y12.0876 
G01 X-16.5492 Y12.0226 
G01 X-16.5298 Y11.9501 
G01 X-16.5298 Y11.2181 
G01 X-16.5100 Y11.1703 
G01 X-16.4902 Y11.2181 
G01 X-16.4902 Y11.9501 
G01 X-16.4708 Y12.0226 
G01 X-16.4333 Y12.0876 
G01 X-16.3802 Y12.1407 
G01 X-16.3152 Y12.1782 
G01 X-16.2427 Y12.1976 
G01 X-15.5073 Y12.1976 
G01 X-15.4348 Y12.1782 
G01 X-15.3698 Y12.1407 
G01 X-15.3167 Y12.0876 
G01 X-15.2792 Y12.0226 
G01 X-15.2598 Y11.9501 
G01 X-15.2598 Y11.2181 
G01 X-15.2400 Y11.1703 
G01 X-15.2202 Y11.2181 
G01 X-15.2202 Y11.9501 
G01 X-15.2008 Y12.0226 
G01 X-15.1633 Y12.0876 
G01 X-15.1102 Y12.1407 
G01 X-15.0452 Y12.1782 
G01 X-14.9727 Y12.1976 
G01 X-14.2373 Y12.1976 
G01 X-14.1648 Y12.1782 
G01 X-14.0998 Y12.1407 
G01 X-14.0467 Y12.0876 
G01 X-14.0092 Y12.0226 
G01 X-13.9898 Y11.9501 
G01 X-13.9898 Y11.2181 
G01 X-13.9700 Y11.1703 
G01 X-13.9502 Y11.2181 
G01 X-13.9502 Y11.9501 
G01 X-13.9308 Y12.0226 
G01 X-13.8933 Y12.0876 
G01 X-13.8402 Y12.1407 
G01 X-13.7752 Y12.1782 
G01 X-13.7027 Y12.1976 
G01 X-12.9673 Y12.1976 
G01 X-12.8948 Y12.1782 
G01 X-12.8298 Y12.1407 
G01 X-12.7767 Y12.0876 
G01 X-12.7392 Y12.0226 
G01 X-12.7198 Y11.9501 
G01 X-12.7198 Y11.2181 
G01 X-12.7000 Y11.1703 
G01 X-12.6802 Y11.2181 
G01 X-12.6802 Y11.9501 
G01 X-12.6608 Y12.0226 
G01 X-12.6233 Y12.0876 
G01 X-12.5702 Y12.1407 
G01 X-12.5052 Y12.1782 
G01 X-12.4327 Y12.1976 
G01 X-11.6973 Y12.1976 
G01 X-11.6248 Y12.1782 
G01 X-11.5598 Y12.1407 
G01 X-11.5067 Y12.0876 
G01 X-11.4692 Y12.0226 
G01 X-11.4498 Y11.9501 
G01 X-11.4498 Y11.2181 
G01 X-11.4300 Y11.1703 
G01 X-11.4102 Y11.2181 
G01 X-11.4102 Y11.9501 
G01 X-11.3908 Y12.0226 
G01 X-11.3533 Y12.0876 
G01 X-11.3002 Y12.1407 
G01 X-11.2352 Y12.1782 
G01 X-11.1627 Y12.1976 
G01 X-10.4273 Y12.1976 
G01 X-10.3548 Y12.1782 
G01 X-10.2898 Y12.1407 
G01 X-10.2367 Y12.0876 
G01 X-10.1992 Y12.0226 
G01 X-10.1798 Y11.9501 
G00 Z2.0000 
G00 X-12.5770 Y2.9577 
G01 Z-0.1500 F100.00 
G01 X-12.5770 Y4.6623 F208.00 
G01 X-12.5488 Y4.8406 
G01 X-12.4930 Y5.0123 
G01 X-12.4110 Y5.1732 
G01 X-12.3049 Y5.3192 
G01 X-12.2214 Y5.4027 
G01 X-12.2214 Y6.5622 
G01 X-13.1786 Y7.5194 
G01 X-13.1786 Y5.4027 
G01 X-13.0951 Y5.3192 
G01 X-12.9890 Y5.1732 
G01 X-12.9070 Y5.0123 
G01 X-12.8512 Y4.8406 
G01 X-12.8230 Y4.6623 
G01 X-12.8230 Y2.9577 
G01 X-12.8512 Y2.7794 
G01 X-12.9070 Y2.6077 
G01 X-12.9890 Y2.4468 
G01 X-13.0951 Y2.3008 
G01 X-13.2228 Y2.1731 
G01 X-13.3688 Y2.0670 
G01 X-13.5297 Y1.9850 
G01 X-13.7014 Y1.9292 
G01 X-13.8797 Y1.9010 
G01 X-14.0603 Y1.9010 
G01 X-14.2386 Y1.9292 
G01 X-14.4103 Y1.9850 
G01 X-14.5712 Y2.0670 
G01 X-14.7172 Y2.1731 
G01 X-14.8449 Y2.3008 
G01 X-14.9510 Y2.4468 
G01 X-15.0330 Y2.6077 
G01 X-15.0888 Y2.7794 
G01 X-15.1170 Y2.9577 
G01 X-15.1170 Y4.6623 
G01 X-15.0888 Y4.8406 
G01 X-15.0330 Y5.0123 
G01 X-14.9510 Y5.1732 
G01 X-14.8449 Y5.3192 
G01 X-14.7614 Y5.4027 
G01 X-14.7614 Y7.2922 
G01 X-15.0836 Y7.6144 
G01 X-15.0836 Y6.9070 
G01 X-15.1140 Y6.7542 
G01 X-15.1737 Y6.6101 
G01 X-15.2603 Y6.4805 
G01 X-15.7186 Y6.0222 
G01 X-15.7186 Y5.4027 
G01 X-15.6351 Y5.3192 
G01 X-15.5290 Y5.1732 
G01 X-15.4470 Y5.0123 
G01 X-15.3912 Y4.8406 
G01 X-15.3630 Y4.6623 
G01 X-15.3630 Y2.9577 
G01 X-15.3912 Y2.7794 
G01 X-15.4470 Y2.6077 
G01 X-15.5290 Y2.4468 
G01 X-15.6351 Y2.3008 
G01 X-15.7628 Y2.1731 
G01 X-15.9088 Y2.0670 
G01 X-16.0697 Y1.9850 
G01 X-16.2414 Y1.9292 
G01 X-16.4197 Y1.9010 
G01 X-16.6003 Y1.9010 
G01 X-16.7786 Y1.9292 
G01 X-16.9503 Y1.9850 
G01 X-17.1112 Y2.0670 
G01 X-17.2572 Y2.1731 
G01 X-17.3849 Y2.3008 
G01 X-17.4910 Y2.4468 
G01 X-17.5730 Y2.6077 
G01 X-17.6288 Y2.7794 
G01 X-17.6570 Y2.9577 
G01 X-17.6570 Y4.6623 
G01 X-17.6288 Y4.8406 
G01 X-17.5730 Y5.0123 
G01 X-17.4910 Y5.1732 
G01 X-17.3849 Y5.3192 
G01 X-17.3014 Y5.4027 
G01 X-17.3014 Y6.4279 
G01 X-17.2710 Y6.5808 
G01 X-17.2113 Y6.7249 
G01 X-17.1247 Y6.8545 
G01 X-16.6664 Y7.3128 
G01 X-16.6664 Y7.6144 
G01 X-18.2586 Y6.0222 
G01 X-18.2586 Y5.4027 
G01 X-18.1751 Y5.3192 
G01 X-18.0690 Y5.1732 
G01 X-17.9870 Y5.0123 
G01 X-17.9312 Y4.8406 
G01 X-17.9030 Y4.6623 
G01 X-17.9030 Y2.9577 
G01 X-17.9312 Y2.7794 
G01 X-17.9870 Y2.6077 
G01 X-18.0690 Y2.4468 
G01 X-18.1751 Y2.3008 
G01 X-18.3028 Y2.1731 
G01 X-18.4488 Y2.0670 
G01 X-18.6097 Y1.9850 
G01 X-18.7814 Y1.9292 
G01 X-18.9597 Y1.9010 
G01 X-19.1403 Y1.9010 
G01 X-19.3186 Y1.9292 
G01 X-19.4903 Y1.9850 
G01 X-19.6512 Y2.0670 
G01 X-19.7972 Y2.1731 
G01 X-19.9249 Y2.3008 
G01 X-20.0310 Y2.4468 
G01 X-20.1130 Y2.6077 
G01 X-20.1688 Y2.7794 
G01 X-20.1970 Y2.9577 
G01 X-20.1970 Y4.6623 
G01 X-20.1688 Y4.8406 
G01 X-20.1130 Y5.0123 
G01 X-20.0310 Y5.1732 
G01 X-19.9249 Y5.3192 
G01 X-19.8414 Y5.4027 
G01 X-19.8414 Y6.4279 
G01 X-19.8110 Y6.5808 
G01 X-19.7513 Y6.7249 
G01 X-19.6647 Y6.8545 
G01 X-17.9364 Y8.5828 
G01 X-17.9364 Y8.8844 
G01 X-20.7986 Y6.0222 
G01 X-20.7986 Y5.4027 
G01 X-20.7151 Y5.3192 
G01 X-20.6090 Y5.1732 
G01 X-20.5270 Y5.0123 
G01 X-20.4712 Y4.8406 
G01 X-20.4430 Y4.6623 
G01 X-20.4430 Y2.9577 
G01 X-20.4712 Y2.7794 
G01 X-20.5270 Y2.6077 
G01 X-20.6090 Y2.4468 
G01 X-20.7151 Y2.3008 
G01 X-20.8428 Y2.1731 
G01 X-20.9888 Y2.0670 
G01 X-21.1497 Y1.9850 
G01 X-21.3214 Y1.9292 
G01 X-21.4997 Y1.9010 
G01 X-21.6803 Y1.9010 
G01 X-21.8586 Y1.9292 
G01 X-22.0303 Y1.9850 
G01 X-22.1912 Y2.0670 
G01 X-22.3372 Y2.1731 
G01 X-22.4649 Y2.3008 
G01 X-22.5710 Y2.4468 
G01 X-22.6530 Y2.6077 
G01 X-22.7088 Y2.7794 
G01 X-22.7370 Y2.9577 
G01 X-22.7370 Y4.6623 
G01 X-22.7088 Y4.8406 
G01 X-22.6530 Y5.0123 
G01 X-22.5710 Y5.1732 
G01 X-22.4649 Y5.3192 
G01 X-22.3814 Y5.4027 
G01 X-22.3814 Y6.4279 
G01 X-22.3510 Y6.5808 
G01 X-22.2913 Y6.7249 
G01 X-22.2047 Y6.8545 
G01 X-22.0945 Y6.9647 
G01 X-19.5636 Y9.4956 
G01 X-19.9668 Y9.4956 
G01 X-21.0769 Y8.3855 
G01 X-21.1871 Y8.2753 
G01 X-21.3167 Y8.1887 
G01 X-21.4608 Y8.1290 
G01 X-21.6136 Y8.0986 
G01 X-22.5322 Y8.0986 
G01 X-23.3386 Y7.2922 
G01 X-23.3386 Y5.4027 
G01 X-23.2551 Y5.3192 
G01 X-23.1490 Y5.1732 
G01 X-23.0670 Y5.0123 
G01 X-23.0112 Y4.8406 
G01 X-22.9830 Y4.6623 
G01 X-22.9830 Y2.9577 
G01 X-23.0112 Y2.7794 
G01 X-23.0670 Y2.6077 
G01 X-23.1490 Y2.4468 
G01 X-23.2551 Y2.3008 
G01 X-23.3828 Y2.1731 
G01 X-23.5288 Y2.0670 
G01 X-23.6897 Y1.9850 
G01 X-23.8614 Y1.9292 
G01 X-24.0397 Y1.9010 
G01 X-24.2203 Y1.9010 
G01 X-24.3986 Y1.9292 
G01 X-24.5703 Y1.9850 
G01 X-24.7312 Y2.0670 
G01 X-24.8772 Y2.1731 
G01 X-25.0049 Y2.3008 
G01 X-25.1110 Y2.4468 
G01 X-25.1930 Y2.6077 
G01 X-25.2488 Y2.7794 
G01 X-25.2770 Y2.9577 
G01 X-25.2770 Y4.6623 
G01 X-25.2488 Y4.8406 
G01 X-25.1930 Y5.0123 
G01 X-25.1110 Y5.1732 
G01 X-25.0049 Y5.3192 
G01 X-24.9214 Y5.4027 
G01 X-24.9214 Y7.6979 
G01 X-24.8910 Y7.8508 
G01 X-24.8313 Y7.9949 
G01 X-24.7447 Y8.1245 
G01 X-24.6345 Y8.2347 
G01 X-23.3645 Y9.5047 
G01 X-23.2349 Y9.5913 
G01 X-23.0908 Y9.6510 
G01 X-22.9379 Y9.6814 
G01 X-22.0194 Y9.6814 
G01 X-20.4002 Y11.3006 
G01 X-20.4002 Y11.9633 
G01 X-20.3740 Y12.0612 
G01 X-20.3233 Y12.1490 
G01 X-20.2516 Y12.2207 
G01 X-20.1638 Y12.2714 
G01 X-20.0659 Y12.2976 
G01 X-19.3041 Y12.2976 
G01 X-19.2062 Y12.2714 
G01 X-19.1184 Y12.2207 
G01 X-19.0500 Y12.1523 
G01 X-18.9816 Y12.2207 
G01 X-18.8938 Y12.2714 
G01 X-18.7959 Y12.2976 
G01 X-18.0341 Y12.2976 
G01 X-17.9362 Y12.2714 
G01 X-17.8484 Y12.2207 
G01 X-17.7800 Y12.1523 
G01 X-17.7116 Y12.2207 
G01 X-17.6238 Y12.2714 
G01 X-17.5259 Y12.2976 
G01 X-16.7641 Y12.2976 
G01 X-16.6662 Y12.2714 
G01 X-16.5784 Y12.2207 
G01 X-16.5100 Y12.1523 
G01 X-16.4416 Y12.2207 
G01 X-16.3538 Y12.2714 
G01 X-16.2559 Y12.2976 
G01 X-15.4941 Y12.2976 
G01 X-15.3962 Y12.2714 
G01 X-15.3084 Y12.2207 
G01 X-15.2400 Y12.1523 
G01 X-15.1716 Y12.2207 
G01 X-15.0838 Y12.2714 
G01 X-14.9859 Y12.2976 
G01 X-14.2241 Y12.2976 
G01 X-14.1262 Y12.2714 
G01 X-14.0384 Y12.2207 
G01 X-13.9700 Y12.1523 
G01 X-13.9016 Y12.2207 
G01 X-13.8138 Y12.2714 
G01 X-13.7159 Y12.2976 
G01 X-12.9541 Y12.2976 
G01 X-12.8562 Y12.2714 
G01 X-12.7684 Y12.2207 
G01 X-12.7000 Y12.1523 
G01 X-12.6316 Y12.2207 
G01 X-12.5438 Y12.2714 
G01 X-12.4459 Y12.2976 
G01 X-11.6841 Y12.2976 
G01 X-11.5862 Y12.2714 
G01 X-11.4984 Y12.2207 
G01 X-11.4300 Y12.1523 
G01 X-11.3616 Y12.2207 
G01 X-11.2738 Y12.2714 
G01 X-11.1759 Y12.2976 
G01 X-10.4141 Y12.2976 
G01 X-10.3162 Y12.2714 
G01 X-10.2284 Y12.2207 
G01 X-10.1567 Y12.1490 
G01 X-10.1060 Y12.0612 
G01 X-10.0798 Y11.9633 
G01 X-10.0798 Y11.3006 
G01 X-8.4606 Y9.6814 
G01 X-6.2721 Y9.6814 
G01 X-6.1192 Y9.6510 
G01 X-5.9751 Y9.5913 
G01 X-5.8455 Y9.5047 
G01 X-5.7353 Y9.3945 
G01 X-5.6487 Y9.2649 
G01 X-5.5890 Y9.1208 
G01 X-5.5586 Y8.9679 
G01 X-5.5586 Y5.4027 
G01 X-5.4751 Y5.3192 
G01 X-5.3690 Y5.1732 
G01 X-5.2870 Y5.0123 
G01 X-5.2312 Y4.8406 
G01 X-5.2030 Y4.6623 
G01 X-5.2030 Y2.9577 
G01 X-5.2312 Y2.7794 
G01 X-5.2870 Y2.6077 
G01 X-5.3690 Y2.4468 
G01 X-5.4751 Y2.3008 
G01 X-5.6028 Y2.1731 
G01 X-5.7488 Y2.0670 
G01 X-5.9097 Y1.9850 
G01 X-6.0814 Y1.9292 
G01 X-6.2597 Y1.9010 
G01 X-6.4403 Y1.9010 
G01 X-6.6186 Y1.9292 
G01 X-6.7903 Y1.9850 
G01 X-6.9512 Y2.0670 
G01 X-7.0972 Y2.1731 
G01 X-7.2249 Y2.3008 
G01 X-7.3310 Y2.4468 
G01 X-7.4130 Y2.6077 
G01 X-7.4688 Y2.7794 
G01 X-7.4970 Y2.9577 
G01 X-7.4970 Y4.6623 
G01 X-7.4688 Y4.8406 
G01 X-7.4130 Y5.0123 
G01 X-7.3310 Y5.1732 
G01 X-7.2249 Y5.3192 
G01 X-7.1414 Y5.4027 
G01 X-7.1414 Y8.0986 
G01 X-8.8663 Y8.0986 
G01 X-9.0192 Y8.1290 
G01 X-9.1633 Y8.1887 
G01 X-9.2929 Y8.2753 
G01 X-9.4031 Y8.3855 
G01 X-10.5132 Y9.4956 
G01 X-10.9164 Y9.4956 
G01 X-10.2905 Y8.8697 
G01 X-8.3855 Y6.9647 
G01 X-8.2753 Y6.8545 
G01 X-8.1887 Y6.7249 
G01 X-8.1290 Y6.5808 
G01 X-8.0986 Y6.4279 
G01 X-8.0986 Y5.4027 
G01 X-8.0151 Y5.3192 
G01 X-7.9090 Y5.1732 
G01 X-7.8270 Y5.0123 
G01 X-7.7712 Y4.8406 
G01 X-7.7430 Y4.6623 
G01 X-7.7430 Y2.9577 
G01 X-7.7712 Y2.7794 
G01 X-7.8270 Y2.6077 
G01 X-7.9090 Y2.4468 
G01 X-8.0151 Y2.3008 
G01 X-8.1428 Y2.1731 
G01 X-8.2888 Y2.0670 
G01 X-8.4497 Y1.9850 
G01 X-8.6214 Y1.9292 
G01 X-8.7997 Y1.9010 
G01 X-8.9803 Y1.9010 
G01 X-9.1586 Y1.9292 
G01 X-9.3303 Y1.9850 
G01 X-9.4912 Y2.0670 
G01 X-9.6372 Y2.1731 
G01 X-9.7649 Y2.3008 
G01 X-9.8710 Y2.4468 
G01 X-9.9530 Y2.6077 
G01 X-10.0088 Y2.7794 
G01 X-10.0370 Y2.9577 
G01 X-10.0370 Y4.6623 
G01 X-10.0088 Y4.8406 
G01 X-9.9530 Y5.0123 
G01 X-9.8710 Y5.1732 
G01 X-9.7649 Y5.3192 
G01 X-9.6814 Y5.4027 
G01 X-9.6814 Y6.0222 
G01 X-10.6414 Y6.9822 
G01 X-10.6386 Y6.9679 
G01 X-10.6386 Y5.4027 
G01 X-10.5551 Y5.3192 
G01 X-10.4490 Y5.1732 
G01 X-10.3670 Y5.0123 
G01 X-10.3112 Y4.8406 
G01 X-10.2830 Y4.6623 
G01 X-10.2830 Y2.9577 
G01 X-10.3112 Y2.7794 
G01 X-10.3670 Y2.6077 
G01 X-10.4490 Y2.4468 
G01 X-10.5551 Y2.3008 
G01 X-10.6828 Y2.1731 
G01 X-10.8288 Y2.0670 
G01 X-10.9897 Y1.9850 
G01 X-11.1614 Y1.9292 
G01 X-11.3397 Y1.9010 
G01 X-11.5203 Y1.9010 
G01 X-11.6986 Y1.9292 
G01 X-11.8703 Y1.9850 
G01 X-12.0312 Y2.0670 
G01 X-12.1772 Y2.1731 
G01 X-12.3049 Y2.3008 
G01 X-12.4110 Y2.4468 
G01 X-12.4930 Y2.6077 
G01 X-12.5488 Y2.7794 
G01 X-12.5770 Y2.9577 
G00 Z2.0000 
G00 X-20.4430 Y23.7123 
G01 Z-0.1500 F100.00 
G01 X-20.4430 Y22.0077 F208.00 
G01 X-20.4712 Y21.8294 
G01 X-20.5065 Y21.7208 
G01 X-17.9364 Y19.1506 
G01 X-17.9364 Y19.3572 
G01 X-19.6647 Y21.0855 
G01 X-19.7184 Y21.1659 
G01 X-19.7972 Y21.2231 
G01 X-19.9249 Y21.3508 
G01 X-20.0310 Y21.4968 
G01 X-20.1130 Y21.6577 
G01 X-20.1688 Y21.8294 
G01 X-20.1970 Y22.0077 
G01 X-20.1970 Y23.7123 
G01 X-20.1688 Y23.8906 
G01 X-20.1130 Y24.0623 
G01 X-20.0310 Y24.2232 
G01 X-19.9249 Y24.3692 
G01 X-19.7972 Y24.4969 
G01 X-19.6512 Y24.6030 
G01 X-19.4903 Y24.6850 
G01 X-19.3186 Y24.7408 
G01 X-19.1403 Y24.7690 
G01 X-18.9597 Y24.7690 
G01 X-18.7814 Y24.7408 
G01 X-18.6097 Y24.6850 
G01 X-18.4488 Y24.6030 
G01 X-18.3028 Y24.4969 
G01 X-18.1751 Y24.3692 
G01 X-18.0690 Y24.2232 
G01 X-17.9870 Y24.0623 
G01 X-17.9312 Y23.8906 
G01 X-17.9030 Y23.7123 
G01 X-17.9030 Y22.0077 
G01 X-17.9312 Y21.8294 
G01 X-17.9870 Y21.6577 
G01 X-17.9909 Y21.6501 
G01 X-16.6664 Y20.3256 
G01 X-16.6664 Y20.6272 
G01 X-17.0145 Y20.9753 
G01 X-17.1247 Y21.0855 
G01 X-17.1784 Y21.1659 
G01 X-17.2572 Y21.2231 
G01 X-17.3849 Y21.3508 
G01 X-17.4910 Y21.4968 
G01 X-17.5730 Y21.6577 
G01 X-17.6288 Y21.8294 
G01 X-17.6570 Y22.0077 
G01 X-17.6570 Y23.7123 
G01 X-17.6288 Y23.8906 
G01 X-17.5730 Y24.0623 
G01 X-17.4910 Y24.2232 
G01 X-17.3849 Y24.3692 
G01 X-17.2572 Y24.4969 
G01 X-17.1112 Y24.6030 
G01 X-16.9503 Y24.6850 
G01 X-16.7786 Y24.7408 
G01 X-16.6003 Y24.7690 
G01 X-16.4197 Y24.7690 
G01 X-16.2414 Y24.7408 
G01 X-16.0697 Y24.6850 
G01 X-15.9088 Y24.6030 
G01 X-15.7628 Y24.4969 
G01 X-15.6351 Y24.3692 
G01 X-15.5290 Y24.2232 
G01 X-15.4470 Y24.0623 
G01 X-15.3912 Y23.8906 
G01 X-15.3630 Y23.7123 
G01 X-15.3630 Y22.0077 
G01 X-15.3912 Y21.8294 
G01 X-15.4470 Y21.6577 
G01 X-15.4509 Y21.6501 
G01 X-15.2603 Y21.4595 
G01 X-15.2400 Y21.4291 
G01 X-15.2197 Y21.4595 
G01 X-15.0291 Y21.6501 
G01 X-15.0330 Y21.6577 
G01 X-15.0888 Y21.8294 
G01 X-15.1170 Y22.0077 
G01 X-15.1170 Y23.7123 
G01 X-15.0888 Y23.8906 
G01 X-15.0330 Y24.0623 
G01 X-14.9510 Y24.2232 
G01 X-14.8449 Y24.3692 
G01 X-14.7172 Y24.4969 
G01 X-14.5712 Y24.6030 
G01 X-14.4103 Y24.6850 
G01 X-14.2386 Y24.7408 
G01 X-14.0603 Y24.7690 
G01 X-13.8797 Y24.7690 
G01 X-13.7014 Y24.7408 
G01 X-13.5297 Y24.6850 
G01 X-13.3688 Y24.6030 
G01 X-13.2228 Y24.4969 
G01 X-13.0951 Y24.3692 
G01 X-12.9890 Y24.2232 
G01 X-12.9070 Y24.0623 
G01 X-12.8512 Y23.8906 
G01 X-12.8230 Y23.7123 
G01 X-12.8230 Y22.0077 
G01 X-12.8512 Y21.8294 
G01 X-12.9070 Y21.6577 
G01 X-12.9890 Y21.4968 
G01 X-13.0951 Y21.3508 
G01 X-13.2228 Y21.2231 
G01 X-13.3016 Y21.1659 
G01 X-13.3553 Y21.0855 
G01 X-13.4655 Y20.9753 
G01 X-13.8136 Y20.6272 
G01 X-13.8136 Y20.2357 
G01 X-13.3426 Y20.7067 
G01 X-13.2639 Y20.8245 
G01 X-13.1537 Y20.9347 
G01 X-13.0359 Y21.0134 
G01 X-12.4588 Y21.5906 
G01 X-12.4930 Y21.6577 
G01 X-12.5488 Y21.8294 
G01 X-12.5770 Y22.0077 
G01 X-12.5770 Y23.7123 
G01 X-12.5488 Y23.8906 
G01 X-12.4930 Y24.0623 
G01 X-12.4110 Y24.2232 
G01 X-12.3049 Y24.3692 
G01 X-12.1772 Y24.4969 
G01 X-12.0312 Y24.6030 
G01 X-11.8703 Y24.6850 
G01 X-11.6986 Y24.7408 
G01 X-11.5203 Y24.7690 
G01 X-11.3397 Y24.7690 
G01 X-11.1614 Y24.7408 
G01 X-10.9897 Y24.6850 
G01 X-10.8288 Y24.6030 
G01 X-10.6828 Y24.4969 
G01 X-10.5551 Y24.3692 
G01 X-10.4490 Y24.2232 
G01 X-10.3670 Y24.0623 
G01 X-10.3112 Y23.8906 
G01 X-10.2830 Y23.7123 
G01 X-10.2830 Y22.0077 
G01 X-10.3112 Y21.8294 
G01 X-10.3670 Y21.6577 
G01 X-10.4490 Y21.4968 
G01 X-10.5551 Y21.3508 
G01 X-10.6828 Y21.2231 
G01 X-10.6904 Y21.2176 
G01 X-10.7287 Y21.1252 
G01 X-10.8153 Y20.9956 
G01 X-10.9255 Y20.8854 
G01 X-12.0345 Y19.7764 
G01 X-12.5436 Y19.2673 
G01 X-12.5436 Y19.0556 
G01 X-12.0447 Y19.5545 
G01 X-11.9345 Y19.6647 
G01 X-11.8049 Y19.7513 
G01 X-11.6608 Y19.8110 
G01 X-11.5079 Y19.8414 
G01 X-9.6814 Y19.8414 
G01 X-9.6814 Y21.2673 
G01 X-9.7649 Y21.3508 
G01 X-9.8710 Y21.4968 
G01 X-9.9530 Y21.6577 
G01 X-10.0088 Y21.8294 
G01 X-10.0370 Y22.0077 
G01 X-10.0370 Y23.7123 
G01 X-10.0088 Y23.8906 
G01 X-9.9530 Y24.0623 
G01 X-9.8710 Y24.2232 
G01 X-9.7649 Y24.3692 
G01 X-9.6372 Y24.4969 
G01 X-9.4912 Y24.6030 
G01 X-9.3303 Y24.6850 
G01 X-9.1586 Y24.7408 
G01 X-8.9803 Y24.7690 
G01 X-8.7997 Y24.7690 
G01 X-8.6214 Y24.7408 
G01 X-8.4497 Y24.6850 
G01 X-8.2888 Y24.6030 
G01 X-8.1428 Y24.4969 
G01 X-8.0151 Y24.3692 
G01 X-7.9090 Y24.2232 
G01 X-7.8270 Y24.0623 
G01 X-7.7712 Y23.8906 
G01 X-7.7430 Y23.7123 
G01 X-7.7430 Y22.0077 
G01 X-7.7712 Y21.8294 
G01 X-7.8270 Y21.6577 
G01 X-7.9090 Y21.4968 
G01 X-8.0151 Y21.3508 
G01 X-8.0986 Y21.2673 
G01 X-8.0986 Y18.9720 
G01 X-8.1290 Y18.8192 
G01 X-8.1887 Y18.6751 
G01 X-8.2580 Y18.5714 
G01 X-7.1414 Y18.5714 
G01 X-7.1414 Y21.2673 
G01 X-7.2249 Y21.3508 
G01 X-7.3310 Y21.4968 
G01 X-7.4130 Y21.6577 
G01 X-7.4688 Y21.8294 
G01 X-7.4970 Y22.0077 
G01 X-7.4970 Y23.7123 
G01 X-7.4688 Y23.8906 
G01 X-7.4130 Y24.0623 
G01 X-7.3310 Y24.2232 
G01 X-7.2249 Y24.3692 
G01 X-7.0972 Y24.4969 
G01 X-6.9512 Y24.6030 
G01 X-6.7903 Y24.6850 
G01 X-6.6186 Y24.7408 
G01 X-6.4403 Y24.7690 
G01 X-6.2597 Y24.7690 
G01 X-6.0814 Y24.7408 
G01 X-5.9097 Y24.6850 
G01 X-5.7488 Y24.6030 
G01 X-5.6028 Y24.4969 
G01 X-5.4751 Y24.3692 
G01 X-5.3690 Y24.2232 
G01 X-5.2870 Y24.0623 
G01 X-5.2312 Y23.8906 
G01 X-5.2030 Y23.7123 
G01 X-5.2030 Y22.0077 
G01 X-5.2312 Y21.8294 
G01 X-5.2870 Y21.6577 
G01 X-5.3690 Y21.4968 
G01 X-5.4751 Y21.3508 
G01 X-5.5586 Y21.2673 
G01 X-5.5586 Y17.7020 
G01 X-5.5890 Y17.5492 
G01 X-5.6487 Y17.4051 
G01 X-5.7353 Y17.2755 
G01 X-5.8455 Y17.1653 
G01 X-5.9751 Y17.0787 
G01 X-6.1192 Y17.0190 
G01 X-6.2721 Y16.9886 
G01 X-9.7306 Y16.9886 
G01 X-10.0798 Y16.6394 
G01 X-10.0798 Y15.9767 
G01 X-10.1060 Y15.8788 
G01 X-10.1567 Y15.7910 
G01 X-10.2284 Y15.7193 
G01 X-10.3162 Y15.6686 
G01 X-10.4141 Y15.6424 
G01 X-11.1759 Y15.6424 
G01 X-11.2738 Y15.6686 
G01 X-11.3616 Y15.7193 
G01 X-11.4300 Y15.7877 
G01 X-11.4984 Y15.7193 
G01 X-11.5862 Y15.6686 
G01 X-11.6841 Y15.6424 
G01 X-12.4459 Y15.6424 
G01 X-12.5438 Y15.6686 
G01 X-12.6316 Y15.7193 
G01 X-12.7000 Y15.7877 
G01 X-12.7684 Y15.7193 
G01 X-12.8562 Y15.6686 
G01 X-12.9541 Y15.6424 
G01 X-13.7159 Y15.6424 
G01 X-13.8138 Y15.6686 
G01 X-13.9016 Y15.7193 
G01 X-13.9700 Y15.7877 
G01 X-14.0384 Y15.7193 
G01 X-14.1262 Y15.6686 
G01 X-14.2241 Y15.6424 
G01 X-14.9859 Y15.6424 
G01 X-15.0838 Y15.6686 
G01 X-15.1716 Y15.7193 
G01 X-15.2400 Y15.7877 
G01 X-15.3084 Y15.7193 
G01 X-15.3962 Y15.6686 
G01 X-15.4941 Y15.6424 
G01 X-16.2559 Y15.6424 
G01 X-16.3538 Y15.6686 
G01 X-16.4416 Y15.7193 
G01 X-16.5100 Y15.7877 
G01 X-16.5784 Y15.7193 
G01 X-16.6662 Y15.6686 
G01 X-16.7641 Y15.6424 
G01 X-17.5259 Y15.6424 
G01 X-17.6238 Y15.6686 
G01 X-17.7116 Y15.7193 
G01 X-17.7800 Y15.7877 
G01 X-17.8484 Y15.7193 
G01 X-17.9362 Y15.6686 
G01 X-18.0341 Y15.6424 
G01 X-18.7959 Y15.6424 
G01 X-18.8938 Y15.6686 
G01 X-18.9816 Y15.7193 
G01 X-19.0500 Y15.7877 
G01 X-19.1184 Y15.7193 
G01 X-19.2062 Y15.6686 
G01 X-19.3041 Y15.6424 
G01 X-20.0659 Y15.6424 
G01 X-20.1638 Y15.6686 
G01 X-20.2516 Y15.7193 
G01 X-20.3233 Y15.7910 
G01 X-20.3740 Y15.8788 
G01 X-20.4002 Y15.9767 
G01 X-20.4002 Y16.6394 
G01 X-23.2894 Y19.5286 
G01 X-24.2079 Y19.5286 
G01 X-24.3608 Y19.5590 
G01 X-24.5049 Y19.6187 
G01 X-24.6345 Y19.7053 
G01 X-24.7447 Y19.8155 
G01 X-24.8313 Y19.9451 
G01 X-24.8910 Y20.0892 
G01 X-24.9214 Y20.2421 
G01 X-24.9214 Y21.2673 
G01 X-25.0049 Y21.3508 
G01 X-25.1110 Y21.4968 
G01 X-25.1930 Y21.6577 
G01 X-25.2488 Y21.8294 
G01 X-25.2770 Y22.0077 
G01 X-25.2770 Y23.7123 
G01 X-25.2488 Y23.8906 
G01 X-25.1930 Y24.0623 
G01 X-25.1110 Y24.2232 
G01 X-25.0049 Y24.3692 
G01 X-24.8772 Y24.4969 
G01 X-24.7312 Y24.6030 
G01 X-24.5703 Y24.6850 
G01 X-24.3986 Y24.7408 
G01 X-24.2203 Y24.7690 
G01 X-24.0397 Y24.7690 
G01 X-23.8614 Y24.7408 
G01 X-23.6897 Y24.6850 
G01 X-23.5288 Y24.6030 
G01 X-23.3828 Y24.4969 
G01 X-23.2551 Y24.3692 
G01 X-23.1490 Y24.2232 
G01 X-23.0670 Y24.0623 
G01 X-23.0112 Y23.8906 
G01 X-22.9830 Y23.7123 
G01 X-22.9830 Y22.0077 
G01 X-23.0112 Y21.8294 
G01 X-23.0670 Y21.6577 
G01 X-23.1490 Y21.4968 
G01 X-23.2551 Y21.3508 
G01 X-23.3386 Y21.2673 
G01 X-23.3386 Y21.1114 
G01 X-22.8836 Y21.1114 
G01 X-22.7308 Y21.0810 
G01 X-22.5867 Y21.0213 
G01 X-22.4571 Y20.9347 
G01 X-22.3469 Y20.8245 
G01 X-19.9668 Y18.4444 
G01 X-19.4686 Y18.4444 
G01 X-21.8761 Y20.8519 
G01 X-21.9649 Y20.8887 
G01 X-22.0945 Y20.9753 
G01 X-22.2047 Y21.0855 
G01 X-22.2584 Y21.1659 
G01 X-22.3372 Y21.2231 
G01 X-22.4649 Y21.3508 
G01 X-22.5710 Y21.4968 
G01 X-22.6530 Y21.6577 
G01 X-22.7088 Y21.8294 
G01 X-22.7370 Y22.0077 
G01 X-22.7370 Y23.7123 
G01 X-22.7088 Y23.8906 
G01 X-22.6530 Y24.0623 
G01 X-22.5710 Y24.2232 
G01 X-22.4649 Y24.3692 
G01 X-22.3372 Y24.4969 
G01 X-22.1912 Y24.6030 
G01 X-22.0303 Y24.6850 
G01 X-21.8586 Y24.7408 
G01 X-21.6803 Y24.7690 
G01 X-21.4997 Y24.7690 
G01 X-21.3214 Y24.7408 
G01 X-21.1497 Y24.6850 
G01 X-20.9888 Y24.6030 
G01 X-20.8428 Y24.4969 
G01 X-20.7151 Y24.3692 
G01 X-20.6090 Y24.2232 
G01 X-20.5270 Y24.0623 
G01 X-20.4712 Y23.8906 
G01 X-20.4430 Y23.7123 
G00 Z2.0000 
G00 X-12.6770 Y2.9499 
G01 Z-0.1500 F100.00 
G01 X-12.6770 Y4.6701 F208.00 
G01 X-12.6463 Y4.8640 
G01 X-12.5856 Y5.0507 
G01 X-12.4965 Y5.2256 
G01 X-12.3812 Y5.3844 
G01 X-12.3214 Y5.4441 
G01 X-12.3214 Y6.5208 
G01 X-13.0786 Y7.2780 
G01 X-13.0786 Y5.4441 
G01 X-13.0188 Y5.3844 
G01 X-12.9035 Y5.2256 
G01 X-12.8144 Y5.0507 
G01 X-12.7537 Y4.8640 
G01 X-12.7230 Y4.6701 
G01 X-12.7230 Y2.9499 
G01 X-12.7537 Y2.7560 
G01 X-12.8144 Y2.5693 
G01 X-12.9035 Y2.3944 
G01 X-13.0188 Y2.2356 
G01 X-13.1576 Y2.0968 
G01 X-13.3164 Y1.9815 
G01 X-13.4913 Y1.8924 
G01 X-13.6780 Y1.8317 
G01 X-13.8719 Y1.8010 
G01 X-14.0681 Y1.8010 
G01 X-14.2620 Y1.8317 
G01 X-14.4487 Y1.8924 
G01 X-14.6236 Y1.9815 
G01 X-14.7824 Y2.0968 
G01 X-14.9212 Y2.2356 
G01 X-15.0365 Y2.3944 
G01 X-15.1256 Y2.5693 
G01 X-15.1863 Y2.7560 
G01 X-15.2170 Y2.9499 
G01 X-15.2170 Y4.6701 
G01 X-15.1863 Y4.8640 
G01 X-15.1256 Y5.0507 
G01 X-15.0365 Y5.2256 
G01 X-14.9212 Y5.3844 
G01 X-14.8614 Y5.4441 
G01 X-14.8614 Y7.2508 
G01 X-14.9836 Y7.3730 
G01 X-14.9836 Y6.8972 
G01 X-15.0179 Y6.7250 
G01 X-15.0851 Y6.5628 
G01 X-15.1826 Y6.4168 
G01 X-15.6186 Y5.9808 
G01 X-15.6186 Y5.4441 
G01 X-15.5588 Y5.3844 
G01 X-15.4435 Y5.2256 
G01 X-15.3544 Y5.0507 
G01 X-15.2937 Y4.8640 
G01 X-15.2630 Y4.6701 
G01 X-15.2630 Y2.9499 
G01 X-15.2937 Y2.7560 
G01 X-15.3544 Y2.5693 
G01 X-15.4435 Y2.3944 
G01 X-15.5588 Y2.2356 
G01 X-15.6976 Y2.0968 
G01 X-15.8564 Y1.9815 
G01 X-16.0313 Y1.8924 
G01 X-16.2180 Y1.8317 
G01 X-16.4119 Y1.8010 
G01 X-16.6081 Y1.8010 
G01 X-16.8020 Y1.8317 
G01 X-16.9887 Y1.8924 
G01 X-17.1636 Y1.9815 
G01 X-17.3224 Y2.0968 
G01 X-17.4612 Y2.2356 
G01 X-17.5765 Y2.3944 
G01 X-17.6656 Y2.5693 
G01 X-17.7263 Y2.7560 
G01 X-17.7570 Y2.9499 
G01 X-17.7570 Y4.6701 
G01 X-17.7263 Y4.8640 
G01 X-17.6656 Y5.0507 
G01 X-17.5765 Y5.2256 
G01 X-17.4612 Y5.3844 
G01 X-17.4014 Y5.4441 
G01 X-17.4014 Y6.4378 
G01 X-17.3671 Y6.6100 
G01 X-17.2999 Y6.7722 
G01 X-17.2024 Y6.9182 
G01 X-16.7664 Y7.3542 
G01 X-16.7664 Y7.3730 
G01 X-18.1586 Y5.9808 
G01 X-18.1586 Y5.4441 
G01 X-18.0988 Y5.3844 
G01 X-17.9835 Y5.2256 
G01 X-17.8944 Y5.0507 
G01 X-17.8337 Y4.8640 
G01 X-17.8030 Y4.6701 
G01 X-17.8030 Y2.9499 
G01 X-17.8337 Y2.7560 
G01 X-17.8944 Y2.5693 
G01 X-17.9835 Y2.3944 
G01 X-18.0988 Y2.2356 
G01 X-18.2376 Y2.0968 
G01 X-18.3964 Y1.9815 
G01 X-18.5713 Y1.8924 
G01 X-18.7580 Y1.8317 
G01 X-18.9519 Y1.8010 
G01 X-19.1481 Y1.8010 
G01 X-19.3420 Y1.8317 
G01 X-19.5287 Y1.8924 
G01 X-19.7036 Y1.9815 
G01 X-19.8624 Y2.0968 
G01 X-20.0012 Y2.2356 
G01 X-20.1165 Y2.3944 
G01 X-20.2056 Y2.5693 
G01 X-20.2663 Y2.7560 
G01 X-20.2970 Y2.9499 
G01 X-20.2970 Y4.6701 
G01 X-20.2663 Y4.8640 
G01 X-20.2056 Y5.0507 
G01 X-20.1165 Y5.2256 
G01 X-20.0012 Y5.3844 
G01 X-19.9414 Y5.4441 
G01 X-19.9414 Y6.4378 
G01 X-19.9071 Y6.6100 
G01 X-19.8399 Y6.7722 
G01 X-19.7424 Y6.9182 
G01 X-18.0364 Y8.6242 
G01 X-18.0364 Y8.6430 
G01 X-20.6986 Y5.9808 
G01 X-20.6986 Y5.4441 
G01 X-20.6388 Y5.3844 
G01 X-20.5235 Y5.2256 
G01 X-20.4344 Y5.0507 
G01 X-20.3737 Y4.8640 
G01 X-20.3430 Y4.6701 
G01 X-20.3430 Y2.9499 
G01 X-20.3737 Y2.7560 
G01 X-20.4344 Y2.5693 
G01 X-20.5235 Y2.3944 
G01 X-20.6388 Y2.2356 
G01 X-20.7776 Y2.0968 
G01 X-20.9364 Y1.9815 
G01 X-21.1113 Y1.8924 
G01 X-21.2980 Y1.8317 
G01 X-21.4919 Y1.8010 
G01 X-21.6881 Y1.8010 
G01 X-21.8820 Y1.8317 
G01 X-22.0687 Y1.8924 
G01 X-22.2436 Y1.9815 
G01 X-22.4024 Y2.0968 
G01 X-22.5412 Y2.2356 
G01 X-22.6565 Y2.3944 
G01 X-22.7456 Y2.5693 
G01 X-22.8063 Y2.7560 
G01 X-22.8370 Y2.9499 
G01 X-22.8370 Y4.6701 
G01 X-22.8063 Y4.8640 
G01 X-22.7456 Y5.0507 
G01 X-22.6565 Y5.2256 
G01 X-22.5412 Y5.3844 
G01 X-22.4814 Y5.4441 
G01 X-22.4814 Y6.4378 
G01 X-22.4471 Y6.6100 
G01 X-22.3799 Y6.7722 
G01 X-22.2824 Y6.9182 
G01 X-22.1582 Y7.0424 
G01 X-19.8050 Y9.3956 
G01 X-19.9254 Y9.3956 
G01 X-20.9992 Y8.3218 
G01 X-21.1234 Y8.1976 
G01 X-21.2694 Y8.1000 
G01 X-21.4316 Y8.0329 
G01 X-21.6038 Y7.9986 
G01 X-22.4908 Y7.9986 
G01 X-23.2386 Y7.2508 
G01 X-23.2386 Y5.4441 
G01 X-23.1788 Y5.3844 
G01 X-23.0635 Y5.2256 
G01 X-22.9744 Y5.0507 
G01 X-22.9137 Y4.8640 
G01 X-22.8830 Y4.6701 
G01 X-22.8830 Y2.9499 
G01 X-22.9137 Y2.7560 
G01 X-22.9744 Y2.5693 
G01 X-23.0635 Y2.3944 
G01 X-23.1788 Y2.2356 
G01 X-23.3176 Y2.0968 
G01 X-23.4764 Y1.9815 
G01 X-23.6513 Y1.8924 
G01 X-23.8380 Y1.8317 
G01 X-24.0319 Y1.8010 
G01 X-24.2281 Y1.8010 
G01 X-24.4220 Y1.8317 
G01 X-24.6087 Y1.8924 
G01 X-24.7836 Y1.9815 
G01 X-24.9424 Y2.0968 
G01 X-25.0812 Y2.2356 
G01 X-25.1965 Y2.3944 
G01 X-25.2856 Y2.5693 
G01 X-25.3463 Y2.7560 
G01 X-25.3770 Y2.9499 
G01 X-25.3770 Y4.6701 
G01 X-25.3463 Y4.8640 
G01 X-25.2856 Y5.0507 
G01 X-25.1965 Y5.2256 
G01 X-25.0812 Y5.3844 
G01 X-25.0214 Y5.4441 
G01 X-25.0214 Y7.7078 
G01 X-24.9871 Y7.8800 
G01 X-24.9199 Y8.0422 
G01 X-24.8224 Y8.1882 
G01 X-24.6982 Y8.3124 
G01 X-23.4282 Y9.5824 
G01 X-23.2822 Y9.6799 
G01 X-23.1200 Y9.7471 
G01 X-22.9478 Y9.7814 
G01 X-22.0608 Y9.7814 
G01 X-20.5002 Y11.3420 
G01 X-20.5002 Y11.9764 
G01 X-20.4671 Y12.0998 
G01 X-20.4033 Y12.2104 
G01 X-20.3130 Y12.3007 
G01 X-20.2024 Y12.3645 
G01 X-20.0791 Y12.3976 
G01 X-19.2909 Y12.3976 
G01 X-19.1676 Y12.3645 
G01 X-19.0570 Y12.3007 
G01 X-19.0500 Y12.2937 
G01 X-19.0430 Y12.3007 
G01 X-18.9324 Y12.3645 
G01 X-18.8090 Y12.3976 
G01 X-18.0209 Y12.3976 
G01 X-17.8976 Y12.3645 
G01 X-17.7870 Y12.3007 
G01 X-17.7800 Y12.2937 
G01 X-17.7730 Y12.3007 
G01 X-17.6624 Y12.3645 
G01 X-17.5390 Y12.3976 
G01 X-16.7509 Y12.3976 
G01 X-16.6276 Y12.3645 
G01 X-16.5170 Y12.3007 
G01 X-16.5100 Y12.2937 
G01 X-16.5030 Y12.3007 
G01 X-16.3924 Y12.3645 
G01 X-16.2691 Y12.3976 
G01 X-15.4809 Y12.3976 
G01 X-15.3576 Y12.3645 
G01 X-15.2470 Y12.3007 
G01 X-15.2400 Y12.2937 
G01 X-15.2330 Y12.3007 
G01 X-15.1224 Y12.3645 
G01 X-14.9991 Y12.3976 
G01 X-14.2109 Y12.3976 
G01 X-14.0876 Y12.3645 
G01 X-13.9770 Y12.3007 
G01 X-13.9700 Y12.2937 
G01 X-13.9630 Y12.3007 
G01 X-13.8524 Y12.3645 
G01 X-13.7291 Y12.3976 
G01 X-12.9409 Y12.3976 
G01 X-12.8176 Y12.3645 
G01 X-12.7070 Y12.3007 
G01 X-12.7000 Y12.2937 
G01 X-12.6930 Y12.3007 
G01 X-12.5824 Y12.3645 
G01 X-12.4591 Y12.3976 
G01 X-11.6709 Y12.3976 
G01 X-11.5476 Y12.3645 
G01 X-11.4370 Y12.3007 
G01 X-11.4300 Y12.2937 
G01 X-11.4230 Y12.3007 
G01 X-11.3124 Y12.3645 
G01 X-11.1890 Y12.3976 
G01 X-10.4009 Y12.3976 
G01 X-10.2776 Y12.3645 
G01 X-10.1670 Y12.3007 
G01 X-10.0767 Y12.2104 
G01 X-10.0129 Y12.0998 
G01 X-9.9798 Y11.9764 
G01 X-9.9798 Y11.3420 
G01 X-8.4192 Y9.7814 
G01 X-6.2622 Y9.7814 
G01 X-6.0900 Y9.7471 
G01 X-5.9278 Y9.6799 
G01 X-5.7818 Y9.5824 
G01 X-5.6576 Y9.4582 
G01 X-5.5601 Y9.3122 
G01 X-5.4929 Y9.1500 
G01 X-5.4586 Y8.9778 
G01 X-5.4586 Y5.4441 
G01 X-5.3988 Y5.3844 
G01 X-5.2835 Y5.2256 
G01 X-5.1944 Y5.0507 
G01 X-5.1337 Y4.8640 
G01 X-5.1030 Y4.6701 
G01 X-5.1030 Y2.9499 
G01 X-5.1337 Y2.7560 
G01 X-5.1944 Y2.5693 
G01 X-5.2835 Y2.3944 
G01 X-5.3988 Y2.2356 
G01 X-5.5376 Y2.0968 
G01 X-5.6964 Y1.9815 
G01 X-5.8713 Y1.8924 
G01 X-6.0580 Y1.8317 
G01 X-6.2519 Y1.8010 
G01 X-6.4481 Y1.8010 
G01 X-6.6420 Y1.8317 
G01 X-6.8287 Y1.8924 
G01 X-7.0036 Y1.9815 
G01 X-7.1624 Y2.0968 
G01 X-7.3012 Y2.2356 
G01 X-7.4165 Y2.3944 
G01 X-7.5056 Y2.5693 
G01 X-7.5663 Y2.7560 
G01 X-7.5970 Y2.9499 
G01 X-7.5970 Y4.6701 
G01 X-7.5663 Y4.8640 
G01 X-7.5056 Y5.0507 
G01 X-7.4165 Y5.2256 
G01 X-7.3012 Y5.3844 
G01 X-7.2414 Y5.4441 
G01 X-7.2414 Y7.9986 
G01 X-8.8762 Y7.9986 
G01 X-9.0484 Y8.0329 
G01 X-9.2106 Y8.1000 
G01 X-9.3566 Y8.1976 
G01 X-9.4808 Y8.3218 
G01 X-10.5546 Y9.3956 
G01 X-10.6750 Y9.3956 
G01 X-10.2268 Y8.9474 
G01 X-8.3218 Y7.0424 
G01 X-8.1976 Y6.9182 
G01 X-8.1000 Y6.7722 
G01 X-8.0329 Y6.6100 
G01 X-7.9986 Y6.4378 
G01 X-7.9986 Y5.4441 
G01 X-7.9388 Y5.3844 
G01 X-7.8235 Y5.2256 
G01 X-7.7344 Y5.0507 
G01 X-7.6737 Y4.8640 
G01 X-7.6430 Y4.6701 
G01 X-7.6430 Y2.9499 
G01 X-7.6737 Y2.7560 
G01 X-7.7344 Y2.5693 
G01 X-7.8235 Y2.3944 
G01 X-7.9388 Y2.2356 
G01 X-8.0776 Y2.0968 
G01 X-8.2364 Y1.9815 
G01 X-8.4113 Y1.8924 
G01 X-8.5980 Y1.8317 
G01 X-8.7919 Y1.8010 
G01 X-8.9881 Y1.8010 
G01 X-9.1820 Y1.8317 
G01 X-9.3687 Y1.8924 
G01 X-9.5436 Y1.9815 
G01 X-9.7024 Y2.0968 
G01 X-9.8412 Y2.2356 
G01 X-9.9565 Y2.3944 
G01 X-10.0456 Y2.5693 
G01 X-10.1063 Y2.7560 
G01 X-10.1370 Y2.9499 
G01 X-10.1370 Y4.6701 
G01 X-10.1063 Y4.8640 
G01 X-10.0456 Y5.0507 
G01 X-9.9565 Y5.2256 
G01 X-9.8412 Y5.3844 
G01 X-9.7814 Y5.4441 
G01 X-9.7814 Y5.9808 
G01 X-10.5386 Y6.7380 
G01 X-10.5386 Y5.4441 
G01 X-10.4788 Y5.3844 
G01 X-10.3635 Y5.2256 
G01 X-10.2744 Y5.0507 
G01 X-10.2137 Y4.8640 
G01 X-10.1830 Y4.6701 
G01 X-10.1830 Y2.9499 
G01 X-10.2137 Y2.7560 
G01 X-10.2744 Y2.5693 
G01 X-10.3635 Y2.3944 
G01 X-10.4788 Y2.2356 
G01 X-10.6176 Y2.0968 
G01 X-10.7764 Y1.9815 
G01 X-10.9513 Y1.8924 
G01 X-11.1380 Y1.8317 
G01 X-11.3319 Y1.8010 
G01 X-11.5281 Y1.8010 
G01 X-11.7220 Y1.8317 
G01 X-11.9087 Y1.8924 
G01 X-12.0836 Y1.9815 
G01 X-12.2424 Y2.0968 
G01 X-12.3812 Y2.2356 
G01 X-12.4965 Y2.3944 
G01 X-12.5856 Y2.5693 
G01 X-12.6463 Y2.7560 
G01 X-12.6770 Y2.9499 
G00 Z2.0000 
G00 X-20.3430 Y23.7201 
G01 Z-0.1500 F100.00 
G01 X-20.3430 Y21.9999 F208.00 
G01 X-20.3737 Y21.8060 
G01 X-20.3925 Y21.7481 
G01 X-20.1453 Y21.5010 
G01 X-20.2056 Y21.6193 
G01 X-20.2663 Y21.8060 
G01 X-20.2970 Y21.9999 
G01 X-20.2970 Y23.7201 
G01 X-20.2663 Y23.9140 
G01 X-20.2056 Y24.1007 
G01 X-20.1165 Y24.2756 
G01 X-20.0012 Y24.4344 
G01 X-19.8624 Y24.5732 
G01 X-19.7036 Y24.6885 
G01 X-19.5287 Y24.7776 
G01 X-19.3420 Y24.8383 
G01 X-19.1481 Y24.8690 
G01 X-18.9519 Y24.8690 
G01 X-18.7580 Y24.8383 
G01 X-18.5713 Y24.7776 
G01 X-18.3964 Y24.6885 
G01 X-18.2376 Y24.5732 
G01 X-18.0988 Y24.4344 
G01 X-17.9835 Y24.2756 
G01 X-17.8944 Y24.1007 
G01 X-17.8337 Y23.9140 
G01 X-17.8030 Y23.7201 
G01 X-17.8030 Y21.9999 
G01 X-17.8337 Y21.8060 
G01 X-17.8758 Y21.6764 
G01 X-16.7664 Y20.5670 
G01 X-16.7664 Y20.5858 
G01 X-17.0782 Y20.8976 
G01 X-17.2024 Y21.0218 
G01 X-17.2516 Y21.0954 
G01 X-17.3224 Y21.1468 
G01 X-17.4612 Y21.2856 
G01 X-17.5765 Y21.4444 
G01 X-17.6656 Y21.6193 
G01 X-17.7263 Y21.8060 
G01 X-17.7570 Y21.9999 
G01 X-17.7570 Y23.7201 
G01 X-17.7263 Y23.9140 
G01 X-17.6656 Y24.1007 
G01 X-17.5765 Y24.2756 
G01 X-17.4612 Y24.4344 
G01 X-17.3224 Y24.5732 
G01 X-17.1636 Y24.6885 
G01 X-16.9887 Y24.7776 
G01 X-16.8020 Y24.8383 
G01 X-16.6081 Y24.8690 
G01 X-16.4119 Y24.8690 
G01 X-16.2180 Y24.8383 
G01 X-16.0313 Y24.7776 
G01 X-15.8564 Y24.6885 
G01 X-15.6976 Y24.5732 
G01 X-15.5588 Y24.4344 
G01 X-15.4435 Y24.2756 
G01 X-15.3544 Y24.1007 
G01 X-15.2937 Y23.9140 
G01 X-15.2630 Y23.7201 
G01 X-15.2630 Y21.9999 
G01 X-15.2937 Y21.8060 
G01 X-15.3358 Y21.6764 
G01 X-15.2400 Y21.5806 
G01 X-15.1442 Y21.6764 
G01 X-15.1863 Y21.8060 
G01 X-15.2170 Y21.9999 
G01 X-15.2170 Y23.7201 
G01 X-15.1863 Y23.9140 
G01 X-15.1256 Y24.1007 
G01 X-15.0365 Y24.2756 
G01 X-14.9212 Y24.4344 
G01 X-14.7824 Y24.5732 
G01 X-14.6236 Y24.6885 
G01 X-14.4487 Y24.7776 
G01 X-14.2620 Y24.8383 
G01 X-14.0681 Y24.8690 
G01 X-13.8719 Y24.8690 
G01 X-13.6780 Y24.8383 
G01 X-13.4913 Y24.7776 
G01 X-13.3164 Y24.6885 
G01 X-13.1576 Y24.5732 
G01 X-13.0188 Y24.4344 
G01 X-12.9035 Y24.2756 
G01 X-12.8144 Y24.1007 
G01 X-12.7537 Y23.9140 
G01 X-12.7230 Y23.7201 
G01 X-12.7230 Y21.9999 
G01 X-12.7537 Y21.8060 
G01 X-12.8144 Y21.6193 
G01 X-12.9035 Y21.4444 
G01 X-13.0188 Y21.2856 
G01 X-13.1576 Y21.1468 
G01 X-13.2284 Y21.0954 
G01 X-13.2776 Y21.0218 
G01 X-13.4018 Y20.8976 
G01 X-13.7136 Y20.5858 
G01 X-13.7136 Y20.4771 
G01 X-13.4203 Y20.7704 
G01 X-13.3416 Y20.8882 
G01 X-13.2174 Y21.0124 
G01 X-13.0996 Y21.0911 
G01 X-12.5808 Y21.6099 
G01 X-12.5856 Y21.6193 
G01 X-12.6463 Y21.8060 
G01 X-12.6770 Y21.9999 
G01 X-12.6770 Y23.7201 
G01 X-12.6463 Y23.9140 
G01 X-12.5856 Y24.1007 
G01 X-12.4965 Y24.2756 
G01 X-12.3812 Y24.4344 
G01 X-12.2424 Y24.5732 
G01 X-12.0836 Y24.6885 
G01 X-11.9087 Y24.7776 
G01 X-11.7220 Y24.8383 
G01 X-11.5281 Y24.8690 
G01 X-11.3319 Y24.8690 
G01 X-11.1380 Y24.8383 
G01 X-10.9513 Y24.7776 
G01 X-10.7764 Y24.6885 
G01 X-10.6176 Y24.5732 
G01 X-10.4788 Y24.4344 
G01 X-10.3635 Y24.2756 
G01 X-10.2744 Y24.1007 
G01 X-10.2137 Y23.9140 
G01 X-10.1830 Y23.7201 
G01 X-10.1830 Y21.9999 
G01 X-10.2137 Y21.8060 
G01 X-10.2744 Y21.6193 
G01 X-10.3635 Y21.4444 
G01 X-10.4788 Y21.2856 
G01 X-10.6071 Y21.1573 
G01 X-10.6401 Y21.0779 
G01 X-10.7376 Y20.9319 
G01 X-10.8618 Y20.8077 
G01 X-11.8135 Y19.8560 
G01 X-11.6900 Y19.9071 
G01 X-11.5178 Y19.9414 
G01 X-9.7814 Y19.9414 
G01 X-9.7814 Y21.2259 
G01 X-9.8412 Y21.2856 
G01 X-9.9565 Y21.4444 
G01 X-10.0456 Y21.6193 
G01 X-10.1063 Y21.8060 
G01 X-10.1370 Y21.9999 
G01 X-10.1370 Y23.7201 
G01 X-10.1063 Y23.9140 
G01 X-10.0456 Y24.1007 
G01 X-9.9565 Y24.2756 
G01 X-9.8412 Y24.4344 
G01 X-9.7024 Y24.5732 
G01 X-9.5436 Y24.6885 
G01 X-9.3687 Y24.7776 
G01 X-9.1820 Y24.8383 
G01 X-8.9881 Y24.8690 
G01 X-8.7919 Y24.8690 
G01 X-8.5980 Y24.8383 
G01 X-8.4113 Y24.7776 
G01 X-8.2364 Y24.6885 
G01 X-8.0776 Y24.5732 
G01 X-7.9388 Y24.4344 
G01 X-7.8235 Y24.2756 
G01 X-7.7344 Y24.1007 
G01 X-7.6737 Y23.9140 
G01 X-7.6430 Y23.7201 
G01 X-7.6430 Y21.9999 
G01 X-7.6737 Y21.8060 
G01 X-7.7344 Y21.6193 
G01 X-7.8235 Y21.4444 
G01 X-7.9388 Y21.2856 
G01 X-7.9986 Y21.2259 
G01 X-7.9986 Y18.9622 
G01 X-8.0329 Y18.7900 
G01 X-8.0820 Y18.6714 
G01 X-7.2414 Y18.6714 
G01 X-7.2414 Y21.2259 
G01 X-7.3012 Y21.2856 
G01 X-7.4165 Y21.4444 
G01 X-7.5056 Y21.6193 
G01 X-7.5663 Y21.8060 
G01 X-7.5970 Y21.9999 
G01 X-7.5970 Y23.7201 
G01 X-7.5663 Y23.9140 
G01 X-7.5056 Y24.1007 
G01 X-7.4165 Y24.2756 
G01 X-7.3012 Y24.4344 
G01 X-7.1624 Y24.5732 
G01 X-7.0036 Y24.6885 
G01 X-6.8287 Y24.7776 
G01 X-6.6420 Y24.8383 
G01 X-6.4481 Y24.8690 
G01 X-6.2519 Y24.8690 
G01 X-6.0580 Y24.8383 
G01 X-5.8713 Y24.7776 
G01 X-5.6964 Y24.6885 
G01 X-5.5376 Y24.5732 
G01 X-5.3988 Y24.4344 
G01 X-5.2835 Y24.2756 
G01 X-5.1944 Y24.1007 
G01 X-5.1337 Y23.9140 
G01 X-5.1030 Y23.7201 
G01 X-5.1030 Y21.9999 
G01 X-5.1337 Y21.8060 
G01 X-5.1944 Y21.6193 
G01 X-5.2835 Y21.4444 
G01 X-5.3988 Y21.2856 
G01 X-5.4586 Y21.2259 
G01 X-5.4586 Y17.6922 
G01 X-5.4929 Y17.5200 
G01 X-5.5601 Y17.3578 
G01 X-5.6576 Y17.2118 
G01 X-5.7818 Y17.0876 
G01 X-5.9278 Y16.9901 
G01 X-6.0900 Y16.9229 
G01 X-6.2622 Y16.8886 
G01 X-9.6892 Y16.8886 
G01 X-9.9798 Y16.5980 
G01 X-9.9798 Y15.9635 
G01 X-10.0129 Y15.8402 
G01 X-10.0767 Y15.7296 
G01 X-10.1670 Y15.6393 
G01 X-10.2776 Y15.5755 
G01 X-10.4009 Y15.5424 
G01 X-11.1890 Y15.5424 
G01 X-11.3124 Y15.5755 
G01 X-11.4230 Y15.6393 
G01 X-11.4300 Y15.6463 
G01 X-11.4370 Y15.6393 
G01 X-11.5476 Y15.5755 
G01 X-11.6709 Y15.5424 
G01 X-12.4591 Y15.5424 
G01 X-12.5824 Y15.5755 
G01 X-12.6930 Y15.6393 
G01 X-12.7000 Y15.6463 
G01 X-12.7070 Y15.6393 
G01 X-12.8176 Y15.5755 
G01 X-12.9409 Y15.5424 
G01 X-13.7291 Y15.5424 
G01 X-13.8524 Y15.5755 
G01 X-13.9630 Y15.6393 
G01 X-13.9700 Y15.6463 
G01 X-13.9770 Y15.6393 
G01 X-14.0876 Y15.5755 
G01 X-14.2109 Y15.5424 
G01 X-14.9991 Y15.5424 
G01 X-15.1224 Y15.5755 
G01 X-15.2330 Y15.6393 
G01 X-15.2400 Y15.6463 
G01 X-15.2470 Y15.6393 
G01 X-15.3576 Y15.5755 
G01 X-15.4809 Y15.5424 
G01 X-16.2691 Y15.5424 
G01 X-16.3924 Y15.5755 
G01 X-16.5030 Y15.6393 
G01 X-16.5100 Y15.6463 
G01 X-16.5170 Y15.6393 
G01 X-16.6276 Y15.5755 
G01 X-16.7509 Y15.5424 
G01 X-17.5390 Y15.5424 
G01 X-17.6624 Y15.5755 
G01 X-17.7730 Y15.6393 
G01 X-17.7800 Y15.6463 
G01 X-17.7870 Y15.6393 
G01 X-17.8976 Y15.5755 
G01 X-18.0209 Y15.5424 
G01 X-18.8090 Y15.5424 
G01 X-18.9324 Y15.5755 
G01 X-19.0430 Y15.6393 
G01 X-19.0500 Y15.6463 
G01 X-19.0570 Y15.6393 
G01 X-19.1676 Y15.5755 
G01 X-19.2909 Y15.5424 
G01 X-20.0791 Y15.5424 
G01 X-20.2024 Y15.5755 
G01 X-20.3130 Y15.6393 
G01 X-20.4033 Y15.7296 
G01 X-20.4671 Y15.8402 
G01 X-20.5002 Y15.9635 
G01 X-20.5002 Y16.5980 
G01 X-23.3308 Y19.4286 
G01 X-24.2178 Y19.4286 
G01 X-24.3900 Y19.4629 
G01 X-24.5522 Y19.5300 
G01 X-24.6982 Y19.6276 
G01 X-24.8224 Y19.7518 
G01 X-24.9199 Y19.8978 
G01 X-24.9871 Y20.0600 
G01 X-25.0214 Y20.2322 
G01 X-25.0214 Y21.2259 
G01 X-25.0812 Y21.2856 
G01 X-25.1965 Y21.4444 
G01 X-25.2856 Y21.6193 
G01 X-25.3463 Y21.8060 
