(.../Documents/EAGLE/ulps/pcb-gcode.ulp)
(Copyright 2005 - 2012 by John Johnson)
(See readme.txt for licensing terms.)
(This file generated from the board:)
(.../WemosD1_MOIST/WemosD1_MOIST.brd)
(Current profile is .../EAGLE/ulps/profiles/generic.pp  )
(This file generated 20.09.19 14:35)
(Settings from pcb-machine.h)
(  Tool Size)
(0.1000 )
(Z Axis Settings)
(  High     Up        Down     Drill)
(10.4000 	2.5400 	-0.1000 	-1.8000 )
(spindle on time = 3.0000)
(milling depth = -1.8000)
(text depth = -0.1000)
(tool change at 0.0000 0.0000 20.4000 )
(feed rate xy = F208.00 )
(feed rate z  = F40.00 )
(Settings from pcb-defaults.h)
(isolate min = 0.0100)
(isolate max = 0.2500)
(isolate step = 0.1000)
(Generated bottom outlines, bottom drill, )
(Unit of measure: mm)
(Metric Mode)
G21
(Absolute Coordinates)
G90
M03
G04 P3.000000
G00 Z2.5400 
G00 X-28.6484 Y50.8762 
G01 Z-0.1000 F40.00 
G01 X-28.6484 Y51.9599 F208.00 
G00 Z2.5400 
G00 X-28.0162 Y53.9573 
G01 Z-0.1000 F40.00 
G03 X-28.3774 Y54.3185 I-0.3612 J0.0000 
G00 Z2.5400 
G00 X-28.2420 Y53.4154 
G01 Z-0.1000 F40.00 
G03 X-28.0162 Y53.9573 I-0.5374 J0.5419 
G00 Z2.5400 
G00 X-29.6418 Y53.8218 
G01 Z-0.1000 F40.00 
G03 X-29.2806 Y53.4606 I0.3612 J-0.0000 
G00 Z2.5400 
G00 X-29.5063 Y54.2282 
G01 Z-0.1000 F40.00 
G03 X-29.6418 Y53.8218 I0.5419 J-0.4064 
G00 Z2.5400 
G00 X-29.2806 Y53.4606 
G01 Z-0.1000 F40.00 
G03 X-28.9645 Y53.6412 I0.0000 J0.3669 
G00 Z2.5400 
G00 X-28.3774 Y54.3185 
G01 Z-0.1000 F40.00 
G03 X-28.6935 Y54.1379 I0.0000 J-0.3669 
G00 Z2.5400 
G00 X-28.6935 Y54.1379 
G01 Z-0.1000 F40.00 
G01 X-28.9645 Y53.6412 F208.00 
G00 Z2.5400 
G00 X-28.3774 Y54.9125 
G01 Z-0.1000 F40.00 
G01 X-28.7387 Y54.9125 F208.00 
G00 Z2.5400 
G00 X-28.7387 Y55.6350 
G01 Z-0.1000 F40.00 
G03 X-28.7387 Y54.9125 I0.0000 J-0.3612 
G00 Z2.5400 
G01 Z-0.1000 F40.00 
G01 X-28.3774 Y55.6350 F208.00 
G00 Z2.5400 
G00 X-28.3774 Y54.9125 
G01 Z-0.1000 F40.00 
G03 X-28.3774 Y55.6350 I0.0000 J0.3612 
G00 Z2.5400 
G00 X-29.6418 Y56.2909 
G01 Z-0.1000 F40.00 
G01 X-28.2871 Y56.2909 F208.00 
G00 Z2.5400 
G00 X-28.2871 Y56.2909 
G01 Z-0.1000 F40.00 
G03 X-28.0162 Y56.5618 I0.0000 J0.2709 
G00 Z2.5400 
G00 X-28.6484 Y57.8161 
G01 Z-0.1000 F40.00 
G01 X-28.6484 Y57.4097 F208.00 
G00 Z2.5400 
G00 X-28.6484 Y57.4097 
G01 Z-0.1000 F40.00 
G03 X-28.0162 Y57.4097 I0.3161 J0.0000 
G00 Z2.5400 
G00 X-28.0162 Y57.4097 
G01 Z-0.1000 F40.00 
G01 X-28.0162 Y57.8161 F208.00 
G01 X-28.8290 Y57.8161 
G00 Z2.5400 
G01 Z-0.1000 F40.00 
G03 X-29.0999 Y57.5451 I0.0000 J-0.2709 
G00 Z2.5400 
G00 X-29.0999 Y57.5451 
G01 Z-0.1000 F40.00 
G01 X-29.0999 Y57.1839 F208.00 
G00 Z2.5400 
G00 X-28.0162 Y58.5683 
G01 Z-0.1000 F40.00 
G01 X-29.0999 Y58.5683 F208.00 
G01 X-29.0999 Y59.1102 
G01 X-28.9193 Y59.1102 
G00 Z2.5400 
G00 X-28.6484 Y60.4633 
G01 Z-0.1000 F40.00 
G01 X-28.6484 Y61.5471 F208.00 
G00 Z2.5400 
G00 X-28.1065 Y61.0052 
G01 Z-0.1000 F40.00 
G01 X-29.1902 Y61.0052 F208.00 
G00 Z2.5400 
G00 X-28.6484 Y41.9862 
G01 Z-0.1000 F40.00 
G01 X-28.6484 Y43.0699 F208.00 
G00 Z2.5400 
G00 X-28.1065 Y42.5281 
G01 Z-0.1000 F40.00 
G01 X-29.1902 Y42.5281 F208.00 
G00 Z2.5400 
G00 X-28.9193 Y44.6507 
G01 Z-0.1000 F40.00 
G01 X-28.9193 Y45.1023 F208.00 
G00 Z2.5400 
G00 X-28.0162 Y45.1023 
G01 Z-0.1000 F40.00 
G03 X-28.9193 Y45.1023 I-0.4516 J0.0000 
G00 Z2.5400 
G01 Z-0.1000 F40.00 
G01 X-28.0162 Y44.6507 F208.00 
G01 X-29.6418 Y44.6507 
G01 X-29.6418 Y45.1023 
G00 Z2.5400 
G00 X-28.9193 Y45.1023 
G01 Z-0.1000 F40.00 
G03 X-29.6418 Y45.1023 I-0.3612 J0.0000 
G00 Z2.5400 
G00 X-28.6484 Y46.9882 
G01 Z-0.1000 F40.00 
G01 X-28.6484 Y48.0719 F208.00 
G00 Z2.5400 
G00 X-12.6238 Y3.2484 
G01 Z-0.1000 F40.00 
G01 X-11.5401 Y3.2484 F208.00 
G00 Z2.5400 
G00 X-22.7838 Y25.8318 
G01 Z-0.1000 F40.00 
G01 X-22.4226 Y24.2062 F208.00 
G01 X-22.0613 Y25.2899 
G01 X-21.7001 Y24.2062 
G01 X-21.3388 Y25.8318 
G00 Z2.5400 
G00 X-20.0327 Y24.2062 
G01 Z-0.1000 F40.00 
G01 X-20.4843 Y24.2062 F208.00 
G00 Z2.5400 
G00 X-20.7552 Y24.4771 
G01 Z-0.1000 F40.00 
G03 X-20.4843 Y24.2062 I0.2709 J0.0000 
G00 Z2.5400 
G01 Z-0.1000 F40.00 
G01 X-20.7552 Y24.9287 F208.00 
G00 Z2.5400 
G00 X-20.0327 Y24.9287 
G01 Z-0.1000 F40.00 
G03 X-20.7552 Y24.9287 I-0.3612 J0.0000 
G00 Z2.5400 
G01 Z-0.1000 F40.00 
G01 X-20.0327 Y24.7481 F208.00 
G01 X-20.7552 Y24.7481 
G00 Z2.5400 
G00 X-19.3206 Y24.2062 
G01 Z-0.1000 F40.00 
G01 X-19.3206 Y25.2899 F208.00 
G01 X-18.5078 Y25.2899 
G00 Z2.5400 
G00 X-18.2369 Y25.0190 
G01 Z-0.1000 F40.00 
G03 X-18.5078 Y25.2899 I-0.2709 J0.0000 
G00 Z2.5400 
G01 Z-0.1000 F40.00 
G01 X-18.2369 Y24.2062 F208.00 
G00 Z2.5400 
G00 X-18.7788 Y24.2062 
G01 Z-0.1000 F40.00 
G01 X-18.7788 Y25.2899 F208.00 
G00 Z2.5400 
G00 X-17.5248 Y24.5674 
G01 Z-0.1000 F40.00 
G01 X-17.5248 Y24.9287 F208.00 
G00 Z2.5400 
G00 X-16.8023 Y24.9287 
G01 Z-0.1000 F40.00 
G03 X-17.5248 Y24.9287 I-0.3612 J0.0000 
G00 Z2.5400 
G01 Z-0.1000 F40.00 
G01 X-16.8023 Y24.5674 F208.00 
G00 Z2.5400 
G00 X-17.5248 Y24.5674 
G01 Z-0.1000 F40.00 
G03 X-16.8023 Y24.5674 I0.3612 J0.0000 
G00 Z2.5400 
G00 X-15.5830 Y24.6578 
G01 Z-0.1000 F40.00 
G01 X-16.0346 Y24.8384 F208.00 
G00 Z2.5400 
G00 X-15.9443 Y25.2899 
G01 Z-0.1000 F40.00 
G03 X-16.0346 Y24.8384 I-0.0033 J-0.2341 
G00 Z2.5400 
G00 X-15.5379 Y25.1996 
G01 Z-0.1000 F40.00 
G03 X-15.9443 Y25.2899 I-0.4210 J-0.9352 
G00 Z2.5400 
G00 X-15.6734 Y24.2062 
G01 Z-0.1000 F40.00 
G03 X-15.5830 Y24.6578 I0.0033 J0.2341 
G00 Z2.5400 
G00 X-16.1701 Y24.2965 
G01 Z-0.1000 F40.00 
G03 X-15.6734 Y24.2062 I0.5186 J1.4411 
G00 Z2.5400 
G00 X-13.9018 Y24.2062 
G01 Z-0.1000 F40.00 
G01 X-13.9018 Y25.8318 F208.00 
G01 X-13.3599 Y24.9287 
G01 X-12.8181 Y25.8318 
G01 X-12.8181 Y24.2062 
G00 Z2.5400 
G00 X-12.1059 Y24.5674 
G01 Z-0.1000 F40.00 
G01 X-12.1059 Y24.9287 F208.00 
G00 Z2.5400 
G00 X-11.3835 Y24.9287 
G01 Z-0.1000 F40.00 
G03 X-12.1059 Y24.9287 I-0.3612 J0.0000 
G00 Z2.5400 
G01 Z-0.1000 F40.00 
G01 X-11.3835 Y24.5674 F208.00 
G00 Z2.5400 
G00 X-12.1059 Y24.5674 
G01 Z-0.1000 F40.00 
G03 X-11.3835 Y24.5674 I0.3612 J0.0000 
G00 Z2.5400 
G00 X-10.7547 Y24.2062 
G01 Z-0.1000 F40.00 
G01 X-10.7547 Y25.2899 F208.00 
G00 Z2.5400 
G00 X-10.7999 Y25.7415 
G01 Z-0.1000 F40.00 
G01 X-10.7999 Y25.8318 F208.00 
G01 X-10.7096 Y25.8318 
G01 X-10.7096 Y25.7415 
G01 X-10.7999 Y25.7415 
G00 Z2.5400 
G00 X-9.5390 Y24.6578 
G01 Z-0.1000 F40.00 
G01 X-9.9905 Y24.8384 F208.00 
G00 Z2.5400 
G00 X-9.9002 Y25.2899 
G01 Z-0.1000 F40.00 
G03 X-9.9905 Y24.8384 I-0.0033 J-0.2341 
G00 Z2.5400 
G00 X-9.4938 Y25.1996 
G01 Z-0.1000 F40.00 
G03 X-9.9002 Y25.2899 I-0.4210 J-0.9352 
G00 Z2.5400 
G00 X-9.6293 Y24.2062 
G01 Z-0.1000 F40.00 
G03 X-9.5390 Y24.6578 I0.0033 J0.2341 
G00 Z2.5400 
G00 X-10.1260 Y24.2965 
G01 Z-0.1000 F40.00 
G03 X-9.6293 Y24.2062 I0.5186 J1.4411 
G00 Z2.5400 
G00 X-8.9010 Y25.2899 
G01 Z-0.1000 F40.00 
G01 X-8.3591 Y25.2899 F208.00 
G00 Z2.5400 
G00 X-8.7204 Y25.8318 
G01 Z-0.1000 F40.00 
G01 X-8.7204 Y24.4771 F208.00 
G00 Z2.5400 
G00 X-8.7204 Y24.4771 
G01 Z-0.1000 F40.00 
G03 X-8.4495 Y24.2062 I0.2709 J0.0000 
G00 Z2.5400 
G00 X-8.4495 Y24.2062 
G01 Z-0.1000 F40.00 
G01 X-8.3591 Y24.2062 F208.00 
G00 Z10.4000 
M05
M02
