(.../Documents/EAGLE/ulps/pcb-gcode.ulp)
(Copyright 2005 - 2012 by John Johnson)
(See readme.txt for licensing terms.)
(This file generated from the board:)
(.../WemosD1_MOIST/WemosD1_MOIST.brd)
(Current profile is .../EAGLE/ulps/profiles/generic.pp  )
(This file generated 20.09.19 14:35)
(Settings from pcb-machine.h)
(  Tool Size)
(0.1500 )
(Z Axis Settings)
(  High     Up        Down     Drill)
(10.4000 	2.5400 	-0.1000 	-1.8000 )
(spindle on time = 3.0000)
(milling depth = -1.8000)
(text depth = -0.1000)
(tool change at 0.0000 0.0000 20.4000 )
(feed rate xy = F208.00 )
(feed rate z  = F40.00 )
(Settings from pcb-defaults.h)
(isolate min = 0.0100)
(isolate max = 0.2500)
(isolate step = 0.1000)
(Generated bottom outlines, bottom drill, )
(Unit of measure: mm)
( Tool|       Size       |  Min Sub |  Max Sub |   Count )
( T01  3.175mm 0.1250in 0.0000in 0.0000in )
( T02  1.000mm 0.0394in 0.0000in 0.0000in )
( T03  1.016mm 0.0400in 0.0000in 0.0000in )
( T04  1.200mm 0.0472in 0.0000in 0.0000in )
(Metric Mode)
G21
(Absolute Coordinates)
G90
M05
G00 Z20.4000 
G00 X0.0000 Y0.0000 
M06 T01  ; 3.1750 
G01 Z0.0000 F40.00 
M06 T01  ; 3.1750 
G00 Z2.5400 
M03
G04 P3.000000
G00 Z2.540000
G00 X-25.4000 Y41.9100 
G01 Z-1.8000 F40.00 
G01 Z2.540000
(R2.5400  P2.000000)
(G00 Z2.540000)
G00 X-25.4000 Y46.9900 
G01 Z-1.800000
G01 Z2.540000
(G00 Z2.540000)
G00 X-25.4000 Y52.0700 
G01 Z-1.800000
G01 Z2.540000
(G00 Z2.540000)
G00 X-25.4000 Y57.1500 
G01 Z-1.800000
G01 Z2.540000
M05
G00 Z20.4000 
M06 T02  ; 1.0000 
G01 Z0.0000 F40.00 
M06 T02  ; 1.0000 
G00 Z2.5400 
M03
G04 P3.000000
G00 Z2.540000
G00 X-5.0800 Y3.1750 
G01 Z-1.8000 F40.00 
G01 Z2.540000
(R2.5400  P2.000000)
(G00 Z2.540000)
G00 X-5.0800 Y5.7150 
G01 Z-1.800000
G01 Z2.540000
(G00 Z2.540000)
G00 X-5.0800 Y8.2550 
G01 Z-1.800000
G01 Z2.540000
(G00 Z2.540000)
G00 X-5.0800 Y10.7950 
G01 Z-1.800000
G01 Z2.540000
(G00 Z2.540000)
G00 X-5.0800 Y13.3350 
G01 Z-1.800000
G01 Z2.540000
(G00 Z2.540000)
G00 X-5.0800 Y15.8750 
G01 Z-1.800000
G01 Z2.540000
(G00 Z2.540000)
G00 X-5.0800 Y18.4150 
G01 Z-1.800000
G01 Z2.540000
(G00 Z2.540000)
G00 X-5.0800 Y20.9550 
G01 Z-1.800000
G01 Z2.540000
(G00 Z2.540000)
G00 X-27.9400 Y3.1750 
G01 Z-1.800000
G01 Z2.540000
(G00 Z2.540000)
G00 X-27.9400 Y5.7150 
G01 Z-1.800000
G01 Z2.540000
(G00 Z2.540000)
G00 X-27.9400 Y8.2550 
G01 Z-1.800000
G01 Z2.540000
(G00 Z2.540000)
G00 X-27.9400 Y10.7950 
G01 Z-1.800000
G01 Z2.540000
(G00 Z2.540000)
G00 X-27.9400 Y13.3350 
G01 Z-1.800000
G01 Z2.540000
(G00 Z2.540000)
G00 X-27.9400 Y15.8750 
G01 Z-1.800000
G01 Z2.540000
(G00 Z2.540000)
G00 X-27.9400 Y18.4150 
G01 Z-1.800000
G01 Z2.540000
(G00 Z2.540000)
G00 X-27.9400 Y20.9550 
G01 Z-1.800000
G01 Z2.540000
M05
G00 Z20.4000 
M06 T03  ; 1.0160 
G01 Z0.0000 F40.00 
M06 T03  ; 1.0160 
G00 Z2.5400 
M03
G04 P3.000000
G00 Z2.540000
G00 X-13.9700 Y7.6200 
G01 Z-1.8000 F40.00 
G01 Z2.540000
(R2.5400  P2.000000)
(G00 Z2.540000)
G00 X-16.5100 Y7.6200 
G01 Z-1.800000
G01 Z2.540000
(G00 Z2.540000)
G00 X-19.0500 Y7.6200 
G01 Z-1.800000
G01 Z2.540000
(G00 Z2.540000)
G00 X-25.4000 Y31.7500 
G01 Z-1.800000
G01 Z2.540000
(G00 Z2.540000)
G00 X-25.4000 Y34.2900 
G01 Z-1.800000
G01 Z2.540000
(G00 Z2.540000)
G00 X-25.4000 Y36.8300 
G01 Z-1.800000
G01 Z2.540000
M05
G00 Z20.4000 
M06 T04  ; 1.2000 
G01 Z0.0000 F40.00 
M06 T04  ; 1.2000 
G00 Z2.5400 
M03
G04 P3.000000
G00 Z2.540000
G00 X-5.7150 Y34.9250 
G01 Z-1.8000 F40.00 
G01 Z2.540000
(R2.5400  P2.000000)
(G00 Z2.540000)
G00 X-5.7150 Y57.7850 
G01 Z-1.800000
G01 Z2.540000
(G00 Z2.540000)
G00 X-8.8900 Y34.9250 
G01 Z-1.800000
G01 Z2.540000
(G00 Z2.540000)
G00 X-16.5100 Y34.9250 
G01 Z-1.800000
G01 Z2.540000
(G00 Z2.540000)
G00 X-19.6850 Y34.9250 
G01 Z-1.800000
G01 Z2.540000
(G00 Z2.540000)
G00 X-19.6850 Y57.7850 
G01 Z-1.800000
G01 Z2.540000
T01 
G00 Z10.4000 
M05
M02
