(.../Documents/EAGLE/ulps/pcb-gcode.ulp)
(Copyright 2005 - 2012 by John Johnson)
(See readme.txt for licensing terms.)
(This file generated from the board:)
(.../WemosD1_MOIST/WemosD1_MOIST.brd)
(Current profile is .../EAGLE/ulps/profiles/generic.pp  )
(This file generated 20.09.19 14:35)
(Settings from pcb-machine.h)
(  Tool Size)
(0.1500 )
(Z Axis Settings)
(  High     Up        Down     Drill)
(10.4000 	2.5400 	-0.1000 	-1.8000 )
(spindle on time = 3.0000)
(milling depth = -1.8000)
(text depth = -0.1000)
(tool change at 0.0000 0.0000 20.4000 )
(feed rate xy = F208.00 )
(feed rate z  = F40.00 )
(Settings from pcb-defaults.h)
(isolate min = 0.0100)
(isolate max = 0.2500)
(isolate step = 0.1000)
(Generated bottom outlines, bottom drill, )
(Unit of measure: mm)
(Metric Mode)
G21
(Absolute Coordinates)
G90
G00 X0.0000 Y0.0000 
M03
G04 P3.000000
G00 Z2.5400 
G00 X-7.6451 Y18.9064 
G01 Z-0.1000 F40.00 
G01 X-5.7607 Y18.9064 F208.00 
G01 X-5.7317 Y18.9498 
G01 X-5.6148 Y19.0667 
G01 X-5.4774 Y19.1585 
G01 X-5.3247 Y19.2218 
G01 X-5.1626 Y19.2540 
G01 X-4.9974 Y19.2540 
G01 X-4.8353 Y19.2218 
G01 X-4.6826 Y19.1585 
G01 X-4.5452 Y19.0667 
G01 X-4.4283 Y18.9498 
G01 X-4.3365 Y18.8124 
G01 X-4.2732 Y18.6597 
G01 X-4.2410 Y18.4976 
G01 X-4.2410 Y18.3324 
G01 X-4.2732 Y18.1703 
G01 X-4.3365 Y18.0176 
G01 X-4.4283 Y17.8802 
G01 X-4.5452 Y17.7633 
G01 X-4.6826 Y17.6715 
G01 X-4.8353 Y17.6082 
G01 X-4.9974 Y17.5760 
G01 X-5.1626 Y17.5760 
G01 X-5.3247 Y17.6082 
G01 X-5.4774 Y17.6715 
G01 X-5.5880 Y17.7454 
G01 X-13.4786 Y9.8549 
G01 X-13.4786 Y9.0723 
G01 X-13.4301 Y9.0399 
G01 X-13.3121 Y8.9219 
G01 X-13.2194 Y8.7832 
G01 X-13.1555 Y8.6291 
G01 X-13.1230 Y8.4654 
G01 X-13.1230 Y6.7746 
G01 X-13.1555 Y6.6109 
G01 X-13.2194 Y6.4568 
G01 X-13.3121 Y6.3181 
G01 X-13.4301 Y6.2001 
G01 X-13.5688 Y6.1074 
G01 X-13.7229 Y6.0436 
G01 X-13.8866 Y6.0110 
G01 X-14.0534 Y6.0110 
G01 X-14.2171 Y6.0436 
G01 X-14.3712 Y6.1074 
G01 X-14.5099 Y6.2001 
G01 X-14.6279 Y6.3181 
G01 X-14.7206 Y6.4568 
G01 X-14.7844 Y6.6109 
G01 X-14.8170 Y6.7746 
G01 X-14.8170 Y8.4654 
G01 X-14.7844 Y8.6291 
G01 X-14.7206 Y8.7832 
G01 X-14.6279 Y8.9219 
G01 X-14.5099 Y9.0399 
G01 X-14.4614 Y9.0723 
G01 X-14.4614 Y10.1231 
G01 X-14.4279 Y10.2481 
G01 X-14.3632 Y10.3601 
G01 X-6.7997 Y17.9236 
G01 X-7.9133 Y17.9236 
G01 X-8.0383 Y17.9571 
G01 X-8.1503 Y18.0218 
G01 X-8.2418 Y18.1133 
G01 X-8.8869 Y18.7584 
G01 X-8.9784 Y18.8499 
G01 X-9.0431 Y18.9619 
G01 X-9.0766 Y19.0869 
G01 X-9.0766 Y30.3442 
G01 X-21.0959 Y30.3442 
G01 X-21.2209 Y30.3777 
G01 X-21.3329 Y30.4424 
G01 X-21.4244 Y30.5339 
G01 X-24.3734 Y33.4828 
G01 X-24.3909 Y33.4755 
G01 X-24.5546 Y33.4430 
G01 X-26.2454 Y33.4430 
G01 X-26.4091 Y33.4755 
G01 X-26.5632 Y33.5394 
G01 X-26.7019 Y33.6321 
G01 X-26.8199 Y33.7501 
G01 X-26.9126 Y33.8888 
G01 X-26.9764 Y34.0429 
G01 X-27.0090 Y34.2066 
G01 X-27.0090 Y34.3734 
G01 X-26.9764 Y34.5371 
G01 X-26.9126 Y34.6912 
G01 X-26.8199 Y34.8299 
G01 X-26.7019 Y34.9479 
G01 X-26.5632 Y35.0406 
G01 X-26.4091 Y35.1044 
G01 X-26.2454 Y35.1370 
G01 X-24.5546 Y35.1370 
G01 X-24.3909 Y35.1044 
G01 X-24.2368 Y35.0406 
G01 X-24.0981 Y34.9479 
G01 X-23.9801 Y34.8299 
G01 X-23.8874 Y34.6912 
G01 X-23.8236 Y34.5371 
G01 X-23.7910 Y34.3734 
G01 X-23.7910 Y34.2903 
G01 X-20.8277 Y31.3270 
G01 X-7.8066 Y31.3270 
G01 X-7.8066 Y32.1703 
G01 X-7.7731 Y32.2953 
G01 X-7.7084 Y32.4073 
G01 X-7.6169 Y32.4988 
G01 X-6.5257 Y33.5900 
G01 X-6.9819 Y33.5900 
G01 X-7.0131 Y33.6029 
G01 X-7.0371 Y33.6269 
G01 X-7.0500 Y33.6581 
G01 X-7.0500 Y36.1919 
G01 X-7.0371 Y36.2231 
G01 X-7.0131 Y36.2471 
G01 X-6.9819 Y36.2600 
G01 X-4.4481 Y36.2600 
G01 X-4.4169 Y36.2471 
G01 X-4.3929 Y36.2231 
G01 X-4.3800 Y36.1919 
G01 X-4.3800 Y33.6581 
G01 X-4.3929 Y33.6269 
G01 X-4.4169 Y33.6029 
G01 X-4.4481 Y33.5900 
G01 X-5.2373 Y33.5900 
G01 X-5.2571 Y33.5161 
G01 X-5.3218 Y33.4041 
G01 X-5.4133 Y33.3126 
G01 X-6.8238 Y31.9021 
G01 X-6.8238 Y30.7709 
G01 X-6.8573 Y30.6459 
G01 X-6.9220 Y30.5339 
G01 X-7.0135 Y30.4424 
G01 X-7.1255 Y30.3777 
G01 X-7.2505 Y30.3442 
G01 X-8.0938 Y30.3442 
G01 X-8.0938 Y19.3551 
G01 X-7.6451 Y18.9064 
G00 Z2.5400 
G00 X-7.6231 Y33.5900 
G01 Z-0.1000 F40.00 
G01 X-10.1569 Y33.5900 F208.00 
G01 X-10.1881 Y33.6029 
G01 X-10.2121 Y33.6269 
G01 X-10.2250 Y33.6581 
G01 X-10.2250 Y36.1919 
G01 X-10.2121 Y36.2231 
G01 X-10.2047 Y36.2305 
G01 X-20.4727 Y46.4986 
G01 X-23.2743 Y46.4986 
G01 X-23.3308 Y46.2876 
G01 X-23.4402 Y46.0235 
G01 X-23.5831 Y45.7760 
G01 X-23.7571 Y45.5492 
G01 X-23.9592 Y45.3471 
G01 X-24.1860 Y45.1731 
G01 X-24.4335 Y45.0302 
G01 X-24.6976 Y44.9208 
G01 X-24.9737 Y44.8468 
G01 X-25.2571 Y44.8095 
G01 X-25.5429 Y44.8095 
G01 X-25.8263 Y44.8468 
G01 X-26.1024 Y44.9208 
G01 X-26.3665 Y45.0302 
G01 X-26.6140 Y45.1731 
G01 X-26.8408 Y45.3471 
G01 X-27.0429 Y45.5492 
G01 X-27.2169 Y45.7760 
G01 X-27.3598 Y46.0235 
G01 X-27.4692 Y46.2876 
G01 X-27.5432 Y46.5637 
G01 X-27.5805 Y46.8471 
G01 X-27.5805 Y47.1329 
G01 X-27.5432 Y47.4163 
G01 X-27.4692 Y47.6924 
G01 X-27.3598 Y47.9565 
G01 X-27.2169 Y48.2040 
G01 X-27.0429 Y48.4308 
G01 X-26.8408 Y48.6329 
G01 X-26.6140 Y48.8069 
G01 X-26.3665 Y48.9498 
G01 X-26.1024 Y49.0592 
G01 X-25.8263 Y49.1332 
G01 X-25.5429 Y49.1705 
G01 X-25.2571 Y49.1705 
G01 X-24.9737 Y49.1332 
G01 X-24.6976 Y49.0592 
G01 X-24.4335 Y48.9498 
G01 X-24.1860 Y48.8069 
G01 X-23.9592 Y48.6329 
G01 X-23.7571 Y48.4308 
G01 X-23.5831 Y48.2040 
G01 X-23.4402 Y47.9565 
G01 X-23.3308 Y47.6924 
G01 X-23.2743 Y47.4814 
G01 X-20.2553 Y47.4814 
G01 X-20.1303 Y47.4479 
G01 X-20.0541 Y47.4039 
G01 X-20.0287 Y47.3971 
G01 X-19.9167 Y47.3324 
G01 X-8.8443 Y36.2600 
G01 X-7.6231 Y36.2600 
G01 X-7.5918 Y36.2471 
G01 X-7.5679 Y36.2231 
G01 X-7.5550 Y36.1919 
G01 X-7.5550 Y33.6581 
G01 X-7.5679 Y33.6269 
G01 X-7.5918 Y33.6029 
G01 X-7.6231 Y33.5900 
G00 Z2.5400 
G00 X-18.4181 Y56.4500 
G01 Z-0.1000 F40.00 
G01 X-20.9519 Y56.4500 F208.00 
G01 X-20.9831 Y56.4629 
G01 X-21.0071 Y56.4869 
G01 X-21.0200 Y56.5181 
G01 X-21.0200 Y57.2682 
G01 X-23.2195 Y57.2682 
G01 X-23.2195 Y57.0071 
G01 X-23.2568 Y56.7237 
G01 X-23.3308 Y56.4476 
G01 X-23.4402 Y56.1835 
G01 X-23.5831 Y55.9360 
G01 X-23.7571 Y55.7092 
G01 X-23.9592 Y55.5071 
G01 X-24.1860 Y55.3331 
G01 X-24.4335 Y55.1902 
G01 X-24.6976 Y55.0808 
G01 X-24.9737 Y55.0068 
G01 X-25.2571 Y54.9695 
G01 X-25.5429 Y54.9695 
G01 X-25.8263 Y55.0068 
G01 X-26.1024 Y55.0808 
G01 X-26.3665 Y55.1902 
G01 X-26.6140 Y55.3331 
G01 X-26.8408 Y55.5071 
G01 X-27.0429 Y55.7092 
G01 X-27.2169 Y55.9360 
G01 X-27.3598 Y56.1835 
G01 X-27.4692 Y56.4476 
G01 X-27.5432 Y56.7237 
G01 X-27.5805 Y57.0071 
G01 X-27.5805 Y57.2929 
G01 X-27.5432 Y57.5763 
G01 X-27.4692 Y57.8524 
G01 X-27.3598 Y58.1165 
G01 X-27.2169 Y58.3640 
G01 X-27.0429 Y58.5908 
G01 X-26.8408 Y58.7929 
G01 X-26.6140 Y58.9669 
G01 X-26.3665 Y59.1098 
G01 X-26.1024 Y59.2192 
G01 X-25.8263 Y59.2932 
G01 X-25.5429 Y59.3305 
G01 X-25.2571 Y59.3305 
G01 X-24.9737 Y59.2932 
G01 X-24.6976 Y59.2192 
G01 X-24.4335 Y59.1098 
G01 X-24.1860 Y58.9669 
G01 X-23.9592 Y58.7929 
G01 X-23.7571 Y58.5908 
G01 X-23.5831 Y58.3640 
G01 X-23.5178 Y58.2510 
G01 X-21.0200 Y58.2510 
G01 X-21.0200 Y59.0519 
G01 X-21.0071 Y59.0831 
G01 X-20.9831 Y59.1071 
G01 X-20.9519 Y59.1200 
G01 X-18.4181 Y59.1200 
G01 X-18.3869 Y59.1071 
G01 X-18.3629 Y59.0831 
G01 X-18.3500 Y59.0519 
G01 X-18.3500 Y56.5181 
G01 X-18.3629 Y56.4869 
G01 X-18.3869 Y56.4629 
G01 X-18.4181 Y56.4500 
G00 Z2.5400 
G00 X-5.9190 Y20.8724 
G01 Z-0.1000 F40.00 
G01 X-5.9190 Y21.0376 F208.00 
G01 X-5.8868 Y21.1997 
G01 X-5.8235 Y21.3524 
G01 X-5.7317 Y21.4898 
G01 X-5.6148 Y21.6067 
G01 X-5.4774 Y21.6985 
G01 X-5.3247 Y21.7618 
G01 X-5.1626 Y21.7940 
G01 X-4.9974 Y21.7940 
G01 X-4.8353 Y21.7618 
G01 X-4.6826 Y21.6985 
G01 X-4.5452 Y21.6067 
G01 X-4.4283 Y21.4898 
G01 X-4.3365 Y21.3524 
G01 X-4.2732 Y21.1997 
G01 X-4.2410 Y21.0376 
G01 X-4.2410 Y20.8724 
G01 X-4.2732 Y20.7103 
G01 X-4.3365 Y20.5576 
G01 X-4.4283 Y20.4202 
G01 X-4.5452 Y20.3033 
G01 X-4.6826 Y20.2115 
G01 X-4.8353 Y20.1482 
G01 X-4.9974 Y20.1160 
G01 X-5.1626 Y20.1160 
G01 X-5.3247 Y20.1482 
G01 X-5.4774 Y20.2115 
G01 X-5.6148 Y20.3033 
G01 X-5.7317 Y20.4202 
G01 X-5.8235 Y20.5576 
G01 X-5.8868 Y20.7103 
G01 X-5.9190 Y20.8724 
G00 Z2.5400 
G00 X-28.7790 Y20.8724 
G01 Z-0.1000 F40.00 
G01 X-28.7790 Y21.0376 F208.00 
G01 X-28.7468 Y21.1997 
G01 X-28.6835 Y21.3524 
G01 X-28.5917 Y21.4898 
G01 X-28.4748 Y21.6067 
G01 X-28.3806 Y21.6697 
G01 X-28.3806 Y29.3255 
G01 X-28.3471 Y29.4505 
G01 X-28.2824 Y29.5625 
G01 X-26.7274 Y31.1176 
G01 X-26.8199 Y31.2101 
G01 X-26.9126 Y31.3488 
G01 X-26.9764 Y31.5029 
G01 X-27.0090 Y31.6666 
G01 X-27.0090 Y31.8334 
G01 X-26.9764 Y31.9971 
G01 X-26.9126 Y32.1512 
G01 X-26.8199 Y32.2899 
G01 X-26.7019 Y32.4079 
G01 X-26.5632 Y32.5006 
G01 X-26.4091 Y32.5644 
G01 X-26.2454 Y32.5970 
G01 X-24.5546 Y32.5970 
G01 X-24.3909 Y32.5644 
G01 X-24.2368 Y32.5006 
G01 X-24.0981 Y32.4079 
G01 X-23.9801 Y32.2899 
G01 X-23.8874 Y32.1512 
G01 X-23.8236 Y31.9971 
G01 X-23.7910 Y31.8334 
G01 X-23.7910 Y31.6666 
G01 X-23.8236 Y31.5029 
G01 X-23.8874 Y31.3488 
G01 X-23.9801 Y31.2101 
G01 X-24.0981 Y31.0921 
G01 X-24.2368 Y30.9994 
G01 X-24.3909 Y30.9356 
G01 X-24.5546 Y30.9030 
G01 X-25.5521 Y30.9030 
G01 X-27.3978 Y29.0573 
G01 X-27.3978 Y21.5993 
G01 X-27.2883 Y21.4898 
G01 X-27.1965 Y21.3524 
G01 X-27.1332 Y21.1997 
G01 X-27.1010 Y21.0376 
G01 X-27.1010 Y20.8724 
G01 X-27.1332 Y20.7103 
G01 X-27.1965 Y20.5576 
G01 X-27.2883 Y20.4202 
G01 X-27.4052 Y20.3033 
G01 X-27.5426 Y20.2115 
G01 X-27.6953 Y20.1482 
G01 X-27.8574 Y20.1160 
G01 X-28.0226 Y20.1160 
G01 X-28.1847 Y20.1482 
G01 X-28.3374 Y20.2115 
G01 X-28.4748 Y20.3033 
G01 X-28.5917 Y20.4202 
G01 X-28.6835 Y20.5576 
G01 X-28.7468 Y20.7103 
G01 X-28.7790 Y20.8724 
G00 Z2.5400 
G00 X-5.9190 Y3.0924 
G01 Z-0.1000 F40.00 
G01 X-5.9190 Y3.2576 F208.00 
G01 X-5.8868 Y3.4197 
G01 X-5.8235 Y3.5724 
G01 X-5.7317 Y3.7098 
G01 X-5.6148 Y3.8267 
G01 X-5.4774 Y3.9185 
G01 X-5.3247 Y3.9818 
G01 X-5.1626 Y4.0140 
G01 X-4.9974 Y4.0140 
G01 X-4.8353 Y3.9818 
G01 X-4.6826 Y3.9185 
G01 X-4.5452 Y3.8267 
G01 X-4.4283 Y3.7098 
G01 X-4.3365 Y3.5724 
G01 X-4.2732 Y3.4197 
G01 X-4.2410 Y3.2576 
G01 X-4.2410 Y3.0924 
G01 X-4.2732 Y2.9303 
G01 X-4.3365 Y2.7776 
G01 X-4.4283 Y2.6402 
G01 X-4.5452 Y2.5233 
G01 X-4.6826 Y2.4315 
G01 X-4.8353 Y2.3682 
G01 X-4.9974 Y2.3360 
G01 X-5.1626 Y2.3360 
G01 X-5.3247 Y2.3682 
G01 X-5.4774 Y2.4315 
G01 X-5.6148 Y2.5233 
G01 X-5.7317 Y2.6402 
G01 X-5.8235 Y2.7776 
G01 X-5.8868 Y2.9303 
G01 X-5.9190 Y3.0924 
G00 Z2.5400 
G00 X-5.9190 Y5.6324 
G01 Z-0.1000 F40.00 
G01 X-5.9190 Y5.7976 F208.00 
G01 X-5.8868 Y5.9597 
G01 X-5.8235 Y6.1124 
G01 X-5.7317 Y6.2498 
G01 X-5.6148 Y6.3667 
G01 X-5.4774 Y6.4585 
G01 X-5.3247 Y6.5218 
G01 X-5.1626 Y6.5540 
G01 X-4.9974 Y6.5540 
G01 X-4.8353 Y6.5218 
G01 X-4.6826 Y6.4585 
G01 X-4.5452 Y6.3667 
G01 X-4.4283 Y6.2498 
G01 X-4.3365 Y6.1124 
G01 X-4.2732 Y5.9597 
G01 X-4.2410 Y5.7976 
G01 X-4.2410 Y5.6324 
G01 X-4.2732 Y5.4703 
G01 X-4.3365 Y5.3176 
G01 X-4.4283 Y5.1802 
G01 X-4.5452 Y5.0633 
G01 X-4.6826 Y4.9715 
G01 X-4.8353 Y4.9082 
G01 X-4.9974 Y4.8760 
G01 X-5.1626 Y4.8760 
G01 X-5.3247 Y4.9082 
G01 X-5.4774 Y4.9715 
G01 X-5.6148 Y5.0633 
G01 X-5.7317 Y5.1802 
G01 X-5.8235 Y5.3176 
G01 X-5.8868 Y5.4703 
G01 X-5.9190 Y5.6324 
G00 Z2.5400 
G00 X-5.9190 Y8.1724 
G01 Z-0.1000 F40.00 
G01 X-5.9190 Y8.3376 F208.00 
G01 X-5.8868 Y8.4997 
G01 X-5.8235 Y8.6524 
G01 X-5.7317 Y8.7898 
G01 X-5.6148 Y8.9067 
G01 X-5.4774 Y8.9985 
G01 X-5.3247 Y9.0618 
G01 X-5.1626 Y9.0940 
G01 X-4.9974 Y9.0940 
G01 X-4.8353 Y9.0618 
G01 X-4.6826 Y8.9985 
G01 X-4.5452 Y8.9067 
G01 X-4.4283 Y8.7898 
G01 X-4.3365 Y8.6524 
G01 X-4.2732 Y8.4997 
G01 X-4.2410 Y8.3376 
G01 X-4.2410 Y8.1724 
G01 X-4.2732 Y8.0103 
G01 X-4.3365 Y7.8576 
G01 X-4.4283 Y7.7202 
G01 X-4.5452 Y7.6033 
G01 X-4.6826 Y7.5115 
G01 X-4.8353 Y7.4482 
G01 X-4.9974 Y7.4160 
G01 X-5.1626 Y7.4160 
G01 X-5.3247 Y7.4482 
G01 X-5.4774 Y7.5115 
G01 X-5.6148 Y7.6033 
G01 X-5.7317 Y7.7202 
G01 X-5.8235 Y7.8576 
G01 X-5.8868 Y8.0103 
G01 X-5.9190 Y8.1724 
G00 Z2.5400 
G00 X-5.9190 Y10.7124 
G01 Z-0.1000 F40.00 
G01 X-5.9190 Y10.8776 F208.00 
G01 X-5.8868 Y11.0397 
G01 X-5.8235 Y11.1924 
G01 X-5.7317 Y11.3298 
G01 X-5.6148 Y11.4467 
G01 X-5.4774 Y11.5385 
G01 X-5.3247 Y11.6018 
G01 X-5.1626 Y11.6340 
G01 X-4.9974 Y11.6340 
G01 X-4.8353 Y11.6018 
G01 X-4.6826 Y11.5385 
G01 X-4.5452 Y11.4467 
G01 X-4.4283 Y11.3298 
G01 X-4.3365 Y11.1924 
G01 X-4.2732 Y11.0397 
G01 X-4.2410 Y10.8776 
G01 X-4.2410 Y10.7124 
G01 X-4.2732 Y10.5503 
G01 X-4.3365 Y10.3976 
G01 X-4.4283 Y10.2602 
G01 X-4.5452 Y10.1433 
G01 X-4.6826 Y10.0515 
G01 X-4.8353 Y9.9882 
G01 X-4.9974 Y9.9560 
G01 X-5.1626 Y9.9560 
G01 X-5.3247 Y9.9882 
G01 X-5.4774 Y10.0515 
G01 X-5.6148 Y10.1433 
G01 X-5.7317 Y10.2602 
G01 X-5.8235 Y10.3976 
G01 X-5.8868 Y10.5503 
G01 X-5.9190 Y10.7124 
G00 Z2.5400 
G00 X-5.9190 Y13.2524 
G01 Z-0.1000 F40.00 
G01 X-5.9190 Y13.4176 F208.00 
G01 X-5.8868 Y13.5797 
G01 X-5.8235 Y13.7324 
G01 X-5.7317 Y13.8698 
G01 X-5.6148 Y13.9867 
G01 X-5.4774 Y14.0785 
G01 X-5.3247 Y14.1418 
G01 X-5.1626 Y14.1740 
G01 X-4.9974 Y14.1740 
G01 X-4.8353 Y14.1418 
G01 X-4.6826 Y14.0785 
G01 X-4.5452 Y13.9867 
G01 X-4.4283 Y13.8698 
G01 X-4.3365 Y13.7324 
G01 X-4.2732 Y13.5797 
G01 X-4.2410 Y13.4176 
G01 X-4.2410 Y13.2524 
G01 X-4.2732 Y13.0903 
G01 X-4.3365 Y12.9376 
G01 X-4.4283 Y12.8002 
G01 X-4.5452 Y12.6833 
G01 X-4.6826 Y12.5915 
G01 X-4.8353 Y12.5282 
G01 X-4.9974 Y12.4960 
G01 X-5.1626 Y12.4960 
G01 X-5.3247 Y12.5282 
G01 X-5.4774 Y12.5915 
G01 X-5.6148 Y12.6833 
G01 X-5.7317 Y12.8002 
G01 X-5.8235 Y12.9376 
G01 X-5.8868 Y13.0903 
G01 X-5.9190 Y13.2524 
G00 Z2.5400 
G00 X-5.9190 Y15.7924 
G01 Z-0.1000 F40.00 
G01 X-5.9190 Y15.9576 F208.00 
G01 X-5.8868 Y16.1197 
G01 X-5.8235 Y16.2724 
G01 X-5.7317 Y16.4098 
G01 X-5.6148 Y16.5267 
G01 X-5.4774 Y16.6185 
G01 X-5.3247 Y16.6818 
G01 X-5.1626 Y16.7140 
G01 X-4.9974 Y16.7140 
G01 X-4.8353 Y16.6818 
G01 X-4.6826 Y16.6185 
G01 X-4.5452 Y16.5267 
G01 X-4.4283 Y16.4098 
G01 X-4.3365 Y16.2724 
G01 X-4.2732 Y16.1197 
G01 X-4.2410 Y15.9576 
G01 X-4.2410 Y15.7924 
G01 X-4.2732 Y15.6303 
G01 X-4.3365 Y15.4776 
G01 X-4.4283 Y15.3402 
G01 X-4.5452 Y15.2233 
G01 X-4.6826 Y15.1315 
G01 X-4.8353 Y15.0682 
G01 X-4.9974 Y15.0360 
G01 X-5.1626 Y15.0360 
G01 X-5.3247 Y15.0682 
G01 X-5.4774 Y15.1315 
G01 X-5.6148 Y15.2233 
G01 X-5.7317 Y15.3402 
G01 X-5.8235 Y15.4776 
G01 X-5.8868 Y15.6303 
G01 X-5.9190 Y15.7924 
G00 Z2.5400 
G00 X-28.7790 Y5.6324 
G01 Z-0.1000 F40.00 
G01 X-28.7790 Y5.7976 F208.00 
G01 X-28.7468 Y5.9597 
G01 X-28.6835 Y6.1124 
G01 X-28.5917 Y6.2498 
G01 X-28.4748 Y6.3667 
G01 X-28.3374 Y6.4585 
G01 X-28.1847 Y6.5218 
G01 X-28.0226 Y6.5540 
G01 X-27.8574 Y6.5540 
G01 X-27.6953 Y6.5218 
G01 X-27.5426 Y6.4585 
G01 X-27.4052 Y6.3667 
G01 X-27.3719 Y6.3334 
G01 X-21.0315 Y6.3334 
G01 X-19.8970 Y7.4679 
G01 X-19.8970 Y8.4654 
G01 X-19.8644 Y8.6291 
G01 X-19.8006 Y8.7832 
G01 X-19.7079 Y8.9219 
G01 X-19.5899 Y9.0399 
G01 X-19.4512 Y9.1326 
G01 X-19.2971 Y9.1964 
G01 X-19.1334 Y9.2290 
G01 X-18.9666 Y9.2290 
G01 X-18.8029 Y9.1964 
G01 X-18.6488 Y9.1326 
G01 X-18.5101 Y9.0399 
G01 X-18.3921 Y8.9219 
G01 X-18.2994 Y8.7832 
G01 X-18.2355 Y8.6291 
G01 X-18.2030 Y8.4654 
G01 X-18.2030 Y6.7746 
G01 X-18.2355 Y6.6109 
G01 X-18.2994 Y6.4568 
G01 X-18.3921 Y6.3181 
G01 X-18.5101 Y6.2001 
G01 X-18.6488 Y6.1074 
G01 X-18.8029 Y6.0436 
G01 X-18.9666 Y6.0110 
G01 X-19.1334 Y6.0110 
G01 X-19.2971 Y6.0436 
G01 X-19.4512 Y6.1074 
G01 X-19.5899 Y6.2001 
G01 X-19.6824 Y6.2926 
G01 X-20.5263 Y5.4488 
G01 X-20.6383 Y5.3841 
G01 X-20.7633 Y5.3506 
G01 X-27.1828 Y5.3506 
G01 X-27.1965 Y5.3176 
G01 X-27.2883 Y5.1802 
G01 X-27.4052 Y5.0633 
G01 X-27.5426 Y4.9715 
G01 X-27.6953 Y4.9082 
G01 X-27.8574 Y4.8760 
G01 X-28.0226 Y4.8760 
G01 X-28.1847 Y4.9082 
G01 X-28.3374 Y4.9715 
G01 X-28.4748 Y5.0633 
G01 X-28.5917 Y5.1802 
G01 X-28.6835 Y5.3176 
G01 X-28.7468 Y5.4703 
G01 X-28.7790 Y5.6324 
G00 Z2.5400 
G00 X-28.5917 Y8.7898 
G01 Z-0.1000 F40.00 
G01 X-28.4748 Y8.9067 F208.00 
G01 X-28.3374 Y8.9985 
G01 X-28.1847 Y9.0618 
G01 X-28.0226 Y9.0940 
G01 X-27.8574 Y9.0940 
G01 X-27.6953 Y9.0618 
G01 X-27.5426 Y8.9985 
G01 X-27.4052 Y8.9067 
G01 X-27.2883 Y8.7898 
G01 X-27.1965 Y8.6524 
G01 X-27.1332 Y8.4997 
G01 X-27.1010 Y8.3376 
G01 X-27.1010 Y8.1724 
G01 X-27.1332 Y8.0103 
G01 X-27.1965 Y7.8576 
G01 X-27.2883 Y7.7202 
G01 X-27.4052 Y7.6033 
G01 X-27.5426 Y7.5115 
G01 X-27.6953 Y7.4482 
G01 X-27.8574 Y7.4160 
G01 X-28.0226 Y7.4160 
G01 X-28.1847 Y7.4482 
G01 X-28.3374 Y7.5115 
G01 X-28.4748 Y7.6033 
G01 X-28.5917 Y7.7202 
G01 X-28.6207 Y7.7636 
G01 X-28.9305 Y7.7636 
G01 X-29.2776 Y7.4165 
G01 X-29.2776 Y4.0135 
G01 X-28.9305 Y3.6664 
G01 X-28.6207 Y3.6664 
G01 X-28.5917 Y3.7098 
G01 X-28.4748 Y3.8267 
G01 X-28.3374 Y3.9185 
G01 X-28.1847 Y3.9818 
G01 X-28.0226 Y4.0140 
G01 X-27.8574 Y4.0140 
G01 X-27.6953 Y3.9818 
G01 X-27.5426 Y3.9185 
G01 X-27.4052 Y3.8267 
G01 X-27.2883 Y3.7098 
G01 X-27.1965 Y3.5724 
G01 X-27.1332 Y3.4197 
G01 X-27.1010 Y3.2576 
G01 X-27.1010 Y3.0924 
G01 X-27.1332 Y2.9303 
G01 X-27.1965 Y2.7776 
G01 X-27.2883 Y2.6402 
G01 X-27.4052 Y2.5233 
G01 X-27.5426 Y2.4315 
G01 X-27.6953 Y2.3682 
G01 X-27.8574 Y2.3360 
G01 X-28.0226 Y2.3360 
G01 X-28.1847 Y2.3682 
G01 X-28.3374 Y2.4315 
G01 X-28.4748 Y2.5233 
G01 X-28.5917 Y2.6402 
G01 X-28.6207 Y2.6836 
G01 X-29.1987 Y2.6836 
G01 X-29.3237 Y2.7171 
G01 X-29.4357 Y2.7818 
G01 X-30.0707 Y3.4168 
G01 X-30.1622 Y3.5083 
G01 X-30.2269 Y3.6203 
G01 X-30.2604 Y3.7453 
G01 X-30.2604 Y7.6847 
G01 X-30.2269 Y7.8097 
G01 X-30.1622 Y7.9217 
G01 X-29.5272 Y8.5567 
G01 X-29.4357 Y8.6482 
G01 X-29.3237 Y8.7129 
G01 X-29.1987 Y8.7464 
G01 X-28.6207 Y8.7464 
G01 X-28.5917 Y8.7898 
G00 Z2.5400 
G00 X-28.7790 Y10.7124 
G01 Z-0.1000 F40.00 
G01 X-28.7790 Y10.8776 F208.00 
G01 X-28.7468 Y11.0397 
G01 X-28.6835 Y11.1924 
G01 X-28.5917 Y11.3298 
G01 X-28.4748 Y11.4467 
G01 X-28.3374 Y11.5385 
G01 X-28.1847 Y11.6018 
G01 X-28.0226 Y11.6340 
G01 X-27.8574 Y11.6340 
G01 X-27.6953 Y11.6018 
G01 X-27.5426 Y11.5385 
G01 X-27.4052 Y11.4467 
G01 X-27.2883 Y11.3298 
G01 X-27.1965 Y11.1924 
G01 X-27.1332 Y11.0397 
G01 X-27.1010 Y10.8776 
G01 X-27.1010 Y10.7124 
G01 X-27.1332 Y10.5503 
G01 X-27.1965 Y10.3976 
G01 X-27.2883 Y10.2602 
G01 X-27.4052 Y10.1433 
G01 X-27.5426 Y10.0515 
G01 X-27.6953 Y9.9882 
G01 X-27.8574 Y9.9560 
G01 X-28.0226 Y9.9560 
G01 X-28.1847 Y9.9882 
G01 X-28.3374 Y10.0515 
G01 X-28.4748 Y10.1433 
G01 X-28.5917 Y10.2602 
G01 X-28.6835 Y10.3976 
G01 X-28.7468 Y10.5503 
G01 X-28.7790 Y10.7124 
G00 Z2.5400 
G00 X-28.7790 Y13.2524 
G01 Z-0.1000 F40.00 
G01 X-28.7790 Y13.4176 F208.00 
G01 X-28.7468 Y13.5797 
G01 X-28.6835 Y13.7324 
G01 X-28.5917 Y13.8698 
G01 X-28.4748 Y13.9867 
G01 X-28.3374 Y14.0785 
G01 X-28.1847 Y14.1418 
G01 X-28.0226 Y14.1740 
G01 X-27.8574 Y14.1740 
G01 X-27.6953 Y14.1418 
G01 X-27.5426 Y14.0785 
G01 X-27.4052 Y13.9867 
G01 X-27.2883 Y13.8698 
G01 X-27.1965 Y13.7324 
G01 X-27.1332 Y13.5797 
G01 X-27.1010 Y13.4176 
G01 X-27.1010 Y13.2524 
G01 X-27.1332 Y13.0903 
G01 X-27.1965 Y12.9376 
G01 X-27.2883 Y12.8002 
G01 X-27.4052 Y12.6833 
G01 X-27.5426 Y12.5915 
G01 X-27.6953 Y12.5282 
G01 X-27.8574 Y12.4960 
G01 X-28.0226 Y12.4960 
G01 X-28.1847 Y12.5282 
G01 X-28.3374 Y12.5915 
G01 X-28.4748 Y12.6833 
G01 X-28.5917 Y12.8002 
G01 X-28.6835 Y12.9376 
G01 X-28.7468 Y13.0903 
G01 X-28.7790 Y13.2524 
G00 Z2.5400 
G00 X-28.7790 Y15.7924 
G01 Z-0.1000 F40.00 
G01 X-28.7790 Y15.9576 F208.00 
G01 X-28.7468 Y16.1197 
G01 X-28.6835 Y16.2724 
G01 X-28.5917 Y16.4098 
G01 X-28.4748 Y16.5267 
G01 X-28.3374 Y16.6185 
G01 X-28.1847 Y16.6818 
G01 X-28.0226 Y16.7140 
G01 X-27.8574 Y16.7140 
G01 X-27.6953 Y16.6818 
G01 X-27.5426 Y16.6185 
G01 X-27.4052 Y16.5267 
G01 X-27.2883 Y16.4098 
G01 X-27.1965 Y16.2724 
G01 X-27.1332 Y16.1197 
G01 X-27.1010 Y15.9576 
G01 X-27.1010 Y15.7924 
G01 X-27.1332 Y15.6303 
G01 X-27.1965 Y15.4776 
G01 X-27.2883 Y15.3402 
G01 X-27.4052 Y15.2233 
G01 X-27.5426 Y15.1315 
G01 X-27.6953 Y15.0682 
G01 X-27.8574 Y15.0360 
G01 X-28.0226 Y15.0360 
G01 X-28.1847 Y15.0682 
G01 X-28.3374 Y15.1315 
G01 X-28.4748 Y15.2233 
G01 X-28.5917 Y15.3402 
G01 X-28.6835 Y15.4776 
G01 X-28.7468 Y15.6303 
G01 X-28.7790 Y15.7924 
G00 Z2.5400 
G00 X-26.2454 Y37.6770 
G01 Z-0.1000 F40.00 
G01 X-24.5546 Y37.6770 F208.00 
G01 X-24.3909 Y37.6444 
G01 X-24.2368 Y37.5806 
G01 X-24.0981 Y37.4879 
G01 X-23.9801 Y37.3699 
G01 X-23.8874 Y37.2312 
G01 X-23.8827 Y37.2198 
G01 X-21.4237 Y37.2198 
G01 X-21.2987 Y37.1863 
G01 X-21.1867 Y37.1216 
G01 X-20.3251 Y36.2600 
G01 X-18.8193 Y36.2600 
G01 X-23.4631 Y40.9038 
G01 X-23.5831 Y40.6960 
G01 X-23.7571 Y40.4692 
G01 X-23.9592 Y40.2671 
G01 X-24.1860 Y40.0931 
G01 X-24.4335 Y39.9502 
G01 X-24.6976 Y39.8408 
G01 X-24.9737 Y39.7668 
G01 X-25.2571 Y39.7295 
G01 X-25.5429 Y39.7295 
G01 X-25.8263 Y39.7668 
G01 X-26.1024 Y39.8408 
G01 X-26.3665 Y39.9502 
G01 X-26.6140 Y40.0931 
G01 X-26.8408 Y40.2671 
G01 X-27.0429 Y40.4692 
G01 X-27.2169 Y40.6960 
G01 X-27.3598 Y40.9435 
G01 X-27.4692 Y41.2076 
G01 X-27.5432 Y41.4837 
G01 X-27.5805 Y41.7671 
G01 X-27.5805 Y42.0529 
G01 X-27.5432 Y42.3363 
G01 X-27.4692 Y42.6124 
G01 X-27.3598 Y42.8765 
G01 X-27.2169 Y43.1240 
G01 X-27.0429 Y43.3508 
G01 X-26.8408 Y43.5529 
G01 X-26.6140 Y43.7269 
G01 X-26.3665 Y43.8698 
G01 X-26.1024 Y43.9792 
G01 X-25.8263 Y44.0532 
G01 X-25.5429 Y44.0905 
G01 X-25.2571 Y44.0905 
G01 X-24.9737 Y44.0532 
G01 X-24.6976 Y43.9792 
G01 X-24.4335 Y43.8698 
G01 X-24.1860 Y43.7269 
G01 X-23.9592 Y43.5529 
G01 X-23.7571 Y43.3508 
G01 X-23.5831 Y43.1240 
G01 X-23.4402 Y42.8765 
G01 X-23.3308 Y42.6124 
G01 X-23.2568 Y42.3363 
G01 X-23.2195 Y42.0529 
G01 X-23.2195 Y42.0500 
G01 X-17.4295 Y36.2600 
G01 X-15.2431 Y36.2600 
G01 X-15.2119 Y36.2471 
G01 X-15.1879 Y36.2231 
G01 X-15.1750 Y36.1919 
G01 X-15.1750 Y33.6581 
G01 X-15.1879 Y33.6269 
G01 X-15.2119 Y33.6029 
G01 X-15.2431 Y33.5900 
G01 X-17.7769 Y33.5900 
G01 X-17.8081 Y33.6029 
G01 X-17.8321 Y33.6269 
G01 X-17.8450 Y33.6581 
G01 X-17.8450 Y35.2857 
G01 X-18.3500 Y35.7907 
G01 X-18.3500 Y33.6581 
G01 X-18.3629 Y33.6269 
G01 X-18.3869 Y33.6029 
G01 X-18.4181 Y33.5900 
G01 X-20.9519 Y33.5900 
G01 X-20.9831 Y33.6029 
G01 X-21.0071 Y33.6269 
G01 X-21.0200 Y33.6581 
G01 X-21.0200 Y35.5651 
G01 X-21.6919 Y36.2370 
G01 X-24.0332 Y36.2370 
G01 X-24.0981 Y36.1721 
G01 X-24.2368 Y36.0794 
G01 X-24.3909 Y36.0156 
G01 X-24.5546 Y35.9830 
G01 X-26.2454 Y35.9830 
G01 X-26.4091 Y36.0156 
G01 X-26.5632 Y36.0794 
G01 X-26.7019 Y36.1721 
G01 X-26.8199 Y36.2901 
G01 X-26.9126 Y36.4288 
G01 X-26.9764 Y36.5829 
G01 X-27.0090 Y36.7466 
G01 X-27.0090 Y36.9134 
G01 X-26.9764 Y37.0771 
G01 X-26.9126 Y37.2312 
G01 X-26.8199 Y37.3699 
G01 X-26.7019 Y37.4879 
G01 X-26.5632 Y37.5806 
G01 X-26.4091 Y37.6444 
G01 X-26.2454 Y37.6770 
G00 Z2.5400 
G00 X-17.3570 Y6.7746 
G01 Z-0.1000 F40.00 
G01 X-17.3570 Y8.4654 F208.00 
G01 X-17.3244 Y8.6291 
G01 X-17.2606 Y8.7832 
G01 X-17.1679 Y8.9219 
G01 X-17.0499 Y9.0399 
G01 X-17.0014 Y9.0723 
G01 X-17.0014 Y11.1249 
G01 X-23.7239 Y17.8474 
G01 X-27.3211 Y17.8474 
G01 X-27.4052 Y17.7633 
G01 X-27.5426 Y17.6715 
G01 X-27.6953 Y17.6082 
G01 X-27.8574 Y17.5760 
G01 X-28.0226 Y17.5760 
G01 X-28.1847 Y17.6082 
G01 X-28.3374 Y17.6715 
G01 X-28.4748 Y17.7633 
G01 X-28.5917 Y17.8802 
G01 X-28.6835 Y18.0176 
G01 X-28.7468 Y18.1703 
G01 X-28.7790 Y18.3324 
G01 X-28.7790 Y18.4976 
G01 X-28.7468 Y18.6597 
G01 X-28.6835 Y18.8124 
G01 X-28.5917 Y18.9498 
G01 X-28.4748 Y19.0667 
G01 X-28.3374 Y19.1585 
G01 X-28.1847 Y19.2218 
G01 X-28.0226 Y19.2540 
G01 X-27.8574 Y19.2540 
G01 X-27.6953 Y19.2218 
G01 X-27.5426 Y19.1585 
G01 X-27.4052 Y19.0667 
G01 X-27.2883 Y18.9498 
G01 X-27.2084 Y18.8302 
G01 X-23.4557 Y18.8302 
G01 X-23.3307 Y18.7967 
G01 X-23.2187 Y18.7320 
G01 X-16.2083 Y11.7216 
G01 X-16.1168 Y11.6301 
G01 X-16.0521 Y11.5181 
G01 X-16.0186 Y11.3931 
G01 X-16.0186 Y9.0723 
G01 X-15.9701 Y9.0399 
G01 X-15.8521 Y8.9219 
G01 X-15.7594 Y8.7832 
G01 X-15.6956 Y8.6291 
G01 X-15.6630 Y8.4654 
G01 X-15.6630 Y6.7746 
G01 X-15.6956 Y6.6109 
G01 X-15.7594 Y6.4568 
G01 X-15.8521 Y6.3181 
G01 X-15.9701 Y6.2001 
G01 X-16.1088 Y6.1074 
G01 X-16.2629 Y6.0436 
G01 X-16.4266 Y6.0110 
G01 X-16.5934 Y6.0110 
G01 X-16.7571 Y6.0436 
G01 X-16.9112 Y6.1074 
G01 X-17.0499 Y6.2001 
G01 X-17.1679 Y6.3181 
G01 X-17.2606 Y6.4568 
G01 X-17.3244 Y6.6109 
G01 X-17.3570 Y6.7746 
G00 Z2.5400 
G00 X-27.5805 Y51.9271 
G01 Z-0.1000 F40.00 
G01 X-27.5805 Y52.2129 F208.00 
G01 X-27.5432 Y52.4963 
G01 X-27.4692 Y52.7724 
G01 X-27.3598 Y53.0365 
G01 X-27.2169 Y53.2840 
G01 X-27.0429 Y53.5108 
G01 X-26.8408 Y53.7129 
G01 X-26.6140 Y53.8869 
G01 X-26.3665 Y54.0298 
G01 X-26.1024 Y54.1392 
G01 X-25.8263 Y54.2132 
G01 X-25.5429 Y54.2505 
G01 X-25.2571 Y54.2505 
G01 X-24.9737 Y54.2132 
G01 X-24.6976 Y54.1392 
G01 X-24.4335 Y54.0298 
G01 X-24.1860 Y53.8869 
G01 X-23.9592 Y53.7129 
G01 X-23.7571 Y53.5108 
G01 X-23.5831 Y53.2840 
G01 X-23.4402 Y53.0365 
G01 X-23.3308 Y52.7724 
G01 X-23.2879 Y52.6122 
G01 X-17.5263 Y52.6122 
G01 X-11.9857 Y58.1528 
G01 X-11.8737 Y58.2175 
G01 X-11.7487 Y58.2510 
G01 X-7.0500 Y58.2510 
G01 X-7.0500 Y59.0519 
G01 X-7.0371 Y59.0831 
G01 X-7.0131 Y59.1071 
G01 X-6.9819 Y59.1200 
G01 X-4.4481 Y59.1200 
G01 X-4.4169 Y59.1071 
G01 X-4.3929 Y59.0831 
G01 X-4.3800 Y59.0519 
G01 X-4.3800 Y56.5181 
G01 X-4.3929 Y56.4869 
G01 X-4.4169 Y56.4629 
G01 X-4.4481 Y56.4500 
G01 X-6.9819 Y56.4500 
G01 X-7.0131 Y56.4629 
G01 X-7.0371 Y56.4869 
G01 X-7.0500 Y56.5181 
G01 X-7.0500 Y57.2682 
G01 X-11.4805 Y57.2682 
G01 X-17.0211 Y51.7276 
G01 X-17.1331 Y51.6629 
G01 X-17.2581 Y51.6294 
G01 X-23.2606 Y51.6294 
G01 X-23.3308 Y51.3676 
G01 X-23.4402 Y51.1035 
G01 X-23.5831 Y50.8560 
G01 X-23.7571 Y50.6292 
G01 X-23.9592 Y50.4271 
G01 X-24.1860 Y50.2531 
G01 X-24.4335 Y50.1102 
G01 X-24.6976 Y50.0008 
G01 X-24.9737 Y49.9268 
G01 X-25.2571 Y49.8895 
G01 X-25.5429 Y49.8895 
G01 X-25.8263 Y49.9268 
G01 X-26.1024 Y50.0008 
G01 X-26.3665 Y50.1102 
G01 X-26.6140 Y50.2531 
G01 X-26.8408 Y50.4271 
G01 X-27.0429 Y50.6292 
G01 X-27.2169 Y50.8560 
G01 X-27.3598 Y51.1035 
G01 X-27.4692 Y51.3676 
G01 X-27.5432 Y51.6437 
G01 X-27.5805 Y51.9271 
G00 Z2.5400 
G00 X-7.6036 Y19.0064 
G01 Z-0.1000 F40.00 
G01 X-5.8142 Y19.0064 F208.00 
G01 X-5.8094 Y19.0136 
G01 X-5.6786 Y19.1444 
G01 X-5.5248 Y19.2471 
G01 X-5.3539 Y19.3179 
G01 X-5.1725 Y19.3540 
G01 X-4.9875 Y19.3540 
G01 X-4.8061 Y19.3179 
G01 X-4.6352 Y19.2471 
G01 X-4.4814 Y19.1444 
G01 X-4.3506 Y19.0136 
G01 X-4.2479 Y18.8598 
G01 X-4.1771 Y18.6889 
G01 X-4.1410 Y18.5075 
G01 X-4.1410 Y18.3225 
G01 X-4.1771 Y18.1411 
G01 X-4.2479 Y17.9702 
G01 X-4.3506 Y17.8164 
G01 X-4.4814 Y17.6856 
G01 X-4.6352 Y17.5829 
G01 X-4.8061 Y17.5121 
G01 X-4.9875 Y17.4760 
G01 X-5.1725 Y17.4760 
G01 X-5.3539 Y17.5121 
G01 X-5.5248 Y17.5829 
G01 X-5.5754 Y17.6167 
G01 X-13.3786 Y9.8134 
G01 X-13.3786 Y9.1258 
G01 X-13.3663 Y9.1176 
G01 X-13.2344 Y8.9857 
G01 X-13.1308 Y8.8306 
G01 X-13.0594 Y8.6582 
G01 X-13.0230 Y8.4753 
G01 X-13.0230 Y6.7647 
G01 X-13.0594 Y6.5818 
G01 X-13.1308 Y6.4094 
G01 X-13.2344 Y6.2543 
G01 X-13.3663 Y6.1224 
G01 X-13.5214 Y6.0188 
G01 X-13.6938 Y5.9474 
G01 X-13.8767 Y5.9110 
G01 X-14.0633 Y5.9110 
G01 X-14.2462 Y5.9474 
G01 X-14.4186 Y6.0188 
G01 X-14.5737 Y6.1224 
G01 X-14.7056 Y6.2543 
G01 X-14.8092 Y6.4094 
G01 X-14.8806 Y6.5818 
G01 X-14.9170 Y6.7647 
G01 X-14.9170 Y8.4753 
G01 X-14.8806 Y8.6582 
G01 X-14.8092 Y8.8306 
G01 X-14.7056 Y8.9857 
G01 X-14.5737 Y9.1176 
G01 X-14.5614 Y9.1258 
G01 X-14.5614 Y10.1166 
G01 X-14.5387 Y10.2309 
G01 X-14.4941 Y10.3385 
G01 X-14.4294 Y10.4354 
G01 X-7.0412 Y17.8236 
G01 X-7.9068 Y17.8236 
G01 X-8.0211 Y17.8463 
G01 X-8.1287 Y17.8909 
G01 X-8.2256 Y17.9556 
G01 X-8.3080 Y18.0380 
G01 X-8.9622 Y18.6922 
G01 X-9.0446 Y18.7746 
G01 X-9.1093 Y18.8715 
G01 X-9.1539 Y18.9791 
G01 X-9.1766 Y19.0934 
G01 X-9.1766 Y30.2442 
G01 X-21.0894 Y30.2442 
G01 X-21.2037 Y30.2669 
G01 X-21.3113 Y30.3115 
G01 X-21.4082 Y30.3762 
G01 X-21.4906 Y30.4586 
G01 X-24.4031 Y33.3712 
G01 X-24.5447 Y33.3430 
G01 X-26.2553 Y33.3430 
G01 X-26.4382 Y33.3794 
G01 X-26.6106 Y33.4508 
G01 X-26.7657 Y33.5544 
G01 X-26.8976 Y33.6863 
G01 X-27.0012 Y33.8414 
G01 X-27.0726 Y34.0138 
G01 X-27.1090 Y34.1967 
G01 X-27.1090 Y34.3833 
G01 X-27.0726 Y34.5662 
G01 X-27.0012 Y34.7386 
G01 X-26.8976 Y34.8937 
G01 X-26.7657 Y35.0256 
G01 X-26.6106 Y35.1292 
G01 X-26.4382 Y35.2006 
G01 X-26.2553 Y35.2370 
G01 X-24.5447 Y35.2370 
G01 X-24.3618 Y35.2006 
G01 X-24.1894 Y35.1292 
G01 X-24.0343 Y35.0256 
G01 X-23.9024 Y34.8937 
G01 X-23.7988 Y34.7386 
G01 X-23.7274 Y34.5662 
G01 X-23.6910 Y34.3833 
G01 X-23.6910 Y34.3318 
G01 X-20.7862 Y31.4270 
G01 X-7.9066 Y31.4270 
G01 X-7.9066 Y32.1638 
G01 X-7.8839 Y32.2781 
G01 X-7.8393 Y32.3857 
G01 X-7.7746 Y32.4826 
G01 X-7.6922 Y32.5650 
G01 X-6.7672 Y33.4900 
G01 X-7.0018 Y33.4900 
G01 X-7.0698 Y33.5182 
G01 X-7.1218 Y33.5702 
G01 X-7.1500 Y33.6382 
G01 X-7.1500 Y36.2118 
G01 X-7.1218 Y36.2798 
G01 X-7.0698 Y36.3318 
G01 X-7.0018 Y36.3600 
G01 X-4.4282 Y36.3600 
G01 X-4.3602 Y36.3318 
G01 X-4.3082 Y36.2798 
G01 X-4.2800 Y36.2118 
G01 X-4.2800 Y33.6382 
G01 X-4.3082 Y33.5702 
G01 X-4.3602 Y33.5182 
G01 X-4.4282 Y33.4900 
G01 X-5.1643 Y33.4900 
G01 X-5.1909 Y33.4257 
G01 X-5.2556 Y33.3288 
G01 X-5.3380 Y33.2464 
G01 X-6.7238 Y31.8606 
G01 X-6.7238 Y30.7774 
G01 X-6.7465 Y30.6631 
G01 X-6.7911 Y30.5555 
G01 X-6.8558 Y30.4586 
G01 X-6.9382 Y30.3762 
G01 X-7.0351 Y30.3115 
G01 X-7.1427 Y30.2669 
G01 X-7.2570 Y30.2442 
G01 X-7.9938 Y30.2442 
G01 X-7.9938 Y19.3966 
G01 X-7.6036 Y19.0064 
G00 Z2.5400 
G00 X-27.6805 Y57.0005 
G01 Z-0.1000 F40.00 
G01 X-27.6805 Y57.2995 F208.00 
G01 X-27.6415 Y57.5959 
G01 X-27.5641 Y57.8846 
G01 X-27.4497 Y58.1608 
G01 X-27.3002 Y58.4197 
G01 X-27.1182 Y58.6569 
G01 X-26.9069 Y58.8682 
G01 X-26.6697 Y59.0502 
G01 X-26.4108 Y59.1997 
G01 X-26.1346 Y59.3141 
G01 X-25.8459 Y59.3915 
G01 X-25.5495 Y59.4305 
G01 X-25.2505 Y59.4305 
G01 X-24.9541 Y59.3915 
G01 X-24.6654 Y59.3141 
G01 X-24.3892 Y59.1997 
G01 X-24.1303 Y59.0502 
G01 X-23.8931 Y58.8682 
G01 X-23.6818 Y58.6569 
G01 X-23.4998 Y58.4197 
G01 X-23.4601 Y58.3510 
G01 X-21.1200 Y58.3510 
G01 X-21.1200 Y59.0718 
G01 X-21.0918 Y59.1398 
G01 X-21.0398 Y59.1918 
G01 X-20.9718 Y59.2200 
G01 X-18.3982 Y59.2200 
G01 X-18.3302 Y59.1918 
G01 X-18.2782 Y59.1398 
G01 X-18.2500 Y59.0718 
G01 X-18.2500 Y56.4982 
G01 X-18.2782 Y56.4302 
G01 X-18.3302 Y56.3782 
G01 X-18.3982 Y56.3500 
G01 X-20.9718 Y56.3500 
G01 X-21.0398 Y56.3782 
G01 X-21.0918 Y56.4302 
G01 X-21.1200 Y56.4982 
G01 X-21.1200 Y57.1682 
G01 X-23.1195 Y57.1682 
G01 X-23.1195 Y57.0005 
G01 X-23.1585 Y56.7041 
G01 X-23.2359 Y56.4154 
G01 X-23.3503 Y56.1392 
G01 X-23.4998 Y55.8803 
G01 X-23.6818 Y55.6431 
G01 X-23.8931 Y55.4318 
G01 X-24.1303 Y55.2498 
G01 X-24.3892 Y55.1003 
G01 X-24.6654 Y54.9859 
G01 X-24.9541 Y54.9085 
G01 X-25.2505 Y54.8695 
G01 X-25.5495 Y54.8695 
G01 X-25.8459 Y54.9085 
G01 X-26.1346 Y54.9859 
G01 X-26.4108 Y55.1003 
G01 X-26.6697 Y55.2498 
G01 X-26.9069 Y55.4318 
G01 X-27.1182 Y55.6431 
G01 X-27.3002 Y55.8803 
G01 X-27.4497 Y56.1392 
G01 X-27.5641 Y56.4154 
G01 X-27.6415 Y56.7041 
G01 X-27.6805 Y57.0005 
G00 Z2.5400 
G00 X-27.6805 Y46.8405 
G01 Z-0.1000 F40.00 
G01 X-27.6805 Y47.1395 F208.00 
G01 X-27.6415 Y47.4359 
G01 X-27.5641 Y47.7246 
G01 X-27.4497 Y48.0008 
G01 X-27.3002 Y48.2597 
G01 X-27.1182 Y48.4969 
G01 X-26.9069 Y48.7082 
G01 X-26.6697 Y48.8902 
G01 X-26.4108 Y49.0397 
G01 X-26.1346 Y49.1541 
G01 X-25.8459 Y49.2315 
G01 X-25.5495 Y49.2705 
G01 X-25.2505 Y49.2705 
G01 X-24.9541 Y49.2315 
G01 X-24.6654 Y49.1541 
G01 X-24.3892 Y49.0397 
G01 X-24.1303 Y48.8902 
G01 X-23.8931 Y48.7082 
G01 X-23.6818 Y48.4969 
G01 X-23.4998 Y48.2597 
G01 X-23.3503 Y48.0008 
G01 X-23.2359 Y47.7246 
G01 X-23.1975 Y47.5814 
G01 X-20.2617 Y47.5814 
G01 X-20.1475 Y47.5587 
G01 X-20.0399 Y47.5141 
G01 X-20.0055 Y47.4912 
G01 X-19.9383 Y47.4633 
G01 X-19.8414 Y47.3986 
G01 X-8.8028 Y36.3600 
G01 X-7.6032 Y36.3600 
G01 X-7.5352 Y36.3318 
G01 X-7.4832 Y36.2798 
G01 X-7.4550 Y36.2118 
G01 X-7.4550 Y33.6382 
G01 X-7.4832 Y33.5702 
G01 X-7.5352 Y33.5182 
G01 X-7.6032 Y33.4900 
G01 X-10.1768 Y33.4900 
G01 X-10.2448 Y33.5182 
G01 X-10.2968 Y33.5702 
G01 X-10.3250 Y33.6382 
G01 X-10.3250 Y36.2094 
G01 X-20.5142 Y46.3986 
G01 X-23.1975 Y46.3986 
G01 X-23.2359 Y46.2554 
G01 X-23.3503 Y45.9792 
G01 X-23.4998 Y45.7203 
G01 X-23.6818 Y45.4831 
G01 X-23.8931 Y45.2718 
G01 X-24.1303 Y45.0898 
G01 X-24.3892 Y44.9403 
G01 X-24.6654 Y44.8259 
G01 X-24.9541 Y44.7485 
G01 X-25.2505 Y44.7095 
G01 X-25.5495 Y44.7095 
G01 X-25.8459 Y44.7485 
G01 X-26.1346 Y44.8259 
G01 X-26.4108 Y44.9403 
G01 X-26.6697 Y45.0898 
G01 X-26.9069 Y45.2718 
G01 X-27.1182 Y45.4831 
G01 X-27.3002 Y45.7203 
G01 X-27.4497 Y45.9792 
G01 X-27.5641 Y46.2554 
G01 X-27.6415 Y46.5441 
G01 X-27.6805 Y46.8405 
G00 Z2.5400 
G00 X-19.9970 Y8.4753 
G01 Z-0.1000 F40.00 
G01 X-19.9606 Y8.6582 F208.00 
G01 X-19.8892 Y8.8306 
G01 X-19.7856 Y8.9857 
G01 X-19.6537 Y9.1176 
G01 X-19.4986 Y9.2212 
G01 X-19.3262 Y9.2926 
G01 X-19.1433 Y9.3290 
G01 X-18.9567 Y9.3290 
G01 X-18.7738 Y9.2926 
G01 X-18.6014 Y9.2212 
G01 X-18.4463 Y9.1176 
G01 X-18.3144 Y8.9857 
G01 X-18.2108 Y8.8306 
G01 X-18.1394 Y8.6582 
G01 X-18.1030 Y8.4753 
G01 X-18.1030 Y6.7647 
G01 X-18.1394 Y6.5818 
G01 X-18.2108 Y6.4094 
G01 X-18.3144 Y6.2543 
G01 X-18.4463 Y6.1224 
G01 X-18.6014 Y6.0188 
G01 X-18.7738 Y5.9474 
G01 X-18.9567 Y5.9110 
G01 X-19.1433 Y5.9110 
G01 X-19.3262 Y5.9474 
G01 X-19.4986 Y6.0188 
G01 X-19.6537 Y6.1224 
G01 X-19.6824 Y6.1512 
G01 X-20.4510 Y5.3826 
G01 X-20.5479 Y5.3179 
G01 X-20.6555 Y5.2733 
G01 X-20.7698 Y5.2506 
G01 X-27.1210 Y5.2506 
G01 X-27.2106 Y5.1164 
G01 X-27.3414 Y4.9856 
G01 X-27.4952 Y4.8829 
G01 X-27.6661 Y4.8121 
G01 X-27.8475 Y4.7760 
G01 X-28.0325 Y4.7760 
G01 X-28.2139 Y4.8121 
G01 X-28.3848 Y4.8829 
G01 X-28.5386 Y4.9856 
G01 X-28.6694 Y5.1164 
G01 X-28.7721 Y5.2702 
G01 X-28.8429 Y5.4411 
G01 X-28.8790 Y5.6225 
G01 X-28.8790 Y5.8075 
G01 X-28.8429 Y5.9889 
G01 X-28.7721 Y6.1598 
G01 X-28.6694 Y6.3136 
G01 X-28.5386 Y6.4444 
G01 X-28.3848 Y6.5471 
G01 X-28.2139 Y6.6179 
G01 X-28.0325 Y6.6540 
G01 X-27.8475 Y6.6540 
G01 X-27.6661 Y6.6179 
G01 X-27.4952 Y6.5471 
G01 X-27.3414 Y6.4444 
G01 X-27.3305 Y6.4334 
G01 X-21.0730 Y6.4334 
G01 X-19.9970 Y7.5094 
G01 X-19.9970 Y8.4753 
G00 Z2.5400 
G00 X-26.2553 Y37.7770 
G01 Z-0.1000 F40.00 
G01 X-24.5447 Y37.7770 F208.00 
G01 X-24.3618 Y37.7406 
G01 X-24.1894 Y37.6692 
G01 X-24.0343 Y37.5656 
G01 X-23.9024 Y37.4337 
G01 X-23.8263 Y37.3198 
G01 X-21.4302 Y37.3198 
G01 X-21.3159 Y37.2971 
G01 X-21.2083 Y37.2525 
G01 X-21.1114 Y37.1878 
G01 X-20.2836 Y36.3600 
G01 X-19.0608 Y36.3600 
G01 X-23.4417 Y40.7409 
G01 X-23.4998 Y40.6403 
G01 X-23.6818 Y40.4031 
G01 X-23.8931 Y40.1917 
G01 X-24.1303 Y40.0098 
G01 X-24.3892 Y39.8603 
G01 X-24.6654 Y39.7459 
G01 X-24.9541 Y39.6685 
G01 X-25.2505 Y39.6295 
G01 X-25.5495 Y39.6295 
G01 X-25.8459 Y39.6685 
G01 X-26.1346 Y39.7459 
G01 X-26.4108 Y39.8603 
G01 X-26.6697 Y40.0098 
G01 X-26.9069 Y40.1917 
G01 X-27.1182 Y40.4031 
G01 X-27.3002 Y40.6403 
G01 X-27.4497 Y40.8992 
G01 X-27.5641 Y41.1754 
G01 X-27.6415 Y41.4641 
G01 X-27.6805 Y41.7605 
G01 X-27.6805 Y42.0595 
G01 X-27.6415 Y42.3559 
G01 X-27.5641 Y42.6446 
G01 X-27.4497 Y42.9208 
G01 X-27.3002 Y43.1797 
G01 X-27.1182 Y43.4169 
G01 X-26.9069 Y43.6282 
G01 X-26.6697 Y43.8102 
G01 X-26.4108 Y43.9597 
G01 X-26.1346 Y44.0741 
G01 X-25.8459 Y44.1515 
G01 X-25.5495 Y44.1905 
G01 X-25.2505 Y44.1905 
G01 X-24.9541 Y44.1515 
G01 X-24.6654 Y44.0741 
G01 X-24.3892 Y43.9597 
G01 X-24.1303 Y43.8102 
G01 X-23.8931 Y43.6282 
G01 X-23.6818 Y43.4169 
G01 X-23.4998 Y43.1797 
G01 X-23.3503 Y42.9208 
G01 X-23.2359 Y42.6446 
G01 X-23.1585 Y42.3559 
G01 X-23.1244 Y42.0963 
G01 X-17.3880 Y36.3600 
G01 X-15.2232 Y36.3600 
G01 X-15.1552 Y36.3318 
G01 X-15.1032 Y36.2798 
G01 X-15.0750 Y36.2118 
G01 X-15.0750 Y33.6382 
G01 X-15.1032 Y33.5702 
G01 X-15.1552 Y33.5182 
G01 X-15.2232 Y33.4900 
G01 X-17.7968 Y33.4900 
G01 X-17.8648 Y33.5182 
G01 X-17.9168 Y33.5702 
G01 X-17.9450 Y33.6382 
G01 X-17.9450 Y35.2442 
G01 X-18.2500 Y35.5492 
G01 X-18.2500 Y33.6382 
G01 X-18.2782 Y33.5702 
G01 X-18.3302 Y33.5182 
G01 X-18.3982 Y33.4900 
G01 X-20.9718 Y33.4900 
G01 X-21.0398 Y33.5182 
G01 X-21.0918 Y33.5702 
G01 X-21.1200 Y33.6382 
G01 X-21.1200 Y35.5236 
G01 X-21.7334 Y36.1370 
G01 X-23.9917 Y36.1370 
G01 X-24.0343 Y36.0944 
G01 X-24.1894 Y35.9908 
G01 X-24.3618 Y35.9194 
G01 X-24.5447 Y35.8830 
G01 X-26.2553 Y35.8830 
G01 X-26.4382 Y35.9194 
G01 X-26.6106 Y35.9908 
G01 X-26.7657 Y36.0944 
G01 X-26.8976 Y36.2263 
G01 X-27.0012 Y36.3814 
G01 X-27.0726 Y36.5538 
G01 X-27.1090 Y36.7367 
G01 X-27.1090 Y36.9233 
G01 X-27.0726 Y37.1062 
G01 X-27.0012 Y37.2786 
G01 X-26.8976 Y37.4337 
G01 X-26.7657 Y37.5656 
G01 X-26.6106 Y37.6692 
G01 X-26.4382 Y37.7406 
G01 X-26.2553 Y37.7770 
G00 Z2.5400 
G00 X-28.8790 Y18.3225 
G01 Z-0.1000 F40.00 
G01 X-28.8790 Y18.5075 F208.00 
G01 X-28.8429 Y18.6889 
G01 X-28.7721 Y18.8598 
G01 X-28.6694 Y19.0136 
G01 X-28.5386 Y19.1444 
G01 X-28.3848 Y19.2471 
G01 X-28.2139 Y19.3179 
G01 X-28.0325 Y19.3540 
G01 X-27.8475 Y19.3540 
G01 X-27.6661 Y19.3179 
G01 X-27.4952 Y19.2471 
G01 X-27.3414 Y19.1444 
G01 X-27.2106 Y19.0136 
G01 X-27.1549 Y18.9302 
G01 X-23.4622 Y18.9302 
G01 X-23.3479 Y18.9075 
G01 X-23.2403 Y18.8629 
G01 X-23.1434 Y18.7982 
G01 X-16.1330 Y11.7878 
G01 X-16.0506 Y11.7054 
G01 X-15.9859 Y11.6085 
G01 X-15.9413 Y11.5009 
G01 X-15.9186 Y11.3866 
G01 X-15.9186 Y9.1258 
G01 X-15.9063 Y9.1176 
G01 X-15.7744 Y8.9857 
G01 X-15.6708 Y8.8306 
G01 X-15.5994 Y8.6582 
G01 X-15.5630 Y8.4753 
G01 X-15.5630 Y6.7647 
G01 X-15.5994 Y6.5818 
G01 X-15.6708 Y6.4094 
G01 X-15.7744 Y6.2543 
G01 X-15.9063 Y6.1224 
G01 X-16.0614 Y6.0188 
G01 X-16.2338 Y5.9474 
G01 X-16.4167 Y5.9110 
G01 X-16.6033 Y5.9110 
G01 X-16.7862 Y5.9474 
G01 X-16.9586 Y6.0188 
G01 X-17.1137 Y6.1224 
G01 X-17.2456 Y6.2543 
G01 X-17.3492 Y6.4094 
G01 X-17.4206 Y6.5818 
G01 X-17.4570 Y6.7647 
G01 X-17.4570 Y8.4753 
G01 X-17.4206 Y8.6582 
G01 X-17.3492 Y8.8306 
G01 X-17.2456 Y8.9857 
G01 X-17.1137 Y9.1176 
G01 X-17.1014 Y9.1258 
G01 X-17.1014 Y11.0834 
G01 X-23.7654 Y17.7474 
G01 X-27.2797 Y17.7474 
G01 X-27.3414 Y17.6856 
G01 X-27.4952 Y17.5829 
G01 X-27.6661 Y17.5121 
G01 X-27.8475 Y17.4760 
G01 X-28.0325 Y17.4760 
G01 X-28.2139 Y17.5121 
G01 X-28.3848 Y17.5829 
G01 X-28.5386 Y17.6856 
G01 X-28.6694 Y17.8164 
G01 X-28.7721 Y17.9702 
G01 X-28.8429 Y18.1411 
G01 X-28.8790 Y18.3225 
G00 Z2.5400 
G00 X-28.8790 Y15.7825 
G01 Z-0.1000 F40.00 
G01 X-28.8790 Y15.9675 F208.00 
G01 X-28.8429 Y16.1489 
G01 X-28.7721 Y16.3198 
G01 X-28.6694 Y16.4736 
G01 X-28.5386 Y16.6044 
G01 X-28.3848 Y16.7071 
G01 X-28.2139 Y16.7779 
G01 X-28.0325 Y16.8140 
G01 X-27.8475 Y16.8140 
G01 X-27.6661 Y16.7779 
G01 X-27.4952 Y16.7071 
G01 X-27.3414 Y16.6044 
G01 X-27.2106 Y16.4736 
G01 X-27.1079 Y16.3198 
G01 X-27.0371 Y16.1489 
G01 X-27.0010 Y15.9675 
G01 X-27.0010 Y15.7825 
G01 X-27.0371 Y15.6011 
G01 X-27.1079 Y15.4302 
G01 X-27.2106 Y15.2764 
G01 X-27.3414 Y15.1456 
G01 X-27.4952 Y15.0429 
G01 X-27.6661 Y14.9721 
G01 X-27.8475 Y14.9360 
G01 X-28.0325 Y14.9360 
G01 X-28.2139 Y14.9721 
G01 X-28.3848 Y15.0429 
G01 X-28.5386 Y15.1456 
G01 X-28.6694 Y15.2764 
G01 X-28.7721 Y15.4302 
G01 X-28.8429 Y15.6011 
G01 X-28.8790 Y15.7825 
G00 Z2.5400 
G00 X-28.8790 Y13.2425 
G01 Z-0.1000 F40.00 
G01 X-28.8790 Y13.4275 F208.00 
G01 X-28.8429 Y13.6089 
G01 X-28.7721 Y13.7798 
G01 X-28.6694 Y13.9336 
G01 X-28.5386 Y14.0644 
G01 X-28.3848 Y14.1671 
G01 X-28.2139 Y14.2379 
G01 X-28.0325 Y14.2740 
G01 X-27.8475 Y14.2740 
G01 X-27.6661 Y14.2379 
G01 X-27.4952 Y14.1671 
G01 X-27.3414 Y14.0644 
G01 X-27.2106 Y13.9336 
G01 X-27.1079 Y13.7798 
G01 X-27.0371 Y13.6089 
G01 X-27.0010 Y13.4275 
G01 X-27.0010 Y13.2425 
G01 X-27.0371 Y13.0611 
G01 X-27.1079 Y12.8902 
G01 X-27.2106 Y12.7364 
G01 X-27.3414 Y12.6056 
G01 X-27.4952 Y12.5029 
G01 X-27.6661 Y12.4321 
G01 X-27.8475 Y12.3960 
G01 X-28.0325 Y12.3960 
G01 X-28.2139 Y12.4321 
G01 X-28.3848 Y12.5029 
G01 X-28.5386 Y12.6056 
G01 X-28.6694 Y12.7364 
G01 X-28.7721 Y12.8902 
G01 X-28.8429 Y13.0611 
G01 X-28.8790 Y13.2425 
G00 Z2.5400 
G00 X-28.8790 Y10.7025 
G01 Z-0.1000 F40.00 
G01 X-28.8790 Y10.8875 F208.00 
G01 X-28.8429 Y11.0689 
G01 X-28.7721 Y11.2398 
G01 X-28.6694 Y11.3936 
G01 X-28.5386 Y11.5244 
G01 X-28.3848 Y11.6271 
G01 X-28.2139 Y11.6979 
G01 X-28.0325 Y11.7340 
G01 X-27.8475 Y11.7340 
G01 X-27.6661 Y11.6979 
G01 X-27.4952 Y11.6271 
G01 X-27.3414 Y11.5244 
G01 X-27.2106 Y11.3936 
G01 X-27.1079 Y11.2398 
G01 X-27.0371 Y11.0689 
G01 X-27.0010 Y10.8875 
G01 X-27.0010 Y10.7025 
G01 X-27.0371 Y10.5211 
G01 X-27.1079 Y10.3502 
G01 X-27.2106 Y10.1964 
G01 X-27.3414 Y10.0656 
G01 X-27.4952 Y9.9629 
G01 X-27.6661 Y9.8921 
G01 X-27.8475 Y9.8560 
G01 X-28.0325 Y9.8560 
G01 X-28.2139 Y9.8921 
G01 X-28.3848 Y9.9629 
G01 X-28.5386 Y10.0656 
G01 X-28.6694 Y10.1964 
G01 X-28.7721 Y10.3502 
G01 X-28.8429 Y10.5211 
G01 X-28.8790 Y10.7025 
G00 Z2.5400 
G00 X-28.6694 Y8.8536 
G01 Z-0.1000 F40.00 
G01 X-28.5386 Y8.9844 F208.00 
G01 X-28.3848 Y9.0871 
G01 X-28.2139 Y9.1579 
G01 X-28.0325 Y9.1940 
G01 X-27.8475 Y9.1940 
G01 X-27.6661 Y9.1579 
G01 X-27.4952 Y9.0871 
G01 X-27.3414 Y8.9844 
G01 X-27.2106 Y8.8536 
G01 X-27.1079 Y8.6998 
G01 X-27.0371 Y8.5289 
G01 X-27.0010 Y8.3475 
G01 X-27.0010 Y8.1625 
G01 X-27.0371 Y7.9811 
G01 X-27.1079 Y7.8102 
G01 X-27.2106 Y7.6564 
G01 X-27.3414 Y7.5256 
G01 X-27.4952 Y7.4229 
G01 X-27.6661 Y7.3521 
G01 X-27.8475 Y7.3160 
G01 X-28.0325 Y7.3160 
G01 X-28.2139 Y7.3521 
G01 X-28.3848 Y7.4229 
G01 X-28.5386 Y7.5256 
G01 X-28.6694 Y7.6564 
G01 X-28.6742 Y7.6636 
G01 X-28.8890 Y7.6636 
G01 X-29.1776 Y7.3750 
G01 X-29.1776 Y4.0550 
G01 X-28.8890 Y3.7664 
G01 X-28.6742 Y3.7664 
G01 X-28.6694 Y3.7736 
G01 X-28.5386 Y3.9044 
G01 X-28.3848 Y4.0071 
G01 X-28.2139 Y4.0779 
G01 X-28.0325 Y4.1140 
G01 X-27.8475 Y4.1140 
G01 X-27.6661 Y4.0779 
G01 X-27.4952 Y4.0071 
G01 X-27.3414 Y3.9044 
G01 X-27.2106 Y3.7736 
G01 X-27.1079 Y3.6198 
G01 X-27.0371 Y3.4489 
G01 X-27.0010 Y3.2675 
G01 X-27.0010 Y3.0825 
G01 X-27.0371 Y2.9011 
G01 X-27.1079 Y2.7302 
G01 X-27.2106 Y2.5764 
G01 X-27.3414 Y2.4456 
G01 X-27.4952 Y2.3429 
G01 X-27.6661 Y2.2721 
G01 X-27.8475 Y2.2360 
G01 X-28.0325 Y2.2360 
G01 X-28.2139 Y2.2721 
G01 X-28.3848 Y2.3429 
G01 X-28.5386 Y2.4456 
G01 X-28.6694 Y2.5764 
G01 X-28.6742 Y2.5836 
G01 X-29.1922 Y2.5836 
G01 X-29.3065 Y2.6063 
G01 X-29.4141 Y2.6509 
G01 X-29.5110 Y2.7156 
G01 X-30.1460 Y3.3506 
G01 X-30.2284 Y3.4330 
G01 X-30.2931 Y3.5299 
G01 X-30.3377 Y3.6375 
G01 X-30.3604 Y3.7518 
G01 X-30.3604 Y7.6782 
G01 X-30.3377 Y7.7925 
G01 X-30.2931 Y7.9001 
G01 X-30.2284 Y7.9970 
G01 X-29.5934 Y8.6320 
G01 X-29.5110 Y8.7144 
G01 X-29.4141 Y8.7791 
G01 X-29.3065 Y8.8237 
G01 X-29.1922 Y8.8464 
G01 X-28.6742 Y8.8464 
G01 X-28.6694 Y8.8536 
G00 Z2.5400 
G00 X-6.0190 Y15.7825 
G01 Z-0.1000 F40.00 
G01 X-6.0190 Y15.9675 F208.00 
G01 X-5.9829 Y16.1489 
G01 X-5.9121 Y16.3198 
G01 X-5.8094 Y16.4736 
G01 X-5.6786 Y16.6044 
G01 X-5.5248 Y16.7071 
G01 X-5.3539 Y16.7779 
G01 X-5.1725 Y16.8140 
G01 X-4.9875 Y16.8140 
G01 X-4.8061 Y16.7779 
G01 X-4.6352 Y16.7071 
G01 X-4.4814 Y16.6044 
G01 X-4.3506 Y16.4736 
G01 X-4.2479 Y16.3198 
G01 X-4.1771 Y16.1489 
G01 X-4.1410 Y15.9675 
G01 X-4.1410 Y15.7825 
G01 X-4.1771 Y15.6011 
G01 X-4.2479 Y15.4302 
G01 X-4.3506 Y15.2764 
G01 X-4.4814 Y15.1456 
G01 X-4.6352 Y15.0429 
G01 X-4.8061 Y14.9721 
G01 X-4.9875 Y14.9360 
G01 X-5.1725 Y14.9360 
G01 X-5.3539 Y14.9721 
G01 X-5.5248 Y15.0429 
G01 X-5.6786 Y15.1456 
G01 X-5.8094 Y15.2764 
G01 X-5.9121 Y15.4302 
G01 X-5.9829 Y15.6011 
G01 X-6.0190 Y15.7825 
G00 Z2.5400 
G00 X-6.0190 Y13.2425 
G01 Z-0.1000 F40.00 
G01 X-6.0190 Y13.4275 F208.00 
G01 X-5.9829 Y13.6089 
G01 X-5.9121 Y13.7798 
G01 X-5.8094 Y13.9336 
G01 X-5.6786 Y14.0644 
G01 X-5.5248 Y14.1671 
G01 X-5.3539 Y14.2379 
G01 X-5.1725 Y14.2740 
G01 X-4.9875 Y14.2740 
G01 X-4.8061 Y14.2379 
G01 X-4.6352 Y14.1671 
G01 X-4.4814 Y14.0644 
G01 X-4.3506 Y13.9336 
G01 X-4.2479 Y13.7798 
G01 X-4.1771 Y13.6089 
G01 X-4.1410 Y13.4275 
G01 X-4.1410 Y13.2425 
G01 X-4.1771 Y13.0611 
G01 X-4.2479 Y12.8902 
G01 X-4.3506 Y12.7364 
G01 X-4.4814 Y12.6056 
G01 X-4.6352 Y12.5029 
G01 X-4.8061 Y12.4321 
G01 X-4.9875 Y12.3960 
G01 X-5.1725 Y12.3960 
G01 X-5.3539 Y12.4321 
G01 X-5.5248 Y12.5029 
G01 X-5.6786 Y12.6056 
G01 X-5.8094 Y12.7364 
G01 X-5.9121 Y12.8902 
G01 X-5.9829 Y13.0611 
G01 X-6.0190 Y13.2425 
G00 Z2.5400 
G00 X-6.0190 Y10.7025 
G01 Z-0.1000 F40.00 
G01 X-6.0190 Y10.8875 F208.00 
G01 X-5.9829 Y11.0689 
G01 X-5.9121 Y11.2398 
G01 X-5.8094 Y11.3936 
G01 X-5.6786 Y11.5244 
G01 X-5.5248 Y11.6271 
G01 X-5.3539 Y11.6979 
G01 X-5.1725 Y11.7340 
G01 X-4.9875 Y11.7340 
G01 X-4.8061 Y11.6979 
G01 X-4.6352 Y11.6271 
G01 X-4.4814 Y11.5244 
G01 X-4.3506 Y11.3936 
G01 X-4.2479 Y11.2398 
G01 X-4.1771 Y11.0689 
G01 X-4.1410 Y10.8875 
G01 X-4.1410 Y10.7025 
G01 X-4.1771 Y10.5211 
G01 X-4.2479 Y10.3502 
G01 X-4.3506 Y10.1964 
G01 X-4.4814 Y10.0656 
G01 X-4.6352 Y9.9629 
G01 X-4.8061 Y9.8921 
G01 X-4.9875 Y9.8560 
G01 X-5.1725 Y9.8560 
G01 X-5.3539 Y9.8921 
G01 X-5.5248 Y9.9629 
G01 X-5.6786 Y10.0656 
G01 X-5.8094 Y10.1964 
G01 X-5.9121 Y10.3502 
G01 X-5.9829 Y10.5211 
G01 X-6.0190 Y10.7025 
G00 Z2.5400 
G00 X-6.0190 Y8.1625 
G01 Z-0.1000 F40.00 
G01 X-6.0190 Y8.3475 F208.00 
G01 X-5.9829 Y8.5289 
G01 X-5.9121 Y8.6998 
G01 X-5.8094 Y8.8536 
G01 X-5.6786 Y8.9844 
G01 X-5.5248 Y9.0871 
G01 X-5.3539 Y9.1579 
G01 X-5.1725 Y9.1940 
G01 X-4.9875 Y9.1940 
G01 X-4.8061 Y9.1579 
G01 X-4.6352 Y9.0871 
G01 X-4.4814 Y8.9844 
G01 X-4.3506 Y8.8536 
G01 X-4.2479 Y8.6998 
G01 X-4.1771 Y8.5289 
G01 X-4.1410 Y8.3475 
G01 X-4.1410 Y8.1625 
G01 X-4.1771 Y7.9811 
G01 X-4.2479 Y7.8102 
G01 X-4.3506 Y7.6564 
G01 X-4.4814 Y7.5256 
G01 X-4.6352 Y7.4229 
G01 X-4.8061 Y7.3521 
G01 X-4.9875 Y7.3160 
G01 X-5.1725 Y7.3160 
G01 X-5.3539 Y7.3521 
G01 X-5.5248 Y7.4229 
G01 X-5.6786 Y7.5256 
G01 X-5.8094 Y7.6564 
G01 X-5.9121 Y7.8102 
G01 X-5.9829 Y7.9811 
G01 X-6.0190 Y8.1625 
G00 Z2.5400 
G00 X-6.0190 Y5.6225 
G01 Z-0.1000 F40.00 
G01 X-6.0190 Y5.8075 F208.00 
G01 X-5.9829 Y5.9889 
G01 X-5.9121 Y6.1598 
G01 X-5.8094 Y6.3136 
G01 X-5.6786 Y6.4444 
G01 X-5.5248 Y6.5471 
G01 X-5.3539 Y6.6179 
G01 X-5.1725 Y6.6540 
G01 X-4.9875 Y6.6540 
G01 X-4.8061 Y6.6179 
G01 X-4.6352 Y6.5471 
G01 X-4.4814 Y6.4444 
G01 X-4.3506 Y6.3136 
G01 X-4.2479 Y6.1598 
G01 X-4.1771 Y5.9889 
G01 X-4.1410 Y5.8075 
G01 X-4.1410 Y5.6225 
G01 X-4.1771 Y5.4411 
G01 X-4.2479 Y5.2702 
G01 X-4.3506 Y5.1164 
G01 X-4.4814 Y4.9856 
G01 X-4.6352 Y4.8829 
G01 X-4.8061 Y4.8121 
G01 X-4.9875 Y4.7760 
G01 X-5.1725 Y4.7760 
G01 X-5.3539 Y4.8121 
G01 X-5.5248 Y4.8829 
G01 X-5.6786 Y4.9856 
G01 X-5.8094 Y5.1164 
G01 X-5.9121 Y5.2702 
G01 X-5.9829 Y5.4411 
G01 X-6.0190 Y5.6225 
G00 Z2.5400 
G00 X-6.0190 Y3.0825 
G01 Z-0.1000 F40.00 
G01 X-6.0190 Y3.2675 F208.00 
G01 X-5.9829 Y3.4489 
G01 X-5.9121 Y3.6198 
G01 X-5.8094 Y3.7736 
G01 X-5.6786 Y3.9044 
G01 X-5.5248 Y4.0071 
G01 X-5.3539 Y4.0779 
G01 X-5.1725 Y4.1140 
G01 X-4.9875 Y4.1140 
G01 X-4.8061 Y4.0779 
G01 X-4.6352 Y4.0071 
G01 X-4.4814 Y3.9044 
G01 X-4.3506 Y3.7736 
G01 X-4.2479 Y3.6198 
G01 X-4.1771 Y3.4489 
G01 X-4.1410 Y3.2675 
G01 X-4.1410 Y3.0825 
G01 X-4.1771 Y2.9011 
G01 X-4.2479 Y2.7302 
G01 X-4.3506 Y2.5764 
G01 X-4.4814 Y2.4456 
G01 X-4.6352 Y2.3429 
G01 X-4.8061 Y2.2721 
G01 X-4.9875 Y2.2360 
G01 X-5.1725 Y2.2360 
G01 X-5.3539 Y2.2721 
G01 X-5.5248 Y2.3429 
G01 X-5.6786 Y2.4456 
G01 X-5.8094 Y2.5764 
G01 X-5.9121 Y2.7302 
G01 X-5.9829 Y2.9011 
G01 X-6.0190 Y3.0825 
G00 Z2.5400 
G00 X-28.8790 Y20.8625 
G01 Z-0.1000 F40.00 
G01 X-28.8790 Y21.0475 F208.00 
G01 X-28.8429 Y21.2289 
G01 X-28.7721 Y21.3998 
G01 X-28.6694 Y21.5536 
G01 X-28.5386 Y21.6844 
G01 X-28.4806 Y21.7231 
G01 X-28.4806 Y29.3190 
G01 X-28.4579 Y29.4333 
G01 X-28.4133 Y29.5409 
G01 X-28.3486 Y29.6378 
G01 X-26.8688 Y31.1176 
G01 X-26.8976 Y31.1463 
G01 X-27.0012 Y31.3014 
G01 X-27.0726 Y31.4738 
G01 X-27.1090 Y31.6567 
G01 X-27.1090 Y31.8433 
G01 X-27.0726 Y32.0262 
G01 X-27.0012 Y32.1986 
G01 X-26.8976 Y32.3537 
G01 X-26.7657 Y32.4856 
G01 X-26.6106 Y32.5892 
G01 X-26.4382 Y32.6606 
G01 X-26.2553 Y32.6970 
G01 X-24.5447 Y32.6970 
G01 X-24.3618 Y32.6606 
G01 X-24.1894 Y32.5892 
G01 X-24.0343 Y32.4856 
G01 X-23.9024 Y32.3537 
G01 X-23.7988 Y32.1986 
G01 X-23.7274 Y32.0262 
G01 X-23.6910 Y31.8433 
G01 X-23.6910 Y31.6567 
G01 X-23.7274 Y31.4738 
G01 X-23.7988 Y31.3014 
G01 X-23.9024 Y31.1463 
G01 X-24.0343 Y31.0144 
G01 X-24.1894 Y30.9108 
G01 X-24.3618 Y30.8394 
G01 X-24.5447 Y30.8030 
G01 X-25.5106 Y30.8030 
G01 X-27.2978 Y29.0158 
G01 X-27.2978 Y21.6407 
G01 X-27.2106 Y21.5536 
G01 X-27.1079 Y21.3998 
G01 X-27.0371 Y21.2289 
G01 X-27.0010 Y21.0475 
G01 X-27.0010 Y20.8625 
G01 X-27.0371 Y20.6811 
G01 X-27.1079 Y20.5102 
G01 X-27.2106 Y20.3564 
G01 X-27.3414 Y20.2256 
G01 X-27.4952 Y20.1229 
G01 X-27.6661 Y20.0521 
G01 X-27.8475 Y20.0160 
G01 X-28.0325 Y20.0160 
G01 X-28.2139 Y20.0521 
G01 X-28.3848 Y20.1229 
G01 X-28.5386 Y20.2256 
G01 X-28.6694 Y20.3564 
G01 X-28.7721 Y20.5102 
G01 X-28.8429 Y20.6811 
G01 X-28.8790 Y20.8625 
G00 Z2.5400 
G00 X-6.0190 Y20.8625 
G01 Z-0.1000 F40.00 
G01 X-6.0190 Y21.0475 F208.00 
G01 X-5.9829 Y21.2289 
G01 X-5.9121 Y21.3998 
G01 X-5.8094 Y21.5536 
G01 X-5.6786 Y21.6844 
G01 X-5.5248 Y21.7871 
G01 X-5.3539 Y21.8579 
G01 X-5.1725 Y21.8940 
G01 X-4.9875 Y21.8940 
G01 X-4.8061 Y21.8579 
G01 X-4.6352 Y21.7871 
G01 X-4.4814 Y21.6844 
G01 X-4.3506 Y21.5536 
G01 X-4.2479 Y21.3998 
G01 X-4.1771 Y21.2289 
G01 X-4.1410 Y21.0475 
G01 X-4.1410 Y20.8625 
G01 X-4.1771 Y20.6811 
G01 X-4.2479 Y20.5102 
G01 X-4.3506 Y20.3564 
G01 X-4.4814 Y20.2256 
G01 X-4.6352 Y20.1229 
G01 X-4.8061 Y20.0521 
G01 X-4.9875 Y20.0160 
G01 X-5.1725 Y20.0160 
G01 X-5.3539 Y20.0521 
G01 X-5.5248 Y20.1229 
G01 X-5.6786 Y20.2256 
G01 X-5.8094 Y20.3564 
G01 X-5.9121 Y20.5102 
G01 X-5.9829 Y20.6811 
G01 X-6.0190 Y20.8625 
G00 Z2.5400 
G00 X-4.4282 Y56.3500 
G01 Z-0.1000 F40.00 
G01 X-7.0018 Y56.3500 F208.00 
G01 X-7.0698 Y56.3782 
G01 X-7.1218 Y56.4302 
G01 X-7.1500 Y56.4982 
G01 X-7.1500 Y57.1682 
G01 X-11.4390 Y57.1682 
G01 X-16.9458 Y51.6614 
G01 X-17.0427 Y51.5967 
G01 X-17.1503 Y51.5521 
G01 X-17.2645 Y51.5294 
G01 X-23.1839 Y51.5294 
G01 X-23.2359 Y51.3354 
G01 X-23.3503 Y51.0592 
G01 X-23.4998 Y50.8003 
G01 X-23.6818 Y50.5631 
G01 X-23.8931 Y50.3518 
G01 X-24.1303 Y50.1698 
G01 X-24.3892 Y50.0203 
G01 X-24.6654 Y49.9059 
G01 X-24.9541 Y49.8285 
G01 X-25.2505 Y49.7895 
G01 X-25.5495 Y49.7895 
G01 X-25.8459 Y49.8285 
G01 X-26.1346 Y49.9059 
G01 X-26.4108 Y50.0203 
G01 X-26.6697 Y50.1698 
G01 X-26.9069 Y50.3518 
G01 X-27.1182 Y50.5631 
G01 X-27.3002 Y50.8003 
G01 X-27.4497 Y51.0592 
G01 X-27.5641 Y51.3354 
G01 X-27.6415 Y51.6241 
G01 X-27.6805 Y51.9205 
G01 X-27.6805 Y52.2195 
G01 X-27.6415 Y52.5159 
G01 X-27.5641 Y52.8046 
G01 X-27.4497 Y53.0808 
G01 X-27.3002 Y53.3397 
G01 X-27.1182 Y53.5769 
G01 X-26.9069 Y53.7882 
G01 X-26.6697 Y53.9702 
G01 X-26.4108 Y54.1197 
G01 X-26.1346 Y54.2341 
G01 X-25.8459 Y54.3115 
G01 X-25.5495 Y54.3505 
G01 X-25.2505 Y54.3505 
G01 X-24.9541 Y54.3115 
G01 X-24.6654 Y54.2341 
G01 X-24.3892 Y54.1197 
G01 X-24.1303 Y53.9702 
G01 X-23.8931 Y53.7882 
G01 X-23.6818 Y53.5769 
G01 X-23.4998 Y53.3397 
G01 X-23.3503 Y53.0808 
G01 X-23.2359 Y52.8046 
G01 X-23.2111 Y52.7122 
G01 X-17.5678 Y52.7122 
G01 X-12.0610 Y58.2190 
G01 X-11.9641 Y58.2837 
G01 X-11.8565 Y58.3283 
G01 X-11.7422 Y58.3510 
G01 X-7.1500 Y58.3510 
G01 X-7.1500 Y59.0718 
G01 X-7.1218 Y59.1398 
G01 X-7.0698 Y59.1918 
G01 X-7.0018 Y59.2200 
G01 X-4.4282 Y59.2200 
G01 X-4.3602 Y59.1918 
G01 X-4.3082 Y59.1398 
G01 X-4.2800 Y59.0718 
G01 X-4.2800 Y56.4982 
G01 X-4.3082 Y56.4302 
G01 X-4.3602 Y56.3782 
G01 X-4.4282 Y56.3500 
G00 Z2.5400 
G00 X-7.5622 Y19.1064 
G01 Z-0.1000 F40.00 
G01 X-5.8580 Y19.1064 F208.00 
G01 X-5.7569 Y19.2075 
G01 X-5.6246 Y19.3036 
G01 X-5.4788 Y19.3779 
G01 X-5.3233 Y19.4284 
G01 X-5.1618 Y19.4540 
G01 X-4.9982 Y19.4540 
G01 X-4.8367 Y19.4284 
G01 X-4.6812 Y19.3779 
G01 X-4.5354 Y19.3036 
G01 X-4.4031 Y19.2075 
G01 X-4.2875 Y19.0919 
G01 X-4.1914 Y18.9596 
G01 X-4.1171 Y18.8138 
G01 X-4.0666 Y18.6583 
G01 X-4.0410 Y18.4968 
G01 X-4.0410 Y18.3332 
G01 X-4.0666 Y18.1717 
G01 X-4.1171 Y18.0162 
G01 X-4.1914 Y17.8704 
G01 X-4.2875 Y17.7381 
G01 X-4.4031 Y17.6225 
G01 X-4.5354 Y17.5264 
G01 X-4.6812 Y17.4521 
G01 X-4.8367 Y17.4016 
G01 X-4.9982 Y17.3760 
G01 X-5.1618 Y17.3760 
G01 X-5.3233 Y17.4016 
G01 X-5.4788 Y17.4521 
G01 X-5.5581 Y17.4925 
G01 X-13.2786 Y9.7720 
G01 X-13.2786 Y9.1713 
G01 X-13.1714 Y9.0641 
G01 X-13.0745 Y8.9307 
G01 X-12.9997 Y8.7839 
G01 X-12.9488 Y8.6272 
G01 X-12.9230 Y8.4644 
G01 X-12.9230 Y6.7756 
G01 X-12.9488 Y6.6128 
G01 X-12.9997 Y6.4561 
G01 X-13.0745 Y6.3093 
G01 X-13.1714 Y6.1759 
G01 X-13.2879 Y6.0594 
G01 X-13.4213 Y5.9625 
G01 X-13.5681 Y5.8877 
G01 X-13.7248 Y5.8368 
G01 X-13.8876 Y5.8110 
G01 X-14.0524 Y5.8110 
G01 X-14.2152 Y5.8368 
G01 X-14.3719 Y5.8877 
G01 X-14.5187 Y5.9625 
G01 X-14.6521 Y6.0594 
G01 X-14.7686 Y6.1759 
G01 X-14.8655 Y6.3093 
G01 X-14.9403 Y6.4561 
G01 X-14.9912 Y6.6128 
G01 X-15.0170 Y6.7756 
G01 X-15.0170 Y8.4644 
G01 X-14.9912 Y8.6272 
G01 X-14.9403 Y8.7839 
G01 X-14.8655 Y8.9307 
G01 X-14.7686 Y9.0641 
G01 X-14.6614 Y9.1713 
G01 X-14.6614 Y10.1265 
G01 X-14.6348 Y10.2601 
G01 X-14.5827 Y10.3859 
G01 X-14.5070 Y10.4991 
G01 X-7.2826 Y17.7236 
G01 X-7.9167 Y17.7236 
G01 X-8.0503 Y17.7502 
G01 X-8.1761 Y17.8023 
G01 X-8.2893 Y17.8780 
G01 X-8.3856 Y17.9743 
G01 X-9.0259 Y18.6146 
G01 X-9.1222 Y18.7109 
G01 X-9.1979 Y18.8241 
G01 X-9.2500 Y18.9499 
G01 X-9.2766 Y19.0835 
G01 X-9.2766 Y30.1442 
G01 X-21.0993 Y30.1442 
G01 X-21.2329 Y30.1708 
G01 X-21.3587 Y30.2229 
G01 X-21.4719 Y30.2986 
G01 X-21.5682 Y30.3949 
G01 X-24.4354 Y33.2620 
G01 X-24.5556 Y33.2430 
G01 X-26.2444 Y33.2430 
G01 X-26.4072 Y33.2688 
G01 X-26.5639 Y33.3197 
G01 X-26.7107 Y33.3945 
G01 X-26.8441 Y33.4914 
G01 X-26.9606 Y33.6079 
G01 X-27.0575 Y33.7413 
G01 X-27.1323 Y33.8881 
G01 X-27.1832 Y34.0448 
G01 X-27.2090 Y34.2076 
G01 X-27.2090 Y34.3724 
G01 X-27.1832 Y34.5352 
G01 X-27.1323 Y34.6919 
G01 X-27.0575 Y34.8387 
G01 X-26.9606 Y34.9721 
G01 X-26.8441 Y35.0886 
G01 X-26.7107 Y35.1855 
G01 X-26.5639 Y35.2603 
G01 X-26.4072 Y35.3112 
G01 X-26.2444 Y35.3370 
G01 X-24.5556 Y35.3370 
G01 X-24.3928 Y35.3112 
G01 X-24.2361 Y35.2603 
G01 X-24.0892 Y35.1855 
G01 X-23.9559 Y35.0886 
G01 X-23.8394 Y34.9721 
G01 X-23.7425 Y34.8387 
G01 X-23.6677 Y34.6919 
G01 X-23.6168 Y34.5352 
G01 X-23.5912 Y34.3733 
G01 X-20.7448 Y31.5270 
G01 X-8.0066 Y31.5270 
G01 X-8.0066 Y32.1737 
G01 X-7.9800 Y32.3073 
G01 X-7.9279 Y32.4331 
G01 X-7.8522 Y32.5463 
G01 X-7.7559 Y32.6426 
G01 X-7.0073 Y33.3913 
G01 X-7.0750 Y33.4094 
G01 X-7.1400 Y33.4469 
G01 X-7.1931 Y33.5000 
G01 X-7.2306 Y33.5650 
G01 X-7.2500 Y33.6375 
G01 X-7.2500 Y36.2125 
G01 X-7.2306 Y36.2850 
G01 X-7.1931 Y36.3500 
G01 X-7.1400 Y36.4031 
G01 X-7.0750 Y36.4406 
G01 X-7.0025 Y36.4600 
G01 X-4.4275 Y36.4600 
G01 X-4.3550 Y36.4406 
G01 X-4.2900 Y36.4031 
G01 X-4.2369 Y36.3500 
G01 X-4.1994 Y36.2850 
G01 X-4.1800 Y36.2125 
G01 X-4.1800 Y33.6375 
G01 X-4.1994 Y33.5650 
G01 X-4.2369 Y33.5000 
G01 X-4.2900 Y33.4469 
G01 X-4.3550 Y33.4094 
G01 X-4.4275 Y33.3900 
G01 X-5.0974 Y33.3900 
G01 X-5.1023 Y33.3783 
G01 X-5.1780 Y33.2651 
G01 X-5.2743 Y33.1688 
G01 X-6.6238 Y31.8192 
G01 X-6.6238 Y30.7675 
G01 X-6.6504 Y30.6339 
G01 X-6.7025 Y30.5081 
G01 X-6.7782 Y30.3949 
G01 X-6.8745 Y30.2986 
G01 X-6.9877 Y30.2229 
G01 X-7.1135 Y30.1708 
G01 X-7.2471 Y30.1442 
G01 X-7.8938 Y30.1442 
G01 X-7.8938 Y19.4380 
G01 X-7.5622 Y19.1064 
G00 Z2.5400 
G00 X-27.7805 Y57.0163 
G01 Z-0.1000 F40.00 
G01 X-27.7805 Y57.2837 F208.00 
G01 X-27.7506 Y57.5494 
G01 X-27.6911 Y57.8100 
G01 X-27.6028 Y58.0624 
G01 X-27.4868 Y58.3033 
G01 X-27.3445 Y58.5297 
G01 X-27.1778 Y58.7387 
G01 X-26.9887 Y58.9278 
G01 X-26.7797 Y59.0945 
G01 X-26.5533 Y59.2368 
G01 X-26.3124 Y59.3528 
G01 X-26.0600 Y59.4411 
G01 X-25.7994 Y59.5006 
G01 X-25.5337 Y59.5305 
G01 X-25.2663 Y59.5305 
G01 X-25.0006 Y59.5006 
G01 X-24.7400 Y59.4411 
G01 X-24.4876 Y59.3528 
G01 X-24.2467 Y59.2368 
G01 X-24.0203 Y59.0945 
G01 X-23.8113 Y58.9278 
G01 X-23.6222 Y58.7387 
G01 X-23.4555 Y58.5297 
G01 X-23.4060 Y58.4510 
G01 X-21.2200 Y58.4510 
G01 X-21.2200 Y59.0725 
G01 X-21.2006 Y59.1450 
G01 X-21.1631 Y59.2100 
G01 X-21.1100 Y59.2631 
G01 X-21.0450 Y59.3006 
G01 X-20.9725 Y59.3200 
G01 X-18.3975 Y59.3200 
G01 X-18.3250 Y59.3006 
G01 X-18.2600 Y59.2631 
G01 X-18.2069 Y59.2100 
G01 X-18.1694 Y59.1450 
G01 X-18.1500 Y59.0725 
G01 X-18.1500 Y56.4975 
G01 X-18.1694 Y56.4250 
G01 X-18.2069 Y56.3600 
G01 X-18.2600 Y56.3069 
G01 X-18.3250 Y56.2694 
G01 X-18.3975 Y56.2500 
G01 X-20.9725 Y56.2500 
G01 X-21.0450 Y56.2694 
G01 X-21.1100 Y56.3069 
G01 X-21.1631 Y56.3600 
G01 X-21.2006 Y56.4250 
G01 X-21.2200 Y56.4975 
G01 X-21.2200 Y57.0682 
G01 X-23.0195 Y57.0682 
G01 X-23.0195 Y57.0163 
G01 X-23.0494 Y56.7506 
G01 X-23.1089 Y56.4900 
G01 X-23.1972 Y56.2376 
G01 X-23.3132 Y55.9967 
G01 X-23.4555 Y55.7703 
G01 X-23.6222 Y55.5613 
G01 X-23.8113 Y55.3722 
G01 X-24.0203 Y55.2055 
G01 X-24.2467 Y55.0632 
G01 X-24.4876 Y54.9472 
G01 X-24.7400 Y54.8589 
G01 X-25.0006 Y54.7994 
G01 X-25.2663 Y54.7695 
G01 X-25.5337 Y54.7695 
G01 X-25.7994 Y54.7994 
G01 X-26.0600 Y54.8589 
G01 X-26.3124 Y54.9472 
G01 X-26.5533 Y55.0632 
G01 X-26.7797 Y55.2055 
G01 X-26.9887 Y55.3722 
G01 X-27.1778 Y55.5613 
G01 X-27.3445 Y55.7703 
G01 X-27.4868 Y55.9967 
G01 X-27.6028 Y56.2376 
G01 X-27.6911 Y56.4900 
G01 X-27.7506 Y56.7506 
G01 X-27.7805 Y57.0163 
G00 Z2.5400 
G00 X-27.7805 Y46.8563 
G01 Z-0.1000 F40.00 
G01 X-27.7805 Y47.1237 F208.00 
G01 X-27.7506 Y47.3894 
G01 X-27.6911 Y47.6500 
G01 X-27.6028 Y47.9024 
G01 X-27.4868 Y48.1433 
G01 X-27.3445 Y48.3697 
G01 X-27.1778 Y48.5787 
G01 X-26.9887 Y48.7678 
G01 X-26.7797 Y48.9345 
G01 X-26.5533 Y49.0768 
G01 X-26.3124 Y49.1928 
G01 X-26.0600 Y49.2811 
G01 X-25.7994 Y49.3406 
G01 X-25.5337 Y49.3705 
G01 X-25.2663 Y49.3705 
G01 X-25.0006 Y49.3406 
G01 X-24.7400 Y49.2811 
G01 X-24.4876 Y49.1928 
G01 X-24.2467 Y49.0768 
G01 X-24.0203 Y48.9345 
G01 X-23.8113 Y48.7678 
G01 X-23.6222 Y48.5787 
G01 X-23.4555 Y48.3697 
G01 X-23.3132 Y48.1433 
G01 X-23.1972 Y47.9024 
G01 X-23.1199 Y47.6814 
G01 X-20.2519 Y47.6814 
G01 X-20.1183 Y47.6548 
G01 X-19.9925 Y47.6027 
G01 X-19.9582 Y47.5798 
G01 X-19.8909 Y47.5519 
G01 X-19.7777 Y47.4762 
G01 X-8.7614 Y36.4600 
G01 X-7.6025 Y36.4600 
G01 X-7.5300 Y36.4406 
G01 X-7.4650 Y36.4031 
G01 X-7.4119 Y36.3500 
G01 X-7.3744 Y36.2850 
G01 X-7.3550 Y36.2125 
G01 X-7.3550 Y33.6375 
G01 X-7.3744 Y33.5650 
G01 X-7.4119 Y33.5000 
G01 X-7.4650 Y33.4469 
G01 X-7.5300 Y33.4094 
G01 X-7.6025 Y33.3900 
G01 X-10.1775 Y33.3900 
G01 X-10.2500 Y33.4094 
G01 X-10.3150 Y33.4469 
G01 X-10.3681 Y33.5000 
G01 X-10.4056 Y33.5650 
G01 X-10.4250 Y33.6375 
G01 X-10.4250 Y36.1680 
G01 X-20.5556 Y46.2986 
G01 X-23.1199 Y46.2986 
G01 X-23.1972 Y46.0776 
G01 X-23.3132 Y45.8367 
G01 X-23.4555 Y45.6103 
G01 X-23.6222 Y45.4013 
G01 X-23.8113 Y45.2122 
G01 X-24.0203 Y45.0455 
G01 X-24.2467 Y44.9032 
G01 X-24.4876 Y44.7872 
G01 X-24.7400 Y44.6989 
G01 X-25.0006 Y44.6394 
G01 X-25.2663 Y44.6095 
G01 X-25.5337 Y44.6095 
G01 X-25.7994 Y44.6394 
G01 X-26.0600 Y44.6989 
G01 X-26.3124 Y44.7872 
G01 X-26.5533 Y44.9032 
G01 X-26.7797 Y45.0455 
G01 X-26.9887 Y45.2122 
G01 X-27.1778 Y45.4013 
G01 X-27.3445 Y45.6103 
G01 X-27.4868 Y45.8367 
G01 X-27.6028 Y46.0776 
G01 X-27.6911 Y46.3300 
G01 X-27.7506 Y46.5906 
G01 X-27.7805 Y46.8563 
G00 Z2.5400 
G00 X-20.0970 Y8.4644 
G01 Z-0.1000 F40.00 
G01 X-20.0712 Y8.6272 F208.00 
G01 X-20.0203 Y8.7839 
G01 X-19.9455 Y8.9307 
G01 X-19.8486 Y9.0641 
G01 X-19.7321 Y9.1806 
G01 X-19.5987 Y9.2775 
G01 X-19.4519 Y9.3523 
G01 X-19.2952 Y9.4032 
G01 X-19.1324 Y9.4290 
G01 X-18.9676 Y9.4290 
G01 X-18.8048 Y9.4032 
G01 X-18.6481 Y9.3523 
G01 X-18.5013 Y9.2775 
G01 X-18.3679 Y9.1806 
G01 X-18.2514 Y9.0641 
G01 X-18.1545 Y8.9307 
G01 X-18.0797 Y8.7839 
G01 X-18.0288 Y8.6272 
G01 X-18.0030 Y8.4644 
G01 X-18.0030 Y6.7756 
G01 X-18.0288 Y6.6128 
G01 X-18.0797 Y6.4561 
G01 X-18.1545 Y6.3093 
G01 X-18.2514 Y6.1759 
G01 X-18.3679 Y6.0594 
G01 X-18.5013 Y5.9625 
G01 X-18.6481 Y5.8877 
G01 X-18.8048 Y5.8368 
G01 X-18.9676 Y5.8110 
G01 X-19.1324 Y5.8110 
G01 X-19.2952 Y5.8368 
G01 X-19.4519 Y5.8877 
G01 X-19.5987 Y5.9625 
G01 X-19.6746 Y6.0176 
G01 X-20.3873 Y5.3050 
G01 X-20.5005 Y5.2293 
G01 X-20.6263 Y5.1772 
G01 X-20.7599 Y5.1506 
G01 X-27.0658 Y5.1506 
G01 X-27.1475 Y5.0381 
G01 X-27.2631 Y4.9225 
G01 X-27.3954 Y4.8264 
G01 X-27.5412 Y4.7521 
G01 X-27.6967 Y4.7016 
G01 X-27.8582 Y4.6760 
G01 X-28.0218 Y4.6760 
G01 X-28.1833 Y4.7016 
G01 X-28.3388 Y4.7521 
G01 X-28.4846 Y4.8264 
G01 X-28.6169 Y4.9225 
G01 X-28.7325 Y5.0381 
G01 X-28.8286 Y5.1704 
G01 X-28.9029 Y5.3162 
G01 X-28.9534 Y5.4717 
G01 X-28.9790 Y5.6332 
G01 X-28.9790 Y5.7968 
G01 X-28.9534 Y5.9583 
G01 X-28.9029 Y6.1138 
G01 X-28.8286 Y6.2596 
G01 X-28.7325 Y6.3919 
G01 X-28.6169 Y6.5075 
G01 X-28.4846 Y6.6036 
G01 X-28.3388 Y6.6779 
G01 X-28.1833 Y6.7284 
G01 X-28.0218 Y6.7540 
G01 X-27.8582 Y6.7540 
G01 X-27.6967 Y6.7284 
G01 X-27.5412 Y6.6779 
G01 X-27.3954 Y6.6036 
G01 X-27.2988 Y6.5334 
G01 X-21.1144 Y6.5334 
G01 X-20.0970 Y7.5508 
G01 X-20.0970 Y8.4644 
G00 Z2.5400 
G00 X-28.9790 Y18.3332 
G01 Z-0.1000 F40.00 
G01 X-28.9790 Y18.4968 F208.00 
G01 X-28.9534 Y18.6583 
G01 X-28.9029 Y18.8138 
G01 X-28.8286 Y18.9596 
G01 X-28.7325 Y19.0919 
G01 X-28.6169 Y19.2075 
G01 X-28.4846 Y19.3036 
G01 X-28.3388 Y19.3779 
G01 X-28.1833 Y19.4284 
G01 X-28.0218 Y19.4540 
G01 X-27.8582 Y19.4540 
G01 X-27.6967 Y19.4284 
G01 X-27.5412 Y19.3779 
G01 X-27.3954 Y19.3036 
G01 X-27.2631 Y19.2075 
G01 X-27.1475 Y19.0919 
G01 X-27.1027 Y19.0302 
G01 X-23.4523 Y19.0302 
G01 X-23.3187 Y19.0036 
G01 X-23.1929 Y18.9515 
G01 X-23.0797 Y18.8758 
G01 X-16.0693 Y11.8654 
G01 X-15.9730 Y11.7691 
G01 X-15.8973 Y11.6559 
G01 X-15.8452 Y11.5301 
G01 X-15.8186 Y11.3965 
G01 X-15.8186 Y9.1713 
G01 X-15.7114 Y9.0641 
G01 X-15.6145 Y8.9307 
G01 X-15.5397 Y8.7839 
G01 X-15.4888 Y8.6272 
G01 X-15.4630 Y8.4644 
G01 X-15.4630 Y6.7756 
G01 X-15.4888 Y6.6128 
G01 X-15.5397 Y6.4561 
G01 X-15.6145 Y6.3093 
G01 X-15.7114 Y6.1759 
G01 X-15.8279 Y6.0594 
G01 X-15.9613 Y5.9625 
G01 X-16.1081 Y5.8877 
G01 X-16.2648 Y5.8368 
G01 X-16.4276 Y5.8110 
G01 X-16.5924 Y5.8110 
G01 X-16.7552 Y5.8368 
G01 X-16.9119 Y5.8877 
G01 X-17.0587 Y5.9625 
G01 X-17.1921 Y6.0594 
G01 X-17.3086 Y6.1759 
G01 X-17.4055 Y6.3093 
G01 X-17.4803 Y6.4561 
G01 X-17.5312 Y6.6128 
G01 X-17.5570 Y6.7756 
G01 X-17.5570 Y8.4644 
G01 X-17.5312 Y8.6272 
G01 X-17.4803 Y8.7839 
G01 X-17.4055 Y8.9307 
G01 X-17.3086 Y9.0641 
G01 X-17.2014 Y9.1713 
G01 X-17.2014 Y11.0420 
G01 X-23.8068 Y17.6474 
G01 X-27.2382 Y17.6474 
G01 X-27.2631 Y17.6225 
G01 X-27.3954 Y17.5264 
G01 X-27.5412 Y17.4521 
G01 X-27.6967 Y17.4016 
G01 X-27.8582 Y17.3760 
G01 X-28.0218 Y17.3760 
G01 X-28.1833 Y17.4016 
G01 X-28.3388 Y17.4521 
G01 X-28.4846 Y17.5264 
G01 X-28.6169 Y17.6225 
G01 X-28.7325 Y17.7381 
G01 X-28.8286 Y17.8704 
G01 X-28.9029 Y18.0162 
G01 X-28.9534 Y18.1717 
G01 X-28.9790 Y18.3332 
G00 Z2.5400 
G00 X-28.9790 Y15.7932 
G01 Z-0.1000 F40.00 
G01 X-28.9790 Y15.9568 F208.00 
G01 X-28.9534 Y16.1183 
G01 X-28.9029 Y16.2738 
G01 X-28.8286 Y16.4196 
G01 X-28.7325 Y16.5519 
G01 X-28.6169 Y16.6675 
G01 X-28.4846 Y16.7636 
G01 X-28.3388 Y16.8379 
G01 X-28.1833 Y16.8884 
G01 X-28.0218 Y16.9140 
G01 X-27.8582 Y16.9140 
G01 X-27.6967 Y16.8884 
G01 X-27.5412 Y16.8379 
G01 X-27.3954 Y16.7636 
G01 X-27.2631 Y16.6675 
G01 X-27.1475 Y16.5519 
G01 X-27.0514 Y16.4196 
G01 X-26.9771 Y16.2738 
G01 X-26.9266 Y16.1183 
G01 X-26.9010 Y15.9568 
G01 X-26.9010 Y15.7932 
G01 X-26.9266 Y15.6317 
G01 X-26.9771 Y15.4762 
G01 X-27.0514 Y15.3304 
G01 X-27.1475 Y15.1981 
G01 X-27.2631 Y15.0825 
G01 X-27.3954 Y14.9864 
G01 X-27.5412 Y14.9121 
G01 X-27.6967 Y14.8616 
G01 X-27.8582 Y14.8360 
G01 X-28.0218 Y14.8360 
G01 X-28.1833 Y14.8616 
G01 X-28.3388 Y14.9121 
G01 X-28.4846 Y14.9864 
G01 X-28.6169 Y15.0825 
G01 X-28.7325 Y15.1981 
G01 X-28.8286 Y15.3304 
G01 X-28.9029 Y15.4762 
G01 X-28.9534 Y15.6317 
G01 X-28.9790 Y15.7932 
G00 Z2.5400 
G00 X-28.9790 Y13.2532 
G01 Z-0.1000 F40.00 
G01 X-28.9790 Y13.4168 F208.00 
G01 X-28.9534 Y13.5783 
G01 X-28.9029 Y13.7338 
G01 X-28.8286 Y13.8796 
G01 X-28.7325 Y14.0119 
G01 X-28.6169 Y14.1275 
G01 X-28.4846 Y14.2236 
G01 X-28.3388 Y14.2979 
G01 X-28.1833 Y14.3484 
G01 X-28.0218 Y14.3740 
G01 X-27.8582 Y14.3740 
G01 X-27.6967 Y14.3484 
G01 X-27.5412 Y14.2979 
G01 X-27.3954 Y14.2236 
G01 X-27.2631 Y14.1275 
G01 X-27.1475 Y14.0119 
G01 X-27.0514 Y13.8796 
G01 X-26.9771 Y13.7338 
G01 X-26.9266 Y13.5783 
G01 X-26.9010 Y13.4168 
G01 X-26.9010 Y13.2532 
G01 X-26.9266 Y13.0917 
G01 X-26.9771 Y12.9362 
G01 X-27.0514 Y12.7904 
G01 X-27.1475 Y12.6581 
G01 X-27.2631 Y12.5425 
G01 X-27.3954 Y12.4464 
G01 X-27.5412 Y12.3721 
G01 X-27.6967 Y12.3216 
G01 X-27.8582 Y12.2960 
G01 X-28.0218 Y12.2960 
G01 X-28.1833 Y12.3216 
G01 X-28.3388 Y12.3721 
G01 X-28.4846 Y12.4464 
G01 X-28.6169 Y12.5425 
G01 X-28.7325 Y12.6581 
G01 X-28.8286 Y12.7904 
G01 X-28.9029 Y12.9362 
G01 X-28.9534 Y13.0917 
G01 X-28.9790 Y13.2532 
G00 Z2.5400 
G00 X-28.9790 Y10.7132 
G01 Z-0.1000 F40.00 
G01 X-28.9790 Y10.8768 F208.00 
G01 X-28.9534 Y11.0383 
G01 X-28.9029 Y11.1938 
G01 X-28.8286 Y11.3396 
G01 X-28.7325 Y11.4719 
G01 X-28.6169 Y11.5875 
G01 X-28.4846 Y11.6836 
G01 X-28.3388 Y11.7579 
G01 X-28.1833 Y11.8084 
G01 X-28.0218 Y11.8340 
G01 X-27.8582 Y11.8340 
G01 X-27.6967 Y11.8084 
G01 X-27.5412 Y11.7579 
G01 X-27.3954 Y11.6836 
G01 X-27.2631 Y11.5875 
G01 X-27.1475 Y11.4719 
G01 X-27.0514 Y11.3396 
G01 X-26.9771 Y11.1938 
G01 X-26.9266 Y11.0383 
G01 X-26.9010 Y10.8768 
G01 X-26.9010 Y10.7132 
G01 X-26.9266 Y10.5517 
G01 X-26.9771 Y10.3962 
G01 X-27.0514 Y10.2504 
G01 X-27.1475 Y10.1181 
G01 X-27.2631 Y10.0025 
G01 X-27.3954 Y9.9064 
G01 X-27.5412 Y9.8321 
G01 X-27.6967 Y9.7816 
G01 X-27.8582 Y9.7560 
G01 X-28.0218 Y9.7560 
G01 X-28.1833 Y9.7816 
G01 X-28.3388 Y9.8321 
G01 X-28.4846 Y9.9064 
G01 X-28.6169 Y10.0025 
G01 X-28.7325 Y10.1181 
G01 X-28.8286 Y10.2504 
G01 X-28.9029 Y10.3962 
G01 X-28.9534 Y10.5517 
G01 X-28.9790 Y10.7132 
G00 Z2.5400 
G00 X-28.6169 Y9.0475 
G01 Z-0.1000 F40.00 
G01 X-28.4846 Y9.1436 F208.00 
G01 X-28.3388 Y9.2179 
G01 X-28.1833 Y9.2684 
G01 X-28.0218 Y9.2940 
G01 X-27.8582 Y9.2940 
G01 X-27.6967 Y9.2684 
G01 X-27.5412 Y9.2179 
G01 X-27.3954 Y9.1436 
G01 X-27.2631 Y9.0475 
G01 X-27.1475 Y8.9319 
G01 X-27.0514 Y8.7996 
G01 X-26.9771 Y8.6538 
G01 X-26.9266 Y8.4983 
G01 X-26.9010 Y8.3368 
G01 X-26.9010 Y8.1732 
G01 X-26.9266 Y8.0117 
G01 X-26.9771 Y7.8562 
G01 X-27.0514 Y7.7104 
G01 X-27.1475 Y7.5781 
G01 X-27.2631 Y7.4625 
G01 X-27.3954 Y7.3664 
G01 X-27.5412 Y7.2921 
G01 X-27.6967 Y7.2416 
G01 X-27.8582 Y7.2160 
G01 X-28.0218 Y7.2160 
G01 X-28.1833 Y7.2416 
G01 X-28.3388 Y7.2921 
G01 X-28.4846 Y7.3664 
G01 X-28.6169 Y7.4625 
G01 X-28.7180 Y7.5636 
G01 X-28.8476 Y7.5636 
G01 X-29.0776 Y7.3336 
G01 X-29.0776 Y4.0964 
G01 X-28.8476 Y3.8664 
G01 X-28.7180 Y3.8664 
G01 X-28.6169 Y3.9675 
G01 X-28.4846 Y4.0636 
G01 X-28.3388 Y4.1379 
G01 X-28.1833 Y4.1884 
G01 X-28.0218 Y4.2140 
G01 X-27.8582 Y4.2140 
G01 X-27.6967 Y4.1884 
G01 X-27.5412 Y4.1379 
G01 X-27.3954 Y4.0636 
G01 X-27.2631 Y3.9675 
G01 X-27.1475 Y3.8519 
G01 X-27.0514 Y3.7196 
G01 X-26.9771 Y3.5738 
G01 X-26.9266 Y3.4183 
G01 X-26.9010 Y3.2568 
G01 X-26.9010 Y3.0932 
G01 X-26.9266 Y2.9317 
G01 X-26.9771 Y2.7762 
G01 X-27.0514 Y2.6304 
G01 X-27.1475 Y2.4981 
G01 X-27.2631 Y2.3825 
G01 X-27.3954 Y2.2864 
G01 X-27.5412 Y2.2121 
G01 X-27.6967 Y2.1616 
G01 X-27.8582 Y2.1360 
G01 X-28.0218 Y2.1360 
G01 X-28.1833 Y2.1616 
G01 X-28.3388 Y2.2121 
G01 X-28.4846 Y2.2864 
G01 X-28.6169 Y2.3825 
G01 X-28.7180 Y2.4836 
G01 X-29.2021 Y2.4836 
G01 X-29.3357 Y2.5102 
G01 X-29.4615 Y2.5623 
G01 X-29.5747 Y2.6380 
G01 X-30.2097 Y3.2730 
G01 X-30.3060 Y3.3693 
G01 X-30.3817 Y3.4825 
G01 X-30.4338 Y3.6083 
G01 X-30.4604 Y3.7419 
G01 X-30.4604 Y7.6881 
G01 X-30.4338 Y7.8217 
G01 X-30.3817 Y7.9475 
G01 X-30.3060 Y8.0607 
G01 X-29.6710 Y8.6957 
G01 X-29.5747 Y8.7920 
G01 X-29.4615 Y8.8677 
G01 X-29.3357 Y8.9198 
G01 X-29.2021 Y8.9464 
G01 X-28.7180 Y8.9464 
G01 X-28.6169 Y9.0475 
G00 Z2.5400 
G00 X-6.1190 Y15.7932 
G01 Z-0.1000 F40.00 
G01 X-6.1190 Y15.9568 F208.00 
G01 X-6.0934 Y16.1183 
G01 X-6.0429 Y16.2738 
G01 X-5.9686 Y16.4196 
G01 X-5.8725 Y16.5519 
G01 X-5.7569 Y16.6675 
G01 X-5.6246 Y16.7636 
G01 X-5.4788 Y16.8379 
G01 X-5.3233 Y16.8884 
G01 X-5.1618 Y16.9140 
G01 X-4.9982 Y16.9140 
G01 X-4.8367 Y16.8884 
G01 X-4.6812 Y16.8379 
G01 X-4.5354 Y16.7636 
G01 X-4.4031 Y16.6675 
G01 X-4.2875 Y16.5519 
G01 X-4.1914 Y16.4196 
G01 X-4.1171 Y16.2738 
G01 X-4.0666 Y16.1183 
G01 X-4.0410 Y15.9568 
G01 X-4.0410 Y15.7932 
G01 X-4.0666 Y15.6317 
G01 X-4.1171 Y15.4762 
G01 X-4.1914 Y15.3304 
G01 X-4.2875 Y15.1981 
G01 X-4.4031 Y15.0825 
G01 X-4.5354 Y14.9864 
G01 X-4.6812 Y14.9121 
G01 X-4.8367 Y14.8616 
G01 X-4.9982 Y14.8360 
G01 X-5.1618 Y14.8360 
G01 X-5.3233 Y14.8616 
G01 X-5.4788 Y14.9121 
G01 X-5.6246 Y14.9864 
G01 X-5.7569 Y15.0825 
G01 X-5.8725 Y15.1981 
G01 X-5.9686 Y15.3304 
G01 X-6.0429 Y15.4762 
G01 X-6.0934 Y15.6317 
G01 X-6.1190 Y15.7932 
G00 Z2.5400 
G00 X-6.1190 Y13.2532 
G01 Z-0.1000 F40.00 
G01 X-6.1190 Y13.4168 F208.00 
G01 X-6.0934 Y13.5783 
G01 X-6.0429 Y13.7338 
G01 X-5.9686 Y13.8796 
G01 X-5.8725 Y14.0119 
G01 X-5.7569 Y14.1275 
G01 X-5.6246 Y14.2236 
G01 X-5.4788 Y14.2979 
G01 X-5.3233 Y14.3484 
G01 X-5.1618 Y14.3740 
G01 X-4.9982 Y14.3740 
G01 X-4.8367 Y14.3484 
G01 X-4.6812 Y14.2979 
G01 X-4.5354 Y14.2236 
G01 X-4.4031 Y14.1275 
G01 X-4.2875 Y14.0119 
G01 X-4.1914 Y13.8796 
G01 X-4.1171 Y13.7338 
G01 X-4.0666 Y13.5783 
G01 X-4.0410 Y13.4168 
G01 X-4.0410 Y13.2532 
G01 X-4.0666 Y13.0917 
G01 X-4.1171 Y12.9362 
G01 X-4.1914 Y12.7904 
G01 X-4.2875 Y12.6581 
G01 X-4.4031 Y12.5425 
G01 X-4.5354 Y12.4464 
G01 X-4.6812 Y12.3721 
G01 X-4.8367 Y12.3216 
G01 X-4.9982 Y12.2960 
G01 X-5.1618 Y12.2960 
G01 X-5.3233 Y12.3216 
G01 X-5.4788 Y12.3721 
G01 X-5.6246 Y12.4464 
G01 X-5.7569 Y12.5425 
G01 X-5.8725 Y12.6581 
G01 X-5.9686 Y12.7904 
G01 X-6.0429 Y12.9362 
G01 X-6.0934 Y13.0917 
G01 X-6.1190 Y13.2532 
G00 Z2.5400 
G00 X-6.1190 Y10.7132 
G01 Z-0.1000 F40.00 
G01 X-6.1190 Y10.8768 F208.00 
G01 X-6.0934 Y11.0383 
G01 X-6.0429 Y11.1938 
G01 X-5.9686 Y11.3396 
G01 X-5.8725 Y11.4719 
G01 X-5.7569 Y11.5875 
G01 X-5.6246 Y11.6836 
G01 X-5.4788 Y11.7579 
G01 X-5.3233 Y11.8084 
G01 X-5.1618 Y11.8340 
G01 X-4.9982 Y11.8340 
G01 X-4.8367 Y11.8084 
G01 X-4.6812 Y11.7579 
G01 X-4.5354 Y11.6836 
G01 X-4.4031 Y11.5875 
G01 X-4.2875 Y11.4719 
G01 X-4.1914 Y11.3396 
G01 X-4.1171 Y11.1938 
G01 X-4.0666 Y11.0383 
G01 X-4.0410 Y10.8768 
G01 X-4.0410 Y10.7132 
G01 X-4.0666 Y10.5517 
G01 X-4.1171 Y10.3962 
G01 X-4.1914 Y10.2504 
G01 X-4.2875 Y10.1181 
G01 X-4.4031 Y10.0025 
G01 X-4.5354 Y9.9064 
G01 X-4.6812 Y9.8321 
G01 X-4.8367 Y9.7816 
G01 X-4.9982 Y9.7560 
G01 X-5.1618 Y9.7560 
G01 X-5.3233 Y9.7816 
G01 X-5.4788 Y9.8321 
G01 X-5.6246 Y9.9064 
G01 X-5.7569 Y10.0025 
G01 X-5.8725 Y10.1181 
G01 X-5.9686 Y10.2504 
G01 X-6.0429 Y10.3962 
G01 X-6.0934 Y10.5517 
G01 X-6.1190 Y10.7132 
G00 Z2.5400 
G00 X-6.1190 Y8.1732 
G01 Z-0.1000 F40.00 
G01 X-6.1190 Y8.3368 F208.00 
G01 X-6.0934 Y8.4983 
G01 X-6.0429 Y8.6538 
G01 X-5.9686 Y8.7996 
G01 X-5.8725 Y8.9319 
G01 X-5.7569 Y9.0475 
G01 X-5.6246 Y9.1436 
G01 X-5.4788 Y9.2179 
G01 X-5.3233 Y9.2684 
G01 X-5.1618 Y9.2940 
G01 X-4.9982 Y9.2940 
G01 X-4.8367 Y9.2684 
G01 X-4.6812 Y9.2179 
G01 X-4.5354 Y9.1436 
G01 X-4.4031 Y9.0475 
G01 X-4.2875 Y8.9319 
G01 X-4.1914 Y8.7996 
G01 X-4.1171 Y8.6538 
G01 X-4.0666 Y8.4983 
G01 X-4.0410 Y8.3368 
G01 X-4.0410 Y8.1732 
G01 X-4.0666 Y8.0117 
G01 X-4.1171 Y7.8562 
G01 X-4.1914 Y7.7104 
G01 X-4.2875 Y7.5781 
G01 X-4.4031 Y7.4625 
G01 X-4.5354 Y7.3664 
G01 X-4.6812 Y7.2921 
G01 X-4.8367 Y7.2416 
G01 X-4.9982 Y7.2160 
G01 X-5.1618 Y7.2160 
G01 X-5.3233 Y7.2416 
G01 X-5.4788 Y7.2921 
G01 X-5.6246 Y7.3664 
G01 X-5.7569 Y7.4625 
G01 X-5.8725 Y7.5781 
G01 X-5.9686 Y7.7104 
G01 X-6.0429 Y7.8562 
G01 X-6.0934 Y8.0117 
G01 X-6.1190 Y8.1732 
G00 Z2.5400 
G00 X-6.1190 Y5.6332 
G01 Z-0.1000 F40.00 
G01 X-6.1190 Y5.7968 F208.00 
G01 X-6.0934 Y5.9583 
G01 X-6.0429 Y6.1138 
G01 X-5.9686 Y6.2596 
G01 X-5.8725 Y6.3919 
G01 X-5.7569 Y6.5075 
G01 X-5.6246 Y6.6036 
G01 X-5.4788 Y6.6779 
G01 X-5.3233 Y6.7284 
G01 X-5.1618 Y6.7540 
G01 X-4.9982 Y6.7540 
G01 X-4.8367 Y6.7284 
G01 X-4.6812 Y6.6779 
G01 X-4.5354 Y6.6036 
G01 X-4.4031 Y6.5075 
G01 X-4.2875 Y6.3919 
G01 X-4.1914 Y6.2596 
G01 X-4.1171 Y6.1138 
G01 X-4.0666 Y5.9583 
G01 X-4.0410 Y5.7968 
G01 X-4.0410 Y5.6332 
G01 X-4.0666 Y5.4717 
G01 X-4.1171 Y5.3162 
G01 X-4.1914 Y5.1704 
G01 X-4.2875 Y5.0381 
G01 X-4.4031 Y4.9225 
G01 X-4.5354 Y4.8264 
G01 X-4.6812 Y4.7521 
G01 X-4.8367 Y4.7016 
G01 X-4.9982 Y4.6760 
G01 X-5.1618 Y4.6760 
G01 X-5.3233 Y4.7016 
G01 X-5.4788 Y4.7521 
G01 X-5.6246 Y4.8264 
G01 X-5.7569 Y4.9225 
G01 X-5.8725 Y5.0381 
G01 X-5.9686 Y5.1704 
G01 X-6.0429 Y5.3162 
G01 X-6.0934 Y5.4717 
G01 X-6.1190 Y5.6332 
G00 Z2.5400 
G00 X-6.1190 Y3.0932 
G01 Z-0.1000 F40.00 
G01 X-6.1190 Y3.2568 F208.00 
G01 X-6.0934 Y3.4183 
G01 X-6.0429 Y3.5738 
G01 X-5.9686 Y3.7196 
G01 X-5.8725 Y3.8519 
G01 X-5.7569 Y3.9675 
G01 X-5.6246 Y4.0636 
G01 X-5.4788 Y4.1379 
G01 X-5.3233 Y4.1884 
G01 X-5.1618 Y4.2140 
G01 X-4.9982 Y4.2140 
G01 X-4.8367 Y4.1884 
G01 X-4.6812 Y4.1379 
G01 X-4.5354 Y4.0636 
G01 X-4.4031 Y3.9675 
G01 X-4.2875 Y3.8519 
G01 X-4.1914 Y3.7196 
G01 X-4.1171 Y3.5738 
G01 X-4.0666 Y3.4183 
G01 X-4.0410 Y3.2568 
G01 X-4.0410 Y3.0932 
G01 X-4.0666 Y2.9317 
G01 X-4.1171 Y2.7762 
G01 X-4.1914 Y2.6304 
G01 X-4.2875 Y2.4981 
G01 X-4.4031 Y2.3825 
G01 X-4.5354 Y2.2864 
G01 X-4.6812 Y2.2121 
G01 X-4.8367 Y2.1616 
G01 X-4.9982 Y2.1360 
G01 X-5.1618 Y2.1360 
G01 X-5.3233 Y2.1616 
G01 X-5.4788 Y2.2121 
G01 X-5.6246 Y2.2864 
G01 X-5.7569 Y2.3825 
G01 X-5.8725 Y2.4981 
G01 X-5.9686 Y2.6304 
G01 X-6.0429 Y2.7762 
G01 X-6.0934 Y2.9317 
G01 X-6.1190 Y3.0932 
G00 Z2.5400 
G00 X-28.9790 Y20.8732 
G01 Z-0.1000 F40.00 
G01 X-28.9790 Y21.0368 F208.00 
G01 X-28.9534 Y21.1983 
G01 X-28.9029 Y21.3538 
G01 X-28.8286 Y21.4996 
G01 X-28.7325 Y21.6319 
G01 X-28.6169 Y21.7475 
G01 X-28.5806 Y21.7738 
G01 X-28.5806 Y29.3289 
G01 X-28.5540 Y29.4625 
G01 X-28.5019 Y29.5883 
G01 X-28.4262 Y29.7015 
G01 X-27.0024 Y31.1254 
G01 X-27.0575 Y31.2013 
G01 X-27.1323 Y31.3481 
G01 X-27.1832 Y31.5048 
G01 X-27.2090 Y31.6676 
G01 X-27.2090 Y31.8324 
G01 X-27.1832 Y31.9952 
G01 X-27.1323 Y32.1519 
G01 X-27.0575 Y32.2987 
G01 X-26.9606 Y32.4321 
G01 X-26.8441 Y32.5486 
G01 X-26.7107 Y32.6455 
G01 X-26.5639 Y32.7203 
G01 X-26.4072 Y32.7712 
G01 X-26.2444 Y32.7970 
G01 X-24.5556 Y32.7970 
G01 X-24.3928 Y32.7712 
G01 X-24.2361 Y32.7203 
G01 X-24.0892 Y32.6455 
G01 X-23.9559 Y32.5486 
G01 X-23.8394 Y32.4321 
G01 X-23.7425 Y32.2987 
G01 X-23.6677 Y32.1519 
G01 X-23.6168 Y31.9952 
G01 X-23.5910 Y31.8324 
G01 X-23.5910 Y31.6676 
G01 X-23.6168 Y31.5048 
G01 X-23.6677 Y31.3481 
G01 X-23.7425 Y31.2013 
G01 X-23.8394 Y31.0679 
G01 X-23.9559 Y30.9514 
G01 X-24.0892 Y30.8545 
G01 X-24.2361 Y30.7797 
G01 X-24.3928 Y30.7288 
G01 X-24.5556 Y30.7030 
G01 X-25.4692 Y30.7030 
G01 X-27.1978 Y28.9744 
G01 X-27.1978 Y21.6822 
G01 X-27.1475 Y21.6319 
G01 X-27.0514 Y21.4996 
G01 X-26.9771 Y21.3538 
G01 X-26.9266 Y21.1983 
G01 X-26.9010 Y21.0368 
G01 X-26.9010 Y20.8732 
G01 X-26.9266 Y20.7117 
G01 X-26.9771 Y20.5562 
G01 X-27.0514 Y20.4104 
G01 X-27.1475 Y20.2781 
G01 X-27.2631 Y20.1625 
G01 X-27.3954 Y20.0664 
G01 X-27.5412 Y19.9921 
G01 X-27.6967 Y19.9416 
G01 X-27.8582 Y19.9160 
G01 X-28.0218 Y19.9160 
G01 X-28.1833 Y19.9416 
G01 X-28.3388 Y19.9921 
G01 X-28.4846 Y20.0664 
G01 X-28.6169 Y20.1625 
G01 X-28.7325 Y20.2781 
G01 X-28.8286 Y20.4104 
G01 X-28.9029 Y20.5562 
G01 X-28.9534 Y20.7117 
G01 X-28.9790 Y20.8732 
G00 Z2.5400 
G00 X-6.1190 Y20.8732 
G01 Z-0.1000 F40.00 
G01 X-6.1190 Y21.0368 F208.00 
G01 X-6.0934 Y21.1983 
G01 X-6.0429 Y21.3538 
G01 X-5.9686 Y21.4996 
G01 X-5.8725 Y21.6319 
G01 X-5.7569 Y21.7475 
G01 X-5.6246 Y21.8436 
G01 X-5.4788 Y21.9179 
G01 X-5.3233 Y21.9684 
G01 X-5.1618 Y21.9940 
G01 X-4.9982 Y21.9940 
G01 X-4.8367 Y21.9684 
G01 X-4.6812 Y21.9179 
G01 X-4.5354 Y21.8436 
G01 X-4.4031 Y21.7475 
G01 X-4.2875 Y21.6319 
G01 X-4.1914 Y21.4996 
G01 X-4.1171 Y21.3538 
G01 X-4.0666 Y21.1983 
G01 X-4.0410 Y21.0368 
G01 X-4.0410 Y20.8732 
G01 X-4.0666 Y20.7117 
G01 X-4.1171 Y20.5562 
G01 X-4.1914 Y20.4104 
G01 X-4.2875 Y20.2781 
G01 X-4.4031 Y20.1625 
G01 X-4.5354 Y20.0664 
G01 X-4.6812 Y19.9921 
G01 X-4.8367 Y19.9416 
G01 X-4.9982 Y19.9160 
G01 X-5.1618 Y19.9160 
G01 X-5.3233 Y19.9416 
G01 X-5.4788 Y19.9921 
G01 X-5.6246 Y20.0664 
G01 X-5.7569 Y20.1625 
G01 X-5.8725 Y20.2781 
G01 X-5.9686 Y20.4104 
G01 X-6.0429 Y20.5562 
G01 X-6.0934 Y20.7117 
G01 X-6.1190 Y20.8732 
G00 Z2.5400 
G00 X-4.4275 Y56.2500 
G01 Z-0.1000 F40.00 
G01 X-7.0025 Y56.2500 F208.00 
G01 X-7.0750 Y56.2694 
G01 X-7.1400 Y56.3069 
G01 X-7.1931 Y56.3600 
G01 X-7.2306 Y56.4250 
G01 X-7.2500 Y56.4975 
G01 X-7.2500 Y57.0682 
G01 X-11.3976 Y57.0682 
G01 X-16.8821 Y51.5838 
G01 X-16.9953 Y51.5081 
G01 X-17.1211 Y51.4560 
G01 X-17.2547 Y51.4294 
G01 X-23.1045 Y51.4294 
G01 X-23.1089 Y51.4100 
G01 X-23.1972 Y51.1576 
G01 X-23.3132 Y50.9167 
G01 X-23.4555 Y50.6903 
G01 X-23.6222 Y50.4813 
G01 X-23.8113 Y50.2922 
G01 X-24.0203 Y50.1255 
G01 X-24.2467 Y49.9832 
G01 X-24.4876 Y49.8672 
G01 X-24.7400 Y49.7789 
G01 X-25.0006 Y49.7194 
G01 X-25.2663 Y49.6895 
G01 X-25.5337 Y49.6895 
G01 X-25.7994 Y49.7194 
G01 X-26.0600 Y49.7789 
G01 X-26.3124 Y49.8672 
G01 X-26.5533 Y49.9832 
G01 X-26.7797 Y50.1255 
G01 X-26.9887 Y50.2922 
G01 X-27.1778 Y50.4813 
G01 X-27.3445 Y50.6903 
G01 X-27.4868 Y50.9167 
G01 X-27.6028 Y51.1576 
G01 X-27.6911 Y51.4100 
G01 X-27.7506 Y51.6706 
G01 X-27.7805 Y51.9363 
G01 X-27.7805 Y52.2037 
G01 X-27.7506 Y52.4694 
G01 X-27.6911 Y52.7300 
G01 X-27.6028 Y52.9824 
G01 X-27.4868 Y53.2233 
G01 X-27.3445 Y53.4497 
G01 X-27.1778 Y53.6587 
G01 X-26.9887 Y53.8478 
G01 X-26.7797 Y54.0145 
G01 X-26.5533 Y54.1568 
G01 X-26.3124 Y54.2728 
G01 X-26.0600 Y54.3611 
G01 X-25.7994 Y54.4206 
G01 X-25.5337 Y54.4505 
G01 X-25.2663 Y54.4505 
G01 X-25.0006 Y54.4206 
G01 X-24.7400 Y54.3611 
G01 X-24.4876 Y54.2728 
G01 X-24.2467 Y54.1568 
G01 X-24.0203 Y54.0145 
G01 X-23.8113 Y53.8478 
G01 X-23.6222 Y53.6587 
G01 X-23.4555 Y53.4497 
G01 X-23.3132 Y53.2233 
G01 X-23.1972 Y52.9824 
G01 X-23.1377 Y52.8122 
G01 X-17.6092 Y52.8122 
G01 X-12.1247 Y58.2966 
G01 X-12.0115 Y58.3723 
G01 X-11.8857 Y58.4244 
G01 X-11.7521 Y58.4510 
G01 X-7.2500 Y58.4510 
G01 X-7.2500 Y59.0725 
G01 X-7.2306 Y59.1450 
G01 X-7.1931 Y59.2100 
G01 X-7.1400 Y59.2631 
G01 X-7.0750 Y59.3006 
G01 X-7.0025 Y59.3200 
G01 X-4.4275 Y59.3200 
G01 X-4.3550 Y59.3006 
G01 X-4.2900 Y59.2631 
G01 X-4.2369 Y59.2100 
G01 X-4.1994 Y59.1450 
G01 X-4.1800 Y59.0725 
G01 X-4.1800 Y56.4975 
G01 X-4.1994 Y56.4250 
G01 X-4.2369 Y56.3600 
G01 X-4.2900 Y56.3069 
G01 X-4.3550 Y56.2694 
G01 X-4.4275 Y56.2500 
G00 Z2.5400 
G00 X-18.3975 Y33.3900 
G01 Z-0.1000 F40.00 
G01 X-20.9725 Y33.3900 F208.00 
G01 X-21.0450 Y33.4094 
G01 X-21.1100 Y33.4469 
G01 X-21.1631 Y33.5000 
G01 X-21.2006 Y33.5650 
G01 X-21.2200 Y33.6375 
G01 X-21.2200 Y35.4822 
G01 X-21.7748 Y36.0370 
G01 X-23.9503 Y36.0370 
G01 X-23.9559 Y36.0314 
G01 X-24.0892 Y35.9345 
G01 X-24.2361 Y35.8597 
G01 X-24.3928 Y35.8088 
G01 X-24.5556 Y35.7830 
G01 X-26.2444 Y35.7830 
G01 X-26.4072 Y35.8088 
G01 X-26.5639 Y35.8597 
G01 X-26.7107 Y35.9345 
G01 X-26.8441 Y36.0314 
G01 X-26.9606 Y36.1479 
G01 X-27.0575 Y36.2813 
G01 X-27.1323 Y36.4281 
G01 X-27.1832 Y36.5848 
G01 X-27.2090 Y36.7476 
G01 X-27.2090 Y36.9124 
G01 X-27.1832 Y37.0752 
G01 X-27.1323 Y37.2319 
G01 X-27.0575 Y37.3787 
G01 X-26.9606 Y37.5121 
G01 X-26.8441 Y37.6286 
G01 X-26.7107 Y37.7255 
G01 X-26.5639 Y37.8003 
G01 X-26.4072 Y37.8512 
G01 X-26.2444 Y37.8770 
G01 X-24.5556 Y37.8770 
G01 X-24.3928 Y37.8512 
G01 X-24.2361 Y37.8003 
G01 X-24.0892 Y37.7255 
G01 X-23.9559 Y37.6286 
G01 X-23.8394 Y37.5121 
G01 X-23.7724 Y37.4198 
G01 X-21.4203 Y37.4198 
G01 X-21.2867 Y37.3932 
G01 X-21.1609 Y37.3411 
G01 X-21.0477 Y37.2654 
G01 X-20.2422 Y36.4600 
G01 X-19.3022 Y36.4600 
G01 X-23.4235 Y40.5813 
G01 X-23.4555 Y40.5303 
G01 X-23.6222 Y40.3213 
G01 X-23.8113 Y40.1322 
G01 X-24.0203 Y39.9655 
G01 X-24.2467 Y39.8232 
G01 X-24.4876 Y39.7072 
G01 X-24.7400 Y39.6189 
G01 X-25.0006 Y39.5594 
G01 X-25.2663 Y39.5295 
G01 X-25.5337 Y39.5295 
G01 X-25.7994 Y39.5594 
G01 X-26.0600 Y39.6189 
G01 X-26.3124 Y39.7072 
G01 X-26.5533 Y39.8232 
G01 X-26.7797 Y39.9655 
G01 X-26.9887 Y40.1322 
G01 X-27.1778 Y40.3213 
G01 X-27.3445 Y40.5303 
G01 X-27.4868 Y40.7567 
G01 X-27.6028 Y40.9976 
G01 X-27.6911 Y41.2500 
G01 X-27.7506 Y41.5106 
G01 X-27.7805 Y41.7763 
G01 X-27.7805 Y42.0437 
G01 X-27.7506 Y42.3094 
G01 X-27.6911 Y42.5700 
G01 X-27.6028 Y42.8224 
G01 X-27.4868 Y43.0633 
G01 X-27.3445 Y43.2897 
G01 X-27.1778 Y43.4987 
G01 X-26.9887 Y43.6878 
G01 X-26.7797 Y43.8545 
G01 X-26.5533 Y43.9967 
G01 X-26.3124 Y44.1128 
G01 X-26.0600 Y44.2011 
G01 X-25.7994 Y44.2606 
G01 X-25.5337 Y44.2905 
G01 X-25.2663 Y44.2905 
G01 X-25.0006 Y44.2606 
G01 X-24.7400 Y44.2011 
G01 X-24.4876 Y44.1128 
G01 X-24.2467 Y43.9967 
G01 X-24.0203 Y43.8545 
G01 X-23.8113 Y43.6878 
G01 X-23.6222 Y43.4987 
G01 X-23.4555 Y43.2897 
G01 X-23.3132 Y43.0633 
G01 X-23.1972 Y42.8224 
G01 X-23.1089 Y42.5700 
G01 X-23.0494 Y42.3094 
G01 X-23.0308 Y42.1442 
G01 X-17.3466 Y36.4600 
G01 X-15.2225 Y36.4600 
G01 X-15.1500 Y36.4406 
G01 X-15.0850 Y36.4031 
G01 X-15.0319 Y36.3500 
G01 X-14.9944 Y36.2850 
G01 X-14.9750 Y36.2125 
G01 X-14.9750 Y33.6375 
G01 X-14.9944 Y33.5650 
G01 X-15.0319 Y33.5000 
G01 X-15.0850 Y33.4469 
G01 X-15.1500 Y33.4094 
G01 X-15.2225 Y33.3900 
G01 X-17.7975 Y33.3900 
G01 X-17.8700 Y33.4094 
G01 X-17.9350 Y33.4469 
G01 X-17.9881 Y33.5000 
G01 X-18.0256 Y33.5650 
G01 X-18.0450 Y33.6375 
G01 X-18.0450 Y35.2028 
G01 X-18.1500 Y35.3078 
G01 X-18.1500 Y33.6375 
G01 X-18.1694 Y33.5650 
G01 X-18.2069 Y33.5000 
G01 X-18.2600 Y33.4469 
G01 X-18.3250 Y33.4094 
G01 X-18.3975 Y33.3900 
G00 Z2.5400 
G00 X-7.5893 Y33.2900 
G01 Z-0.1000 F40.00 
G01 X-10.1907 Y33.2900 F208.00 
G01 X-10.2886 Y33.3162 
G01 X-10.3764 Y33.3669 
G01 X-10.4481 Y33.4386 
G01 X-10.4988 Y33.5264 
G01 X-10.5250 Y33.6243 
G01 X-10.5250 Y36.1266 
G01 X-20.5970 Y46.1986 
G01 X-23.0490 Y46.1986 
G01 X-23.1047 Y46.0393 
G01 X-23.2256 Y45.7882 
G01 X-23.3738 Y45.5523 
G01 X-23.5475 Y45.3345 
G01 X-23.7445 Y45.1375 
G01 X-23.9623 Y44.9638 
G01 X-24.1982 Y44.8156 
G01 X-24.4493 Y44.6947 
G01 X-24.7122 Y44.6027 
G01 X-24.9838 Y44.5407 
G01 X-25.2607 Y44.5095 
G01 X-25.5393 Y44.5095 
G01 X-25.8162 Y44.5407 
G01 X-26.0878 Y44.6027 
G01 X-26.3507 Y44.6947 
G01 X-26.6018 Y44.8156 
G01 X-26.8377 Y44.9638 
G01 X-27.0555 Y45.1375 
G01 X-27.2525 Y45.3345 
G01 X-27.4262 Y45.5523 
G01 X-27.5744 Y45.7882 
G01 X-27.6953 Y46.0393 
G01 X-27.7873 Y46.3022 
G01 X-27.8493 Y46.5738 
G01 X-27.8805 Y46.8507 
G01 X-27.8805 Y47.1293 
G01 X-27.8493 Y47.4062 
G01 X-27.7873 Y47.6778 
G01 X-27.6953 Y47.9407 
G01 X-27.5744 Y48.1918 
G01 X-27.4262 Y48.4277 
G01 X-27.2525 Y48.6455 
G01 X-27.0555 Y48.8425 
G01 X-26.8377 Y49.0162 
G01 X-26.6018 Y49.1644 
G01 X-26.3507 Y49.2853 
G01 X-26.0878 Y49.3773 
G01 X-25.8162 Y49.4393 
G01 X-25.5393 Y49.4705 
G01 X-25.2607 Y49.4705 
G01 X-24.9838 Y49.4393 
G01 X-24.7122 Y49.3773 
G01 X-24.4493 Y49.2853 
G01 X-24.1982 Y49.1644 
G01 X-23.9623 Y49.0162 
G01 X-23.7445 Y48.8425 
G01 X-23.5475 Y48.6455 
G01 X-23.3738 Y48.4277 
G01 X-23.2256 Y48.1918 
G01 X-23.1047 Y47.9407 
G01 X-23.0490 Y47.7814 
G01 X-20.2421 Y47.7814 
G01 X-20.0892 Y47.7510 
G01 X-19.9451 Y47.6913 
G01 X-19.9108 Y47.6684 
G01 X-19.8435 Y47.6405 
G01 X-19.7139 Y47.5539 
G01 X-8.7200 Y36.5600 
G01 X-7.5893 Y36.5600 
G01 X-7.4914 Y36.5338 
G01 X-7.4036 Y36.4831 
G01 X-7.3319 Y36.4114 
G01 X-7.3025 Y36.3604 
G01 X-7.2731 Y36.4114 
G01 X-7.2014 Y36.4831 
G01 X-7.1136 Y36.5338 
G01 X-7.0157 Y36.5600 
G01 X-4.4143 Y36.5600 
G01 X-4.3164 Y36.5338 
G01 X-4.2286 Y36.4831 
G01 X-4.1569 Y36.4114 
G01 X-4.1062 Y36.3236 
G01 X-4.0800 Y36.2257 
G01 X-4.0800 Y33.6243 
G01 X-4.1062 Y33.5264 
G01 X-4.1569 Y33.4386 
G01 X-4.2286 Y33.3669 
G01 X-4.3164 Y33.3162 
G01 X-4.4143 Y33.2900 
G01 X-5.0410 Y33.2900 
G01 X-5.1003 Y33.2013 
G01 X-5.2105 Y33.0911 
G01 X-6.5238 Y31.7778 
G01 X-6.5238 Y30.7577 
G01 X-6.5542 Y30.6048 
G01 X-6.6139 Y30.4607 
G01 X-6.7005 Y30.3311 
G01 X-6.8107 Y30.2209 
G01 X-6.9403 Y30.1343 
G01 X-7.0844 Y30.0746 
G01 X-7.2373 Y30.0442 
G01 X-7.7938 Y30.0442 
G01 X-7.7938 Y19.4794 
G01 X-7.5208 Y19.2064 
G01 X-5.8994 Y19.2064 
G01 X-5.8220 Y19.2838 
G01 X-5.6770 Y19.3892 
G01 X-5.5172 Y19.4705 
G01 X-5.3467 Y19.5260 
G01 X-5.1696 Y19.5540 
G01 X-4.9904 Y19.5540 
G01 X-4.8133 Y19.5260 
G01 X-4.6428 Y19.4705 
G01 X-4.4830 Y19.3892 
G01 X-4.3380 Y19.2838 
G01 X-4.2112 Y19.1570 
G01 X-4.1058 Y19.0120 
G01 X-4.0244 Y18.8522 
G01 X-3.9690 Y18.6817 
G01 X-3.9410 Y18.5046 
G01 X-3.9410 Y18.3254 
G01 X-3.9690 Y18.1483 
G01 X-4.0244 Y17.9778 
G01 X-4.1058 Y17.8180 
G01 X-4.2112 Y17.6730 
G01 X-4.3380 Y17.5462 
G01 X-4.4830 Y17.4408 
G01 X-4.6428 Y17.3594 
G01 X-4.8133 Y17.3040 
G01 X-4.9904 Y17.2760 
G01 X-5.1696 Y17.2760 
G01 X-5.3467 Y17.3040 
G01 X-5.5172 Y17.3594 
G01 X-5.5388 Y17.3704 
G01 X-13.1786 Y9.7306 
G01 X-13.1786 Y9.2127 
G01 X-13.0951 Y9.1292 
G01 X-12.9890 Y8.9832 
G01 X-12.9070 Y8.8223 
G01 X-12.8512 Y8.6506 
G01 X-12.8230 Y8.4723 
G01 X-12.8230 Y6.7677 
G01 X-12.8512 Y6.5894 
G01 X-12.9070 Y6.4177 
G01 X-12.9890 Y6.2568 
G01 X-13.0951 Y6.1108 
G01 X-13.2228 Y5.9831 
G01 X-13.3688 Y5.8770 
G01 X-13.5297 Y5.7950 
G01 X-13.7014 Y5.7392 
G01 X-13.8797 Y5.7110 
G01 X-14.0603 Y5.7110 
G01 X-14.2386 Y5.7392 
G01 X-14.4103 Y5.7950 
G01 X-14.5712 Y5.8770 
G01 X-14.7172 Y5.9831 
G01 X-14.8449 Y6.1108 
G01 X-14.9510 Y6.2568 
G01 X-15.0330 Y6.4177 
G01 X-15.0888 Y6.5894 
G01 X-15.1170 Y6.7677 
G01 X-15.1170 Y8.4723 
G01 X-15.0888 Y8.6506 
G01 X-15.0330 Y8.8223 
G01 X-14.9510 Y8.9832 
G01 X-14.8449 Y9.1292 
G01 X-14.7614 Y9.2127 
G01 X-14.7614 Y10.1363 
G01 X-14.7310 Y10.2892 
G01 X-14.6713 Y10.4333 
G01 X-14.5847 Y10.5629 
G01 X-7.5240 Y17.6236 
G01 X-7.9265 Y17.6236 
G01 X-8.0794 Y17.6540 
G01 X-8.2235 Y17.7137 
G01 X-8.3531 Y17.8003 
G01 X-8.4633 Y17.9105 
G01 X-9.0897 Y18.5369 
G01 X-9.1999 Y18.6471 
G01 X-9.2865 Y18.7767 
G01 X-9.3462 Y18.9208 
G01 X-9.3766 Y19.0737 
G01 X-9.3766 Y30.0442 
G01 X-21.1091 Y30.0442 
G01 X-21.2620 Y30.0746 
G01 X-21.4061 Y30.1343 
G01 X-21.5357 Y30.2209 
G01 X-21.6459 Y30.3311 
G01 X-23.6477 Y32.3329 
G01 X-23.5750 Y32.1903 
G01 X-23.5192 Y32.0186 
G01 X-23.4910 Y31.8403 
G01 X-23.4910 Y31.6597 
G01 X-23.5192 Y31.4814 
G01 X-23.5750 Y31.3097 
G01 X-23.6570 Y31.1488 
G01 X-23.7631 Y31.0028 
G01 X-23.8908 Y30.8751 
G01 X-24.0368 Y30.7690 
G01 X-24.1977 Y30.6870 
G01 X-24.3694 Y30.6312 
G01 X-24.5477 Y30.6030 
G01 X-25.4278 Y30.6030 
G01 X-27.0978 Y28.9330 
G01 X-27.0978 Y21.7236 
G01 X-27.0712 Y21.6970 
G01 X-26.9658 Y21.5520 
G01 X-26.8844 Y21.3922 
G01 X-26.8290 Y21.2217 
G01 X-26.8010 Y21.0446 
G01 X-26.8010 Y20.8654 
G01 X-26.8290 Y20.6883 
G01 X-26.8844 Y20.5178 
G01 X-26.9658 Y20.3580 
G01 X-27.0712 Y20.2130 
G01 X-27.1980 Y20.0862 
G01 X-27.3430 Y19.9808 
G01 X-27.5028 Y19.8994 
G01 X-27.6733 Y19.8440 
G01 X-27.8504 Y19.8160 
G01 X-28.0296 Y19.8160 
G01 X-28.2067 Y19.8440 
G01 X-28.3772 Y19.8994 
G01 X-28.5370 Y19.9808 
G01 X-28.6820 Y20.0862 
G01 X-28.8088 Y20.2130 
G01 X-28.9142 Y20.3580 
G01 X-28.9956 Y20.5178 
G01 X-29.0510 Y20.6883 
G01 X-29.0790 Y20.8654 
G01 X-29.0790 Y21.0446 
G01 X-29.0510 Y21.2217 
G01 X-28.9956 Y21.3922 
G01 X-28.9142 Y21.5520 
G01 X-28.8088 Y21.6970 
G01 X-28.6820 Y21.8238 
G01 X-28.6806 Y29.3387 
G01 X-28.6502 Y29.4916 
G01 X-28.5905 Y29.6357 
G01 X-28.5039 Y29.7653 
G01 X-27.1335 Y31.1357 
G01 X-27.1430 Y31.1488 
G01 X-27.2250 Y31.3097 
G01 X-27.2808 Y31.4814 
G01 X-27.3090 Y31.6597 
G01 X-27.3090 Y31.8403 
G01 X-27.2808 Y32.0186 
G01 X-27.2250 Y32.1903 
G01 X-27.1430 Y32.3512 
G01 X-27.0369 Y32.4972 
G01 X-26.9092 Y32.6249 
G01 X-26.7632 Y32.7310 
G01 X-26.6023 Y32.8130 
G01 X-26.4306 Y32.8688 
G01 X-26.2523 Y32.8970 
G01 X-24.5477 Y32.8970 
G01 X-24.3694 Y32.8688 
G01 X-24.1977 Y32.8130 
G01 X-24.0551 Y32.7403 
G01 X-24.4701 Y33.1553 
G01 X-24.5477 Y33.1430 
G01 X-26.2523 Y33.1430 
G01 X-26.4306 Y33.1712 
G01 X-26.6023 Y33.2270 
G01 X-26.7632 Y33.3090 
G01 X-26.9092 Y33.4151 
G01 X-27.0369 Y33.5428 
G01 X-27.1430 Y33.6888 
G01 X-27.2250 Y33.8497 
G01 X-27.2808 Y34.0214 
G01 X-27.3090 Y34.1997 
G01 X-27.3090 Y34.3803 
G01 X-27.2808 Y34.5586 
G01 X-27.2250 Y34.7303 
G01 X-27.1430 Y34.8912 
G01 X-27.0369 Y35.0372 
G01 X-26.9092 Y35.1649 
G01 X-26.7632 Y35.2710 
G01 X-26.6023 Y35.3530 
G01 X-26.4306 Y35.4088 
G01 X-26.2523 Y35.4370 
G01 X-24.5477 Y35.4370 
G01 X-24.3694 Y35.4088 
G01 X-24.1977 Y35.3530 
G01 X-24.0368 Y35.2710 
G01 X-23.8908 Y35.1649 
G01 X-23.7631 Y35.0372 
G01 X-23.6570 Y34.8912 
G01 X-23.5750 Y34.7303 
G01 X-23.5192 Y34.5586 
G01 X-23.4975 Y34.4211 
G01 X-20.7034 Y31.6270 
G01 X-8.1066 Y31.6270 
G01 X-8.1066 Y32.1835 
G01 X-8.0762 Y32.3364 
G01 X-8.0165 Y32.4805 
G01 X-7.9299 Y32.6101 
G01 X-7.8197 Y32.7203 
G01 X-7.1834 Y33.3566 
G01 X-7.2014 Y33.3669 
G01 X-7.2731 Y33.4386 
G01 X-7.3025 Y33.4896 
G01 X-7.3319 Y33.4386 
G01 X-7.4036 Y33.3669 
G01 X-7.4914 Y33.3162 
G01 X-7.5893 Y33.2900 
G00 Z2.5400 
G00 X-18.3843 Y56.1500 
G01 Z-0.1000 F40.00 
G01 X-20.9857 Y56.1500 F208.00 
G01 X-21.0836 Y56.1762 
G01 X-21.1714 Y56.2269 
G01 X-21.2431 Y56.2986 
G01 X-21.2938 Y56.3864 
G01 X-21.3200 Y56.4843 
G01 X-21.3200 Y56.9682 
G01 X-22.9243 Y56.9682 
G01 X-22.9507 Y56.7338 
G01 X-23.0127 Y56.4622 
G01 X-23.1047 Y56.1993 
G01 X-23.2256 Y55.9482 
G01 X-23.3738 Y55.7123 
G01 X-23.5475 Y55.4945 
G01 X-23.7445 Y55.2975 
G01 X-23.9623 Y55.1238 
G01 X-24.1982 Y54.9756 
G01 X-24.4493 Y54.8547 
G01 X-24.7122 Y54.7627 
G01 X-24.9838 Y54.7007 
G01 X-25.2607 Y54.6695 
G01 X-25.5393 Y54.6695 
G01 X-25.8162 Y54.7007 
G01 X-26.0878 Y54.7627 
G01 X-26.3507 Y54.8547 
G01 X-26.6018 Y54.9756 
G01 X-26.8377 Y55.1238 
G01 X-27.0555 Y55.2975 
G01 X-27.2525 Y55.4945 
G01 X-27.4262 Y55.7123 
G01 X-27.5744 Y55.9482 
G01 X-27.6953 Y56.1993 
G01 X-27.7873 Y56.4622 
G01 X-27.8493 Y56.7338 
G01 X-27.8805 Y57.0107 
G01 X-27.8805 Y57.2893 
G01 X-27.8493 Y57.5662 
G01 X-27.7873 Y57.8378 
G01 X-27.6953 Y58.1007 
G01 X-27.5744 Y58.3518 
G01 X-27.4262 Y58.5877 
G01 X-27.2525 Y58.8055 
G01 X-27.0555 Y59.0025 
G01 X-26.8377 Y59.1762 
G01 X-26.6018 Y59.3244 
G01 X-26.3507 Y59.4453 
G01 X-26.0878 Y59.5373 
G01 X-25.8162 Y59.5993 
G01 X-25.5393 Y59.6305 
G01 X-25.2607 Y59.6305 
G01 X-24.9838 Y59.5993 
G01 X-24.7122 Y59.5373 
G01 X-24.4493 Y59.4453 
G01 X-24.1982 Y59.3244 
G01 X-23.9623 Y59.1762 
G01 X-23.7445 Y59.0025 
G01 X-23.5475 Y58.8055 
G01 X-23.3738 Y58.5877 
G01 X-23.3508 Y58.5510 
G01 X-21.3200 Y58.5510 
G01 X-21.3200 Y59.0857 
G01 X-21.2938 Y59.1836 
G01 X-21.2431 Y59.2714 
G01 X-21.1714 Y59.3431 
G01 X-21.0836 Y59.3938 
G01 X-20.9857 Y59.4200 
G01 X-18.3843 Y59.4200 
G01 X-18.2864 Y59.3938 
G01 X-18.1986 Y59.3431 
G01 X-18.1269 Y59.2714 
G01 X-18.0762 Y59.1836 
G01 X-18.0500 Y59.0857 
G01 X-18.0500 Y56.4843 
G01 X-18.0762 Y56.3864 
G01 X-18.1269 Y56.2986 
G01 X-18.1986 Y56.2269 
G01 X-18.2864 Y56.1762 
G01 X-18.3843 Y56.1500 
G00 Z2.5400 
G00 X-6.2190 Y20.8654 
G01 Z-0.1000 F40.00 
G01 X-6.2190 Y21.0446 F208.00 
G01 X-6.1909 Y21.2217 
G01 X-6.1356 Y21.3922 
G01 X-6.0542 Y21.5520 
G01 X-5.9488 Y21.6970 
G01 X-5.8220 Y21.8238 
G01 X-5.6770 Y21.9292 
G01 X-5.5172 Y22.0106 
G01 X-5.3467 Y22.0660 
G01 X-5.1696 Y22.0940 
G01 X-4.9904 Y22.0940 
G01 X-4.8133 Y22.0660 
G01 X-4.6428 Y22.0106 
G01 X-4.4830 Y21.9292 
G01 X-4.3380 Y21.8238 
G01 X-4.2112 Y21.6970 
G01 X-4.1058 Y21.5520 
G01 X-4.0244 Y21.3922 
G01 X-3.9690 Y21.2217 
G01 X-3.9410 Y21.0446 
G01 X-3.9410 Y20.8654 
G01 X-3.9690 Y20.6883 
G01 X-4.0244 Y20.5178 
G01 X-4.1058 Y20.3580 
G01 X-4.2112 Y20.2130 
G01 X-4.3380 Y20.0862 
G01 X-4.4830 Y19.9808 
G01 X-4.6428 Y19.8994 
G01 X-4.8133 Y19.8440 
G01 X-4.9904 Y19.8160 
G01 X-5.1696 Y19.8160 
G01 X-5.3467 Y19.8440 
G01 X-5.5172 Y19.8994 
G01 X-5.6770 Y19.9808 
G01 X-5.8220 Y20.0862 
G01 X-5.9488 Y20.2130 
G01 X-6.0542 Y20.3580 
G01 X-6.1356 Y20.5178 
G01 X-6.1909 Y20.6883 
G01 X-6.2190 Y20.8654 
G00 Z2.5400 
G00 X-6.2190 Y3.0854 
G01 Z-0.1000 F40.00 
G01 X-6.2190 Y3.2646 F208.00 
G01 X-6.1909 Y3.4417 
G01 X-6.1356 Y3.6122 
G01 X-6.0542 Y3.7720 
G01 X-5.9488 Y3.9170 
G01 X-5.8220 Y4.0438 
G01 X-5.6770 Y4.1492 
G01 X-5.5172 Y4.2306 
G01 X-5.3467 Y4.2860 
G01 X-5.1696 Y4.3140 
G01 X-4.9904 Y4.3140 
G01 X-4.8133 Y4.2860 
G01 X-4.6428 Y4.2306 
G01 X-4.4830 Y4.1492 
G01 X-4.3380 Y4.0438 
G01 X-4.2112 Y3.9170 
G01 X-4.1058 Y3.7720 
G01 X-4.0244 Y3.6122 
G01 X-3.9690 Y3.4417 
G01 X-3.9410 Y3.2646 
G01 X-3.9410 Y3.0854 
G01 X-3.9690 Y2.9083 
G01 X-4.0244 Y2.7378 
G01 X-4.1058 Y2.5780 
G01 X-4.2112 Y2.4330 
G01 X-4.3380 Y2.3062 
G01 X-4.4830 Y2.2008 
G01 X-4.6428 Y2.1194 
G01 X-4.8133 Y2.0640 
G01 X-4.9904 Y2.0360 
G01 X-5.1696 Y2.0360 
G01 X-5.3467 Y2.0640 
G01 X-5.5172 Y2.1194 
G01 X-5.6770 Y2.2008 
G01 X-5.8220 Y2.3062 
G01 X-5.9488 Y2.4330 
G01 X-6.0542 Y2.5780 
G01 X-6.1356 Y2.7378 
G01 X-6.1909 Y2.9083 
G01 X-6.2190 Y3.0854 
G00 Z2.5400 
G00 X-6.2190 Y5.6254 
G01 Z-0.1000 F40.00 
G01 X-6.2190 Y5.8046 F208.00 
G01 X-6.1909 Y5.9817 
G01 X-6.1356 Y6.1522 
G01 X-6.0542 Y6.3120 
G01 X-5.9488 Y6.4570 
G01 X-5.8220 Y6.5838 
G01 X-5.6770 Y6.6892 
G01 X-5.5172 Y6.7706 
G01 X-5.3467 Y6.8260 
G01 X-5.1696 Y6.8540 
G01 X-4.9904 Y6.8540 
G01 X-4.8133 Y6.8260 
G01 X-4.6428 Y6.7706 
G01 X-4.4830 Y6.6892 
G01 X-4.3380 Y6.5838 
G01 X-4.2112 Y6.4570 
G01 X-4.1058 Y6.3120 
G01 X-4.0244 Y6.1522 
G01 X-3.9690 Y5.9817 
G01 X-3.9410 Y5.8046 
G01 X-3.9410 Y5.6254 
G01 X-3.9690 Y5.4483 
G01 X-4.0244 Y5.2778 
G01 X-4.1058 Y5.1180 
G01 X-4.2112 Y4.9730 
G01 X-4.3380 Y4.8462 
G01 X-4.4830 Y4.7408 
G01 X-4.6428 Y4.6594 
G01 X-4.8133 Y4.6040 
G01 X-4.9904 Y4.5760 
G01 X-5.1696 Y4.5760 
G01 X-5.3467 Y4.6040 
G01 X-5.5172 Y4.6594 
G01 X-5.6770 Y4.7408 
G01 X-5.8220 Y4.8462 
G01 X-5.9488 Y4.9730 
G01 X-6.0542 Y5.1180 
G01 X-6.1356 Y5.2778 
G01 X-6.1909 Y5.4483 
G01 X-6.2190 Y5.6254 
G00 Z2.5400 
G00 X-6.2190 Y8.1654 
G01 Z-0.1000 F40.00 
G01 X-6.2190 Y8.3446 F208.00 
G01 X-6.1909 Y8.5217 
G01 X-6.1356 Y8.6922 
G01 X-6.0542 Y8.8520 
G01 X-5.9488 Y8.9970 
G01 X-5.8220 Y9.1238 
G01 X-5.6770 Y9.2292 
G01 X-5.5172 Y9.3106 
G01 X-5.3467 Y9.3659 
G01 X-5.1696 Y9.3940 
G01 X-4.9904 Y9.3940 
G01 X-4.8133 Y9.3659 
G01 X-4.6428 Y9.3106 
G01 X-4.4830 Y9.2292 
G01 X-4.3380 Y9.1238 
G01 X-4.2112 Y8.9970 
G01 X-4.1058 Y8.8520 
G01 X-4.0244 Y8.6922 
G01 X-3.9690 Y8.5217 
G01 X-3.9410 Y8.3446 
G01 X-3.9410 Y8.1654 
G01 X-3.9690 Y7.9883 
G01 X-4.0244 Y7.8178 
G01 X-4.1058 Y7.6580 
G01 X-4.2112 Y7.5130 
G01 X-4.3380 Y7.3862 
G01 X-4.4830 Y7.2808 
G01 X-4.6428 Y7.1994 
G01 X-4.8133 Y7.1440 
G01 X-4.9904 Y7.1160 
G01 X-5.1696 Y7.1160 
G01 X-5.3467 Y7.1440 
G01 X-5.5172 Y7.1994 
G01 X-5.6770 Y7.2808 
G01 X-5.8220 Y7.3862 
G01 X-5.9488 Y7.5130 
G01 X-6.0542 Y7.6580 
G01 X-6.1356 Y7.8178 
G01 X-6.1909 Y7.9883 
G01 X-6.2190 Y8.1654 
G00 Z2.5400 
G00 X-6.2190 Y10.7054 
G01 Z-0.1000 F40.00 
G01 X-6.2190 Y10.8846 F208.00 
G01 X-6.1909 Y11.0617 
G01 X-6.1356 Y11.2322 
G01 X-6.0542 Y11.3920 
G01 X-5.9488 Y11.5370 
G01 X-5.8220 Y11.6638 
G01 X-5.6770 Y11.7692 
G01 X-5.5172 Y11.8506 
G01 X-5.3467 Y11.9060 
G01 X-5.1696 Y11.9340 
G01 X-4.9904 Y11.9340 
G01 X-4.8133 Y11.9060 
G01 X-4.6428 Y11.8506 
G01 X-4.4830 Y11.7692 
G01 X-4.3380 Y11.6638 
G01 X-4.2112 Y11.5370 
G01 X-4.1058 Y11.3920 
G01 X-4.0244 Y11.2322 
G01 X-3.9690 Y11.0617 
G01 X-3.9410 Y10.8846 
G01 X-3.9410 Y10.7054 
G01 X-3.9690 Y10.5283 
G01 X-4.0244 Y10.3578 
G01 X-4.1058 Y10.1980 
G01 X-4.2112 Y10.0530 
G01 X-4.3380 Y9.9262 
G01 X-4.4830 Y9.8208 
G01 X-4.6428 Y9.7394 
G01 X-4.8133 Y9.6840 
G01 X-4.9904 Y9.6560 
G01 X-5.1696 Y9.6560 
G01 X-5.3467 Y9.6840 
G01 X-5.5172 Y9.7394 
G01 X-5.6770 Y9.8208 
G01 X-5.8220 Y9.9262 
G01 X-5.9488 Y10.0530 
G01 X-6.0542 Y10.1980 
G01 X-6.1356 Y10.3578 
G01 X-6.1909 Y10.5283 
G01 X-6.2190 Y10.7054 
G00 Z2.5400 
G00 X-6.2190 Y13.2454 
G01 Z-0.1000 F40.00 
G01 X-6.2190 Y13.4246 F208.00 
G01 X-6.1909 Y13.6017 
G01 X-6.1356 Y13.7722 
G01 X-6.0542 Y13.9320 
G01 X-5.9488 Y14.0770 
G01 X-5.8220 Y14.2038 
G01 X-5.6770 Y14.3092 
G01 X-5.5172 Y14.3906 
G01 X-5.3467 Y14.4459 
G01 X-5.1696 Y14.4740 
G01 X-4.9904 Y14.4740 
G01 X-4.8133 Y14.4459 
G01 X-4.6428 Y14.3906 
G01 X-4.4830 Y14.3092 
G01 X-4.3380 Y14.2038 
G01 X-4.2112 Y14.0770 
G01 X-4.1058 Y13.9320 
G01 X-4.0244 Y13.7722 
G01 X-3.9690 Y13.6017 
G01 X-3.9410 Y13.4246 
G01 X-3.9410 Y13.2454 
G01 X-3.9690 Y13.0683 
G01 X-4.0244 Y12.8978 
G01 X-4.1058 Y12.7380 
G01 X-4.2112 Y12.5930 
G01 X-4.3380 Y12.4662 
G01 X-4.4830 Y12.3608 
G01 X-4.6428 Y12.2794 
G01 X-4.8133 Y12.2240 
G01 X-4.9904 Y12.1960 
G01 X-5.1696 Y12.1960 
G01 X-5.3467 Y12.2240 
G01 X-5.5172 Y12.2794 
G01 X-5.6770 Y12.3608 
G01 X-5.8220 Y12.4662 
G01 X-5.9488 Y12.5930 
G01 X-6.0542 Y12.7380 
G01 X-6.1356 Y12.8978 
G01 X-6.1909 Y13.0683 
G01 X-6.2190 Y13.2454 
G00 Z2.5400 
G00 X-6.2190 Y15.7854 
G01 Z-0.1000 F40.00 
G01 X-6.2190 Y15.9646 F208.00 
G01 X-6.1909 Y16.1417 
G01 X-6.1356 Y16.3122 
G01 X-6.0542 Y16.4720 
G01 X-5.9488 Y16.6170 
G01 X-5.8220 Y16.7438 
G01 X-5.6770 Y16.8492 
G01 X-5.5172 Y16.9306 
G01 X-5.3467 Y16.9860 
G01 X-5.1696 Y17.0140 
G01 X-4.9904 Y17.0140 
G01 X-4.8133 Y16.9860 
G01 X-4.6428 Y16.9306 
G01 X-4.4830 Y16.8492 
G01 X-4.3380 Y16.7438 
G01 X-4.2112 Y16.6170 
G01 X-4.1058 Y16.4720 
G01 X-4.0244 Y16.3122 
G01 X-3.9690 Y16.1417 
G01 X-3.9410 Y15.9646 
G01 X-3.9410 Y15.7854 
G01 X-3.9690 Y15.6083 
G01 X-4.0244 Y15.4378 
G01 X-4.1058 Y15.2780 
G01 X-4.2112 Y15.1330 
G01 X-4.3380 Y15.0062 
G01 X-4.4830 Y14.9008 
G01 X-4.6428 Y14.8194 
G01 X-4.8133 Y14.7640 
G01 X-4.9904 Y14.7360 
G01 X-5.1696 Y14.7360 
G01 X-5.3467 Y14.7640 
G01 X-5.5172 Y14.8194 
G01 X-5.6770 Y14.9008 
G01 X-5.8220 Y15.0062 
G01 X-5.9488 Y15.1330 
G01 X-6.0542 Y15.2780 
G01 X-6.1356 Y15.4378 
G01 X-6.1909 Y15.6083 
G01 X-6.2190 Y15.7854 
G00 Z2.5400 
G00 X-28.6820 Y9.1238 
G01 Z-0.1000 F40.00 
G01 X-28.5370 Y9.2292 F208.00 
G01 X-28.3772 Y9.3106 
G01 X-28.2067 Y9.3659 
G01 X-28.0296 Y9.3940 
G01 X-27.8504 Y9.3940 
G01 X-27.6733 Y9.3659 
G01 X-27.5028 Y9.3106 
G01 X-27.3430 Y9.2292 
G01 X-27.1980 Y9.1238 
G01 X-27.0712 Y8.9970 
G01 X-26.9658 Y8.8520 
G01 X-26.8844 Y8.6922 
G01 X-26.8290 Y8.5217 
G01 X-26.8010 Y8.3446 
G01 X-26.8010 Y8.1654 
G01 X-26.8290 Y7.9883 
G01 X-26.8844 Y7.8178 
G01 X-26.9658 Y7.6580 
G01 X-27.0712 Y7.5130 
G01 X-27.1980 Y7.3862 
G01 X-27.3430 Y7.2808 
G01 X-27.5028 Y7.1994 
G01 X-27.6733 Y7.1440 
G01 X-27.8504 Y7.1160 
G01 X-28.0296 Y7.1160 
G01 X-28.2067 Y7.1440 
G01 X-28.3772 Y7.1994 
G01 X-28.5370 Y7.2808 
G01 X-28.6820 Y7.3862 
G01 X-28.7594 Y7.4636 
G01 X-28.8062 Y7.4636 
G01 X-28.9776 Y7.2922 
G01 X-28.9776 Y6.1874 
G01 X-28.9142 Y6.3120 
G01 X-28.8088 Y6.4570 
G01 X-28.6820 Y6.5838 
G01 X-28.5370 Y6.6892 
G01 X-28.3772 Y6.7706 
G01 X-28.2067 Y6.8260 
G01 X-28.0296 Y6.8540 
G01 X-27.8504 Y6.8540 
G01 X-27.6733 Y6.8260 
G01 X-27.5028 Y6.7706 
G01 X-27.3430 Y6.6892 
G01 X-27.2663 Y6.6334 
G01 X-21.1558 Y6.6334 
G01 X-20.1970 Y7.5922 
G01 X-20.1970 Y8.4723 
G01 X-20.1688 Y8.6506 
G01 X-20.1130 Y8.8223 
G01 X-20.0310 Y8.9832 
G01 X-19.9249 Y9.1292 
G01 X-19.7972 Y9.2569 
G01 X-19.6512 Y9.3630 
G01 X-19.4903 Y9.4450 
G01 X-19.3186 Y9.5008 
G01 X-19.1403 Y9.5290 
G01 X-18.9597 Y9.5290 
G01 X-18.7814 Y9.5008 
G01 X-18.6097 Y9.4450 
G01 X-18.4488 Y9.3630 
G01 X-18.3028 Y9.2569 
G01 X-18.1751 Y9.1292 
G01 X-18.0690 Y8.9832 
G01 X-17.9870 Y8.8223 
G01 X-17.9312 Y8.6506 
G01 X-17.9030 Y8.4723 
G01 X-17.9030 Y6.7677 
G01 X-17.9312 Y6.5894 
G01 X-17.9870 Y6.4177 
G01 X-18.0690 Y6.2568 
G01 X-18.1751 Y6.1108 
G01 X-18.3028 Y5.9831 
G01 X-18.4488 Y5.8770 
G01 X-18.6097 Y5.7950 
G01 X-18.7814 Y5.7392 
G01 X-18.9597 Y5.7110 
G01 X-19.1403 Y5.7110 
G01 X-19.3186 Y5.7392 
G01 X-19.4903 Y5.7950 
G01 X-19.6512 Y5.8770 
G01 X-19.6643 Y5.8865 
G01 X-20.3235 Y5.2273 
G01 X-20.4531 Y5.1407 
G01 X-20.5972 Y5.0810 
G01 X-20.7501 Y5.0506 
