(.../Documents/EAGLE/ulps/pcb-gcode.ulp)
(Copyright 2005 - 2012 by John Johnson)
(See readme.txt for licensing terms.)
(This file generated from the board:)
(.../ESP8266_Uno_TFT/ESP8266_Unu_TFT.brd)
(Current profile is .../EAGLE/ulps/profiles/generic.pp  )
(This file generated 09.03.20 14:27)
(Settings from pcb-machine.h)
(  Tool Size)
(0.1500 )
(Z Axis Settings)
(  High     Up        Down     Drill)
(20.4000 	2.0000 	-0.1500 	-1.9000 )
(spindle on time = 3.0000)
(milling depth = -1.3000)
(text depth = -0.1000)
(tool change at 0.0000 0.0000 20.4000 )
(feed rate xy = F208.00 )
(feed rate z  = F100.00 )
(Settings from pcb-defaults.h)
(isolate min = 0.1000)
(isolate max = 0.5000)
(isolate step = 0.1000)
(Generated bottom outlines, bottom drill, )
(Unit of measure: mm)
(Metric Mode)
G21
(Absolute Coordinates)
G90
G00 X0.0000 Y0.0000 
M03
G04 P3.000000
G00 Z2.0000 
G00 X-25.6940 Y26.5785 
G01 Z-0.1500 F100.00 
G01 X-25.6940 Y26.7615 F208.00 
G01 X-25.6583 Y26.9410 
G01 X-25.5883 Y27.1100 
G01 X-25.5750 Y27.1299 
G01 X-25.5750 Y31.9568 
G01 X-25.5439 Y32.1133 
G01 X-25.4828 Y32.2607 
G01 X-25.3942 Y32.3933 
G01 X-25.2813 Y32.5062 
G01 X-25.1487 Y32.5948 
G01 X-25.0013 Y32.6559 
G01 X-24.8448 Y32.6870 
G01 X-24.6852 Y32.6870 
G01 X-24.6421 Y32.6784 
G01 X-18.8366 Y38.4839 
G01 X-18.7272 Y38.5471 
G01 X-18.6052 Y38.5798 
G01 X-13.1861 Y38.5798 
G01 X-13.1354 Y38.6305 
G01 X-13.0235 Y38.7053 
G01 X-12.8992 Y38.7568 
G01 X-12.7673 Y38.7830 
G01 X-4.4377 Y38.7830 
G01 X-4.4063 Y38.8262 
G01 X-4.2822 Y38.9503 
G01 X-4.1403 Y39.0535 
G01 X-3.9839 Y39.1331 
G01 X-3.8171 Y39.1873 
G01 X-3.6437 Y39.2148 
G01 X-3.4683 Y39.2148 
G01 X-3.2949 Y39.1873 
G01 X-3.1281 Y39.1331 
G01 X-2.9717 Y39.0535 
G01 X-2.8298 Y38.9503 
G01 X-2.7057 Y38.8262 
G01 X-2.6025 Y38.6843 
G01 X-2.5229 Y38.5279 
G01 X-2.4687 Y38.3610 
G01 X-2.4412 Y38.1877 
G01 X-2.4412 Y38.0123 
G01 X-2.4687 Y37.8389 
G01 X-2.5229 Y37.6721 
G01 X-2.6025 Y37.5157 
G01 X-2.7057 Y37.3738 
G01 X-2.8298 Y37.2497 
G01 X-2.9717 Y37.1465 
G01 X-3.1281 Y37.0669 
G01 X-3.2949 Y37.0127 
G01 X-3.4683 Y36.9852 
G01 X-3.6437 Y36.9852 
G01 X-3.8171 Y37.0127 
G01 X-3.9839 Y37.0669 
G01 X-4.1403 Y37.1465 
G01 X-4.2822 Y37.2497 
G01 X-4.4063 Y37.3738 
G01 X-4.4377 Y37.4170 
G01 X-12.7673 Y37.4170 
G01 X-12.8992 Y37.4432 
G01 X-13.0235 Y37.4947 
G01 X-13.1354 Y37.5695 
G01 X-13.1861 Y37.6202 
G01 X-18.3433 Y37.6202 
G01 X-23.9636 Y31.9999 
G01 X-23.9550 Y31.9568 
G01 X-23.9550 Y27.1299 
G01 X-23.9417 Y27.1100 
G01 X-23.8717 Y26.9410 
G01 X-23.8360 Y26.7615 
G01 X-23.8360 Y26.5785 
G01 X-23.8717 Y26.3990 
G01 X-23.9417 Y26.2300 
G01 X-24.0434 Y26.0778 
G01 X-24.1728 Y25.9484 
G01 X-24.3250 Y25.8467 
G01 X-24.4940 Y25.7767 
G01 X-24.6735 Y25.7410 
G01 X-24.8565 Y25.7410 
G01 X-25.0360 Y25.7767 
G01 X-25.2050 Y25.8467 
G01 X-25.3572 Y25.9484 
G01 X-25.4866 Y26.0778 
G01 X-25.5883 Y26.2300 
G01 X-25.6583 Y26.3990 
G01 X-25.6940 Y26.5785 
G00 Z2.0000 
G00 X-28.2340 Y26.5785 
G01 Z-0.1500 F100.00 
G01 X-28.2340 Y26.7615 F208.00 
G01 X-28.1983 Y26.9410 
G01 X-28.1283 Y27.1100 
G01 X-28.0266 Y27.2622 
G01 X-27.8972 Y27.3916 
G01 X-27.7450 Y27.4933 
G01 X-27.5760 Y27.5633 
G01 X-27.3965 Y27.5990 
G01 X-27.2135 Y27.5990 
G01 X-27.0340 Y27.5633 
G01 X-26.8650 Y27.4933 
G01 X-26.7128 Y27.3916 
G01 X-26.5834 Y27.2622 
G01 X-26.4817 Y27.1100 
G01 X-26.4117 Y26.9410 
G01 X-26.3760 Y26.7615 
G01 X-26.3760 Y26.5785 
G01 X-26.4117 Y26.3990 
G01 X-26.4817 Y26.2300 
G01 X-26.4950 Y26.2101 
G01 X-26.4950 Y24.8130 
G01 X-14.8792 Y24.8130 
G01 X-10.3814 Y29.3108 
G01 X-10.3814 Y31.7573 
G01 X-10.3591 Y31.8696 
G01 X-10.3152 Y31.9754 
G01 X-10.2516 Y32.0706 
G01 X-7.4806 Y34.8416 
G01 X-7.3854 Y34.9052 
G01 X-7.2796 Y34.9491 
G01 X-7.1673 Y34.9714 
G01 X-4.8392 Y34.9714 
G01 X-4.8035 Y34.9953 
G01 X-4.6792 Y35.0468 
G01 X-4.6175 Y35.0590 
G01 X-4.5362 Y35.1403 
G01 X-4.3943 Y35.2435 
G01 X-4.2379 Y35.3231 
G01 X-4.0711 Y35.3773 
G01 X-3.8977 Y35.4048 
G01 X-3.7223 Y35.4048 
G01 X-3.5489 Y35.3773 
G01 X-3.3821 Y35.3231 
G01 X-3.2257 Y35.2435 
G01 X-3.0838 Y35.1403 
G01 X-2.9597 Y35.0162 
G01 X-2.8565 Y34.8743 
G01 X-2.7769 Y34.7179 
G01 X-2.7227 Y34.5511 
G01 X-2.6952 Y34.3777 
G01 X-2.6952 Y34.2023 
G01 X-2.7227 Y34.0289 
G01 X-2.7769 Y33.8621 
G01 X-2.8565 Y33.7057 
G01 X-2.9597 Y33.5638 
G01 X-3.0838 Y33.4397 
G01 X-3.2257 Y33.3365 
G01 X-3.3821 Y33.2569 
G01 X-3.5489 Y33.2026 
G01 X-3.7223 Y33.1752 
G01 X-3.8977 Y33.1752 
G01 X-4.0711 Y33.2026 
G01 X-4.2379 Y33.2569 
G01 X-4.3943 Y33.3365 
G01 X-4.5362 Y33.4397 
G01 X-4.6603 Y33.5638 
G01 X-4.7635 Y33.7057 
G01 X-4.8038 Y33.7849 
G01 X-4.8392 Y33.8086 
G01 X-6.8692 Y33.8086 
G01 X-9.2186 Y31.4592 
G01 X-9.2186 Y29.0127 
G01 X-9.2409 Y28.9004 
G01 X-9.2848 Y28.7946 
G01 X-9.3484 Y28.6994 
G01 X-9.4294 Y28.6184 
G01 X-14.1662 Y23.8816 
G01 X-14.2614 Y23.8180 
G01 X-14.3672 Y23.7741 
G01 X-14.4795 Y23.7518 
G01 X-14.5941 Y23.7518 
G01 X-14.7064 Y23.7741 
G01 X-14.8122 Y23.8180 
G01 X-14.8652 Y23.8534 
G01 X-26.8692 Y23.8534 
G01 X-26.9213 Y23.8186 
G01 X-27.0687 Y23.7575 
G01 X-27.2252 Y23.7264 
G01 X-27.3848 Y23.7264 
G01 X-27.5413 Y23.7575 
G01 X-27.6887 Y23.8186 
G01 X-27.8213 Y23.9072 
G01 X-27.9342 Y24.0201 
G01 X-28.0228 Y24.1527 
G01 X-28.0839 Y24.3001 
G01 X-28.1150 Y24.4566 
G01 X-28.1150 Y26.2101 
G01 X-28.1283 Y26.2300 
G01 X-28.1983 Y26.3990 
G01 X-28.2340 Y26.5785 
G00 Z2.0000 
G00 X-53.4388 Y30.3923 
G01 Z-0.1500 F100.00 
G01 X-53.4388 Y30.5677 F208.00 
G01 X-53.4113 Y30.7411 
G01 X-53.3571 Y30.9079 
G01 X-53.2775 Y31.0643 
G01 X-53.1743 Y31.2062 
G01 X-53.0502 Y31.3303 
G01 X-52.9083 Y31.4335 
G01 X-52.7519 Y31.5131 
G01 X-52.5851 Y31.5673 
G01 X-52.4117 Y31.5948 
G01 X-52.2363 Y31.5948 
G01 X-52.0629 Y31.5673 
G01 X-51.8961 Y31.5131 
G01 X-51.7397 Y31.4335 
G01 X-51.5978 Y31.3303 
G01 X-51.4737 Y31.2062 
G01 X-51.4423 Y31.1630 
G01 X-48.3959 Y31.1630 
G01 X-48.2640 Y31.1368 
G01 X-48.1397 Y31.0853 
G01 X-48.0278 Y31.0105 
G01 X-47.9327 Y30.9154 
G01 X-44.4973 Y27.4800 
G01 X-32.8449 Y27.4800 
G01 X-32.8250 Y27.4933 
G01 X-32.6560 Y27.5633 
G01 X-32.4765 Y27.5990 
G01 X-32.2935 Y27.5990 
G01 X-32.1140 Y27.5633 
G01 X-31.9450 Y27.4933 
G01 X-31.7928 Y27.3916 
G01 X-31.6634 Y27.2622 
G01 X-31.5617 Y27.1100 
G01 X-31.4917 Y26.9410 
G01 X-31.4560 Y26.7615 
G01 X-31.4560 Y26.5785 
G01 X-31.4917 Y26.3990 
G01 X-31.5617 Y26.2300 
G01 X-31.6634 Y26.0778 
G01 X-31.7928 Y25.9484 
G01 X-31.9450 Y25.8467 
G01 X-32.1140 Y25.7767 
G01 X-32.2935 Y25.7410 
G01 X-32.4765 Y25.7410 
G01 X-32.6560 Y25.7767 
G01 X-32.8250 Y25.8467 
G01 X-32.8449 Y25.8600 
G01 X-44.7330 Y25.8600 
G01 X-44.8895 Y25.8911 
G01 X-45.0369 Y25.9522 
G01 X-45.1695 Y26.0408 
G01 X-45.2824 Y26.1537 
G01 X-45.3710 Y26.2863 
G01 X-45.4321 Y26.4337 
G01 X-45.4443 Y26.4952 
G01 X-48.7461 Y29.7970 
G01 X-51.4423 Y29.7970 
G01 X-51.4737 Y29.7538 
G01 X-51.5978 Y29.6297 
G01 X-51.7397 Y29.5265 
G01 X-51.8961 Y29.4469 
G01 X-52.0629 Y29.3926 
G01 X-52.2363 Y29.3652 
G01 X-52.4117 Y29.3652 
G01 X-52.5851 Y29.3926 
G01 X-52.7519 Y29.4469 
G01 X-52.9083 Y29.5265 
G01 X-53.0502 Y29.6297 
G01 X-53.1743 Y29.7538 
G01 X-53.2775 Y29.8957 
G01 X-53.3571 Y30.0521 
G01 X-53.4113 Y30.2189 
G01 X-53.4388 Y30.3923 
G00 Z2.0000 
G00 X-22.8750 Y30.0348 
G01 Z-0.1500 F100.00 
G01 X-22.8484 Y30.0991 F208.00 
G01 X-22.7991 Y30.1484 
G01 X-22.7348 Y30.1750 
G01 X-21.4652 Y30.1750 
G01 X-21.4009 Y30.1484 
G01 X-21.3516 Y30.0991 
G01 X-21.3250 Y30.0348 
G01 X-21.3250 Y26.9073 
G01 X-21.2960 Y26.7615 
G01 X-21.2960 Y26.5785 
G01 X-21.3317 Y26.3990 
G01 X-21.4017 Y26.2300 
G01 X-21.5034 Y26.0778 
G01 X-21.6328 Y25.9484 
G01 X-21.7850 Y25.8467 
G01 X-21.9540 Y25.7767 
G01 X-22.1335 Y25.7410 
G01 X-22.3165 Y25.7410 
G01 X-22.4960 Y25.7767 
G01 X-22.6650 Y25.8467 
G01 X-22.8172 Y25.9484 
G01 X-22.9466 Y26.0778 
G01 X-23.0483 Y26.2300 
G01 X-23.1183 Y26.3990 
G01 X-23.1540 Y26.5785 
G01 X-23.1540 Y26.7615 
G01 X-23.1183 Y26.9410 
G01 X-23.0483 Y27.1100 
G01 X-22.9466 Y27.2622 
G01 X-22.8750 Y27.3338 
G01 X-22.8750 Y30.0348 
G00 Z2.0000 
G00 X-20.4750 Y30.0348 
G01 Z-0.1500 F100.00 
G01 X-20.4484 Y30.0991 F208.00 
G01 X-20.3991 Y30.1484 
G01 X-20.3348 Y30.1750 
G01 X-19.0652 Y30.1750 
G01 X-19.0009 Y30.1484 
G01 X-18.9516 Y30.0991 
G01 X-18.9250 Y30.0348 
G01 X-18.9250 Y27.2047 
G01 X-18.8617 Y27.1100 
G01 X-18.7917 Y26.9410 
G01 X-18.7560 Y26.7615 
G01 X-18.7560 Y26.5785 
G01 X-18.7917 Y26.3990 
G01 X-18.8617 Y26.2300 
G01 X-18.9634 Y26.0778 
G01 X-19.0928 Y25.9484 
G01 X-19.2450 Y25.8467 
G01 X-19.4140 Y25.7767 
G01 X-19.5935 Y25.7410 
G01 X-19.7765 Y25.7410 
G01 X-19.9560 Y25.7767 
G01 X-20.1250 Y25.8467 
G01 X-20.2772 Y25.9484 
G01 X-20.4066 Y26.0778 
G01 X-20.5083 Y26.2300 
G01 X-20.5783 Y26.3990 
G01 X-20.6140 Y26.5785 
G01 X-20.6140 Y26.7615 
G01 X-20.5783 Y26.9410 
G01 X-20.5083 Y27.1100 
G01 X-20.4750 Y27.1598 
G01 X-20.4750 Y30.0348 
G00 Z2.0000 
G00 X-17.9750 Y30.0348 
G01 Z-0.1500 F100.00 
G01 X-17.9484 Y30.0991 F208.00 
G01 X-17.8991 Y30.1484 
G01 X-17.8348 Y30.1750 
G01 X-16.5652 Y30.1750 
G01 X-16.5009 Y30.1484 
G01 X-16.4516 Y30.0991 
G01 X-16.4250 Y30.0348 
G01 X-16.4250 Y27.2638 
G01 X-16.3217 Y27.1100 
G01 X-16.2517 Y26.9410 
G01 X-16.2160 Y26.7615 
G01 X-16.2160 Y26.5785 
G01 X-16.2517 Y26.3990 
G01 X-16.3217 Y26.2300 
G01 X-16.4234 Y26.0778 
G01 X-16.5528 Y25.9484 
G01 X-16.7050 Y25.8467 
G01 X-16.8740 Y25.7767 
G01 X-17.0535 Y25.7410 
G01 X-17.2365 Y25.7410 
G01 X-17.4160 Y25.7767 
G01 X-17.5850 Y25.8467 
G01 X-17.7372 Y25.9484 
G01 X-17.8666 Y26.0778 
G01 X-17.9683 Y26.2300 
G01 X-18.0383 Y26.3990 
G01 X-18.0740 Y26.5785 
G01 X-18.0740 Y26.7615 
G01 X-18.0383 Y26.9410 
G01 X-17.9750 Y27.0938 
G01 X-17.9750 Y30.0348 
G00 Z2.0000 
G00 X-15.3750 Y30.0348 
G01 Z-0.1500 F100.00 
G01 X-15.3484 Y30.0991 F208.00 
G01 X-15.2991 Y30.1484 
G01 X-15.2348 Y30.1750 
G01 X-13.9652 Y30.1750 
G01 X-13.9009 Y30.1484 
G01 X-13.8516 Y30.0991 
G01 X-13.8250 Y30.0348 
G01 X-13.8250 Y27.1748 
G01 X-13.7817 Y27.1100 
G01 X-13.7117 Y26.9410 
G01 X-13.6760 Y26.7615 
G01 X-13.6760 Y26.5785 
G01 X-13.7117 Y26.3990 
G01 X-13.7817 Y26.2300 
G01 X-13.8834 Y26.0778 
G01 X-14.0128 Y25.9484 
G01 X-14.1650 Y25.8467 
G01 X-14.3340 Y25.7767 
G01 X-14.5135 Y25.7410 
G01 X-14.6965 Y25.7410 
G01 X-14.8760 Y25.7767 
G01 X-15.0450 Y25.8467 
G01 X-15.1972 Y25.9484 
G01 X-15.3266 Y26.0778 
G01 X-15.4283 Y26.2300 
G01 X-15.4983 Y26.3990 
G01 X-15.5340 Y26.5785 
G01 X-15.5340 Y26.7615 
G01 X-15.4983 Y26.9410 
G01 X-15.4283 Y27.1100 
G01 X-15.3750 Y27.1898 
G01 X-15.3750 Y30.0348 
G00 Z2.0000 
G00 X-10.8752 Y4.5850 
G01 Z-0.1500 F100.00 
G01 X-10.8109 Y4.5584 F208.00 
G01 X-10.7616 Y4.5091 
G01 X-10.7350 Y4.4448 
G01 X-10.7350 Y3.1052 
G01 X-10.7616 Y3.0409 
G01 X-10.8109 Y2.9916 
G01 X-10.8752 Y2.9650 
G01 X-14.2174 Y2.9650 
G01 X-14.3340 Y2.9167 
G01 X-14.5135 Y2.8810 
G01 X-14.6965 Y2.8810 
G01 X-14.8760 Y2.9167 
G01 X-15.0450 Y2.9867 
G01 X-15.1972 Y3.0884 
G01 X-15.3266 Y3.2178 
G01 X-15.4283 Y3.3700 
G01 X-15.4983 Y3.5390 
G01 X-15.5340 Y3.7185 
G01 X-15.5340 Y3.9015 
G01 X-15.4983 Y4.0810 
G01 X-15.4283 Y4.2500 
G01 X-15.3266 Y4.4022 
G01 X-15.1972 Y4.5316 
G01 X-15.0450 Y4.6333 
G01 X-14.8760 Y4.7033 
G01 X-14.6965 Y4.7390 
G01 X-14.5135 Y4.7390 
G01 X-14.3340 Y4.7033 
G01 X-14.1650 Y4.6333 
G01 X-14.0927 Y4.5850 
G01 X-10.8752 Y4.5850 
G00 Z2.0000 
G00 X-7.9950 Y13.3052 
G01 Z-0.1500 F100.00 
G01 X-7.9950 Y14.6448 F208.00 
G01 X-7.9684 Y14.7091 
G01 X-7.9191 Y14.7584 
G01 X-7.8548 Y14.7850 
G01 X-4.5716 Y14.7850 
G01 X-4.5362 Y14.8203 
G01 X-4.3943 Y14.9235 
G01 X-4.2379 Y15.0031 
G01 X-4.0711 Y15.0573 
G01 X-3.8977 Y15.0848 
G01 X-3.7223 Y15.0848 
G01 X-3.5489 Y15.0573 
G01 X-3.3821 Y15.0031 
G01 X-3.2257 Y14.9235 
G01 X-3.0838 Y14.8203 
G01 X-2.9597 Y14.6962 
G01 X-2.8565 Y14.5543 
G01 X-2.7769 Y14.3979 
G01 X-2.7227 Y14.2311 
G01 X-2.6952 Y14.0577 
G01 X-2.6952 Y13.8823 
G01 X-2.7227 Y13.7089 
G01 X-2.7769 Y13.5421 
G01 X-2.8565 Y13.3857 
G01 X-2.9597 Y13.2438 
G01 X-3.0838 Y13.1197 
G01 X-3.2257 Y13.0165 
G01 X-3.3821 Y12.9369 
G01 X-3.5489 Y12.8826 
G01 X-3.7223 Y12.8552 
G01 X-3.8977 Y12.8552 
G01 X-4.0711 Y12.8826 
G01 X-4.2379 Y12.9369 
G01 X-4.3943 Y13.0165 
G01 X-4.5362 Y13.1197 
G01 X-4.5816 Y13.1650 
G01 X-7.8548 Y13.1650 
G01 X-7.9191 Y13.1916 
G01 X-7.9684 Y13.2409 
G01 X-7.9950 Y13.3052 
G00 Z2.0000 
G00 X-8.0950 Y10.7052 
G01 Z-0.1500 F100.00 
G01 X-8.0950 Y12.0448 F208.00 
G01 X-8.0684 Y12.1091 
G01 X-8.0191 Y12.1584 
G01 X-7.9548 Y12.1850 
G01 X-4.6316 Y12.1850 
G01 X-4.5362 Y12.2803 
G01 X-4.3943 Y12.3835 
G01 X-4.2379 Y12.4631 
G01 X-4.0711 Y12.5173 
G01 X-3.8977 Y12.5448 
G01 X-3.7223 Y12.5448 
G01 X-3.5489 Y12.5173 
G01 X-3.3821 Y12.4631 
G01 X-3.2257 Y12.3835 
G01 X-3.0838 Y12.2803 
G01 X-2.9597 Y12.1562 
G01 X-2.8565 Y12.0143 
G01 X-2.7769 Y11.8579 
G01 X-2.7227 Y11.6911 
G01 X-2.6952 Y11.5177 
G01 X-2.6952 Y11.3423 
G01 X-2.7227 Y11.1689 
G01 X-2.7769 Y11.0021 
G01 X-2.8565 Y10.8457 
G01 X-2.9597 Y10.7038 
G01 X-3.0838 Y10.5797 
G01 X-3.2257 Y10.4765 
G01 X-3.3821 Y10.3969 
G01 X-3.5489 Y10.3427 
G01 X-3.7223 Y10.3152 
G01 X-3.8977 Y10.3152 
G01 X-4.0711 Y10.3427 
G01 X-4.2379 Y10.3969 
G01 X-4.3943 Y10.4765 
G01 X-4.5160 Y10.5650 
G01 X-7.9548 Y10.5650 
G01 X-8.0191 Y10.5916 
G01 X-8.0684 Y10.6409 
G01 X-8.0950 Y10.7052 
G00 Z2.0000 
G00 X-48.4752 Y36.3850 
G01 Z-0.1500 F100.00 
G01 X-48.4704 Y36.3830 F208.00 
G01 X-47.1327 Y36.3830 
G01 X-47.0008 Y36.3568 
G01 X-46.8765 Y36.3053 
G01 X-46.7646 Y36.2305 
G01 X-46.6695 Y36.1354 
G01 X-46.5947 Y36.0235 
G01 X-46.5432 Y35.8992 
G01 X-46.5170 Y35.7673 
G01 X-46.5170 Y33.6014 
G01 X-35.8483 Y33.6014 
G01 X-35.7164 Y33.5752 
G01 X-35.5921 Y33.5237 
G01 X-35.4802 Y33.4489 
G01 X-35.3851 Y33.3538 
G01 X-29.5997 Y27.5684 
G01 X-29.5740 Y27.5633 
G01 X-29.4050 Y27.4933 
G01 X-29.2528 Y27.3916 
G01 X-29.1234 Y27.2622 
G01 X-29.0217 Y27.1100 
G01 X-28.9517 Y26.9410 
G01 X-28.9160 Y26.7615 
G01 X-28.9160 Y26.5785 
G01 X-28.9517 Y26.3990 
G01 X-29.0217 Y26.2300 
G01 X-29.1234 Y26.0778 
G01 X-29.2528 Y25.9484 
G01 X-29.4050 Y25.8467 
G01 X-29.5740 Y25.7767 
G01 X-29.7535 Y25.7410 
G01 X-29.9365 Y25.7410 
G01 X-30.1160 Y25.7767 
G01 X-30.2850 Y25.8467 
G01 X-30.4372 Y25.9484 
G01 X-30.5666 Y26.0778 
G01 X-30.6683 Y26.2300 
G01 X-30.7383 Y26.3990 
G01 X-30.7740 Y26.5785 
G01 X-30.7740 Y26.7615 
G01 X-30.7658 Y26.8027 
G01 X-36.1985 Y32.2354 
G01 X-51.2780 Y32.2354 
G01 X-51.3438 Y32.1697 
G01 X-51.4857 Y32.0665 
G01 X-51.6421 Y31.9869 
G01 X-51.8089 Y31.9327 
G01 X-51.9823 Y31.9052 
G01 X-52.1577 Y31.9052 
G01 X-52.3311 Y31.9327 
G01 X-52.4979 Y31.9869 
G01 X-52.6543 Y32.0665 
G01 X-52.7962 Y32.1697 
G01 X-52.9203 Y32.2938 
G01 X-53.0235 Y32.4357 
G01 X-53.1031 Y32.5921 
G01 X-53.1573 Y32.7589 
G01 X-53.1848 Y32.9323 
G01 X-53.1848 Y33.1077 
G01 X-53.1573 Y33.2811 
G01 X-53.1031 Y33.4479 
G01 X-53.0235 Y33.6043 
G01 X-52.9203 Y33.7462 
G01 X-52.7962 Y33.8703 
G01 X-52.6543 Y33.9735 
G01 X-52.4979 Y34.0531 
G01 X-52.3311 Y34.1073 
G01 X-52.1577 Y34.1348 
G01 X-51.9823 Y34.1348 
G01 X-51.8089 Y34.1073 
G01 X-51.6421 Y34.0531 
G01 X-51.4857 Y33.9735 
G01 X-51.3438 Y33.8703 
G01 X-51.2197 Y33.7462 
G01 X-51.1165 Y33.6043 
G01 X-51.1151 Y33.6014 
G01 X-47.8830 Y33.6014 
G01 X-47.8830 Y35.0170 
G01 X-48.3350 Y35.0170 
G01 X-48.3350 Y34.9052 
G01 X-48.3616 Y34.8409 
G01 X-48.4109 Y34.7916 
G01 X-48.4752 Y34.7650 
G01 X-50.4721 Y34.7650 
G01 X-50.5246 Y34.7432 
G01 X-50.6565 Y34.7170 
G01 X-50.7911 Y34.7170 
G01 X-50.9230 Y34.7432 
G01 X-50.9755 Y34.7650 
G01 X-51.5424 Y34.7650 
G01 X-51.5978 Y34.7097 
G01 X-51.7397 Y34.6065 
G01 X-51.8961 Y34.5269 
G01 X-52.0629 Y34.4727 
G01 X-52.2363 Y34.4452 
G01 X-52.4117 Y34.4452 
G01 X-52.5851 Y34.4727 
G01 X-52.7519 Y34.5269 
G01 X-52.9083 Y34.6065 
G01 X-53.0502 Y34.7097 
G01 X-53.1743 Y34.8338 
G01 X-53.2775 Y34.9757 
G01 X-53.3571 Y35.1321 
G01 X-53.4113 Y35.2989 
G01 X-53.4388 Y35.4723 
G01 X-53.4388 Y35.6477 
G01 X-53.4113 Y35.8210 
G01 X-53.3571 Y35.9879 
G01 X-53.2775 Y36.1443 
G01 X-53.1743 Y36.2862 
G01 X-53.0502 Y36.4103 
G01 X-52.9083 Y36.5135 
G01 X-52.7519 Y36.5931 
G01 X-52.5851 Y36.6473 
G01 X-52.4117 Y36.6748 
G01 X-52.2363 Y36.6748 
G01 X-52.0629 Y36.6473 
G01 X-51.8961 Y36.5931 
G01 X-51.7397 Y36.5135 
G01 X-51.5978 Y36.4103 
G01 X-51.5724 Y36.3850 
G01 X-48.4752 Y36.3850 
G00 Z2.0000 
G00 X-48.1752 Y20.9850 
G01 Z-0.1500 F100.00 
G01 X-48.1109 Y20.9584 F208.00 
G01 X-48.0616 Y20.9091 
G01 X-48.0350 Y20.8448 
G01 X-48.0350 Y19.5052 
G01 X-48.0616 Y19.4409 
G01 X-48.1109 Y19.3916 
G01 X-48.1752 Y19.3650 
G01 X-51.7427 Y19.3650 
G01 X-51.8961 Y19.2869 
G01 X-52.0629 Y19.2326 
G01 X-52.2363 Y19.2052 
G01 X-52.4117 Y19.2052 
G01 X-52.5851 Y19.2326 
G01 X-52.7519 Y19.2869 
G01 X-52.9083 Y19.3665 
G01 X-53.0502 Y19.4697 
G01 X-53.1743 Y19.5938 
G01 X-53.2775 Y19.7357 
G01 X-53.3571 Y19.8921 
G01 X-53.4113 Y20.0589 
G01 X-53.4388 Y20.2323 
G01 X-53.4388 Y20.4077 
G01 X-53.4113 Y20.5811 
G01 X-53.3571 Y20.7479 
G01 X-53.2775 Y20.9043 
G01 X-53.1743 Y21.0462 
G01 X-53.0502 Y21.1703 
G01 X-52.9083 Y21.2735 
G01 X-52.7519 Y21.3531 
G01 X-52.5851 Y21.4073 
G01 X-52.4117 Y21.4348 
G01 X-52.2363 Y21.4348 
G01 X-52.0629 Y21.4073 
G01 X-51.8961 Y21.3531 
G01 X-51.7397 Y21.2735 
G01 X-51.5978 Y21.1703 
G01 X-51.4737 Y21.0462 
G01 X-51.4292 Y20.9850 
G01 X-48.1752 Y20.9850 
G00 Z2.0000 
G00 X-47.9752 Y23.4850 
G01 Z-0.1500 F100.00 
G01 X-47.9109 Y23.4584 F208.00 
G01 X-47.8616 Y23.4091 
G01 X-47.8350 Y23.3448 
G01 X-47.8350 Y22.0052 
G01 X-47.8616 Y21.9409 
G01 X-47.9109 Y21.8916 
G01 X-47.9752 Y21.8650 
G01 X-51.5672 Y21.8650 
G01 X-51.6421 Y21.8269 
G01 X-51.8089 Y21.7727 
G01 X-51.9823 Y21.7452 
G01 X-52.1577 Y21.7452 
G01 X-52.3311 Y21.7727 
G01 X-52.4979 Y21.8269 
G01 X-52.6543 Y21.9065 
G01 X-52.7962 Y22.0097 
G01 X-52.9203 Y22.1338 
G01 X-53.0235 Y22.2757 
G01 X-53.1031 Y22.4321 
G01 X-53.1573 Y22.5989 
G01 X-53.1848 Y22.7723 
G01 X-53.1848 Y22.9477 
G01 X-53.1573 Y23.1211 
G01 X-53.1031 Y23.2879 
G01 X-53.0235 Y23.4443 
G01 X-52.9203 Y23.5862 
G01 X-52.7962 Y23.7103 
G01 X-52.6543 Y23.8135 
G01 X-52.4979 Y23.8931 
G01 X-52.3311 Y23.9473 
G01 X-52.1577 Y23.9748 
G01 X-51.9823 Y23.9748 
G01 X-51.8089 Y23.9473 
G01 X-51.6421 Y23.8931 
G01 X-51.4857 Y23.8135 
G01 X-51.3438 Y23.7103 
G01 X-51.2197 Y23.5862 
G01 X-51.1461 Y23.4850 
G01 X-47.9752 Y23.4850 
G00 Z2.0000 
G00 X-48.0752 Y25.8850 
G01 Z-0.1500 F100.00 
G01 X-48.0109 Y25.8584 F208.00 
G01 X-47.9616 Y25.8091 
G01 X-47.9350 Y25.7448 
G01 X-47.9350 Y24.4052 
G01 X-47.9616 Y24.3409 
G01 X-48.0109 Y24.2916 
G01 X-48.0752 Y24.2650 
G01 X-51.9548 Y24.2650 
G01 X-52.0191 Y24.2916 
G01 X-52.0457 Y24.3182 
G01 X-52.0629 Y24.3127 
G01 X-52.2363 Y24.2852 
G01 X-52.4117 Y24.2852 
G01 X-52.5851 Y24.3127 
G01 X-52.7519 Y24.3669 
G01 X-52.9083 Y24.4465 
G01 X-53.0502 Y24.5497 
G01 X-53.1743 Y24.6738 
G01 X-53.2775 Y24.8157 
G01 X-53.3571 Y24.9721 
G01 X-53.4113 Y25.1389 
G01 X-53.4388 Y25.3123 
G01 X-53.4388 Y25.4877 
G01 X-53.4113 Y25.6610 
G01 X-53.3571 Y25.8279 
G01 X-53.2775 Y25.9843 
G01 X-53.1743 Y26.1262 
G01 X-53.0502 Y26.2503 
G01 X-52.9083 Y26.3535 
G01 X-52.7519 Y26.4331 
G01 X-52.5851 Y26.4873 
G01 X-52.4117 Y26.5148 
G01 X-52.2363 Y26.5148 
G01 X-52.0629 Y26.4873 
G01 X-51.8961 Y26.4331 
G01 X-51.7397 Y26.3535 
G01 X-51.5978 Y26.2503 
G01 X-51.4737 Y26.1262 
G01 X-51.3705 Y25.9843 
G01 X-51.3200 Y25.8850 
G01 X-48.0752 Y25.8850 
G00 Z2.0000 
G00 X-48.3752 Y28.5850 
G01 Z-0.1500 F100.00 
G01 X-48.3109 Y28.5584 F208.00 
G01 X-48.2616 Y28.5091 
G01 X-48.2350 Y28.4448 
G01 X-48.2350 Y27.1052 
G01 X-48.2616 Y27.0409 
G01 X-48.3109 Y26.9916 
G01 X-48.3752 Y26.9650 
G01 X-51.5280 Y26.9650 
G01 X-51.6421 Y26.9069 
G01 X-51.8089 Y26.8527 
G01 X-51.9823 Y26.8252 
G01 X-52.1577 Y26.8252 
G01 X-52.3311 Y26.8527 
G01 X-52.4979 Y26.9069 
G01 X-52.6543 Y26.9865 
G01 X-52.7962 Y27.0897 
G01 X-52.9203 Y27.2138 
G01 X-53.0235 Y27.3557 
G01 X-53.1031 Y27.5121 
G01 X-53.1573 Y27.6789 
G01 X-53.1848 Y27.8523 
G01 X-53.1848 Y28.0277 
G01 X-53.1573 Y28.2011 
G01 X-53.1031 Y28.3679 
G01 X-53.0235 Y28.5243 
G01 X-52.9203 Y28.6662 
G01 X-52.7962 Y28.7903 
G01 X-52.6543 Y28.8935 
G01 X-52.4979 Y28.9731 
G01 X-52.3311 Y29.0273 
G01 X-52.1577 Y29.0548 
G01 X-51.9823 Y29.0548 
G01 X-51.8089 Y29.0273 
G01 X-51.6421 Y28.9731 
G01 X-51.4857 Y28.8935 
G01 X-51.3438 Y28.7903 
G01 X-51.2197 Y28.6662 
G01 X-51.1607 Y28.5850 
G01 X-48.3752 Y28.5850 
G00 Z2.0000 
G00 X-47.9752 Y39.1850 
G01 Z-0.1500 F100.00 
G01 X-47.9109 Y39.1584 F208.00 
G01 X-47.8616 Y39.1091 
G01 X-47.8350 Y39.0448 
G01 X-47.8350 Y37.7052 
G01 X-47.8616 Y37.6409 
G01 X-47.9109 Y37.5916 
G01 X-47.9752 Y37.5650 
G01 X-51.0914 Y37.5650 
G01 X-51.1165 Y37.5157 
G01 X-51.2197 Y37.3738 
G01 X-51.3438 Y37.2497 
G01 X-51.4857 Y37.1465 
G01 X-51.6421 Y37.0669 
G01 X-51.8089 Y37.0127 
G01 X-51.9823 Y36.9852 
G01 X-52.1577 Y36.9852 
G01 X-52.3311 Y37.0127 
G01 X-52.4979 Y37.0669 
G01 X-52.6543 Y37.1465 
G01 X-52.7962 Y37.2497 
G01 X-52.9203 Y37.3738 
G01 X-53.0235 Y37.5157 
G01 X-53.1031 Y37.6721 
G01 X-53.1573 Y37.8389 
G01 X-53.1848 Y38.0123 
G01 X-53.1848 Y38.1877 
G01 X-53.1573 Y38.3610 
G01 X-53.1031 Y38.5279 
G01 X-53.0235 Y38.6843 
G01 X-52.9203 Y38.8262 
G01 X-52.7962 Y38.9503 
G01 X-52.6543 Y39.0535 
G01 X-52.4979 Y39.1331 
G01 X-52.3311 Y39.1873 
G01 X-52.1577 Y39.2148 
G01 X-51.9823 Y39.2148 
G01 X-51.8089 Y39.1873 
G01 X-51.8017 Y39.1850 
G01 X-47.9752 Y39.1850 
G00 Z2.0000 
G00 X-48.2752 Y43.9850 
G01 Z-0.1500 F100.00 
G01 X-48.2109 Y43.9584 F208.00 
G01 X-48.1616 Y43.9091 
G01 X-48.1350 Y43.8448 
G01 X-48.1350 Y42.5052 
G01 X-48.1616 Y42.4409 
G01 X-48.2109 Y42.3916 
G01 X-48.2752 Y42.3650 
G01 X-51.5624 Y42.3650 
G01 X-51.5978 Y42.3297 
G01 X-51.7397 Y42.2265 
G01 X-51.8961 Y42.1469 
G01 X-52.0629 Y42.0926 
G01 X-52.2363 Y42.0652 
G01 X-52.4117 Y42.0652 
G01 X-52.5851 Y42.0926 
G01 X-52.7519 Y42.1469 
G01 X-52.9083 Y42.2265 
G01 X-53.0502 Y42.3297 
G01 X-53.1743 Y42.4538 
G01 X-53.2775 Y42.5957 
G01 X-53.3571 Y42.7521 
G01 X-53.4113 Y42.9189 
G01 X-53.4388 Y43.0923 
G01 X-53.4388 Y43.2677 
G01 X-53.4113 Y43.4411 
G01 X-53.3571 Y43.6079 
G01 X-53.2775 Y43.7643 
G01 X-53.1743 Y43.9062 
G01 X-53.0502 Y44.0303 
G01 X-52.9083 Y44.1335 
G01 X-52.7519 Y44.2131 
G01 X-52.5851 Y44.2673 
G01 X-52.4117 Y44.2948 
G01 X-52.2363 Y44.2948 
G01 X-52.0629 Y44.2673 
G01 X-51.8961 Y44.2131 
G01 X-51.7397 Y44.1335 
G01 X-51.5978 Y44.0303 
G01 X-51.5524 Y43.9850 
G01 X-48.2752 Y43.9850 
G00 Z2.0000 
G00 X-47.8752 Y46.3850 
G01 Z-0.1500 F100.00 
G01 X-47.8109 Y46.3584 F208.00 
G01 X-47.7616 Y46.3091 
G01 X-47.7350 Y46.2448 
G01 X-47.7350 Y44.9052 
G01 X-47.7616 Y44.8409 
G01 X-47.8109 Y44.7916 
G01 X-47.8752 Y44.7650 
G01 X-51.4887 Y44.7650 
G01 X-51.6421 Y44.6869 
G01 X-51.8089 Y44.6327 
G01 X-51.9823 Y44.6052 
G01 X-52.1577 Y44.6052 
G01 X-52.3311 Y44.6327 
G01 X-52.4979 Y44.6869 
G01 X-52.6543 Y44.7665 
G01 X-52.7962 Y44.8697 
G01 X-52.9203 Y44.9938 
G01 X-53.0235 Y45.1357 
G01 X-53.1031 Y45.2921 
G01 X-53.1573 Y45.4589 
G01 X-53.1848 Y45.6323 
G01 X-53.1848 Y45.8077 
G01 X-53.1573 Y45.9811 
G01 X-53.1031 Y46.1479 
G01 X-53.0235 Y46.3043 
G01 X-52.9203 Y46.4462 
G01 X-52.7962 Y46.5703 
G01 X-52.6543 Y46.6735 
G01 X-52.4979 Y46.7531 
G01 X-52.3311 Y46.8073 
G01 X-52.1577 Y46.8348 
G01 X-51.9823 Y46.8348 
G01 X-51.8089 Y46.8073 
G01 X-51.6421 Y46.7531 
G01 X-51.4857 Y46.6735 
G01 X-51.3438 Y46.5703 
G01 X-51.2197 Y46.4462 
G01 X-51.1752 Y46.3850 
G01 X-47.8752 Y46.3850 
G00 Z2.0000 
G00 X-48.0752 Y56.9250 
G01 Z-0.1500 F100.00 
G01 X-48.0109 Y56.8984 F208.00 
G01 X-47.9616 Y56.8491 
G01 X-47.9350 Y56.7848 
G01 X-47.9350 Y55.4452 
G01 X-47.9616 Y55.3809 
G01 X-48.0109 Y55.3316 
G01 X-48.0752 Y55.3050 
G01 X-51.1118 Y55.3050 
G01 X-51.1165 Y55.2957 
G01 X-51.2197 Y55.1538 
G01 X-51.3438 Y55.0297 
G01 X-51.4857 Y54.9265 
G01 X-51.6421 Y54.8469 
G01 X-51.8089 Y54.7927 
G01 X-51.9823 Y54.7652 
G01 X-52.1577 Y54.7652 
G01 X-52.3311 Y54.7927 
G01 X-52.4979 Y54.8469 
G01 X-52.6543 Y54.9265 
G01 X-52.7962 Y55.0297 
G01 X-52.9203 Y55.1538 
G01 X-53.0235 Y55.2957 
G01 X-53.1031 Y55.4521 
G01 X-53.1573 Y55.6189 
G01 X-53.1848 Y55.7923 
G01 X-53.1848 Y55.9677 
G01 X-53.1573 Y56.1410 
G01 X-53.1031 Y56.3079 
G01 X-53.0235 Y56.4643 
G01 X-52.9203 Y56.6062 
G01 X-52.7962 Y56.7303 
G01 X-52.6543 Y56.8335 
G01 X-52.4979 Y56.9131 
G01 X-52.3311 Y56.9673 
G01 X-52.1577 Y56.9948 
G01 X-51.9823 Y56.9948 
G01 X-51.8089 Y56.9673 
G01 X-51.6786 Y56.9250 
G01 X-48.0752 Y56.9250 
G00 Z2.0000 
G00 X-8.0950 Y39.9052 
G01 Z-0.1500 F100.00 
G01 X-8.0950 Y41.2448 F208.00 
G01 X-8.0684 Y41.3091 
G01 X-8.0191 Y41.3584 
G01 X-7.9548 Y41.3850 
G01 X-4.6416 Y41.3850 
G01 X-4.5362 Y41.4903 
G01 X-4.3943 Y41.5935 
G01 X-4.2379 Y41.6731 
G01 X-4.0711 Y41.7273 
G01 X-3.8977 Y41.7548 
G01 X-3.7223 Y41.7548 
G01 X-3.5489 Y41.7273 
G01 X-3.3821 Y41.6731 
G01 X-3.2257 Y41.5935 
G01 X-3.0838 Y41.4903 
G01 X-2.9597 Y41.3662 
G01 X-2.8565 Y41.2243 
G01 X-2.7769 Y41.0679 
G01 X-2.7227 Y40.9011 
G01 X-2.6952 Y40.7277 
G01 X-2.6952 Y40.5523 
G01 X-2.7227 Y40.3789 
G01 X-2.7769 Y40.2121 
G01 X-2.8565 Y40.0557 
G01 X-2.9597 Y39.9138 
G01 X-3.0838 Y39.7897 
G01 X-3.2257 Y39.6865 
G01 X-3.3821 Y39.6069 
G01 X-3.5489 Y39.5526 
G01 X-3.7223 Y39.5252 
G01 X-3.8977 Y39.5252 
G01 X-4.0711 Y39.5526 
G01 X-4.2379 Y39.6069 
G01 X-4.3943 Y39.6865 
G01 X-4.5023 Y39.7650 
G01 X-7.9548 Y39.7650 
G01 X-8.0191 Y39.7916 
G01 X-8.0684 Y39.8409 
G01 X-8.0950 Y39.9052 
G00 Z2.0000 
G00 X-8.0950 Y42.5052 
G01 Z-0.1500 F100.00 
G01 X-8.0950 Y43.8448 F208.00 
G01 X-8.0684 Y43.9091 
G01 X-8.0191 Y43.9584 
G01 X-7.9548 Y43.9850 
G01 X-4.3276 Y43.9850 
G01 X-4.2822 Y44.0303 
G01 X-4.1403 Y44.1335 
G01 X-3.9839 Y44.2131 
G01 X-3.8171 Y44.2673 
G01 X-3.6437 Y44.2948 
G01 X-3.4683 Y44.2948 
G01 X-3.2949 Y44.2673 
G01 X-3.1281 Y44.2131 
G01 X-2.9717 Y44.1335 
G01 X-2.8298 Y44.0303 
G01 X-2.7057 Y43.9062 
G01 X-2.6025 Y43.7643 
G01 X-2.5229 Y43.6079 
G01 X-2.4687 Y43.4411 
G01 X-2.4412 Y43.2677 
G01 X-2.4412 Y43.0923 
G01 X-2.4687 Y42.9189 
G01 X-2.5229 Y42.7521 
G01 X-2.6025 Y42.5957 
G01 X-2.7057 Y42.4538 
G01 X-2.8298 Y42.3297 
G01 X-2.9717 Y42.2265 
G01 X-3.1281 Y42.1469 
G01 X-3.2949 Y42.0926 
G01 X-3.4683 Y42.0652 
G01 X-3.6437 Y42.0652 
G01 X-3.8171 Y42.0926 
G01 X-3.9839 Y42.1469 
G01 X-4.1403 Y42.2265 
G01 X-4.2822 Y42.3297 
G01 X-4.3176 Y42.3650 
G01 X-7.9548 Y42.3650 
G01 X-8.0191 Y42.3916 
G01 X-8.0684 Y42.4409 
G01 X-8.0950 Y42.5052 
G00 Z2.0000 
G00 X-7.9950 Y45.0052 
G01 Z-0.1500 F100.00 
G01 X-7.9950 Y46.3448 F208.00 
G01 X-7.9684 Y46.4091 
G01 X-7.9191 Y46.4584 
G01 X-7.8548 Y46.4850 
G01 X-6.8784 Y46.4850 
G01 X-6.8684 Y46.5091 
G01 X-6.8191 Y46.5584 
G01 X-6.7548 Y46.5850 
G01 X-4.5160 Y46.5850 
G01 X-4.3943 Y46.6735 
G01 X-4.2379 Y46.7531 
G01 X-4.0711 Y46.8073 
G01 X-3.8977 Y46.8348 
G01 X-3.7223 Y46.8348 
G01 X-3.5489 Y46.8073 
G01 X-3.3821 Y46.7531 
G01 X-3.2257 Y46.6735 
G01 X-3.1040 Y46.5850 
G01 X-2.8752 Y46.5850 
G01 X-2.8109 Y46.5584 
G01 X-2.7616 Y46.5091 
G01 X-2.7350 Y46.4448 
G01 X-2.7350 Y46.0191 
G01 X-2.7227 Y45.9811 
G01 X-2.6952 Y45.8077 
G01 X-2.6952 Y45.6323 
G01 X-2.7227 Y45.4589 
G01 X-2.7350 Y45.4209 
G01 X-2.7350 Y45.1052 
G01 X-2.7616 Y45.0409 
G01 X-2.8109 Y44.9916 
G01 X-2.8752 Y44.9650 
G01 X-2.9884 Y44.9650 
G01 X-3.0838 Y44.8697 
G01 X-3.2257 Y44.7665 
G01 X-3.3821 Y44.6869 
G01 X-3.5489 Y44.6327 
G01 X-3.7223 Y44.6052 
G01 X-3.8977 Y44.6052 
G01 X-4.0711 Y44.6327 
G01 X-4.2379 Y44.6869 
G01 X-4.3943 Y44.7665 
G01 X-4.5298 Y44.8650 
G01 X-7.8548 Y44.8650 
G01 X-7.9191 Y44.8916 
G01 X-7.9684 Y44.9409 
G01 X-7.9950 Y45.0052 
G00 Z2.0000 
G00 X-7.6950 Y47.8052 
G01 Z-0.1500 F100.00 
G01 X-7.6950 Y49.1448 F208.00 
G01 X-7.6684 Y49.2091 
G01 X-7.6191 Y49.2584 
G01 X-7.5548 Y49.2850 
G01 X-3.9999 Y49.2850 
G01 X-3.9839 Y49.2931 
G01 X-3.8171 Y49.3473 
G01 X-3.6437 Y49.3748 
G01 X-3.4683 Y49.3748 
G01 X-3.2949 Y49.3473 
G01 X-3.1281 Y49.2931 
G01 X-2.9717 Y49.2135 
G01 X-2.8298 Y49.1103 
G01 X-2.7057 Y48.9862 
G01 X-2.6025 Y48.8443 
G01 X-2.5229 Y48.6879 
G01 X-2.4687 Y48.5211 
G01 X-2.4412 Y48.3477 
G01 X-2.4412 Y48.1723 
G01 X-2.4687 Y47.9989 
G01 X-2.5229 Y47.8321 
G01 X-2.6025 Y47.6757 
G01 X-2.7057 Y47.5338 
G01 X-2.8298 Y47.4097 
G01 X-2.9717 Y47.3065 
G01 X-3.1281 Y47.2269 
G01 X-3.2949 Y47.1727 
G01 X-3.4683 Y47.1452 
G01 X-3.6437 Y47.1452 
G01 X-3.8171 Y47.1727 
G01 X-3.9839 Y47.2269 
G01 X-4.1403 Y47.3065 
G01 X-4.2822 Y47.4097 
G01 X-4.4063 Y47.5338 
G01 X-4.5017 Y47.6650 
G01 X-7.5548 Y47.6650 
G01 X-7.6191 Y47.6916 
G01 X-7.6684 Y47.7409 
G01 X-7.6950 Y47.8052 
G00 Z2.0000 
G00 X-7.8950 Y50.3052 
G01 Z-0.1500 F100.00 
G01 X-7.8950 Y51.6448 F208.00 
G01 X-7.8684 Y51.7091 
G01 X-7.8191 Y51.7584 
G01 X-7.7548 Y51.7850 
G01 X-4.3324 Y51.7850 
G01 X-4.2379 Y51.8331 
G01 X-4.0711 Y51.8873 
G01 X-3.8977 Y51.9148 
G01 X-3.7223 Y51.9148 
G01 X-3.5489 Y51.8873 
G01 X-3.3821 Y51.8331 
G01 X-3.2257 Y51.7535 
G01 X-3.0838 Y51.6503 
G01 X-2.9597 Y51.5262 
G01 X-2.8565 Y51.3843 
G01 X-2.7769 Y51.2279 
G01 X-2.7227 Y51.0611 
G01 X-2.6952 Y50.8877 
G01 X-2.6952 Y50.7123 
G01 X-2.7227 Y50.5389 
G01 X-2.7769 Y50.3721 
G01 X-2.8565 Y50.2157 
G01 X-2.9597 Y50.0738 
G01 X-3.0838 Y49.9497 
G01 X-3.2257 Y49.8465 
G01 X-3.3821 Y49.7669 
G01 X-3.5489 Y49.7127 
G01 X-3.7223 Y49.6852 
G01 X-3.8977 Y49.6852 
G01 X-4.0711 Y49.7127 
G01 X-4.2379 Y49.7669 
G01 X-4.3943 Y49.8465 
G01 X-4.5362 Y49.9497 
G01 X-4.6603 Y50.0738 
G01 X-4.7266 Y50.1650 
G01 X-7.7548 Y50.1650 
G01 X-7.8191 Y50.1916 
G01 X-7.8684 Y50.2409 
G01 X-7.8950 Y50.3052 
G00 Z2.0000 
G00 X-7.6950 Y52.7052 
G01 Z-0.1500 F100.00 
G01 X-7.6950 Y54.0448 F208.00 
G01 X-7.6684 Y54.1091 
G01 X-7.6191 Y54.1584 
G01 X-7.5548 Y54.1850 
G01 X-4.2876 Y54.1850 
G01 X-4.2822 Y54.1903 
G01 X-4.1403 Y54.2935 
G01 X-3.9839 Y54.3731 
G01 X-3.8171 Y54.4273 
G01 X-3.6437 Y54.4548 
G01 X-3.4683 Y54.4548 
G01 X-3.2949 Y54.4273 
G01 X-3.1281 Y54.3731 
G01 X-2.9717 Y54.2935 
G01 X-2.8298 Y54.1903 
G01 X-2.7057 Y54.0662 
G01 X-2.6025 Y53.9243 
G01 X-2.5229 Y53.7679 
G01 X-2.4687 Y53.6011 
G01 X-2.4412 Y53.4277 
G01 X-2.4412 Y53.2523 
G01 X-2.4687 Y53.0789 
G01 X-2.5229 Y52.9121 
G01 X-2.6025 Y52.7557 
G01 X-2.7057 Y52.6138 
G01 X-2.8298 Y52.4897 
G01 X-2.9717 Y52.3865 
G01 X-3.1281 Y52.3069 
G01 X-3.2949 Y52.2527 
G01 X-3.4683 Y52.2252 
G01 X-3.6437 Y52.2252 
G01 X-3.8171 Y52.2527 
G01 X-3.9839 Y52.3069 
G01 X-4.0980 Y52.3650 
G01 X-7.3548 Y52.3650 
G01 X-7.4191 Y52.3916 
G01 X-7.4684 Y52.4409 
G01 X-7.4950 Y52.5052 
G01 X-7.4950 Y52.5650 
G01 X-7.5548 Y52.5650 
G01 X-7.6191 Y52.5916 
G01 X-7.6684 Y52.6409 
G01 X-7.6950 Y52.7052 
G00 Z2.0000 
G00 X-7.9950 Y55.0452 
G01 Z-0.1500 F100.00 
G01 X-7.9950 Y56.3848 F208.00 
G01 X-7.9684 Y56.4491 
G01 X-7.9191 Y56.4984 
G01 X-7.8548 Y56.5250 
G01 X-4.7193 Y56.5250 
G01 X-4.6603 Y56.6062 
G01 X-4.5362 Y56.7303 
G01 X-4.3943 Y56.8335 
G01 X-4.2379 Y56.9131 
G01 X-4.0711 Y56.9673 
G01 X-3.8977 Y56.9948 
G01 X-3.7223 Y56.9948 
G01 X-3.5489 Y56.9673 
G01 X-3.3821 Y56.9131 
G01 X-3.2257 Y56.8335 
G01 X-3.0838 Y56.7303 
G01 X-2.9597 Y56.6062 
G01 X-2.8565 Y56.4643 
G01 X-2.7769 Y56.3079 
G01 X-2.7227 Y56.1410 
G01 X-2.6952 Y55.9677 
G01 X-2.6952 Y55.7923 
G01 X-2.7227 Y55.6189 
G01 X-2.7769 Y55.4521 
G01 X-2.8565 Y55.2957 
G01 X-2.9597 Y55.1538 
G01 X-3.0838 Y55.0297 
G01 X-3.2257 Y54.9265 
G01 X-3.3821 Y54.8469 
G01 X-3.5489 Y54.7927 
G01 X-3.7223 Y54.7652 
G01 X-3.8977 Y54.7652 
G01 X-4.0711 Y54.7927 
G01 X-4.2379 Y54.8469 
G01 X-4.3520 Y54.9050 
G01 X-7.8548 Y54.9050 
G01 X-7.9191 Y54.9316 
G01 X-7.9684 Y54.9809 
G01 X-7.9950 Y55.0452 
G00 Z2.0000 
G00 X-48.2752 Y54.1850 
G01 Z-0.1500 F100.00 
G01 X-48.2109 Y54.1584 F208.00 
G01 X-48.1616 Y54.1091 
G01 X-48.1350 Y54.0448 
G01 X-48.1350 Y52.7052 
G01 X-48.1616 Y52.6409 
G01 X-48.2109 Y52.5916 
G01 X-48.2752 Y52.5650 
G01 X-51.5224 Y52.5650 
G01 X-51.5978 Y52.4897 
G01 X-51.7397 Y52.3865 
G01 X-51.8961 Y52.3069 
G01 X-52.0629 Y52.2527 
G01 X-52.2363 Y52.2252 
G01 X-52.4117 Y52.2252 
G01 X-52.5851 Y52.2527 
G01 X-52.7519 Y52.3069 
G01 X-52.9083 Y52.3865 
G01 X-53.0502 Y52.4897 
G01 X-53.1743 Y52.6138 
G01 X-53.2775 Y52.7557 
G01 X-53.3571 Y52.9121 
G01 X-53.4113 Y53.0789 
G01 X-53.4388 Y53.2523 
G01 X-53.4388 Y53.4277 
G01 X-53.4113 Y53.6011 
G01 X-53.3571 Y53.7679 
G01 X-53.2775 Y53.9243 
G01 X-53.1743 Y54.0662 
G01 X-53.0502 Y54.1903 
G01 X-52.9083 Y54.2935 
G01 X-52.7519 Y54.3731 
G01 X-52.5851 Y54.4273 
G01 X-52.4117 Y54.4548 
G01 X-52.2363 Y54.4548 
G01 X-52.0629 Y54.4273 
G01 X-51.8961 Y54.3731 
G01 X-51.7397 Y54.2935 
G01 X-51.5978 Y54.1903 
G01 X-51.5924 Y54.1850 
G01 X-48.2752 Y54.1850 
G00 Z2.0000 
G00 X-48.0752 Y51.4850 
G01 Z-0.1500 F100.00 
G01 X-48.0109 Y51.4584 F208.00 
G01 X-47.9616 Y51.4091 
G01 X-47.9350 Y51.3448 
G01 X-47.9350 Y50.0052 
G01 X-47.9616 Y49.9409 
G01 X-48.0109 Y49.8916 
G01 X-48.0752 Y49.8650 
G01 X-51.4603 Y49.8650 
G01 X-51.4857 Y49.8465 
G01 X-51.6421 Y49.7669 
G01 X-51.8089 Y49.7127 
G01 X-51.9823 Y49.6852 
G01 X-52.1577 Y49.6852 
G01 X-52.3311 Y49.7127 
G01 X-52.4979 Y49.7669 
G01 X-52.6543 Y49.8465 
G01 X-52.7962 Y49.9497 
G01 X-52.9203 Y50.0738 
G01 X-53.0235 Y50.2157 
G01 X-53.1031 Y50.3721 
G01 X-53.1573 Y50.5389 
G01 X-53.1848 Y50.7123 
G01 X-53.1848 Y50.8877 
G01 X-53.1573 Y51.0611 
G01 X-53.1031 Y51.2279 
G01 X-53.0235 Y51.3843 
G01 X-52.9203 Y51.5262 
G01 X-52.7962 Y51.6503 
G01 X-52.6543 Y51.7535 
G01 X-52.4979 Y51.8331 
G01 X-52.3311 Y51.8873 
G01 X-52.1577 Y51.9148 
G01 X-51.9823 Y51.9148 
G01 X-51.8089 Y51.8873 
G01 X-51.6421 Y51.8331 
G01 X-51.4857 Y51.7535 
G01 X-51.3438 Y51.6503 
G01 X-51.2197 Y51.5262 
G01 X-51.1897 Y51.4850 
G01 X-48.0752 Y51.4850 
G00 Z2.0000 
G00 X-48.0752 Y48.8850 
G01 Z-0.1500 F100.00 
G01 X-48.0109 Y48.8584 F208.00 
G01 X-47.9616 Y48.8091 
G01 X-47.9350 Y48.7448 
G01 X-47.9350 Y47.4052 
G01 X-47.9616 Y47.3409 
G01 X-48.0109 Y47.2916 
G01 X-48.0752 Y47.2650 
G01 X-51.8212 Y47.2650 
G01 X-51.8961 Y47.2269 
G01 X-52.0629 Y47.1727 
G01 X-52.2363 Y47.1452 
G01 X-52.4117 Y47.1452 
G01 X-52.5851 Y47.1727 
G01 X-52.7519 Y47.2269 
G01 X-52.9083 Y47.3065 
G01 X-53.0502 Y47.4097 
G01 X-53.1743 Y47.5338 
G01 X-53.2775 Y47.6757 
G01 X-53.3571 Y47.8321 
G01 X-53.4113 Y47.9989 
G01 X-53.4388 Y48.1723 
G01 X-53.4388 Y48.3477 
G01 X-53.4113 Y48.5211 
G01 X-53.3571 Y48.6879 
G01 X-53.2775 Y48.8443 
G01 X-53.1743 Y48.9862 
G01 X-53.0502 Y49.1103 
G01 X-52.9083 Y49.2135 
G01 X-52.7519 Y49.2931 
G01 X-52.5851 Y49.3473 
G01 X-52.4117 Y49.3748 
G01 X-52.2363 Y49.3748 
G01 X-52.0629 Y49.3473 
G01 X-51.8961 Y49.2931 
G01 X-51.7397 Y49.2135 
G01 X-51.5978 Y49.1103 
G01 X-51.4737 Y48.9862 
G01 X-51.4001 Y48.8850 
G01 X-48.0752 Y48.8850 
G00 Z2.0000 
G00 X-4.6708 Y31.6623 
G01 Z-0.1500 F100.00 
G01 X-4.6708 Y31.8377 F208.00 
G01 X-4.6433 Y32.0111 
G01 X-4.5891 Y32.1779 
G01 X-4.5095 Y32.3343 
G01 X-4.4063 Y32.4762 
G01 X-4.2822 Y32.6003 
G01 X-4.1403 Y32.7035 
G01 X-3.9839 Y32.7831 
G01 X-3.8171 Y32.8373 
G01 X-3.6437 Y32.8648 
G01 X-3.4683 Y32.8648 
G01 X-3.2949 Y32.8373 
G01 X-3.1281 Y32.7831 
G01 X-2.9717 Y32.7035 
G01 X-2.8298 Y32.6003 
G01 X-2.7057 Y32.4762 
G01 X-2.6743 Y32.4330 
G01 X-1.5183 Y32.4330 
G01 X-1.3864 Y32.4068 
G01 X-1.2621 Y32.3553 
G01 X-1.1502 Y32.2805 
G01 X-0.9903 Y32.1206 
G01 X-0.9155 Y32.0087 
G01 X-0.8640 Y31.8844 
G01 X-0.8378 Y31.7525 
G01 X-0.8378 Y31.6179 
G01 X-0.8640 Y31.4860 
G01 X-0.9155 Y31.3617 
G01 X-0.9903 Y31.2498 
G01 X-1.0410 Y31.1991 
G01 X-1.0410 Y7.3568 
G01 X-1.0737 Y7.2348 
G01 X-1.1369 Y7.1254 
G01 X-7.2361 Y1.0262 
G01 X-7.3254 Y0.9369 
G01 X-7.4348 Y0.8737 
G01 X-7.5568 Y0.8410 
G01 X-31.8132 Y0.8410 
G01 X-31.9352 Y0.8737 
G01 X-32.0446 Y0.9369 
G01 X-32.1339 Y1.0262 
G01 X-32.2621 Y1.1544 
G01 X-32.3052 Y1.1458 
G01 X-32.4648 Y1.1458 
G01 X-32.6213 Y1.1769 
G01 X-32.7687 Y1.2380 
G01 X-32.9013 Y1.3266 
G01 X-33.0142 Y1.4395 
G01 X-33.1028 Y1.5721 
G01 X-33.1639 Y1.7195 
G01 X-33.1950 Y1.8760 
G01 X-33.1950 Y3.3501 
G01 X-33.2083 Y3.3700 
G01 X-33.2783 Y3.5390 
G01 X-33.3140 Y3.7185 
G01 X-33.3140 Y3.9015 
G01 X-33.2783 Y4.0810 
G01 X-33.2083 Y4.2500 
G01 X-33.1066 Y4.4022 
G01 X-32.9772 Y4.5316 
G01 X-32.8250 Y4.6333 
G01 X-32.6560 Y4.7033 
G01 X-32.4765 Y4.7390 
G01 X-32.2935 Y4.7390 
G01 X-32.1140 Y4.7033 
G01 X-31.9450 Y4.6333 
G01 X-31.7928 Y4.5316 
G01 X-31.6634 Y4.4022 
G01 X-31.5617 Y4.2500 
G01 X-31.4917 Y4.0810 
G01 X-31.4560 Y3.9015 
G01 X-31.4560 Y3.7185 
G01 X-31.4917 Y3.5390 
G01 X-31.5617 Y3.3700 
G01 X-31.5750 Y3.3501 
G01 X-31.5750 Y1.8760 
G01 X-31.5836 Y1.8329 
G01 X-31.5513 Y1.8006 
G01 X-7.8187 Y1.8006 
G01 X-2.0006 Y7.6187 
G01 X-2.0006 Y31.0670 
G01 X-2.6743 Y31.0670 
G01 X-2.7057 Y31.0238 
G01 X-2.8298 Y30.8997 
G01 X-2.9717 Y30.7965 
G01 X-3.1281 Y30.7169 
G01 X-3.2949 Y30.6627 
G01 X-3.4683 Y30.6352 
G01 X-3.6437 Y30.6352 
G01 X-3.8171 Y30.6627 
G01 X-3.9839 Y30.7169 
G01 X-4.1403 Y30.7965 
G01 X-4.2822 Y30.8997 
G01 X-4.4063 Y31.0238 
G01 X-4.5095 Y31.1657 
G01 X-4.5891 Y31.3221 
G01 X-4.6433 Y31.4889 
G01 X-4.6708 Y31.6623 
G00 Z2.0000 
G00 X-4.7635 Y29.7943 
G01 Z-0.1500 F100.00 
G01 X-4.6603 Y29.9362 F208.00 
G01 X-4.5362 Y30.0603 
G01 X-4.3943 Y30.1635 
G01 X-4.2379 Y30.2431 
G01 X-4.0711 Y30.2973 
G01 X-3.8977 Y30.3248 
G01 X-3.7223 Y30.3248 
G01 X-3.5489 Y30.2973 
G01 X-3.3821 Y30.2431 
G01 X-3.2257 Y30.1635 
G01 X-3.0838 Y30.0603 
G01 X-2.9597 Y29.9362 
G01 X-2.8565 Y29.7943 
G01 X-2.7769 Y29.6379 
G01 X-2.7227 Y29.4711 
G01 X-2.6952 Y29.2977 
G01 X-2.6952 Y29.1223 
G01 X-2.7227 Y28.9489 
G01 X-2.7769 Y28.7821 
G01 X-2.8565 Y28.6257 
G01 X-2.9597 Y28.4838 
G01 X-3.0838 Y28.3597 
G01 X-3.2257 Y28.2565 
G01 X-3.3821 Y28.1769 
G01 X-3.5489 Y28.1227 
G01 X-3.7223 Y28.0952 
G01 X-3.8977 Y28.0952 
G01 X-4.0711 Y28.1227 
G01 X-4.2379 Y28.1769 
G01 X-4.3943 Y28.2565 
G01 X-4.5362 Y28.3597 
G01 X-4.6036 Y28.4270 
G01 X-7.6229 Y28.4270 
G01 X-29.0436 Y7.0063 
G01 X-29.0350 Y6.9632 
G01 X-29.0350 Y4.2699 
G01 X-29.0217 Y4.2500 
G01 X-28.9517 Y4.0810 
G01 X-28.9160 Y3.9015 
G01 X-28.9160 Y3.7185 
G01 X-28.9517 Y3.5390 
G01 X-29.0217 Y3.3700 
G01 X-29.1234 Y3.2178 
G01 X-29.2528 Y3.0884 
G01 X-29.4050 Y2.9867 
G01 X-29.5740 Y2.9167 
G01 X-29.7535 Y2.8810 
G01 X-29.9365 Y2.8810 
G01 X-30.1160 Y2.9167 
G01 X-30.2850 Y2.9867 
G01 X-30.4372 Y3.0884 
G01 X-30.5666 Y3.2178 
G01 X-30.6683 Y3.3700 
G01 X-30.7383 Y3.5390 
G01 X-30.7740 Y3.7185 
G01 X-30.7740 Y3.9015 
G01 X-30.7383 Y4.0810 
G01 X-30.6683 Y4.2500 
G01 X-30.6550 Y4.2699 
G01 X-30.6550 Y6.9632 
G01 X-30.6239 Y7.1197 
G01 X-30.5628 Y7.2671 
G01 X-30.4742 Y7.3997 
G01 X-30.3613 Y7.5126 
G01 X-30.2287 Y7.6012 
G01 X-30.0813 Y7.6623 
G01 X-29.9248 Y7.6934 
G01 X-29.7652 Y7.6934 
G01 X-29.7221 Y7.6848 
G01 X-8.3014 Y29.1055 
G01 X-8.3014 Y29.1773 
G01 X-8.2752 Y29.3092 
G01 X-8.2237 Y29.4335 
G01 X-8.1489 Y29.5454 
G01 X-8.0538 Y29.6405 
G01 X-7.9419 Y29.7153 
G01 X-7.8176 Y29.7668 
G01 X-7.6857 Y29.7930 
G01 X-4.7641 Y29.7930 
G00 Z2.0000 
G00 X-4.5095 Y27.2543 
G01 Z-0.1500 F100.00 
G01 X-4.4063 Y27.3962 F208.00 
G01 X-4.2822 Y27.5203 
G01 X-4.1403 Y27.6235 
G01 X-3.9839 Y27.7031 
G01 X-3.8171 Y27.7573 
G01 X-3.6437 Y27.7848 
G01 X-3.4683 Y27.7848 
G01 X-3.2949 Y27.7573 
G01 X-3.1281 Y27.7031 
G01 X-2.9717 Y27.6235 
G01 X-2.8298 Y27.5203 
G01 X-2.7057 Y27.3962 
G01 X-2.6025 Y27.2543 
G01 X-2.5229 Y27.0979 
G01 X-2.4687 Y26.9311 
G01 X-2.4412 Y26.7577 
G01 X-2.4412 Y26.5823 
G01 X-2.4687 Y26.4089 
G01 X-2.5229 Y26.2421 
G01 X-2.6025 Y26.0857 
G01 X-2.7057 Y25.9438 
G01 X-2.8298 Y25.8197 
G01 X-2.9717 Y25.7165 
G01 X-3.1281 Y25.6369 
G01 X-3.2949 Y25.5827 
G01 X-3.4683 Y25.5552 
G01 X-3.6437 Y25.5552 
G01 X-3.8171 Y25.5827 
G01 X-3.9839 Y25.6369 
G01 X-4.1403 Y25.7165 
G01 X-4.2822 Y25.8197 
G01 X-4.3496 Y25.8870 
G01 X-7.3673 Y25.8870 
G01 X-26.5036 Y6.7507 
G01 X-26.4950 Y6.7076 
G01 X-26.4950 Y4.2699 
G01 X-26.4817 Y4.2500 
G01 X-26.4117 Y4.0810 
G01 X-26.3760 Y3.9015 
G01 X-26.3760 Y3.7185 
G01 X-26.4117 Y3.5390 
G01 X-26.4817 Y3.3700 
G01 X-26.5834 Y3.2178 
G01 X-26.7128 Y3.0884 
G01 X-26.8650 Y2.9867 
G01 X-27.0340 Y2.9167 
G01 X-27.2135 Y2.8810 
G01 X-27.3965 Y2.8810 
G01 X-27.5760 Y2.9167 
G01 X-27.7450 Y2.9867 
G01 X-27.8972 Y3.0884 
G01 X-28.0266 Y3.2178 
G01 X-28.1283 Y3.3700 
G01 X-28.1983 Y3.5390 
G01 X-28.2340 Y3.7185 
G01 X-28.2340 Y3.9015 
G01 X-28.1983 Y4.0810 
G01 X-28.1283 Y4.2500 
G01 X-28.1150 Y4.2699 
G01 X-28.1150 Y6.7076 
G01 X-28.0839 Y6.8641 
G01 X-28.0228 Y7.0115 
G01 X-27.9342 Y7.1441 
G01 X-27.8213 Y7.2570 
G01 X-27.6887 Y7.3456 
G01 X-27.5413 Y7.4067 
G01 X-27.3848 Y7.4378 
G01 X-27.2252 Y7.4378 
G01 X-27.1821 Y7.4292 
G01 X-8.0806 Y26.5307 
G01 X-8.0806 Y26.6373 
G01 X-8.0544 Y26.7692 
G01 X-8.0029 Y26.8935 
G01 X-7.9281 Y27.0054 
G01 X-7.8330 Y27.1005 
G01 X-7.7211 Y27.1753 
G01 X-7.5968 Y27.2268 
G01 X-7.4649 Y27.2530 
G01 X-4.5101 Y27.2530 
G00 Z2.0000 
G00 X-4.4063 Y22.3162 
G01 Z-0.1500 F100.00 
G01 X-4.2822 Y22.4403 F208.00 
G01 X-4.1403 Y22.5435 
G01 X-3.9839 Y22.6231 
G01 X-3.8171 Y22.6773 
G01 X-3.6437 Y22.7048 
G01 X-3.4683 Y22.7048 
G01 X-3.2949 Y22.6773 
G01 X-3.1281 Y22.6231 
G01 X-2.9717 Y22.5435 
G01 X-2.8298 Y22.4403 
G01 X-2.7057 Y22.3162 
G01 X-2.6025 Y22.1743 
G01 X-2.5229 Y22.0179 
G01 X-2.4687 Y21.8511 
G01 X-2.4412 Y21.6777 
G01 X-2.4412 Y21.5023 
G01 X-2.4687 Y21.3289 
G01 X-2.5229 Y21.1621 
G01 X-2.6025 Y21.0057 
G01 X-2.7057 Y20.8638 
G01 X-2.8298 Y20.7397 
G01 X-2.9717 Y20.6365 
G01 X-3.1281 Y20.5569 
G01 X-3.2949 Y20.5027 
G01 X-3.4683 Y20.4752 
G01 X-3.6437 Y20.4752 
G01 X-3.8171 Y20.5027 
G01 X-3.9839 Y20.5569 
G01 X-4.1403 Y20.6365 
G01 X-4.2822 Y20.7397 
G01 X-4.4063 Y20.8638 
G01 X-4.4377 Y20.9070 
G01 X-6.3621 Y20.9070 
G01 X-21.5420 Y5.7271 
G01 X-21.5420 Y4.4408 
G01 X-21.5034 Y4.4022 
G01 X-21.4017 Y4.2500 
G01 X-21.3317 Y4.0810 
G01 X-21.2960 Y3.9015 
G01 X-21.2960 Y3.7185 
G01 X-21.3317 Y3.5390 
G01 X-21.4017 Y3.3700 
G01 X-21.5034 Y3.2178 
G01 X-21.6328 Y3.0884 
G01 X-21.7850 Y2.9867 
G01 X-21.9540 Y2.9167 
G01 X-22.1335 Y2.8810 
G01 X-22.3165 Y2.8810 
G01 X-22.4960 Y2.9167 
G01 X-22.6650 Y2.9867 
G01 X-22.8172 Y3.0884 
G01 X-22.9466 Y3.2178 
G01 X-23.0483 Y3.3700 
G01 X-23.1183 Y3.5390 
G01 X-23.1540 Y3.7185 
G01 X-23.1540 Y3.9015 
G01 X-23.1183 Y4.0810 
G01 X-23.0483 Y4.2500 
G01 X-22.9466 Y4.4022 
G01 X-22.9080 Y4.4408 
G01 X-22.9080 Y6.0773 
G01 X-22.8818 Y6.2092 
G01 X-22.8303 Y6.3335 
G01 X-22.7555 Y6.4454 
G01 X-7.1755 Y22.0254 
G01 X-7.0804 Y22.1205 
G01 X-6.9685 Y22.1953 
G01 X-6.8442 Y22.2468 
G01 X-6.7123 Y22.2730 
G01 X-4.4377 Y22.2730 
G01 X-4.4063 Y22.3162 
G00 Z2.0000 
G00 X-4.9248 Y18.9623 
G01 Z-0.1500 F100.00 
G01 X-4.9248 Y19.1377 F208.00 
G01 X-4.8973 Y19.3111 
G01 X-4.8431 Y19.4779 
G01 X-4.7635 Y19.6343 
G01 X-4.6603 Y19.7762 
G01 X-4.5362 Y19.9003 
G01 X-4.3943 Y20.0035 
G01 X-4.2379 Y20.0831 
G01 X-4.0711 Y20.1373 
G01 X-3.8977 Y20.1648 
G01 X-3.7223 Y20.1648 
G01 X-3.5489 Y20.1373 
G01 X-3.3821 Y20.0831 
G01 X-3.2257 Y20.0035 
G01 X-3.0838 Y19.9003 
G01 X-2.9597 Y19.7762 
G01 X-2.8565 Y19.6343 
G01 X-2.7769 Y19.4779 
G01 X-2.7227 Y19.3111 
G01 X-2.6952 Y19.1377 
G01 X-2.6952 Y18.9623 
G01 X-2.7227 Y18.7889 
G01 X-2.7769 Y18.6221 
G01 X-2.8565 Y18.4657 
G01 X-2.9597 Y18.3238 
G01 X-3.0838 Y18.1997 
G01 X-3.2257 Y18.0965 
G01 X-3.3821 Y18.0169 
G01 X-3.5489 Y17.9627 
G01 X-3.7223 Y17.9352 
G01 X-3.8977 Y17.9352 
G01 X-4.0711 Y17.9627 
G01 X-4.2379 Y18.0169 
G01 X-4.3943 Y18.0965 
G01 X-4.5362 Y18.1997 
G01 X-4.6603 Y18.3238 
G01 X-4.7635 Y18.4657 
G01 X-4.8431 Y18.6221 
G01 X-4.8973 Y18.7889 
G01 X-4.9248 Y18.9623 
G00 Z2.0000 
G00 X-4.6708 Y16.4223 
G01 Z-0.1500 F100.00 
G01 X-4.6708 Y16.5977 F208.00 
G01 X-4.6433 Y16.7711 
G01 X-4.5891 Y16.9379 
G01 X-4.5095 Y17.0943 
G01 X-4.4063 Y17.2362 
G01 X-4.2822 Y17.3603 
G01 X-4.1403 Y17.4635 
G01 X-3.9839 Y17.5431 
G01 X-3.8171 Y17.5973 
G01 X-3.6437 Y17.6248 
G01 X-3.4683 Y17.6248 
G01 X-3.2949 Y17.5973 
G01 X-3.1281 Y17.5431 
G01 X-2.9717 Y17.4635 
G01 X-2.8298 Y17.3603 
G01 X-2.7057 Y17.2362 
G01 X-2.6025 Y17.0943 
G01 X-2.5229 Y16.9379 
G01 X-2.4687 Y16.7711 
G01 X-2.4412 Y16.5977 
G01 X-2.4412 Y16.4223 
G01 X-2.4687 Y16.2489 
G01 X-2.5229 Y16.0821 
G01 X-2.6025 Y15.9257 
G01 X-2.7057 Y15.7838 
G01 X-2.8298 Y15.6597 
G01 X-2.9717 Y15.5565 
G01 X-3.1281 Y15.4769 
G01 X-3.2949 Y15.4227 
G01 X-3.4683 Y15.3952 
G01 X-3.6437 Y15.3952 
G01 X-3.8171 Y15.4227 
G01 X-3.9839 Y15.4769 
G01 X-4.1403 Y15.5565 
G01 X-4.2822 Y15.6597 
G01 X-4.4063 Y15.7838 
G01 X-4.5095 Y15.9257 
G01 X-4.5891 Y16.0821 
G01 X-4.6433 Y16.2489 
G01 X-4.6708 Y16.4223 
G00 Z2.0000 
G00 X-25.6940 Y3.7185 
G01 Z-0.1500 F100.00 
G01 X-25.6940 Y3.9015 F208.00 
G01 X-25.6583 Y4.0810 
G01 X-25.5883 Y4.2500 
G01 X-25.4866 Y4.4022 
G01 X-25.4480 Y4.4408 
G01 X-25.4480 Y6.6743 
G01 X-25.4218 Y6.8062 
G01 X-25.3703 Y6.9305 
G01 X-25.2955 Y7.0424 
G01 X-25.2004 Y7.1375 
G01 X-25.0885 Y7.2123 
G01 X-24.9642 Y7.2637 
G01 X-24.8323 Y7.2900 
G01 X-24.7605 Y7.2900 
G01 X-8.0942 Y23.9563 
G01 X-8.1028 Y23.9994 
G01 X-8.1028 Y24.1590 
G01 X-8.0717 Y24.3155 
G01 X-8.0106 Y24.4629 
G01 X-7.9220 Y24.5955 
G01 X-7.8091 Y24.7084 
G01 X-7.6765 Y24.7970 
G01 X-7.5291 Y24.8581 
G01 X-7.3726 Y24.8892 
G01 X-4.6274 Y24.8892 
G01 X-4.5362 Y24.9803 
G01 X-4.3943 Y25.0835 
G01 X-4.2379 Y25.1631 
G01 X-4.0711 Y25.2173 
G01 X-3.8977 Y25.2448 
G01 X-3.7223 Y25.2448 
G01 X-3.5489 Y25.2173 
G01 X-3.3821 Y25.1631 
G01 X-3.2257 Y25.0835 
G01 X-3.0838 Y24.9803 
G01 X-2.9597 Y24.8562 
G01 X-2.8565 Y24.7143 
G01 X-2.7769 Y24.5579 
G01 X-2.7227 Y24.3910 
G01 X-2.6952 Y24.2177 
G01 X-2.6952 Y24.0423 
G01 X-2.7227 Y23.8689 
G01 X-2.7769 Y23.7021 
G01 X-2.8565 Y23.5457 
G01 X-2.9597 Y23.4038 
G01 X-3.0838 Y23.2797 
G01 X-3.2257 Y23.1765 
G01 X-3.3821 Y23.0969 
G01 X-3.5489 Y23.0427 
G01 X-3.7223 Y23.0152 
G01 X-3.8977 Y23.0152 
G01 X-4.0711 Y23.0427 
G01 X-4.2379 Y23.0969 
G01 X-4.3943 Y23.1765 
G01 X-4.5218 Y23.2692 
G01 X-7.3726 Y23.2692 
G01 X-7.4157 Y23.2778 
G01 X-24.0820 Y6.6115 
G01 X-24.0820 Y4.4408 
G01 X-24.0434 Y4.4022 
G01 X-23.9417 Y4.2500 
G01 X-23.8717 Y4.0810 
G01 X-23.8360 Y3.9015 
G01 X-23.8360 Y3.7185 
G01 X-23.8717 Y3.5390 
G01 X-23.9417 Y3.3700 
G01 X-24.0434 Y3.2178 
G01 X-24.1728 Y3.0884 
G01 X-24.3250 Y2.9867 
G01 X-24.4940 Y2.9167 
G01 X-24.6735 Y2.8810 
G01 X-24.8565 Y2.8810 
G01 X-25.0360 Y2.9167 
G01 X-25.2050 Y2.9867 
G01 X-25.3572 Y3.0884 
G01 X-25.4866 Y3.2178 
G01 X-25.5883 Y3.3700 
G01 X-25.6583 Y3.5390 
G01 X-25.6940 Y3.7185 
G00 Z2.0000 
G00 X-20.6140 Y3.7185 
G01 Z-0.1500 F100.00 
G01 X-20.6140 Y3.9015 F208.00 
G01 X-20.5783 Y4.0810 
G01 X-20.5083 Y4.2500 
G01 X-20.4066 Y4.4022 
G01 X-20.2772 Y4.5316 
G01 X-20.1250 Y4.6333 
G01 X-19.9560 Y4.7033 
G01 X-19.7765 Y4.7390 
G01 X-19.5935 Y4.7390 
G01 X-19.4140 Y4.7033 
G01 X-19.2450 Y4.6333 
G01 X-19.0928 Y4.5316 
G01 X-18.9634 Y4.4022 
G01 X-18.8617 Y4.2500 
G01 X-18.7917 Y4.0810 
G01 X-18.7560 Y3.9015 
G01 X-18.7560 Y3.7185 
G01 X-18.7917 Y3.5390 
G01 X-18.8617 Y3.3700 
G01 X-18.9634 Y3.2178 
G01 X-19.0928 Y3.0884 
G01 X-19.2450 Y2.9867 
G01 X-19.4140 Y2.9167 
G01 X-19.5935 Y2.8810 
G01 X-19.7765 Y2.8810 
G01 X-19.9560 Y2.9167 
G01 X-20.1250 Y2.9867 
G01 X-20.2772 Y3.0884 
G01 X-20.4066 Y3.2178 
G01 X-20.5083 Y3.3700 
G01 X-20.5783 Y3.5390 
G01 X-20.6140 Y3.7185 
G00 Z2.0000 
G00 X-18.0740 Y3.7185 
G01 Z-0.1500 F100.00 
G01 X-18.0740 Y3.9015 F208.00 
G01 X-18.0383 Y4.0810 
G01 X-17.9683 Y4.2500 
G01 X-17.8666 Y4.4022 
G01 X-17.7372 Y4.5316 
G01 X-17.5850 Y4.6333 
G01 X-17.4160 Y4.7033 
G01 X-17.2365 Y4.7390 
G01 X-17.0535 Y4.7390 
G01 X-16.8740 Y4.7033 
G01 X-16.7050 Y4.6333 
G01 X-16.5528 Y4.5316 
G01 X-16.4234 Y4.4022 
G01 X-16.3217 Y4.2500 
G01 X-16.2517 Y4.0810 
G01 X-16.2160 Y3.9015 
G01 X-16.2160 Y3.7185 
G01 X-16.2517 Y3.5390 
G01 X-16.3217 Y3.3700 
G01 X-16.4234 Y3.2178 
G01 X-16.5528 Y3.0884 
G01 X-16.7050 Y2.9867 
G01 X-16.8740 Y2.9167 
G01 X-17.0535 Y2.8810 
G01 X-17.2365 Y2.8810 
G01 X-17.4160 Y2.9167 
G01 X-17.5850 Y2.9867 
G01 X-17.7372 Y3.0884 
G01 X-17.8666 Y3.2178 
G01 X-17.9683 Y3.3700 
G01 X-18.0383 Y3.5390 
G01 X-18.0740 Y3.7185 
G00 Z2.0000 
G00 X-18.1740 Y3.7087 
G01 Z-0.1500 F100.00 
G01 X-18.1740 Y3.9113 F208.00 
G01 X-18.1345 Y4.1101 
G01 X-18.0569 Y4.2974 
G01 X-17.9443 Y4.4659 
G01 X-17.8009 Y4.6093 
G01 X-17.6324 Y4.7219 
G01 X-17.4451 Y4.7995 
G01 X-17.2463 Y4.8390 
G01 X-17.0436 Y4.8390 
G01 X-16.8449 Y4.7995 
G01 X-16.6576 Y4.7219 
G01 X-16.4891 Y4.6093 
G01 X-16.3457 Y4.4659 
G01 X-16.2331 Y4.2974 
G01 X-16.1555 Y4.1101 
G01 X-16.1160 Y3.9113 
G01 X-16.1160 Y3.7087 
G01 X-16.1555 Y3.5099 
G01 X-16.2331 Y3.3226 
G01 X-16.3457 Y3.1541 
G01 X-16.4891 Y3.0107 
G01 X-16.6576 Y2.8981 
G01 X-16.8449 Y2.8205 
G01 X-17.0436 Y2.7810 
G01 X-17.2463 Y2.7810 
G01 X-17.4451 Y2.8205 
G01 X-17.6324 Y2.8981 
G01 X-17.8009 Y3.0107 
G01 X-17.9443 Y3.1541 
G01 X-18.0569 Y3.3226 
G01 X-18.1345 Y3.5099 
G01 X-18.1740 Y3.7087 
G00 Z2.0000 
G00 X-20.7140 Y3.7087 
G01 Z-0.1500 F100.00 
G01 X-20.7140 Y3.9113 F208.00 
G01 X-20.6745 Y4.1101 
G01 X-20.5969 Y4.2974 
G01 X-20.4843 Y4.4659 
G01 X-20.3409 Y4.6093 
G01 X-20.1724 Y4.7219 
G01 X-19.9851 Y4.7995 
G01 X-19.7863 Y4.8390 
G01 X-19.5837 Y4.8390 
G01 X-19.3849 Y4.7995 
G01 X-19.1976 Y4.7219 
G01 X-19.0291 Y4.6093 
G01 X-18.8857 Y4.4659 
G01 X-18.7731 Y4.2974 
G01 X-18.6955 Y4.1101 
G01 X-18.6560 Y3.9113 
G01 X-18.6560 Y3.7087 
G01 X-18.6955 Y3.5099 
G01 X-18.7731 Y3.3226 
G01 X-18.8857 Y3.1541 
G01 X-19.0291 Y3.0107 
G01 X-19.1976 Y2.8981 
G01 X-19.3849 Y2.8205 
G01 X-19.5837 Y2.7810 
G01 X-19.7863 Y2.7810 
G01 X-19.9851 Y2.8205 
G01 X-20.1724 Y2.8981 
G01 X-20.3409 Y3.0107 
G01 X-20.4843 Y3.1541 
G01 X-20.5969 Y3.3226 
G01 X-20.6745 Y3.5099 
G01 X-20.7140 Y3.7087 
G00 Z2.0000 
G00 X-25.7940 Y3.7087 
G01 Z-0.1500 F100.00 
G01 X-25.7940 Y3.9113 F208.00 
G01 X-25.7545 Y4.1101 
G01 X-25.6769 Y4.2974 
G01 X-25.5643 Y4.4659 
G01 X-25.5480 Y4.4822 
G01 X-25.5480 Y6.6841 
G01 X-25.5179 Y6.8354 
G01 X-25.4589 Y6.9779 
G01 X-25.3732 Y7.1061 
G01 X-25.2641 Y7.2152 
G01 X-25.1359 Y7.3009 
G01 X-24.9934 Y7.3599 
G01 X-24.8421 Y7.3900 
G01 X-24.8020 Y7.3900 
G01 X-8.2027 Y23.9892 
G01 X-8.2028 Y24.1688 
G01 X-8.1678 Y24.3446 
G01 X-8.0992 Y24.5102 
G01 X-7.9996 Y24.6593 
G01 X-7.8729 Y24.7860 
G01 X-7.7238 Y24.8856 
G01 X-7.5582 Y24.9542 
G01 X-7.3824 Y24.9892 
G01 X-4.6688 Y24.9892 
G01 X-4.6014 Y25.0566 
G01 X-4.4467 Y25.1690 
G01 X-4.2763 Y25.2558 
G01 X-4.0945 Y25.3149 
G01 X-3.9056 Y25.3448 
G01 X-3.7144 Y25.3448 
G01 X-3.5255 Y25.3149 
G01 X-3.3437 Y25.2558 
G01 X-3.1733 Y25.1690 
G01 X-3.0186 Y25.0566 
G01 X-2.8834 Y24.9214 
G01 X-2.7710 Y24.7667 
G01 X-2.6842 Y24.5963 
G01 X-2.6251 Y24.4145 
G01 X-2.5952 Y24.2256 
G01 X-2.5952 Y24.0344 
G01 X-2.6251 Y23.8455 
G01 X-2.6842 Y23.6637 
G01 X-2.7710 Y23.4933 
G01 X-2.8834 Y23.3386 
G01 X-3.0186 Y23.2034 
G01 X-3.1733 Y23.0910 
G01 X-3.3437 Y23.0042 
G01 X-3.5255 Y22.9451 
G01 X-3.7144 Y22.9152 
G01 X-3.9056 Y22.9152 
G01 X-4.0945 Y22.9451 
G01 X-4.2763 Y23.0042 
G01 X-4.4467 Y23.0910 
G01 X-4.5543 Y23.1692 
G01 X-7.3824 Y23.1692 
G01 X-23.9820 Y6.5700 
G01 X-23.9820 Y4.4822 
G01 X-23.9657 Y4.4659 
G01 X-23.8531 Y4.2974 
G01 X-23.7755 Y4.1101 
G01 X-23.7360 Y3.9113 
G01 X-23.7360 Y3.7087 
G01 X-23.7755 Y3.5099 
G01 X-23.8531 Y3.3226 
G01 X-23.9657 Y3.1541 
G01 X-24.1090 Y3.0107 
G01 X-24.2776 Y2.8981 
G01 X-24.4649 Y2.8205 
G01 X-24.6637 Y2.7810 
G01 X-24.8663 Y2.7810 
G01 X-25.0651 Y2.8205 
G01 X-25.2524 Y2.8981 
G01 X-25.4209 Y3.0107 
G01 X-25.5643 Y3.1541 
G01 X-25.6769 Y3.3226 
G01 X-25.7545 Y3.5099 
G01 X-25.7940 Y3.7087 
G00 Z2.0000 
G00 X-4.7708 Y16.4144 
G01 Z-0.1500 F100.00 
G01 X-4.7708 Y16.6056 F208.00 
G01 X-4.7409 Y16.7945 
G01 X-4.6818 Y16.9763 
G01 X-4.5950 Y17.1467 
G01 X-4.4826 Y17.3014 
G01 X-4.3474 Y17.4366 
G01 X-4.1927 Y17.5490 
G01 X-4.0223 Y17.6358 
G01 X-3.8405 Y17.6949 
G01 X-3.6516 Y17.7248 
G01 X-3.4604 Y17.7248 
G01 X-3.2715 Y17.6949 
G01 X-3.0897 Y17.6358 
G01 X-2.9193 Y17.5490 
G01 X-2.7646 Y17.4366 
G01 X-2.6294 Y17.3014 
G01 X-2.5170 Y17.1467 
G01 X-2.4302 Y16.9763 
G01 X-2.3711 Y16.7945 
G01 X-2.3412 Y16.6056 
G01 X-2.3412 Y16.4144 
G01 X-2.3711 Y16.2255 
G01 X-2.4302 Y16.0437 
G01 X-2.5170 Y15.8733 
G01 X-2.6294 Y15.7186 
G01 X-2.7646 Y15.5834 
G01 X-2.9193 Y15.4710 
G01 X-3.0897 Y15.3842 
G01 X-3.2715 Y15.3251 
G01 X-3.4604 Y15.2952 
G01 X-3.6516 Y15.2952 
G01 X-3.8405 Y15.3251 
G01 X-4.0223 Y15.3842 
G01 X-4.1927 Y15.4710 
G01 X-4.3474 Y15.5834 
G01 X-4.4826 Y15.7186 
G01 X-4.5950 Y15.8733 
G01 X-4.6818 Y16.0437 
G01 X-4.7409 Y16.2255 
G01 X-4.7708 Y16.4144 
G00 Z2.0000 
G00 X-5.0248 Y18.9544 
G01 Z-0.1500 F100.00 
G01 X-5.0248 Y19.1456 F208.00 
G01 X-4.9949 Y19.3345 
G01 X-4.9358 Y19.5163 
G01 X-4.8490 Y19.6867 
G01 X-4.7366 Y19.8414 
G01 X-4.6014 Y19.9766 
G01 X-4.4467 Y20.0890 
G01 X-4.2763 Y20.1758 
G01 X-4.0945 Y20.2349 
G01 X-3.9056 Y20.2648 
G01 X-3.7144 Y20.2648 
G01 X-3.5255 Y20.2349 
G01 X-3.3437 Y20.1758 
G01 X-3.1733 Y20.0890 
G01 X-3.0186 Y19.9766 
G01 X-2.8834 Y19.8414 
G01 X-2.7710 Y19.6867 
G01 X-2.6842 Y19.5163 
G01 X-2.6251 Y19.3345 
G01 X-2.5952 Y19.1456 
G01 X-2.5952 Y18.9544 
G01 X-2.6251 Y18.7655 
G01 X-2.6842 Y18.5837 
G01 X-2.7710 Y18.4133 
G01 X-2.8834 Y18.2586 
G01 X-3.0186 Y18.1234 
G01 X-3.1733 Y18.0110 
G01 X-3.3437 Y17.9242 
G01 X-3.5255 Y17.8651 
G01 X-3.7144 Y17.8352 
G01 X-3.9056 Y17.8352 
G01 X-4.0945 Y17.8651 
G01 X-4.2763 Y17.9242 
G01 X-4.4467 Y18.0110 
G01 X-4.6014 Y18.1234 
G01 X-4.7366 Y18.2586 
G01 X-4.8490 Y18.4133 
G01 X-4.9358 Y18.5837 
G01 X-4.9949 Y18.7655 
G01 X-5.0248 Y18.9544 
G00 Z2.0000 
G00 X-4.4826 Y22.3814 
G01 Z-0.1500 F100.00 
G01 X-4.3474 Y22.5166 F208.00 
G01 X-4.1927 Y22.6290 
G01 X-4.0223 Y22.7158 
G01 X-3.8405 Y22.7749 
G01 X-3.6516 Y22.8048 
G01 X-3.4604 Y22.8048 
G01 X-3.2715 Y22.7749 
G01 X-3.0897 Y22.7158 
G01 X-2.9193 Y22.6290 
G01 X-2.7646 Y22.5166 
G01 X-2.6294 Y22.3814 
G01 X-2.5170 Y22.2267 
G01 X-2.4302 Y22.0563 
G01 X-2.3711 Y21.8745 
G01 X-2.3412 Y21.6856 
G01 X-2.3412 Y21.4944 
G01 X-2.3711 Y21.3055 
G01 X-2.4302 Y21.1237 
G01 X-2.5170 Y20.9533 
G01 X-2.6294 Y20.7986 
G01 X-2.7646 Y20.6634 
G01 X-2.9193 Y20.5510 
G01 X-3.0897 Y20.4642 
G01 X-3.2715 Y20.4051 
G01 X-3.4604 Y20.3752 
G01 X-3.6516 Y20.3752 
G01 X-3.8405 Y20.4051 
G01 X-4.0223 Y20.4642 
G01 X-4.1927 Y20.5510 
G01 X-4.3474 Y20.6634 
G01 X-4.4826 Y20.7986 
G01 X-4.4887 Y20.8070 
G01 X-6.3207 Y20.8070 
G01 X-21.4420 Y5.6857 
G01 X-21.4420 Y4.4822 
G01 X-21.4257 Y4.4659 
G01 X-21.3131 Y4.2974 
G01 X-21.2355 Y4.1101 
G01 X-21.1960 Y3.9113 
G01 X-21.1960 Y3.7087 
G01 X-21.2355 Y3.5099 
G01 X-21.3131 Y3.3226 
G01 X-21.4257 Y3.1541 
G01 X-21.5691 Y3.0107 
G01 X-21.7376 Y2.8981 
G01 X-21.9248 Y2.8205 
G01 X-22.1237 Y2.7810 
G01 X-22.3263 Y2.7810 
G01 X-22.5251 Y2.8205 
G01 X-22.7124 Y2.8981 
G01 X-22.8809 Y3.0107 
G01 X-23.0243 Y3.1541 
G01 X-23.1369 Y3.3226 
G01 X-23.2145 Y3.5099 
G01 X-23.2540 Y3.7087 
G01 X-23.2540 Y3.9113 
G01 X-23.2145 Y4.1101 
G01 X-23.1369 Y4.2974 
G01 X-23.0243 Y4.4659 
G01 X-23.0080 Y4.4822 
G01 X-23.0080 Y6.0871 
G01 X-22.9779 Y6.2384 
G01 X-22.9189 Y6.3809 
G01 X-22.8332 Y6.5091 
G01 X-7.2532 Y22.0891 
G01 X-7.1441 Y22.1982 
G01 X-7.0159 Y22.2839 
G01 X-6.8734 Y22.3429 
G01 X-6.7221 Y22.3730 
G01 X-4.4887 Y22.3730 
G01 X-4.4826 Y22.3814 
G00 Z2.0000 
G00 X-4.4826 Y27.4614 
G01 Z-0.1500 F100.00 
G01 X-4.3474 Y27.5966 F208.00 
G01 X-4.1927 Y27.7090 
G01 X-4.0223 Y27.7958 
G01 X-3.8405 Y27.8549 
G01 X-3.6516 Y27.8848 
G01 X-3.4604 Y27.8848 
G01 X-3.2715 Y27.8549 
G01 X-3.0897 Y27.7958 
G01 X-2.9193 Y27.7090 
G01 X-2.7646 Y27.5966 
G01 X-2.6294 Y27.4614 
G01 X-2.5170 Y27.3067 
G01 X-2.4302 Y27.1363 
G01 X-2.3711 Y26.9545 
G01 X-2.3412 Y26.7656 
G01 X-2.3412 Y26.5744 
G01 X-2.3711 Y26.3855 
G01 X-2.4302 Y26.2037 
G01 X-2.5170 Y26.0333 
G01 X-2.6294 Y25.8786 
G01 X-2.7646 Y25.7434 
G01 X-2.9193 Y25.6310 
G01 X-3.0897 Y25.5442 
G01 X-3.2715 Y25.4851 
G01 X-3.4604 Y25.4552 
G01 X-3.6516 Y25.4552 
G01 X-3.8405 Y25.4851 
G01 X-4.0223 Y25.5442 
G01 X-4.1927 Y25.6310 
G01 X-4.3474 Y25.7434 
G01 X-4.3910 Y25.7870 
G01 X-7.3258 Y25.7870 
G01 X-26.3951 Y6.7178 
G01 X-26.3950 Y4.3002 
G01 X-26.3931 Y4.2974 
G01 X-26.3155 Y4.1101 
G01 X-26.2760 Y3.9113 
G01 X-26.2760 Y3.7087 
G01 X-26.3155 Y3.5099 
G01 X-26.3931 Y3.3226 
G01 X-26.5057 Y3.1541 
G01 X-26.6491 Y3.0107 
G01 X-26.8176 Y2.8981 
G01 X-27.0049 Y2.8205 
G01 X-27.2036 Y2.7810 
G01 X-27.4063 Y2.7810 
G01 X-27.6051 Y2.8205 
G01 X-27.7924 Y2.8981 
G01 X-27.9609 Y3.0107 
G01 X-28.1043 Y3.1541 
G01 X-28.2169 Y3.3226 
G01 X-28.2945 Y3.5099 
G01 X-28.3340 Y3.7087 
G01 X-28.3340 Y3.9113 
G01 X-28.2945 Y4.1101 
G01 X-28.2169 Y4.2974 
G01 X-28.2150 Y4.3002 
G01 X-28.2150 Y6.7174 
G01 X-28.1800 Y6.8932 
G01 X-28.1114 Y7.0588 
G01 X-28.0118 Y7.2079 
G01 X-27.8851 Y7.3346 
G01 X-27.7360 Y7.4342 
G01 X-27.5704 Y7.5028 
G01 X-27.3946 Y7.5378 
G01 X-27.2154 Y7.5378 
G01 X-8.1806 Y26.5722 
G01 X-8.1806 Y26.6471 
G01 X-8.1505 Y26.7984 
G01 X-8.0915 Y26.9409 
G01 X-8.0058 Y27.0691 
G01 X-7.8967 Y27.1782 
G01 X-7.7685 Y27.2639 
G01 X-7.6260 Y27.3229 
G01 X-7.4747 Y27.3530 
G01 X-4.5613 Y27.3530 
G01 X-4.4826 Y27.4614 
G00 Z2.0000 
G00 X-4.7366 Y30.0014 
G01 Z-0.1500 F100.00 
G01 X-4.6014 Y30.1366 F208.00 
G01 X-4.4467 Y30.2490 
G01 X-4.2763 Y30.3358 
G01 X-4.0945 Y30.3949 
G01 X-3.9056 Y30.4248 
G01 X-3.7144 Y30.4248 
G01 X-3.5255 Y30.3949 
G01 X-3.3437 Y30.3358 
G01 X-3.1733 Y30.2490 
G01 X-3.0186 Y30.1366 
G01 X-2.8834 Y30.0014 
G01 X-2.7710 Y29.8467 
G01 X-2.6842 Y29.6763 
G01 X-2.6251 Y29.4945 
G01 X-2.5952 Y29.3056 
G01 X-2.5952 Y29.1144 
G01 X-2.6251 Y28.9255 
G01 X-2.6842 Y28.7437 
G01 X-2.7710 Y28.5733 
G01 X-2.8834 Y28.4186 
G01 X-3.0186 Y28.2834 
G01 X-3.1733 Y28.1710 
G01 X-3.3437 Y28.0842 
G01 X-3.5255 Y28.0251 
G01 X-3.7144 Y27.9952 
G01 X-3.9056 Y27.9952 
G01 X-4.0945 Y28.0251 
G01 X-4.2763 Y28.0842 
G01 X-4.4467 Y28.1710 
G01 X-4.6014 Y28.2834 
G01 X-4.6450 Y28.3270 
G01 X-7.5814 Y28.3270 
G01 X-28.9351 Y6.9734 
G01 X-28.9350 Y4.3002 
G01 X-28.9331 Y4.2974 
G01 X-28.8555 Y4.1101 
G01 X-28.8160 Y3.9113 
G01 X-28.8160 Y3.7087 
G01 X-28.8555 Y3.5099 
G01 X-28.9331 Y3.3226 
G01 X-29.0457 Y3.1541 
G01 X-29.1891 Y3.0107 
G01 X-29.3576 Y2.8981 
G01 X-29.5449 Y2.8205 
G01 X-29.7437 Y2.7810 
G01 X-29.9463 Y2.7810 
G01 X-30.1451 Y2.8205 
G01 X-30.3324 Y2.8981 
G01 X-30.5009 Y3.0107 
G01 X-30.6443 Y3.1541 
G01 X-30.7569 Y3.3226 
G01 X-30.8345 Y3.5099 
G01 X-30.8740 Y3.7087 
G01 X-30.8740 Y3.9113 
G01 X-30.8345 Y4.1101 
G01 X-30.7569 Y4.2974 
G01 X-30.7550 Y4.3002 
G01 X-30.7550 Y6.9730 
G01 X-30.7200 Y7.1488 
G01 X-30.6514 Y7.3144 
G01 X-30.5518 Y7.4635 
G01 X-30.4251 Y7.5902 
G01 X-30.2760 Y7.6898 
G01 X-30.1104 Y7.7584 
G01 X-29.9346 Y7.7934 
G01 X-29.7554 Y7.7934 
G01 X-8.4014 Y29.1470 
G01 X-8.4014 Y29.1871 
G01 X-8.3713 Y29.3384 
G01 X-8.3123 Y29.4809 
G01 X-8.2266 Y29.6091 
G01 X-8.1175 Y29.7182 
G01 X-7.9893 Y29.8039 
G01 X-7.8468 Y29.8629 
G01 X-7.6955 Y29.8930 
G01 X-4.8153 Y29.8930 
G01 X-4.7366 Y30.0014 
G00 Z2.0000 
G00 X-4.7708 Y31.6544 
G01 Z-0.1500 F100.00 
G01 X-4.7708 Y31.8456 F208.00 
G01 X-4.7409 Y32.0345 
G01 X-4.6818 Y32.2163 
G01 X-4.5950 Y32.3867 
G01 X-4.4826 Y32.5414 
G01 X-4.3474 Y32.6766 
G01 X-4.1927 Y32.7890 
G01 X-4.0223 Y32.8758 
G01 X-3.8405 Y32.9349 
G01 X-3.6516 Y32.9648 
G01 X-3.4604 Y32.9648 
G01 X-3.2715 Y32.9349 
G01 X-3.0897 Y32.8758 
G01 X-2.9193 Y32.7890 
G01 X-2.7646 Y32.6766 
G01 X-2.6294 Y32.5414 
G01 X-2.6233 Y32.5330 
G01 X-1.5085 Y32.5330 
G01 X-1.3572 Y32.5029 
G01 X-1.2147 Y32.4439 
G01 X-1.0865 Y32.3582 
G01 X-0.9126 Y32.1843 
G01 X-0.8269 Y32.0561 
G01 X-0.7679 Y31.9136 
G01 X-0.7378 Y31.7623 
G01 X-0.7378 Y31.6081 
G01 X-0.7679 Y31.4568 
G01 X-0.8269 Y31.3143 
G01 X-0.9126 Y31.1861 
G01 X-0.9410 Y31.1577 
G01 X-0.9410 Y7.3629 
G01 X-0.9633 Y7.2509 
G01 X-1.0070 Y7.1454 
G01 X-1.0704 Y7.0504 
G01 X-7.1696 Y0.9512 
G01 X-7.2504 Y0.8704 
G01 X-7.3454 Y0.8070 
G01 X-7.4509 Y0.7633 
G01 X-7.5629 Y0.7410 
G01 X-31.8071 Y0.7410 
G01 X-31.9191 Y0.7633 
G01 X-32.0246 Y0.8070 
G01 X-32.1196 Y0.8704 
G01 X-32.2004 Y0.9512 
G01 X-32.2950 Y1.0459 
G01 X-32.4746 Y1.0458 
G01 X-32.6504 Y1.0808 
G01 X-32.8160 Y1.1494 
G01 X-32.9651 Y1.2490 
G01 X-33.0918 Y1.3757 
G01 X-33.1914 Y1.5248 
G01 X-33.2600 Y1.6904 
G01 X-33.2950 Y1.8662 
G01 X-33.2950 Y3.3198 
G01 X-33.2969 Y3.3226 
G01 X-33.3745 Y3.5099 
G01 X-33.4140 Y3.7087 
G01 X-33.4140 Y3.9113 
G01 X-33.3745 Y4.1101 
G01 X-33.2969 Y4.2974 
G01 X-33.1843 Y4.4659 
G01 X-33.0409 Y4.6093 
G01 X-32.8724 Y4.7219 
G01 X-32.6851 Y4.7995 
G01 X-32.4863 Y4.8390 
G01 X-32.2837 Y4.8390 
G01 X-32.0849 Y4.7995 
G01 X-31.8976 Y4.7219 
G01 X-31.7291 Y4.6093 
G01 X-31.5857 Y4.4659 
G01 X-31.4731 Y4.2974 
G01 X-31.3955 Y4.1101 
G01 X-31.3560 Y3.9113 
G01 X-31.3560 Y3.7087 
G01 X-31.3955 Y3.5099 
G01 X-31.4731 Y3.3226 
G01 X-31.4750 Y3.3198 
G01 X-31.4750 Y1.9006 
G01 X-7.8602 Y1.9006 
G01 X-2.1006 Y7.6602 
G01 X-2.1006 Y30.9670 
G01 X-2.6233 Y30.9670 
G01 X-2.6294 Y30.9586 
G01 X-2.7646 Y30.8234 
G01 X-2.9193 Y30.7110 
G01 X-3.0897 Y30.6242 
G01 X-3.2715 Y30.5651 
G01 X-3.4604 Y30.5352 
G01 X-3.6516 Y30.5352 
G01 X-3.8405 Y30.5651 
G01 X-4.0223 Y30.6242 
G01 X-4.1927 Y30.7110 
G01 X-4.3474 Y30.8234 
G01 X-4.4826 Y30.9586 
G01 X-4.5950 Y31.1133 
G01 X-4.6818 Y31.2837 
G01 X-4.7409 Y31.4655 
G01 X-4.7708 Y31.6544 
G00 Z2.0000 
G00 X-4.6014 Y35.2166 
G01 Z-0.1500 F100.00 
G01 X-4.4467 Y35.3290 F208.00 
G01 X-4.2763 Y35.4158 
G01 X-4.0945 Y35.4749 
G01 X-3.9056 Y35.5048 
G01 X-3.7144 Y35.5048 
G01 X-3.5255 Y35.4749 
G01 X-3.3437 Y35.4158 
G01 X-3.1733 Y35.3290 
G01 X-3.0186 Y35.2166 
G01 X-2.8834 Y35.0814 
G01 X-2.7710 Y34.9267 
G01 X-2.6842 Y34.7563 
G01 X-2.6251 Y34.5745 
G01 X-2.5952 Y34.3856 
G01 X-2.5952 Y34.1944 
G01 X-2.6251 Y34.0055 
G01 X-2.6842 Y33.8237 
G01 X-2.7710 Y33.6533 
G01 X-2.8834 Y33.4986 
G01 X-3.0186 Y33.3634 
G01 X-3.1733 Y33.2510 
G01 X-3.3437 Y33.1642 
G01 X-3.5255 Y33.1051 
G01 X-3.7144 Y33.0752 
G01 X-3.9056 Y33.0752 
G01 X-4.0945 Y33.1051 
G01 X-4.2763 Y33.1642 
G01 X-4.4467 Y33.2510 
G01 X-4.6014 Y33.3634 
G01 X-4.7366 Y33.4986 
G01 X-4.8490 Y33.6533 
G01 X-4.8772 Y33.7086 
G01 X-6.8278 Y33.7086 
G01 X-9.1186 Y31.4178 
G01 X-9.1186 Y29.0029 
G01 X-9.1448 Y28.8712 
G01 X-9.1962 Y28.7472 
G01 X-9.2707 Y28.6356 
G01 X-9.3656 Y28.5407 
G01 X-14.1024 Y23.8039 
G01 X-14.2140 Y23.7294 
G01 X-14.3380 Y23.6780 
G01 X-14.4697 Y23.6518 
G01 X-14.6039 Y23.6518 
G01 X-14.7356 Y23.6780 
G01 X-14.8596 Y23.7294 
G01 X-14.8956 Y23.7534 
G01 X-26.8389 Y23.7534 
G01 X-26.8740 Y23.7300 
G01 X-27.0396 Y23.6614 
G01 X-27.2154 Y23.6264 
G01 X-27.3946 Y23.6264 
G01 X-27.5704 Y23.6614 
G01 X-27.7360 Y23.7300 
G01 X-27.8851 Y23.8296 
G01 X-28.0118 Y23.9563 
G01 X-28.1114 Y24.1054 
G01 X-28.1800 Y24.2710 
G01 X-28.2150 Y24.4468 
G01 X-28.2150 Y26.1798 
G01 X-28.2169 Y26.1826 
G01 X-28.2945 Y26.3698 
G01 X-28.3340 Y26.5687 
G01 X-28.3340 Y26.7713 
G01 X-28.2945 Y26.9701 
G01 X-28.2169 Y27.1574 
G01 X-28.1043 Y27.3259 
G01 X-27.9609 Y27.4693 
G01 X-27.7924 Y27.5819 
G01 X-27.6051 Y27.6595 
G01 X-27.4063 Y27.6990 
G01 X-27.2036 Y27.6990 
G01 X-27.0049 Y27.6595 
G01 X-26.8176 Y27.5819 
G01 X-26.6491 Y27.4693 
G01 X-26.5057 Y27.3259 
G01 X-26.3931 Y27.1574 
G01 X-26.3155 Y26.9701 
G01 X-26.2760 Y26.7713 
G01 X-26.2760 Y26.5687 
G01 X-26.3155 Y26.3698 
G01 X-26.3931 Y26.1826 
G01 X-26.3950 Y26.1798 
G01 X-26.3950 Y24.9130 
G01 X-14.9206 Y24.9130 
G01 X-13.9908 Y25.8428 
G01 X-14.1176 Y25.7581 
G01 X-14.3049 Y25.6805 
G01 X-14.5037 Y25.6410 
G01 X-14.7063 Y25.6410 
G01 X-14.9051 Y25.6805 
G01 X-15.0924 Y25.7581 
G01 X-15.2609 Y25.8707 
G01 X-15.4043 Y26.0141 
G01 X-15.5169 Y26.1826 
G01 X-15.5945 Y26.3698 
G01 X-15.6340 Y26.5687 
G01 X-15.6340 Y26.7713 
G01 X-15.5945 Y26.9701 
G01 X-15.5169 Y27.1574 
G01 X-15.4750 Y27.2201 
G01 X-15.4750 Y30.0362 
G01 X-15.4563 Y30.1061 
G01 X-15.4201 Y30.1689 
G01 X-15.3689 Y30.2201 
G01 X-15.3061 Y30.2563 
G01 X-15.2362 Y30.2750 
G01 X-13.9638 Y30.2750 
G01 X-13.8939 Y30.2563 
G01 X-13.8311 Y30.2201 
G01 X-13.7799 Y30.1689 
G01 X-13.7437 Y30.1061 
G01 X-13.7250 Y30.0362 
G01 X-13.7250 Y27.2051 
G01 X-13.6931 Y27.1574 
G01 X-13.6155 Y26.9701 
G01 X-13.5760 Y26.7713 
G01 X-13.5760 Y26.5687 
G01 X-13.6155 Y26.3698 
G01 X-13.6931 Y26.1826 
G01 X-13.7778 Y26.0558 
G01 X-10.4814 Y29.3522 
G01 X-10.4814 Y31.7671 
G01 X-10.4552 Y31.8988 
G01 X-10.4038 Y32.0228 
G01 X-10.3293 Y32.1344 
G01 X-7.5444 Y34.9193 
G01 X-7.4328 Y34.9938 
G01 X-7.3088 Y35.0452 
G01 X-7.1771 Y35.0714 
G01 X-4.8696 Y35.0714 
G01 X-4.8509 Y35.0839 
G01 X-4.7084 Y35.1429 
G01 X-4.6668 Y35.1512 
G01 X-4.6014 Y35.2166 
G00 Z2.0000 
G00 X-4.4826 Y38.8914 
G01 Z-0.1500 F100.00 
G01 X-4.3474 Y39.0266 F208.00 
G01 X-4.1927 Y39.1390 
G01 X-4.0223 Y39.2258 
G01 X-3.8405 Y39.2849 
G01 X-3.6516 Y39.3148 
G01 X-3.4604 Y39.3148 
G01 X-3.2715 Y39.2849 
G01 X-3.0897 Y39.2258 
G01 X-2.9193 Y39.1390 
G01 X-2.7646 Y39.0266 
G01 X-2.6294 Y38.8914 
G01 X-2.5170 Y38.7367 
G01 X-2.4302 Y38.5663 
G01 X-2.3711 Y38.3845 
G01 X-2.3412 Y38.1956 
G01 X-2.3412 Y38.0044 
G01 X-2.3711 Y37.8155 
G01 X-2.4302 Y37.6337 
G01 X-2.5170 Y37.4633 
G01 X-2.6294 Y37.3086 
G01 X-2.7646 Y37.1734 
G01 X-2.9193 Y37.0610 
G01 X-3.0897 Y36.9742 
G01 X-3.2715 Y36.9151 
G01 X-3.4604 Y36.8852 
G01 X-3.6516 Y36.8852 
G01 X-3.8405 Y36.9151 
G01 X-4.0223 Y36.9742 
G01 X-4.1927 Y37.0610 
G01 X-4.3474 Y37.1734 
G01 X-4.4826 Y37.3086 
G01 X-4.4887 Y37.3170 
G01 X-12.7771 Y37.3170 
G01 X-12.9284 Y37.3471 
G01 X-13.0709 Y37.4061 
G01 X-13.1991 Y37.4918 
G01 X-13.2275 Y37.5202 
G01 X-18.3018 Y37.5202 
G01 X-23.8551 Y31.9670 
G01 X-23.8550 Y27.1602 
G01 X-23.8531 Y27.1574 
G01 X-23.7755 Y26.9701 
G01 X-23.7360 Y26.7713 
G01 X-23.7360 Y26.5687 
G01 X-23.7755 Y26.3698 
G01 X-23.8531 Y26.1826 
G01 X-23.9657 Y26.0141 
G01 X-24.1090 Y25.8707 
G01 X-24.2776 Y25.7581 
G01 X-24.4649 Y25.6805 
G01 X-24.6637 Y25.6410 
G01 X-24.8663 Y25.6410 
G01 X-25.0651 Y25.6805 
G01 X-25.2524 Y25.7581 
G01 X-25.4209 Y25.8707 
G01 X-25.5643 Y26.0141 
G01 X-25.6769 Y26.1826 
G01 X-25.7545 Y26.3698 
G01 X-25.7940 Y26.5687 
G01 X-25.7940 Y26.7713 
G01 X-25.7545 Y26.9701 
G01 X-25.6769 Y27.1574 
G01 X-25.6750 Y27.1602 
G01 X-25.6750 Y31.9666 
G01 X-25.6400 Y32.1424 
G01 X-25.5714 Y32.3080 
G01 X-25.4718 Y32.4571 
G01 X-25.3451 Y32.5838 
G01 X-25.1960 Y32.6834 
G01 X-25.0304 Y32.7520 
G01 X-24.8546 Y32.7870 
G01 X-24.6754 Y32.7870 
G01 X-18.9116 Y38.5504 
G01 X-18.8166 Y38.6138 
G01 X-18.7111 Y38.6575 
G01 X-18.5991 Y38.6798 
G01 X-13.2275 Y38.6798 
G01 X-13.1991 Y38.7082 
G01 X-13.0709 Y38.7939 
G01 X-12.9284 Y38.8529 
G01 X-12.7771 Y38.8830 
G01 X-4.4887 Y38.8830 
G01 X-4.4826 Y38.8914 
G00 Z2.0000 
G00 X-48.0738 Y48.9850 
G01 Z-0.1500 F100.00 
G01 X-48.0039 Y48.9663 F208.00 
G01 X-47.9411 Y48.9301 
G01 X-47.8899 Y48.8789 
G01 X-47.8537 Y48.8161 
G01 X-47.8350 Y48.7462 
G01 X-47.8350 Y47.4038 
G01 X-47.8537 Y47.3339 
G01 X-47.8899 Y47.2711 
G01 X-47.9411 Y47.2199 
G01 X-48.0039 Y47.1837 
G01 X-48.0738 Y47.1650 
G01 X-51.7972 Y47.1650 
G01 X-51.8577 Y47.1342 
G01 X-52.0395 Y47.0751 
G01 X-52.2284 Y47.0452 
G01 X-52.4196 Y47.0452 
G01 X-52.6085 Y47.0751 
G01 X-52.7903 Y47.1342 
G01 X-52.9607 Y47.2210 
G01 X-53.1154 Y47.3334 
G01 X-53.2506 Y47.4686 
G01 X-53.3630 Y47.6233 
G01 X-53.4498 Y47.7937 
G01 X-53.5089 Y47.9755 
G01 X-53.5388 Y48.1644 
G01 X-53.5388 Y48.3556 
G01 X-53.5089 Y48.5445 
G01 X-53.4498 Y48.7263 
G01 X-53.3630 Y48.8967 
G01 X-53.2506 Y49.0514 
G01 X-53.1154 Y49.1866 
G01 X-52.9607 Y49.2990 
G01 X-52.7903 Y49.3858 
G01 X-52.6085 Y49.4449 
G01 X-52.4196 Y49.4748 
G01 X-52.2284 Y49.4748 
G01 X-52.0395 Y49.4449 
G01 X-51.8577 Y49.3858 
G01 X-51.6873 Y49.2990 
G01 X-51.5326 Y49.1866 
G01 X-51.3974 Y49.0514 
G01 X-51.3492 Y48.9850 
G01 X-48.0738 Y48.9850 
G00 Z2.0000 
G00 X-48.0738 Y51.5850 
G01 Z-0.1500 F100.00 
G01 X-48.0039 Y51.5663 F208.00 
G01 X-47.9411 Y51.5301 
G01 X-47.8899 Y51.4789 
G01 X-47.8537 Y51.4161 
G01 X-47.8350 Y51.3462 
G01 X-47.8350 Y50.0038 
G01 X-47.8537 Y49.9339 
G01 X-47.8899 Y49.8711 
G01 X-47.9411 Y49.8199 
G01 X-48.0039 Y49.7837 
G01 X-48.0738 Y49.7650 
G01 X-51.4278 Y49.7650 
G01 X-51.4333 Y49.7610 
G01 X-51.6037 Y49.6742 
G01 X-51.7855 Y49.6151 
G01 X-51.9744 Y49.5852 
G01 X-52.1656 Y49.5852 
G01 X-52.3545 Y49.6151 
G01 X-52.5363 Y49.6742 
G01 X-52.7067 Y49.7610 
G01 X-52.8614 Y49.8734 
G01 X-52.9966 Y50.0086 
G01 X-53.1090 Y50.1633 
G01 X-53.1958 Y50.3337 
G01 X-53.2549 Y50.5155 
G01 X-53.2848 Y50.7044 
G01 X-53.2848 Y50.8956 
G01 X-53.2549 Y51.0845 
G01 X-53.1958 Y51.2663 
G01 X-53.1090 Y51.4367 
G01 X-52.9966 Y51.5914 
G01 X-52.8614 Y51.7266 
G01 X-52.7067 Y51.8390 
G01 X-52.5363 Y51.9258 
G01 X-52.3545 Y51.9849 
G01 X-52.1656 Y52.0148 
G01 X-51.9744 Y52.0148 
G01 X-51.7855 Y51.9849 
G01 X-51.6037 Y51.9258 
G01 X-51.4333 Y51.8390 
G01 X-51.2786 Y51.7266 
G01 X-51.1434 Y51.5914 
G01 X-51.1388 Y51.5850 
G01 X-48.0738 Y51.5850 
G00 Z2.0000 
G00 X-48.2738 Y54.2850 
G01 Z-0.1500 F100.00 
G01 X-48.2039 Y54.2663 F208.00 
G01 X-48.1411 Y54.2301 
G01 X-48.0899 Y54.1789 
G01 X-48.0537 Y54.1161 
G01 X-48.0350 Y54.0462 
G01 X-48.0350 Y52.7038 
G01 X-48.0537 Y52.6339 
G01 X-48.0899 Y52.5711 
G01 X-48.1411 Y52.5199 
G01 X-48.2039 Y52.4837 
G01 X-48.2738 Y52.4650 
G01 X-51.4810 Y52.4650 
G01 X-51.5326 Y52.4134 
G01 X-51.6873 Y52.3010 
G01 X-51.8577 Y52.2142 
G01 X-52.0395 Y52.1551 
G01 X-52.2284 Y52.1252 
G01 X-52.4196 Y52.1252 
G01 X-52.6085 Y52.1551 
G01 X-52.7903 Y52.2142 
G01 X-52.9607 Y52.3010 
G01 X-53.1154 Y52.4134 
G01 X-53.2506 Y52.5486 
G01 X-53.3630 Y52.7033 
G01 X-53.4498 Y52.8737 
G01 X-53.5089 Y53.0555 
G01 X-53.5388 Y53.2444 
G01 X-53.5388 Y53.4356 
G01 X-53.5089 Y53.6245 
G01 X-53.4498 Y53.8063 
G01 X-53.3630 Y53.9767 
G01 X-53.2506 Y54.1314 
G01 X-53.1154 Y54.2666 
G01 X-52.9607 Y54.3790 
G01 X-52.7903 Y54.4658 
G01 X-52.6085 Y54.5249 
G01 X-52.4196 Y54.5548 
G01 X-52.2284 Y54.5548 
G01 X-52.0395 Y54.5249 
G01 X-51.8577 Y54.4658 
G01 X-51.6873 Y54.3790 
G01 X-51.5579 Y54.2850 
G01 X-48.2738 Y54.2850 
G00 Z2.0000 
G00 X-8.0950 Y55.0438 
G01 Z-0.1500 F100.00 
G01 X-8.0950 Y56.3862 F208.00 
G01 X-8.0763 Y56.4561 
G01 X-8.0401 Y56.5189 
G01 X-7.9889 Y56.5701 
G01 X-7.9261 Y56.6063 
G01 X-7.8562 Y56.6250 
G01 X-4.7703 Y56.6250 
G01 X-4.7366 Y56.6714 
G01 X-4.6014 Y56.8066 
G01 X-4.4467 Y56.9190 
G01 X-4.2763 Y57.0058 
G01 X-4.0945 Y57.0649 
G01 X-3.9056 Y57.0948 
G01 X-3.7144 Y57.0948 
G01 X-3.5255 Y57.0649 
G01 X-3.3437 Y57.0058 
G01 X-3.1733 Y56.9190 
G01 X-3.0186 Y56.8066 
G01 X-2.8834 Y56.6714 
G01 X-2.7710 Y56.5167 
G01 X-2.6842 Y56.3463 
G01 X-2.6251 Y56.1645 
G01 X-2.5952 Y55.9756 
G01 X-2.5952 Y55.7844 
G01 X-2.6251 Y55.5955 
G01 X-2.6842 Y55.4137 
G01 X-2.7710 Y55.2433 
G01 X-2.8834 Y55.0886 
G01 X-3.0186 Y54.9534 
G01 X-3.1733 Y54.8410 
G01 X-3.3437 Y54.7542 
G01 X-3.5255 Y54.6951 
G01 X-3.7144 Y54.6652 
G01 X-3.9056 Y54.6652 
G01 X-4.0945 Y54.6951 
G01 X-4.2763 Y54.7542 
G01 X-4.3760 Y54.8050 
G01 X-7.8562 Y54.8050 
G01 X-7.9261 Y54.8237 
G01 X-7.9889 Y54.8599 
G01 X-8.0401 Y54.9111 
G01 X-8.0763 Y54.9739 
G01 X-8.0950 Y55.0438 
G00 Z2.0000 
G00 X-7.7950 Y52.7038 
G01 Z-0.1500 F100.00 
G01 X-7.7950 Y54.0462 F208.00 
G01 X-7.7763 Y54.1161 
G01 X-7.7401 Y54.1789 
G01 X-7.6889 Y54.2301 
G01 X-7.6261 Y54.2663 
G01 X-7.5562 Y54.2850 
G01 X-4.3221 Y54.2850 
G01 X-4.1927 Y54.3790 
G01 X-4.0223 Y54.4658 
G01 X-3.8405 Y54.5249 
G01 X-3.6516 Y54.5548 
G01 X-3.4604 Y54.5548 
G01 X-3.2715 Y54.5249 
G01 X-3.0897 Y54.4658 
G01 X-2.9193 Y54.3790 
G01 X-2.7646 Y54.2666 
G01 X-2.6294 Y54.1314 
G01 X-2.5170 Y53.9767 
G01 X-2.4302 Y53.8063 
G01 X-2.3711 Y53.6245 
G01 X-2.3412 Y53.4356 
G01 X-2.3412 Y53.2444 
G01 X-2.3711 Y53.0555 
G01 X-2.4302 Y52.8737 
G01 X-2.5170 Y52.7033 
G01 X-2.6294 Y52.5486 
G01 X-2.7646 Y52.4134 
G01 X-2.9193 Y52.3010 
G01 X-3.0897 Y52.2142 
G01 X-3.2715 Y52.1551 
G01 X-3.4604 Y52.1252 
G01 X-3.6516 Y52.1252 
G01 X-3.8405 Y52.1551 
G01 X-4.0223 Y52.2142 
G01 X-4.1220 Y52.2650 
G01 X-7.3562 Y52.2650 
G01 X-7.4261 Y52.2837 
G01 X-7.4889 Y52.3199 
G01 X-7.5401 Y52.3711 
G01 X-7.5763 Y52.4339 
G01 X-7.5868 Y52.4732 
G01 X-7.6261 Y52.4837 
G01 X-7.6889 Y52.5199 
G01 X-7.7401 Y52.5711 
G01 X-7.7763 Y52.6339 
G01 X-7.7950 Y52.7038 
G00 Z2.0000 
G00 X-7.9950 Y50.3038 
G01 Z-0.1500 F100.00 
G01 X-7.9950 Y51.6462 F208.00 
G01 X-7.9763 Y51.7161 
G01 X-7.9401 Y51.7789 
G01 X-7.8889 Y51.8301 
G01 X-7.8261 Y51.8663 
G01 X-7.7562 Y51.8850 
G01 X-4.3564 Y51.8850 
G01 X-4.2763 Y51.9258 
G01 X-4.0945 Y51.9849 
G01 X-3.9056 Y52.0148 
G01 X-3.7144 Y52.0148 
G01 X-3.5255 Y51.9849 
G01 X-3.3437 Y51.9258 
G01 X-3.1733 Y51.8390 
G01 X-3.0186 Y51.7266 
G01 X-2.8834 Y51.5914 
G01 X-2.7710 Y51.4367 
G01 X-2.6842 Y51.2663 
G01 X-2.6251 Y51.0845 
G01 X-2.5952 Y50.8956 
G01 X-2.5952 Y50.7044 
G01 X-2.6251 Y50.5155 
G01 X-2.6842 Y50.3337 
G01 X-2.7710 Y50.1633 
G01 X-2.8834 Y50.0086 
G01 X-3.0186 Y49.8734 
G01 X-3.1733 Y49.7610 
G01 X-3.3437 Y49.6742 
G01 X-3.5255 Y49.6151 
G01 X-3.7144 Y49.5852 
G01 X-3.9056 Y49.5852 
G01 X-4.0945 Y49.6151 
G01 X-4.2763 Y49.6742 
G01 X-4.4467 Y49.7610 
G01 X-4.6014 Y49.8734 
G01 X-4.7366 Y50.0086 
G01 X-4.7776 Y50.0650 
G01 X-7.7562 Y50.0650 
G01 X-7.8261 Y50.0837 
G01 X-7.8889 Y50.1199 
G01 X-7.9401 Y50.1711 
G01 X-7.9763 Y50.2339 
G01 X-7.9950 Y50.3038 
G00 Z2.0000 
G00 X-7.7950 Y47.8038 
G01 Z-0.1500 F100.00 
G01 X-7.7950 Y49.1462 F208.00 
G01 X-7.7763 Y49.2161 
G01 X-7.7401 Y49.2789 
G01 X-7.6889 Y49.3301 
G01 X-7.6261 Y49.3663 
G01 X-7.5562 Y49.3850 
G01 X-4.0239 Y49.3850 
G01 X-3.8405 Y49.4449 
G01 X-3.6516 Y49.4748 
G01 X-3.4604 Y49.4748 
G01 X-3.2715 Y49.4449 
G01 X-3.0897 Y49.3858 
G01 X-2.9193 Y49.2990 
G01 X-2.7646 Y49.1866 
G01 X-2.6294 Y49.0514 
G01 X-2.5170 Y48.8967 
G01 X-2.4302 Y48.7263 
G01 X-2.3711 Y48.5445 
G01 X-2.3412 Y48.3556 
G01 X-2.3412 Y48.1644 
G01 X-2.3711 Y47.9755 
G01 X-2.4302 Y47.7937 
G01 X-2.5170 Y47.6233 
G01 X-2.6294 Y47.4686 
G01 X-2.7646 Y47.3334 
G01 X-2.9193 Y47.2210 
G01 X-3.0897 Y47.1342 
G01 X-3.2715 Y47.0751 
G01 X-3.4604 Y47.0452 
G01 X-3.6516 Y47.0452 
G01 X-3.8405 Y47.0751 
G01 X-4.0223 Y47.1342 
G01 X-4.1927 Y47.2210 
G01 X-4.3474 Y47.3334 
G01 X-4.4826 Y47.4686 
G01 X-4.5526 Y47.5650 
G01 X-7.5562 Y47.5650 
G01 X-7.6261 Y47.5837 
G01 X-7.6889 Y47.6199 
G01 X-7.7401 Y47.6711 
G01 X-7.7763 Y47.7339 
G01 X-7.7950 Y47.8038 
G00 Z2.0000 
G00 X-8.0950 Y45.0038 
G01 Z-0.1500 F100.00 
G01 X-8.0950 Y46.3462 F208.00 
G01 X-8.0763 Y46.4161 
G01 X-8.0401 Y46.4789 
G01 X-7.9889 Y46.5301 
G01 X-7.9261 Y46.5663 
G01 X-7.8562 Y46.5850 
G01 X-6.9339 Y46.5850 
G01 X-6.8889 Y46.6301 
G01 X-6.8261 Y46.6663 
G01 X-6.7562 Y46.6850 
G01 X-4.5485 Y46.6850 
G01 X-4.4467 Y46.7590 
G01 X-4.2763 Y46.8458 
G01 X-4.0945 Y46.9049 
G01 X-3.9056 Y46.9348 
G01 X-3.7144 Y46.9348 
G01 X-3.5255 Y46.9049 
G01 X-3.3437 Y46.8458 
G01 X-3.1733 Y46.7590 
G01 X-3.0715 Y46.6850 
G01 X-2.8738 Y46.6850 
G01 X-2.8039 Y46.6663 
G01 X-2.7411 Y46.6301 
G01 X-2.6899 Y46.5789 
G01 X-2.6537 Y46.5161 
G01 X-2.6350 Y46.4462 
G01 X-2.6350 Y46.0349 
G01 X-2.6251 Y46.0045 
G01 X-2.5952 Y45.8156 
G01 X-2.5952 Y45.6244 
G01 X-2.6251 Y45.4355 
G01 X-2.6350 Y45.4051 
G01 X-2.6350 Y45.1038 
G01 X-2.6537 Y45.0339 
G01 X-2.6899 Y44.9711 
G01 X-2.7411 Y44.9199 
G01 X-2.8039 Y44.8837 
G01 X-2.8738 Y44.8650 
G01 X-2.9470 Y44.8650 
G01 X-3.0186 Y44.7934 
G01 X-3.1733 Y44.6810 
G01 X-3.3437 Y44.5942 
G01 X-3.5255 Y44.5351 
G01 X-3.7144 Y44.5052 
G01 X-3.9056 Y44.5052 
G01 X-4.0945 Y44.5351 
G01 X-4.2763 Y44.5942 
G01 X-4.4467 Y44.6810 
G01 X-4.5623 Y44.7650 
G01 X-7.8562 Y44.7650 
G01 X-7.9261 Y44.7837 
G01 X-7.9889 Y44.8199 
G01 X-8.0401 Y44.8711 
G01 X-8.0763 Y44.9339 
G01 X-8.0950 Y45.0038 
G00 Z2.0000 
G00 X-8.1950 Y42.5038 
G01 Z-0.1500 F100.00 
G01 X-8.1950 Y43.8462 F208.00 
G01 X-8.1763 Y43.9161 
G01 X-8.1401 Y43.9789 
G01 X-8.0889 Y44.0301 
G01 X-8.0261 Y44.0663 
G01 X-7.9562 Y44.0850 
G01 X-4.3690 Y44.0850 
G01 X-4.3474 Y44.1066 
G01 X-4.1927 Y44.2190 
G01 X-4.0223 Y44.3058 
G01 X-3.8405 Y44.3649 
G01 X-3.6516 Y44.3948 
G01 X-3.4604 Y44.3948 
G01 X-3.2715 Y44.3649 
G01 X-3.0897 Y44.3058 
G01 X-2.9193 Y44.2190 
G01 X-2.7646 Y44.1066 
G01 X-2.6294 Y43.9714 
G01 X-2.5170 Y43.8167 
G01 X-2.4302 Y43.6463 
G01 X-2.3711 Y43.4645 
G01 X-2.3412 Y43.2756 
G01 X-2.3412 Y43.0844 
G01 X-2.3711 Y42.8955 
G01 X-2.4302 Y42.7137 
G01 X-2.5170 Y42.5433 
G01 X-2.6294 Y42.3886 
G01 X-2.7646 Y42.2534 
G01 X-2.9193 Y42.1410 
G01 X-3.0897 Y42.0542 
G01 X-3.2715 Y41.9951 
G01 X-3.4604 Y41.9652 
G01 X-3.6516 Y41.9652 
G01 X-3.8405 Y41.9951 
G01 X-4.0223 Y42.0542 
G01 X-4.1927 Y42.1410 
G01 X-4.3474 Y42.2534 
G01 X-4.3590 Y42.2650 
G01 X-7.9562 Y42.2650 
G01 X-8.0261 Y42.2837 
G01 X-8.0889 Y42.3199 
G01 X-8.1401 Y42.3711 
G01 X-8.1763 Y42.4339 
G01 X-8.1950 Y42.5038 
G00 Z2.0000 
G00 X-8.1950 Y39.9038 
G01 Z-0.1500 F100.00 
G01 X-8.1950 Y41.2462 F208.00 
G01 X-8.1763 Y41.3161 
G01 X-8.1401 Y41.3789 
G01 X-8.0889 Y41.4301 
G01 X-8.0261 Y41.4663 
G01 X-7.9562 Y41.4850 
G01 X-4.6830 Y41.4850 
G01 X-4.6014 Y41.5666 
G01 X-4.4467 Y41.6790 
G01 X-4.2763 Y41.7658 
G01 X-4.0945 Y41.8249 
G01 X-3.9056 Y41.8548 
G01 X-3.7144 Y41.8548 
G01 X-3.5255 Y41.8249 
G01 X-3.3437 Y41.7658 
G01 X-3.1733 Y41.6790 
G01 X-3.0186 Y41.5666 
G01 X-2.8834 Y41.4314 
G01 X-2.7710 Y41.2767 
G01 X-2.6842 Y41.1063 
G01 X-2.6251 Y40.9245 
G01 X-2.5952 Y40.7356 
G01 X-2.5952 Y40.5444 
G01 X-2.6251 Y40.3555 
G01 X-2.6842 Y40.1737 
G01 X-2.7710 Y40.0033 
G01 X-2.8834 Y39.8486 
G01 X-3.0186 Y39.7134 
G01 X-3.1733 Y39.6010 
G01 X-3.3437 Y39.5142 
G01 X-3.5255 Y39.4551 
G01 X-3.7144 Y39.4252 
G01 X-3.9056 Y39.4252 
G01 X-4.0945 Y39.4551 
G01 X-4.2763 Y39.5142 
G01 X-4.4467 Y39.6010 
G01 X-4.5348 Y39.6650 
G01 X-7.9562 Y39.6650 
G01 X-8.0261 Y39.6837 
G01 X-8.0889 Y39.7199 
G01 X-8.1401 Y39.7711 
G01 X-8.1763 Y39.8339 
G01 X-8.1950 Y39.9038 
G00 Z2.0000 
G00 X-48.0738 Y57.0250 
G01 Z-0.1500 F100.00 
G01 X-48.0039 Y57.0063 F208.00 
G01 X-47.9411 Y56.9701 
G01 X-47.8899 Y56.9189 
G01 X-47.8537 Y56.8561 
G01 X-47.8350 Y56.7862 
G01 X-47.8350 Y55.4438 
G01 X-47.8537 Y55.3739 
G01 X-47.8899 Y55.3111 
G01 X-47.9411 Y55.2599 
G01 X-48.0039 Y55.2237 
G01 X-48.0738 Y55.2050 
G01 X-51.0588 Y55.2050 
G01 X-51.1434 Y55.0886 
G01 X-51.2786 Y54.9534 
G01 X-51.4333 Y54.8410 
G01 X-51.6037 Y54.7542 
G01 X-51.7855 Y54.6951 
G01 X-51.9744 Y54.6652 
G01 X-52.1656 Y54.6652 
G01 X-52.3545 Y54.6951 
G01 X-52.5363 Y54.7542 
G01 X-52.7067 Y54.8410 
G01 X-52.8614 Y54.9534 
G01 X-52.9966 Y55.0886 
G01 X-53.1090 Y55.2433 
G01 X-53.1958 Y55.4137 
G01 X-53.2549 Y55.5955 
G01 X-53.2848 Y55.7844 
G01 X-53.2848 Y55.9756 
G01 X-53.2549 Y56.1645 
G01 X-53.1958 Y56.3463 
G01 X-53.1090 Y56.5167 
G01 X-52.9966 Y56.6714 
G01 X-52.8614 Y56.8066 
G01 X-52.7067 Y56.9190 
G01 X-52.5363 Y57.0058 
G01 X-52.3545 Y57.0649 
G01 X-52.1656 Y57.0948 
G01 X-51.9744 Y57.0948 
G01 X-51.7855 Y57.0649 
G01 X-51.6628 Y57.0250 
G01 X-48.0738 Y57.0250 
G00 Z2.0000 
G00 X-47.8738 Y46.4850 
G01 Z-0.1500 F100.00 
G01 X-47.8039 Y46.4663 F208.00 
G01 X-47.7411 Y46.4301 
G01 X-47.6899 Y46.3789 
G01 X-47.6537 Y46.3161 
G01 X-47.6350 Y46.2462 
G01 X-47.6350 Y44.9038 
G01 X-47.6537 Y44.8339 
G01 X-47.6899 Y44.7711 
G01 X-47.7411 Y44.7199 
G01 X-47.8039 Y44.6837 
G01 X-47.8738 Y44.6650 
G01 X-51.4647 Y44.6650 
G01 X-51.6037 Y44.5942 
G01 X-51.7855 Y44.5351 
G01 X-51.9744 Y44.5052 
G01 X-52.1656 Y44.5052 
G01 X-52.3545 Y44.5351 
G01 X-52.5363 Y44.5942 
G01 X-52.7067 Y44.6810 
G01 X-52.8614 Y44.7934 
G01 X-52.9966 Y44.9286 
G01 X-53.1090 Y45.0833 
G01 X-53.1958 Y45.2537 
G01 X-53.2549 Y45.4355 
G01 X-53.2848 Y45.6244 
G01 X-53.2848 Y45.8156 
G01 X-53.2549 Y46.0045 
G01 X-53.1958 Y46.1863 
G01 X-53.1090 Y46.3567 
G01 X-52.9966 Y46.5114 
G01 X-52.8614 Y46.6466 
G01 X-52.7067 Y46.7590 
G01 X-52.5363 Y46.8458 
G01 X-52.3545 Y46.9049 
G01 X-52.1656 Y46.9348 
G01 X-51.9744 Y46.9348 
G01 X-51.7855 Y46.9049 
G01 X-51.6037 Y46.8458 
G01 X-51.4333 Y46.7590 
G01 X-51.2786 Y46.6466 
G01 X-51.1434 Y46.5114 
G01 X-51.1242 Y46.4850 
G01 X-47.8738 Y46.4850 
G00 Z2.0000 
G00 X-48.2738 Y44.0850 
G01 Z-0.1500 F100.00 
G01 X-48.2039 Y44.0663 F208.00 
G01 X-48.1411 Y44.0301 
G01 X-48.0899 Y43.9789 
G01 X-48.0537 Y43.9161 
G01 X-48.0350 Y43.8462 
G01 X-48.0350 Y42.5038 
G01 X-48.0537 Y42.4339 
G01 X-48.0899 Y42.3711 
G01 X-48.1411 Y42.3199 
G01 X-48.2039 Y42.2837 
G01 X-48.2738 Y42.2650 
G01 X-51.5210 Y42.2650 
G01 X-51.5326 Y42.2534 
G01 X-51.6873 Y42.1410 
G01 X-51.8577 Y42.0542 
G01 X-52.0395 Y41.9951 
G01 X-52.2284 Y41.9652 
G01 X-52.4196 Y41.9652 
G01 X-52.6085 Y41.9951 
G01 X-52.7903 Y42.0542 
G01 X-52.9607 Y42.1410 
G01 X-53.1154 Y42.2534 
G01 X-53.2506 Y42.3886 
G01 X-53.3630 Y42.5433 
G01 X-53.4498 Y42.7137 
G01 X-53.5089 Y42.8955 
G01 X-53.5388 Y43.0844 
G01 X-53.5388 Y43.2756 
G01 X-53.5089 Y43.4645 
G01 X-53.4498 Y43.6463 
G01 X-53.3630 Y43.8167 
G01 X-53.2506 Y43.9714 
G01 X-53.1154 Y44.1066 
G01 X-52.9607 Y44.2190 
G01 X-52.7903 Y44.3058 
G01 X-52.6085 Y44.3649 
G01 X-52.4196 Y44.3948 
G01 X-52.2284 Y44.3948 
G01 X-52.0395 Y44.3649 
G01 X-51.8577 Y44.3058 
G01 X-51.6873 Y44.2190 
G01 X-51.5326 Y44.1066 
G01 X-51.5110 Y44.0850 
G01 X-48.2738 Y44.0850 
G00 Z2.0000 
G00 X-47.9738 Y39.2850 
G01 Z-0.1500 F100.00 
G01 X-47.9039 Y39.2663 F208.00 
G01 X-47.8411 Y39.2301 
G01 X-47.7899 Y39.1789 
G01 X-47.7537 Y39.1161 
G01 X-47.7350 Y39.0462 
G01 X-47.7350 Y37.7038 
G01 X-47.7537 Y37.6339 
G01 X-47.7899 Y37.5711 
G01 X-47.8411 Y37.5199 
G01 X-47.9039 Y37.4837 
G01 X-47.9738 Y37.4650 
G01 X-51.0301 Y37.4650 
G01 X-51.1434 Y37.3086 
G01 X-51.2786 Y37.1734 
G01 X-51.4333 Y37.0610 
G01 X-51.6037 Y36.9742 
G01 X-51.7855 Y36.9151 
G01 X-51.9744 Y36.8852 
G01 X-52.1656 Y36.8852 
G01 X-52.3545 Y36.9151 
G01 X-52.5363 Y36.9742 
G01 X-52.7067 Y37.0610 
G01 X-52.8614 Y37.1734 
G01 X-52.9966 Y37.3086 
G01 X-53.1090 Y37.4633 
G01 X-53.1958 Y37.6337 
G01 X-53.2549 Y37.8155 
G01 X-53.2848 Y38.0044 
G01 X-53.2848 Y38.1956 
G01 X-53.2549 Y38.3845 
G01 X-53.1958 Y38.5663 
G01 X-53.1090 Y38.7367 
G01 X-52.9966 Y38.8914 
G01 X-52.8614 Y39.0266 
G01 X-52.7067 Y39.1390 
G01 X-52.5363 Y39.2258 
G01 X-52.3545 Y39.2849 
G01 X-52.1656 Y39.3148 
G01 X-51.9744 Y39.3148 
G01 X-51.7862 Y39.2850 
G01 X-47.9738 Y39.2850 
G00 Z2.0000 
G00 X-48.3738 Y28.6850 
G01 Z-0.1500 F100.00 
G01 X-48.3039 Y28.6663 F208.00 
G01 X-48.2411 Y28.6301 
G01 X-48.1899 Y28.5789 
G01 X-48.1537 Y28.5161 
G01 X-48.1350 Y28.4462 
G01 X-48.1350 Y27.1038 
G01 X-48.1537 Y27.0339 
G01 X-48.1899 Y26.9711 
G01 X-48.2411 Y26.9199 
G01 X-48.3039 Y26.8837 
G01 X-48.3738 Y26.8650 
G01 X-51.5040 Y26.8650 
G01 X-51.6037 Y26.8142 
G01 X-51.7855 Y26.7551 
G01 X-51.9744 Y26.7252 
G01 X-52.1656 Y26.7252 
G01 X-52.3545 Y26.7551 
G01 X-52.5363 Y26.8142 
G01 X-52.7067 Y26.9010 
G01 X-52.8614 Y27.0134 
G01 X-52.9966 Y27.1486 
G01 X-53.1090 Y27.3033 
G01 X-53.1958 Y27.4737 
G01 X-53.2549 Y27.6555 
G01 X-53.2848 Y27.8444 
G01 X-53.2848 Y28.0356 
G01 X-53.2549 Y28.2245 
G01 X-53.1958 Y28.4063 
G01 X-53.1090 Y28.5767 
G01 X-52.9966 Y28.7314 
G01 X-52.8614 Y28.8666 
G01 X-52.7067 Y28.9790 
G01 X-52.5363 Y29.0658 
G01 X-52.3545 Y29.1249 
G01 X-52.1656 Y29.1548 
G01 X-51.9744 Y29.1548 
G01 X-51.7855 Y29.1249 
G01 X-51.6037 Y29.0658 
G01 X-51.4333 Y28.9790 
G01 X-51.2786 Y28.8666 
G01 X-51.1434 Y28.7314 
G01 X-51.1097 Y28.6850 
G01 X-48.3738 Y28.6850 
G00 Z2.0000 
G00 X-48.0738 Y25.9850 
G01 Z-0.1500 F100.00 
G01 X-48.0039 Y25.9663 F208.00 
G01 X-47.9411 Y25.9301 
G01 X-47.8899 Y25.8789 
G01 X-47.8537 Y25.8161 
G01 X-47.8350 Y25.7462 
G01 X-47.8350 Y24.4038 
G01 X-47.8537 Y24.3339 
G01 X-47.8899 Y24.2711 
G01 X-47.9411 Y24.2199 
G01 X-48.0039 Y24.1837 
G01 X-48.0738 Y24.1650 
G01 X-51.9562 Y24.1650 
G01 X-52.0261 Y24.1837 
G01 X-52.0717 Y24.2100 
G01 X-52.2284 Y24.1852 
G01 X-52.4196 Y24.1852 
G01 X-52.6085 Y24.2151 
G01 X-52.7903 Y24.2742 
G01 X-52.9607 Y24.3610 
G01 X-53.1154 Y24.4734 
G01 X-53.2506 Y24.6086 
G01 X-53.3630 Y24.7633 
G01 X-53.4498 Y24.9337 
G01 X-53.5089 Y25.1155 
G01 X-53.5388 Y25.3044 
G01 X-53.5388 Y25.4956 
G01 X-53.5089 Y25.6845 
G01 X-53.4498 Y25.8663 
G01 X-53.3630 Y26.0367 
G01 X-53.2506 Y26.1914 
G01 X-53.1154 Y26.3266 
G01 X-52.9607 Y26.4390 
G01 X-52.7903 Y26.5258 
G01 X-52.6085 Y26.5849 
G01 X-52.4196 Y26.6148 
G01 X-52.2284 Y26.6148 
G01 X-52.0395 Y26.5849 
G01 X-51.8577 Y26.5258 
G01 X-51.6873 Y26.4390 
G01 X-51.5326 Y26.3266 
G01 X-51.3974 Y26.1914 
G01 X-51.2850 Y26.0367 
G01 X-51.2587 Y25.9850 
G01 X-48.0738 Y25.9850 
G00 Z2.0000 
G00 X-47.9738 Y23.5850 
G01 Z-0.1500 F100.00 
G01 X-47.9039 Y23.5663 F208.00 
G01 X-47.8411 Y23.5301 
G01 X-47.7899 Y23.4789 
G01 X-47.7537 Y23.4161 
G01 X-47.7350 Y23.3462 
G01 X-47.7350 Y22.0038 
G01 X-47.7537 Y21.9339 
G01 X-47.7899 Y21.8711 
G01 X-47.8411 Y21.8199 
G01 X-47.9039 Y21.7837 
G01 X-47.9738 Y21.7650 
G01 X-51.5432 Y21.7650 
G01 X-51.6037 Y21.7342 
G01 X-51.7855 Y21.6751 
G01 X-51.9744 Y21.6452 
G01 X-52.1656 Y21.6452 
G01 X-52.3545 Y21.6751 
G01 X-52.5363 Y21.7342 
G01 X-52.7067 Y21.8210 
G01 X-52.8614 Y21.9334 
G01 X-52.9966 Y22.0686 
G01 X-53.1090 Y22.2233 
G01 X-53.1958 Y22.3937 
G01 X-53.2549 Y22.5755 
G01 X-53.2848 Y22.7644 
G01 X-53.2848 Y22.9556 
G01 X-53.2549 Y23.1445 
G01 X-53.1958 Y23.3263 
G01 X-53.1090 Y23.4967 
G01 X-52.9966 Y23.6514 
G01 X-52.8614 Y23.7866 
G01 X-52.7067 Y23.8990 
G01 X-52.5363 Y23.9858 
G01 X-52.3545 Y24.0449 
G01 X-52.1656 Y24.0748 
G01 X-51.9744 Y24.0748 
G01 X-51.7855 Y24.0449 
G01 X-51.6037 Y23.9858 
G01 X-51.4333 Y23.8990 
G01 X-51.2786 Y23.7866 
G01 X-51.1434 Y23.6514 
G01 X-51.0952 Y23.5850 
G01 X-47.9738 Y23.5850 
G00 Z2.0000 
G00 X-48.1738 Y21.0850 
G01 Z-0.1500 F100.00 
G01 X-48.1039 Y21.0663 F208.00 
G01 X-48.0411 Y21.0301 
G01 X-47.9899 Y20.9789 
G01 X-47.9537 Y20.9161 
G01 X-47.9350 Y20.8462 
G01 X-47.9350 Y19.5038 
G01 X-47.9537 Y19.4339 
G01 X-47.9899 Y19.3711 
G01 X-48.0411 Y19.3199 
G01 X-48.1039 Y19.2837 
G01 X-48.1738 Y19.2650 
G01 X-51.7187 Y19.2650 
G01 X-51.8577 Y19.1942 
G01 X-52.0395 Y19.1351 
G01 X-52.2284 Y19.1052 
G01 X-52.4196 Y19.1052 
G01 X-52.6085 Y19.1351 
G01 X-52.7903 Y19.1942 
G01 X-52.9607 Y19.2810 
G01 X-53.1154 Y19.3934 
G01 X-53.2506 Y19.5286 
G01 X-53.3630 Y19.6833 
G01 X-53.4498 Y19.8537 
G01 X-53.5089 Y20.0355 
G01 X-53.5388 Y20.2244 
G01 X-53.5388 Y20.4156 
G01 X-53.5089 Y20.6045 
G01 X-53.4498 Y20.7863 
G01 X-53.3630 Y20.9567 
G01 X-53.2506 Y21.1114 
G01 X-53.1154 Y21.2466 
G01 X-52.9607 Y21.3590 
G01 X-52.7903 Y21.4458 
G01 X-52.6085 Y21.5049 
G01 X-52.4196 Y21.5348 
G01 X-52.2284 Y21.5348 
G01 X-52.0395 Y21.5049 
G01 X-51.8577 Y21.4458 
G01 X-51.6873 Y21.3590 
G01 X-51.5326 Y21.2466 
G01 X-51.3974 Y21.1114 
G01 X-51.3782 Y21.0850 
G01 X-48.1738 Y21.0850 
G00 Z2.0000 
G00 X-8.1950 Y10.7038 
G01 Z-0.1500 F100.00 
G01 X-8.1950 Y12.0462 F208.00 
G01 X-8.1763 Y12.1161 
G01 X-8.1401 Y12.1789 
G01 X-8.0889 Y12.2301 
G01 X-8.0261 Y12.2663 
G01 X-7.9562 Y12.2850 
G01 X-4.6730 Y12.2850 
G01 X-4.6014 Y12.3566 
G01 X-4.4467 Y12.4690 
G01 X-4.2763 Y12.5558 
G01 X-4.0945 Y12.6149 
G01 X-3.9056 Y12.6448 
G01 X-3.7144 Y12.6448 
G01 X-3.5255 Y12.6149 
G01 X-3.3437 Y12.5558 
G01 X-3.1733 Y12.4690 
G01 X-3.0186 Y12.3566 
G01 X-2.8834 Y12.2214 
G01 X-2.7710 Y12.0667 
G01 X-2.6842 Y11.8963 
G01 X-2.6251 Y11.7145 
G01 X-2.5952 Y11.5256 
G01 X-2.5952 Y11.3344 
G01 X-2.6251 Y11.1455 
G01 X-2.6842 Y10.9637 
G01 X-2.7710 Y10.7933 
G01 X-2.8834 Y10.6386 
G01 X-3.0186 Y10.5034 
G01 X-3.1733 Y10.3910 
G01 X-3.3437 Y10.3042 
G01 X-3.5255 Y10.2451 
G01 X-3.7144 Y10.2152 
G01 X-3.9056 Y10.2152 
G01 X-4.0945 Y10.2451 
G01 X-4.2763 Y10.3042 
G01 X-4.4467 Y10.3910 
G01 X-4.5485 Y10.4650 
G01 X-7.9562 Y10.4650 
G01 X-8.0261 Y10.4837 
G01 X-8.0889 Y10.5199 
G01 X-8.1401 Y10.5711 
G01 X-8.1763 Y10.6339 
G01 X-8.1950 Y10.7038 
G00 Z2.0000 
G00 X-8.0950 Y13.3038 
G01 Z-0.1500 F100.00 
G01 X-8.0950 Y14.6462 F208.00 
G01 X-8.0763 Y14.7161 
G01 X-8.0401 Y14.7789 
G01 X-7.9889 Y14.8301 
G01 X-7.9261 Y14.8663 
G01 X-7.8562 Y14.8850 
G01 X-4.6130 Y14.8850 
G01 X-4.6014 Y14.8966 
G01 X-4.4467 Y15.0090 
G01 X-4.2763 Y15.0958 
G01 X-4.0945 Y15.1549 
G01 X-3.9056 Y15.1848 
G01 X-3.7144 Y15.1848 
G01 X-3.5255 Y15.1549 
G01 X-3.3437 Y15.0958 
G01 X-3.1733 Y15.0090 
G01 X-3.0186 Y14.8966 
G01 X-2.8834 Y14.7614 
G01 X-2.7710 Y14.6067 
G01 X-2.6842 Y14.4363 
G01 X-2.6251 Y14.2545 
G01 X-2.5952 Y14.0656 
G01 X-2.5952 Y13.8744 
G01 X-2.6251 Y13.6855 
G01 X-2.6842 Y13.5037 
G01 X-2.7710 Y13.3333 
G01 X-2.8834 Y13.1786 
G01 X-3.0186 Y13.0434 
G01 X-3.1733 Y12.9310 
G01 X-3.3437 Y12.8442 
G01 X-3.5255 Y12.7851 
G01 X-3.7144 Y12.7552 
G01 X-3.9056 Y12.7552 
G01 X-4.0945 Y12.7851 
G01 X-4.2763 Y12.8442 
G01 X-4.4467 Y12.9310 
G01 X-4.6014 Y13.0434 
G01 X-4.6230 Y13.0650 
G01 X-7.8562 Y13.0650 
G01 X-7.9261 Y13.0837 
G01 X-7.9889 Y13.1199 
G01 X-8.0401 Y13.1711 
G01 X-8.0763 Y13.2339 
G01 X-8.0950 Y13.3038 
G00 Z2.0000 
G00 X-10.8738 Y4.6850 
G01 Z-0.1500 F100.00 
G01 X-10.8039 Y4.6663 F208.00 
G01 X-10.7411 Y4.6301 
G01 X-10.6899 Y4.5789 
G01 X-10.6537 Y4.5161 
G01 X-10.6350 Y4.4462 
G01 X-10.6350 Y3.1038 
G01 X-10.6537 Y3.0339 
G01 X-10.6899 Y2.9711 
G01 X-10.7411 Y2.9199 
G01 X-10.8039 Y2.8837 
G01 X-10.8738 Y2.8650 
G01 X-14.1975 Y2.8650 
G01 X-14.3049 Y2.8205 
G01 X-14.5037 Y2.7810 
G01 X-14.7063 Y2.7810 
G01 X-14.9051 Y2.8205 
G01 X-15.0924 Y2.8981 
G01 X-15.2609 Y3.0107 
G01 X-15.4043 Y3.1541 
G01 X-15.5169 Y3.3226 
G01 X-15.5945 Y3.5099 
G01 X-15.6340 Y3.7087 
G01 X-15.6340 Y3.9113 
G01 X-15.5945 Y4.1101 
G01 X-15.5169 Y4.2974 
G01 X-15.4043 Y4.4659 
G01 X-15.2609 Y4.6093 
G01 X-15.0924 Y4.7219 
G01 X-14.9051 Y4.7995 
G01 X-14.7063 Y4.8390 
G01 X-14.5037 Y4.8390 
G01 X-14.3049 Y4.7995 
G01 X-14.1176 Y4.7219 
G01 X-14.0624 Y4.6850 
G01 X-10.8738 Y4.6850 
G00 Z2.0000 
G00 X-18.0750 Y30.0362 
G01 Z-0.1500 F100.00 
G01 X-18.0563 Y30.1061 F208.00 
G01 X-18.0201 Y30.1689 
G01 X-17.9689 Y30.2201 
G01 X-17.9061 Y30.2563 
G01 X-17.8362 Y30.2750 
G01 X-16.5638 Y30.2750 
G01 X-16.4939 Y30.2563 
G01 X-16.4311 Y30.2201 
G01 X-16.3799 Y30.1689 
G01 X-16.3437 Y30.1061 
G01 X-16.3250 Y30.0362 
G01 X-16.3250 Y27.2949 
G01 X-16.2331 Y27.1574 
G01 X-16.1555 Y26.9701 
G01 X-16.1160 Y26.7713 
G01 X-16.1160 Y26.5687 
G01 X-16.1555 Y26.3698 
G01 X-16.2331 Y26.1826 
G01 X-16.3457 Y26.0141 
G01 X-16.4891 Y25.8707 
G01 X-16.6576 Y25.7581 
G01 X-16.8449 Y25.6805 
G01 X-17.0436 Y25.6410 
G01 X-17.2463 Y25.6410 
G01 X-17.4451 Y25.6805 
G01 X-17.6324 Y25.7581 
G01 X-17.8009 Y25.8707 
G01 X-17.9443 Y26.0141 
G01 X-18.0569 Y26.1826 
G01 X-18.1345 Y26.3698 
G01 X-18.1740 Y26.5687 
G01 X-18.1740 Y26.7713 
G01 X-18.1345 Y26.9701 
G01 X-18.0750 Y27.1137 
G01 X-18.0750 Y30.0362 
G00 Z2.0000 
G00 X-20.5750 Y30.0362 
G01 Z-0.1500 F100.00 
G01 X-20.5563 Y30.1061 F208.00 
G01 X-20.5201 Y30.1689 
G01 X-20.4689 Y30.2201 
G01 X-20.4061 Y30.2563 
G01 X-20.3362 Y30.2750 
G01 X-19.0638 Y30.2750 
G01 X-18.9939 Y30.2563 
G01 X-18.9311 Y30.2201 
G01 X-18.8799 Y30.1689 
G01 X-18.8437 Y30.1061 
G01 X-18.8250 Y30.0362 
G01 X-18.8250 Y27.2351 
G01 X-18.7731 Y27.1574 
G01 X-18.6955 Y26.9701 
G01 X-18.6560 Y26.7713 
G01 X-18.6560 Y26.5687 
G01 X-18.6955 Y26.3698 
G01 X-18.7731 Y26.1826 
G01 X-18.8857 Y26.0141 
G01 X-19.0291 Y25.8707 
G01 X-19.1976 Y25.7581 
G01 X-19.3849 Y25.6805 
G01 X-19.5837 Y25.6410 
G01 X-19.7863 Y25.6410 
G01 X-19.9851 Y25.6805 
G01 X-20.1724 Y25.7581 
G01 X-20.3409 Y25.8707 
G01 X-20.4843 Y26.0141 
G01 X-20.5969 Y26.1826 
G01 X-20.6745 Y26.3698 
G01 X-20.7140 Y26.5687 
G01 X-20.7140 Y26.7713 
G01 X-20.6745 Y26.9701 
G01 X-20.5969 Y27.1574 
G01 X-20.5750 Y27.1902 
G01 X-20.5750 Y30.0362 
G00 Z2.0000 
G00 X-22.9750 Y30.0362 
G01 Z-0.1500 F100.00 
G01 X-22.9563 Y30.1061 F208.00 
G01 X-22.9201 Y30.1689 
G01 X-22.8689 Y30.2201 
G01 X-22.8061 Y30.2563 
G01 X-22.7362 Y30.2750 
G01 X-21.4638 Y30.2750 
G01 X-21.3939 Y30.2563 
G01 X-21.3311 Y30.2201 
G01 X-21.2799 Y30.1689 
G01 X-21.2437 Y30.1061 
G01 X-21.2250 Y30.0362 
G01 X-21.2250 Y26.9171 
G01 X-21.1960 Y26.7713 
G01 X-21.1960 Y26.5687 
G01 X-21.2355 Y26.3698 
G01 X-21.3131 Y26.1826 
G01 X-21.4257 Y26.0141 
G01 X-21.5691 Y25.8707 
G01 X-21.7376 Y25.7581 
G01 X-21.9248 Y25.6805 
G01 X-22.1237 Y25.6410 
G01 X-22.3263 Y25.6410 
G01 X-22.5251 Y25.6805 
G01 X-22.7124 Y25.7581 
G01 X-22.8809 Y25.8707 
G01 X-23.0243 Y26.0141 
G01 X-23.1369 Y26.1826 
G01 X-23.2145 Y26.3698 
G01 X-23.2540 Y26.5687 
G01 X-23.2540 Y26.7713 
G01 X-23.2145 Y26.9701 
G01 X-23.1369 Y27.1574 
G01 X-23.0243 Y27.3259 
G01 X-22.9750 Y27.3752 
G01 X-22.9750 Y30.0362 
G00 Z2.0000 
G00 X-30.8740 Y26.5687 
G01 Z-0.1500 F100.00 
G01 X-30.8740 Y26.7695 F208.00 
G01 X-36.2399 Y32.1354 
G01 X-51.2366 Y32.1354 
G01 X-51.2786 Y32.0934 
G01 X-51.4333 Y31.9810 
G01 X-51.6037 Y31.8942 
G01 X-51.7855 Y31.8351 
G01 X-51.9744 Y31.8052 
G01 X-52.1656 Y31.8052 
G01 X-52.3545 Y31.8351 
G01 X-52.5363 Y31.8942 
G01 X-52.7067 Y31.9810 
G01 X-52.8614 Y32.0934 
G01 X-52.9966 Y32.2286 
G01 X-53.1090 Y32.3833 
G01 X-53.1958 Y32.5537 
G01 X-53.2549 Y32.7355 
G01 X-53.2848 Y32.9244 
G01 X-53.2848 Y33.1156 
G01 X-53.2549 Y33.3045 
G01 X-53.1958 Y33.4863 
G01 X-53.1090 Y33.6567 
G01 X-52.9966 Y33.8114 
G01 X-52.8614 Y33.9466 
G01 X-52.7067 Y34.0590 
G01 X-52.5363 Y34.1458 
G01 X-52.3545 Y34.2049 
G01 X-52.1656 Y34.2348 
G01 X-51.9744 Y34.2348 
G01 X-51.7855 Y34.2049 
G01 X-51.6037 Y34.1458 
G01 X-51.4333 Y34.0590 
G01 X-51.2786 Y33.9466 
G01 X-51.1434 Y33.8114 
G01 X-51.0635 Y33.7014 
G01 X-47.9830 Y33.7014 
G01 X-47.9830 Y34.9170 
G01 X-48.2350 Y34.9170 
G01 X-48.2350 Y34.9038 
G01 X-48.2537 Y34.8339 
G01 X-48.2899 Y34.7711 
G01 X-48.3411 Y34.7199 
G01 X-48.4039 Y34.6837 
G01 X-48.4738 Y34.6650 
G01 X-50.4522 Y34.6650 
G01 X-50.4954 Y34.6471 
G01 X-50.6467 Y34.6170 
G01 X-50.8009 Y34.6170 
G01 X-50.9522 Y34.6471 
G01 X-50.9954 Y34.6650 
G01 X-51.5010 Y34.6650 
G01 X-51.5326 Y34.6334 
G01 X-51.6873 Y34.5210 
G01 X-51.8577 Y34.4342 
G01 X-52.0395 Y34.3751 
G01 X-52.2284 Y34.3452 
G01 X-52.4196 Y34.3452 
G01 X-52.6085 Y34.3751 
G01 X-52.7903 Y34.4342 
G01 X-52.9607 Y34.5210 
G01 X-53.1154 Y34.6334 
G01 X-53.2506 Y34.7686 
G01 X-53.3630 Y34.9233 
G01 X-53.4498 Y35.0937 
G01 X-53.5089 Y35.2755 
G01 X-53.5388 Y35.4644 
G01 X-53.5388 Y35.6556 
G01 X-53.5089 Y35.8445 
G01 X-53.4498 Y36.0263 
G01 X-53.3630 Y36.1967 
G01 X-53.2506 Y36.3514 
G01 X-53.1154 Y36.4866 
G01 X-52.9607 Y36.5990 
G01 X-52.7903 Y36.6858 
G01 X-52.6085 Y36.7449 
G01 X-52.4196 Y36.7748 
G01 X-52.2284 Y36.7748 
G01 X-52.0395 Y36.7449 
G01 X-51.8577 Y36.6858 
G01 X-51.6873 Y36.5990 
G01 X-51.5326 Y36.4866 
G01 X-48.4738 Y36.4850 
G01 X-48.4663 Y36.4830 
G01 X-47.1229 Y36.4830 
G01 X-46.9716 Y36.4529 
G01 X-46.8291 Y36.3939 
G01 X-46.7009 Y36.3082 
G01 X-46.5918 Y36.1991 
G01 X-46.5061 Y36.0709 
G01 X-46.4471 Y35.9284 
G01 X-46.4170 Y35.7771 
G01 X-46.4170 Y33.7014 
G01 X-35.8385 Y33.7014 
G01 X-35.6872 Y33.6713 
G01 X-35.5447 Y33.6123 
G01 X-35.4165 Y33.5266 
G01 X-35.3074 Y33.4175 
G01 X-29.5504 Y27.6606 
G01 X-29.5449 Y27.6595 
G01 X-29.3576 Y27.5819 
G01 X-29.1891 Y27.4693 
G01 X-29.0457 Y27.3259 
G01 X-28.9331 Y27.1574 
G01 X-28.8555 Y26.9701 
G01 X-28.8160 Y26.7713 
G01 X-28.8160 Y26.5687 
G01 X-28.8555 Y26.3698 
G01 X-28.9331 Y26.1826 
G01 X-29.0457 Y26.0141 
G01 X-29.1891 Y25.8707 
G01 X-29.3576 Y25.7581 
G01 X-29.5449 Y25.6805 
G01 X-29.7437 Y25.6410 
G01 X-29.9463 Y25.6410 
G01 X-30.1451 Y25.6805 
G01 X-30.3324 Y25.7581 
G01 X-30.5009 Y25.8707 
G01 X-30.6443 Y26.0141 
G01 X-30.7569 Y26.1826 
G01 X-30.8345 Y26.3698 
G01 X-30.8740 Y26.5687 
G00 Z2.0000 
G00 X-32.8724 Y27.5819 
G01 Z-0.1500 F100.00 
G01 X-32.6851 Y27.6595 F208.00 
G01 X-32.4863 Y27.6990 
G01 X-32.2837 Y27.6990 
G01 X-32.0849 Y27.6595 
G01 X-31.8976 Y27.5819 
G01 X-31.7291 Y27.4693 
G01 X-31.5857 Y27.3259 
G01 X-31.4731 Y27.1574 
G01 X-31.3955 Y26.9701 
G01 X-31.3560 Y26.7713 
G01 X-31.3560 Y26.5687 
G01 X-31.3955 Y26.3698 
G01 X-31.4731 Y26.1826 
G01 X-31.5857 Y26.0141 
G01 X-31.7291 Y25.8707 
G01 X-31.8976 Y25.7581 
G01 X-32.0849 Y25.6805 
G01 X-32.2837 Y25.6410 
G01 X-32.4863 Y25.6410 
G01 X-32.6851 Y25.6805 
G01 X-32.8724 Y25.7581 
G01 X-32.8752 Y25.7600 
G01 X-44.7428 Y25.7600 
G01 X-44.9186 Y25.7950 
G01 X-45.0842 Y25.8636 
G01 X-45.2333 Y25.9632 
G01 X-45.3600 Y26.0899 
G01 X-45.4596 Y26.2390 
G01 X-45.5282 Y26.4046 
G01 X-45.5365 Y26.4459 
G01 X-48.7875 Y29.6970 
G01 X-51.3913 Y29.6970 
G01 X-51.3974 Y29.6886 
G01 X-51.5326 Y29.5534 
G01 X-51.6873 Y29.4410 
G01 X-51.8577 Y29.3542 
G01 X-52.0395 Y29.2951 
G01 X-52.2284 Y29.2652 
G01 X-52.4196 Y29.2652 
G01 X-52.6085 Y29.2951 
G01 X-52.7903 Y29.3542 
G01 X-52.9607 Y29.4410 
G01 X-53.1154 Y29.5534 
G01 X-53.2506 Y29.6886 
G01 X-53.3630 Y29.8433 
G01 X-53.4498 Y30.0137 
G01 X-53.5089 Y30.1955 
G01 X-53.5388 Y30.3844 
G01 X-53.5388 Y30.5756 
G01 X-53.5089 Y30.7645 
G01 X-53.4498 Y30.9463 
G01 X-53.3630 Y31.1167 
G01 X-53.2506 Y31.2714 
G01 X-53.1154 Y31.4066 
G01 X-52.9607 Y31.5190 
G01 X-52.7903 Y31.6058 
G01 X-52.6085 Y31.6649 
G01 X-52.4196 Y31.6948 
G01 X-52.2284 Y31.6948 
G01 X-52.0395 Y31.6649 
G01 X-51.8577 Y31.6058 
G01 X-51.6873 Y31.5190 
G01 X-51.5326 Y31.4066 
G01 X-51.3974 Y31.2714 
G01 X-51.3913 Y31.2630 
G01 X-48.3861 Y31.2630 
G01 X-48.2348 Y31.2329 
G01 X-48.0923 Y31.1739 
G01 X-47.9641 Y31.0882 
G01 X-47.8550 Y30.9791 
G01 X-44.4559 Y27.5800 
G01 X-32.8752 Y27.5800 
G01 X-32.8724 Y27.5819 
G00 Z2.0000 
G00 X-48.1606 Y34.7953 
G01 Z-0.1500 F100.00 
G01 X-48.2099 Y34.7097 F208.00 
G01 X-48.2797 Y34.6399 
G01 X-48.3653 Y34.5906 
G01 X-48.4606 Y34.5650 
G01 X-50.4323 Y34.5650 
G01 X-50.4662 Y34.5509 
G01 X-50.6368 Y34.5170 
G01 X-50.8108 Y34.5170 
G01 X-50.9814 Y34.5509 
G01 X-51.0153 Y34.5650 
G01 X-51.4596 Y34.5650 
G01 X-51.4675 Y34.5571 
G01 X-51.6349 Y34.4355 
G01 X-51.8193 Y34.3415 
G01 X-51.8815 Y34.3213 
G01 X-51.7621 Y34.3024 
G01 X-51.5653 Y34.2385 
G01 X-51.3809 Y34.1445 
G01 X-51.2135 Y34.0229 
G01 X-51.0671 Y33.8765 
G01 X-51.0125 Y33.8014 
G01 X-48.0830 Y33.8014 
G01 X-48.0830 Y34.8170 
G01 X-48.1547 Y34.8170 
G01 X-48.1606 Y34.7953 
G00 Z2.0000 
G00 X-51.1952 Y32.0354 
G01 Z-0.1500 F100.00 
G01 X-51.2135 Y32.0171 F208.00 
G01 X-51.3809 Y31.8955 
G01 X-51.5653 Y31.8015 
G01 X-51.7621 Y31.7376 
G01 X-51.8815 Y31.7187 
G01 X-51.8193 Y31.6985 
G01 X-51.6349 Y31.6045 
G01 X-51.4675 Y31.4829 
G01 X-51.3476 Y31.3630 
G01 X-48.3762 Y31.3630 
G01 X-48.2056 Y31.3291 
G01 X-48.0449 Y31.2625 
G01 X-47.9003 Y31.1659 
G01 X-47.7773 Y31.0429 
G01 X-44.4144 Y27.6800 
G01 X-32.8896 Y27.6800 
G01 X-32.8184 Y27.7163 
G01 X-32.6494 Y27.7712 
G01 X-32.4739 Y27.7990 
G01 X-32.2961 Y27.7990 
G01 X-32.1206 Y27.7712 
G01 X-31.9673 Y27.7214 
G01 X-36.2814 Y32.0354 
G01 X-47.2870 Y32.0354 
G01 X-51.1952 Y32.0354 
G00 Z2.0000 
G00 X-18.2740 Y3.7211 
G01 Z-0.1500 F100.00 
G01 X-18.2740 Y3.8989 F208.00 
G01 X-18.2462 Y4.0744 
G01 X-18.1913 Y4.2434 
G01 X-18.1106 Y4.4017 
G01 X-18.0062 Y4.5455 
G01 X-17.8805 Y4.6711 
G01 X-17.7367 Y4.7756 
G01 X-17.5784 Y4.8563 
G01 X-17.4094 Y4.9112 
G01 X-17.2339 Y4.9390 
G01 X-17.0561 Y4.9390 
G01 X-16.8806 Y4.9112 
G01 X-16.7116 Y4.8563 
G01 X-16.5533 Y4.7756 
G01 X-16.4095 Y4.6711 
G01 X-16.2838 Y4.5455 
G01 X-16.1794 Y4.4017 
G01 X-16.0987 Y4.2434 
G01 X-16.0438 Y4.0744 
G01 X-16.0160 Y3.8989 
G01 X-16.0160 Y3.7211 
G01 X-16.0438 Y3.5456 
G01 X-16.0987 Y3.3766 
G01 X-16.1794 Y3.2183 
G01 X-16.2838 Y3.0745 
G01 X-16.4095 Y2.9488 
G01 X-16.5533 Y2.8444 
G01 X-16.7116 Y2.7637 
G01 X-16.8806 Y2.7088 
G01 X-17.0561 Y2.6810 
G01 X-17.2339 Y2.6810 
G01 X-17.4094 Y2.7088 
G01 X-17.5784 Y2.7637 
G01 X-17.7367 Y2.8444 
G01 X-17.8805 Y2.9488 
G01 X-18.0062 Y3.0745 
G01 X-18.1106 Y3.2183 
G01 X-18.1913 Y3.3766 
G01 X-18.2462 Y3.5456 
G01 X-18.2740 Y3.7211 
G00 Z2.0000 
G00 X-20.8140 Y3.7211 
G01 Z-0.1500 F100.00 
G01 X-20.8140 Y3.8989 F208.00 
G01 X-20.7862 Y4.0744 
G01 X-20.7313 Y4.2434 
G01 X-20.6506 Y4.4017 
G01 X-20.5462 Y4.5455 
G01 X-20.4205 Y4.6711 
G01 X-20.2767 Y4.7756 
G01 X-20.1184 Y4.8563 
G01 X-19.9494 Y4.9112 
G01 X-19.7739 Y4.9390 
G01 X-19.5961 Y4.9390 
G01 X-19.4206 Y4.9112 
G01 X-19.2516 Y4.8563 
G01 X-19.0933 Y4.7756 
G01 X-18.9495 Y4.6711 
G01 X-18.8238 Y4.5455 
G01 X-18.7194 Y4.4017 
G01 X-18.6387 Y4.2434 
G01 X-18.5838 Y4.0744 
G01 X-18.5560 Y3.8989 
G01 X-18.5560 Y3.7211 
G01 X-18.5838 Y3.5456 
G01 X-18.6387 Y3.3766 
G01 X-18.7194 Y3.2183 
G01 X-18.8238 Y3.0745 
G01 X-18.9495 Y2.9488 
G01 X-19.0933 Y2.8444 
G01 X-19.2516 Y2.7637 
G01 X-19.4206 Y2.7088 
G01 X-19.5961 Y2.6810 
G01 X-19.7739 Y2.6810 
G01 X-19.9494 Y2.7088 
G01 X-20.1184 Y2.7637 
G01 X-20.2767 Y2.8444 
G01 X-20.4205 Y2.9488 
G01 X-20.5462 Y3.0745 
G01 X-20.6506 Y3.2183 
G01 X-20.7313 Y3.3766 
G01 X-20.7862 Y3.5456 
G01 X-20.8140 Y3.7211 
G00 Z2.0000 
G00 X-30.9740 Y3.7211 
G01 Z-0.1500 F100.00 
G01 X-30.9740 Y3.8989 F208.00 
G01 X-30.9462 Y4.0744 
G01 X-30.8913 Y4.2434 
G01 X-30.8550 Y4.3146 
G01 X-30.8550 Y6.9829 
G01 X-30.8162 Y7.1780 
G01 X-30.7400 Y7.3618 
G01 X-30.6295 Y7.5272 
G01 X-30.4888 Y7.6679 
G01 X-30.3234 Y7.7784 
G01 X-30.1396 Y7.8546 
G01 X-29.9445 Y7.8934 
G01 X-29.7964 Y7.8934 
