(.../Documents/EAGLE/ulps/pcb-gcode.ulp)
(Copyright 2005 - 2012 by John Johnson)
(See readme.txt for licensing terms.)
(This file generated from the board:)
(.../ESP8266_Uno_TFT/ESP8266_Unu_TFT.brd)
(Current profile is .../EAGLE/ulps/profiles/generic.pp  )
(This file generated 09.03.20 14:28)
(Settings from pcb-machine.h)
(  Tool Size)
(0.1500 )
(Z Axis Settings)
(  High     Up        Down     Drill)
(20.4000 	2.0000 	-0.1500 	-1.9000 )
(spindle on time = 3.0000)
(milling depth = -1.3000)
(text depth = -0.1000)
(tool change at 0.0000 0.0000 20.4000 )
(feed rate xy = F208.00 )
(feed rate z  = F100.00 )
(Settings from pcb-defaults.h)
(isolate min = 0.1000)
(isolate max = 0.5000)
(isolate step = 0.1000)
(Generated bottom outlines, bottom drill, )
(Unit of measure: mm)
( Tool|       Size       |  Min Sub |  Max Sub |   Count )
( T01  1.000mm 0.0394in 0.0000in 0.0000in )
( T02  1.016mm 0.0400in 0.0000in 0.0000in )
(Metric Mode)
G21
(Absolute Coordinates)
G90
M05
G00 Z20.4000 
G00 X0.0000 Y0.0000 
M06 T01  ; 1.0000 
G00 Z2.0000 
M03
G04 P3.000000
G00 Z2.000000
G00 X-32.3850 Y3.8100 
G01 Z-1.9000 F100.00 
G01 Z2.000000
(R2.0000  P2.000000)
(G00 Z2.000000)
G00 X-32.3850 Y26.6700 
G01 Z-1.900000
G01 Z2.000000
(G00 Z2.000000)
G00 X-14.6050 Y3.8100 
G01 Z-1.900000
G01 Z2.000000
(G00 Z2.000000)
G00 X-14.6050 Y26.6700 
G01 Z-1.900000
G01 Z2.000000
(G00 Z2.000000)
G00 X-17.1450 Y3.8100 
G01 Z-1.900000
G01 Z2.000000
(G00 Z2.000000)
G00 X-17.1450 Y26.6700 
G01 Z-1.900000
G01 Z2.000000
(G00 Z2.000000)
G00 X-19.6850 Y3.8100 
G01 Z-1.900000
G01 Z2.000000
(G00 Z2.000000)
G00 X-19.6850 Y26.6700 
G01 Z-1.900000
G01 Z2.000000
(G00 Z2.000000)
G00 X-22.2250 Y3.8100 
G01 Z-1.900000
G01 Z2.000000
(G00 Z2.000000)
G00 X-22.2250 Y26.6700 
G01 Z-1.900000
G01 Z2.000000
(G00 Z2.000000)
G00 X-24.7650 Y3.8100 
G01 Z-1.900000
G01 Z2.000000
(G00 Z2.000000)
G00 X-24.7650 Y26.6700 
G01 Z-1.900000
G01 Z2.000000
(G00 Z2.000000)
G00 X-27.3050 Y3.8100 
G01 Z-1.900000
G01 Z2.000000
(G00 Z2.000000)
G00 X-27.3050 Y26.6700 
G01 Z-1.900000
G01 Z2.000000
(G00 Z2.000000)
G00 X-29.8450 Y3.8100 
G01 Z-1.900000
G01 Z2.000000
(G00 Z2.000000)
G00 X-29.8450 Y26.6700 
G01 Z-1.900000
G01 Z2.000000
M05
G00 Z20.4000 
M06 T02  ; 1.0160 
G00 Z2.0000 
M03
G04 P3.000000
G00 Z2.000000
G00 X-3.5560 Y31.7500 
G01 Z-1.9000 F100.00 
G01 Z2.000000
(R2.0000  P2.000000)
(G00 Z2.000000)
G00 X-3.5560 Y38.1000 
G01 Z-1.900000
G01 Z2.000000
(G00 Z2.000000)
G00 X-3.5560 Y43.1800 
G01 Z-1.900000
G01 Z2.000000
(G00 Z2.000000)
G00 X-3.5560 Y48.2600 
G01 Z-1.900000
G01 Z2.000000
(G00 Z2.000000)
G00 X-3.5560 Y53.3400 
G01 Z-1.900000
G01 Z2.000000
(G00 Z2.000000)
G00 X-3.5560 Y16.5100 
G01 Z-1.900000
G01 Z2.000000
(G00 Z2.000000)
G00 X-3.5560 Y21.5900 
G01 Z-1.900000
G01 Z2.000000
(G00 Z2.000000)
G00 X-3.5560 Y26.6700 
G01 Z-1.900000
G01 Z2.000000
(G00 Z2.000000)
G00 X-3.8100 Y34.2900 
G01 Z-1.900000
G01 Z2.000000
(G00 Z2.000000)
G00 X-3.8100 Y40.6400 
G01 Z-1.900000
G01 Z2.000000
(G00 Z2.000000)
G00 X-3.8100 Y45.7200 
G01 Z-1.900000
G01 Z2.000000
(G00 Z2.000000)
G00 X-3.8100 Y50.8000 
G01 Z-1.900000
G01 Z2.000000
(G00 Z2.000000)
G00 X-3.8100 Y55.8800 
G01 Z-1.900000
G01 Z2.000000
(G00 Z2.000000)
G00 X-3.8100 Y11.4300 
G01 Z-1.900000
G01 Z2.000000
(G00 Z2.000000)
G00 X-3.8100 Y13.9700 
G01 Z-1.900000
G01 Z2.000000
(G00 Z2.000000)
G00 X-3.8100 Y19.0500 
G01 Z-1.900000
G01 Z2.000000
(G00 Z2.000000)
G00 X-3.8100 Y24.1300 
G01 Z-1.900000
G01 Z2.000000
(G00 Z2.000000)
G00 X-3.8100 Y29.2100 
G01 Z-1.900000
G01 Z2.000000
(G00 Z2.000000)
G00 X-52.0700 Y33.0200 
G01 Z-1.900000
G01 Z2.000000
(G00 Z2.000000)
G00 X-52.0700 Y38.1000 
G01 Z-1.900000
G01 Z2.000000
(G00 Z2.000000)
G00 X-52.0700 Y45.7200 
G01 Z-1.900000
G01 Z2.000000
(G00 Z2.000000)
G00 X-52.0700 Y50.8000 
G01 Z-1.900000
G01 Z2.000000
(G00 Z2.000000)
G00 X-52.0700 Y55.8800 
G01 Z-1.900000
G01 Z2.000000
(G00 Z2.000000)
G00 X-52.0700 Y22.8600 
G01 Z-1.900000
G01 Z2.000000
(G00 Z2.000000)
G00 X-52.0700 Y27.9400 
G01 Z-1.900000
G01 Z2.000000
(G00 Z2.000000)
G00 X-52.3240 Y35.5600 
G01 Z-1.900000
G01 Z2.000000
(G00 Z2.000000)
G00 X-52.3240 Y43.1800 
G01 Z-1.900000
G01 Z2.000000
(G00 Z2.000000)
G00 X-52.3240 Y48.2600 
G01 Z-1.900000
G01 Z2.000000
(G00 Z2.000000)
G00 X-52.3240 Y53.3400 
G01 Z-1.900000
G01 Z2.000000
(G00 Z2.000000)
G00 X-52.3240 Y20.3200 
G01 Z-1.900000
G01 Z2.000000
(G00 Z2.000000)
G00 X-52.3240 Y25.4000 
G01 Z-1.900000
G01 Z2.000000
(G00 Z2.000000)
G00 X-52.3240 Y30.4800 
G01 Z-1.900000
G01 Z2.000000
T01 
G00 Z20.4000 
M05
M02
