(.../Documents/EAGLE/ulps/pcb-gcode.ulp)
(Copyright 2005 - 2012 by John Johnson)
(See readme.txt for licensing terms.)
(This file generated from the board:)
(.../ESP12_EPaper4.2/esp12_Epaper4.2.brd)
(Current profile is .../EAGLE/ulps/profiles/generic.pp  )
(This file generated 22.03.20 11:00)
(Settings from pcb-machine.h)
(  Tool Size)
(0.1500 )
(Z Axis Settings)
(  High     Up        Down     Drill)
(20.4000 	2.0000 	-0.1500 	-1.9000 )
(spindle on time = 3.0000)
(milling depth = -1.3000)
(text depth = -0.1000)
(tool change at 0.0000 0.0000 20.4000 )
(feed rate xy = F208.00 )
(feed rate z  = F100.00 )
(Settings from pcb-defaults.h)
(isolate min = 0.1000)
(isolate max = 0.5000)
(isolate step = 0.1000)
(Generated bottom outlines, bottom drill, )
(Unit of measure: mm)
( Tool|       Size       |  Min Sub |  Max Sub |   Count )
( T01  0.350mm 0.0138in 0.0000in 0.0000in )
( T02  0.700mm 0.0276in 0.0000in 0.0000in )
( T03  0.813mm 0.0320in 0.0000in 0.0000in )
( T04  1.016mm 0.0400in 0.0000in 0.0000in )
(Metric Mode)
G21
(Absolute Coordinates)
G90
M05
G00 Z20.4000 
G00 X0.0000 Y0.0000 
M06 T01  ; 0.3500 
G00 Z2.0000 
M03
G04 P3.000000
G00 Z2.000000
G00 X-44.9580 Y34.2900 
G01 Z-1.9000 F100.00 
G01 Z2.000000
(R2.0000  P2.000000)
(G00 Z2.000000)
G00 X-12.9540 Y34.5440 
G01 Z-1.900000
G01 Z2.000000
(G00 Z2.000000)
G00 X-22.8600 Y50.2920 
G01 Z-1.900000
G01 Z2.000000
(G00 Z2.000000)
G00 X-28.4480 Y27.4320 
G01 Z-1.900000
G01 Z2.000000
M05
G00 Z20.4000 
M06 T02  ; 0.7000 
G00 Z2.0000 
M03
G04 P3.000000
G00 Z2.000000
G00 X-38.8500 Y31.4100 
G01 Z-1.9000 F100.00 
G01 Z2.000000
(R2.0000  P2.000000)
(G00 Z2.000000)
G00 X-38.8500 Y33.4100 
G01 Z-1.900000
G01 Z2.000000
(G00 Z2.000000)
G00 X-38.8500 Y35.4100 
G01 Z-1.900000
G01 Z2.000000
(G00 Z2.000000)
G00 X-38.8500 Y37.4100 
G01 Z-1.900000
G01 Z2.000000
(G00 Z2.000000)
G00 X-38.8500 Y23.4100 
G01 Z-1.900000
G01 Z2.000000
(G00 Z2.000000)
G00 X-38.8500 Y25.4100 
G01 Z-1.900000
G01 Z2.000000
(G00 Z2.000000)
G00 X-38.8500 Y27.4100 
G01 Z-1.900000
G01 Z2.000000
(G00 Z2.000000)
G00 X-38.8500 Y29.4100 
G01 Z-1.900000
G01 Z2.000000
(G00 Z2.000000)
G00 X-24.8500 Y31.4100 
G01 Z-1.900000
G01 Z2.000000
(G00 Z2.000000)
G00 X-24.8500 Y33.4100 
G01 Z-1.900000
G01 Z2.000000
(G00 Z2.000000)
G00 X-24.8500 Y35.4100 
G01 Z-1.900000
G01 Z2.000000
(G00 Z2.000000)
G00 X-24.8500 Y37.4100 
G01 Z-1.900000
G01 Z2.000000
(G00 Z2.000000)
G00 X-24.8500 Y23.4100 
G01 Z-1.900000
G01 Z2.000000
(G00 Z2.000000)
G00 X-24.8500 Y25.4100 
G01 Z-1.900000
G01 Z2.000000
(G00 Z2.000000)
G00 X-24.8500 Y27.4100 
G01 Z-1.900000
G01 Z2.000000
(G00 Z2.000000)
G00 X-24.8500 Y29.4100 
G01 Z-1.900000
G01 Z2.000000
M05
G00 Z20.4000 
M06 T03  ; 0.8128 
G00 Z2.0000 
M03
G04 P3.000000
G00 Z2.000000
G00 X-46.9900 Y37.5920 
G01 Z-1.9000 F100.00 
G01 Z2.000000
(R2.0000  P2.000000)
(G00 Z2.000000)
G00 X-46.9900 Y40.1320 
G01 Z-1.900000
G01 Z2.000000
M05
G00 Z20.4000 
M06 T04  ; 1.0160 
G00 Z2.0000 
M03
G04 P3.000000
G00 Z2.000000
G00 X-33.0200 Y54.6100 
G01 Z-1.9000 F100.00 
G01 Z2.000000
(R2.0000  P2.000000)
(G00 Z2.000000)
G00 X-35.5600 Y54.6100 
G01 Z-1.900000
G01 Z2.000000
(G00 Z2.000000)
G00 X-38.1000 Y54.6100 
G01 Z-1.900000
G01 Z2.000000
(G00 Z2.000000)
G00 X-40.6400 Y54.6100 
G01 Z-1.900000
G01 Z2.000000
(G00 Z2.000000)
G00 X-7.8740 Y17.7800 
G01 Z-1.900000
G01 Z2.000000
(G00 Z2.000000)
G00 X-9.1694 Y39.9288 
G01 Z-1.900000
G01 Z2.000000
(G00 Z2.000000)
G00 X-9.1694 Y46.4312 
G01 Z-1.900000
G01 Z2.000000
(G00 Z2.000000)
G00 X-10.4140 Y17.7800 
G01 Z-1.900000
G01 Z2.000000
(G00 Z2.000000)
G00 X-12.7000 Y31.7500 
G01 Z-1.900000
G01 Z2.000000
(G00 Z2.000000)
G00 X-12.7000 Y24.1300 
G01 Z-1.900000
G01 Z2.000000
(G00 Z2.000000)
G00 X-12.7000 Y26.6700 
G01 Z-1.900000
G01 Z2.000000
(G00 Z2.000000)
G00 X-12.7000 Y29.2100 
G01 Z-1.900000
G01 Z2.000000
(G00 Z2.000000)
G00 X-12.9540 Y17.7800 
G01 Z-1.900000
G01 Z2.000000
(G00 Z2.000000)
G00 X-13.6906 Y39.9288 
G01 Z-1.900000
G01 Z2.000000
(G00 Z2.000000)
G00 X-13.6906 Y46.4312 
G01 Z-1.900000
G01 Z2.000000
(G00 Z2.000000)
G00 X-15.4940 Y17.7800 
G01 Z-1.900000
G01 Z2.000000
(G00 Z2.000000)
G00 X-18.0340 Y17.7800 
G01 Z-1.900000
G01 Z2.000000
(G00 Z2.000000)
G00 X-22.8600 Y54.6100 
G01 Z-1.900000
G01 Z2.000000
(G00 Z2.000000)
G00 X-25.4000 Y54.6100 
G01 Z-1.900000
G01 Z2.000000
(G00 Z2.000000)
G00 X-27.9400 Y54.6100 
G01 Z-1.900000
G01 Z2.000000
(G00 Z2.000000)
G00 X-30.4800 Y54.6100 
G01 Z-1.900000
G01 Z2.000000
T01 
G00 Z20.4000 
M05
M02
