(.../Documents/EAGLE/ulps/pcb-gcode.ulp)
(Copyright 2005 - 2012 by John Johnson)
(See readme.txt for licensing terms.)
(This file generated from the board:)
(.../ESP12_EPaper4.2/esp12_Epaper4.2.brd)
(Current profile is .../EAGLE/ulps/profiles/generic.pp  )
(This file generated 22.03.20 11:00)
(Settings from pcb-machine.h)
(  Tool Size)
(0.1500 )
(Z Axis Settings)
(  High     Up        Down     Drill)
(20.4000 	2.0000 	-0.1500 	-1.9000 )
(spindle on time = 3.0000)
(milling depth = -1.3000)
(text depth = -0.1000)
(tool change at 0.0000 0.0000 20.4000 )
(feed rate xy = F208.00 )
(feed rate z  = F100.00 )
(Settings from pcb-defaults.h)
(isolate min = 0.1000)
(isolate max = 0.5000)
(isolate step = 0.1000)
(Generated bottom outlines, bottom drill, )
(Unit of measure: mm)
(Metric Mode)
G21
(Absolute Coordinates)
G90
G00 X0.0000 Y0.0000 
M03
G04 P3.000000
G00 Z2.0000 
G00 X-40.4396 Y38.1734 
G01 Z-0.1500 F100.00 
G01 X-40.4356 Y38.1734 F208.00 
G01 X-40.4396 Y38.1774 
G01 X-40.4396 Y38.1734 
G00 Z2.0000 
G00 X-40.1347 Y24.1890 
G01 Z-0.1500 F100.00 
G01 X-38.7733 Y24.1890 F208.00 
G01 X-38.6228 Y24.1591 
G01 X-38.4810 Y24.1003 
G01 X-38.3534 Y24.0151 
G01 X-38.2449 Y23.9066 
G01 X-38.1597 Y23.7790 
G01 X-38.1009 Y23.6372 
G01 X-38.0710 Y23.4867 
G01 X-38.0710 Y23.3333 
G01 X-38.1009 Y23.1828 
G01 X-38.1597 Y23.0410 
G01 X-38.2449 Y22.9134 
G01 X-38.3534 Y22.8049 
G01 X-38.4810 Y22.7197 
G01 X-38.6228 Y22.6609 
G01 X-38.7733 Y22.6310 
G01 X-40.1347 Y22.6310 
G01 X-40.2852 Y22.6609 
G01 X-40.4270 Y22.7197 
G01 X-40.4512 Y22.7358 
G01 X-43.5770 Y22.7358 
G01 X-43.5770 Y22.4317 
G01 X-43.6036 Y22.3674 
G01 X-43.6529 Y22.3181 
G01 X-43.7172 Y22.2915 
G01 X-45.3868 Y22.2915 
G01 X-45.4511 Y22.3181 
G01 X-45.5004 Y22.3674 
G01 X-45.5270 Y22.4317 
G01 X-45.5270 Y24.3043 
G01 X-45.5004 Y24.3686 
G01 X-45.4511 Y24.4179 
G01 X-45.3868 Y24.4445 
G01 X-43.7172 Y24.4445 
G01 X-43.6529 Y24.4179 
G01 X-43.6036 Y24.3686 
G01 X-43.5770 Y24.3043 
G01 X-43.5770 Y23.8986 
G01 X-40.6684 Y23.8986 
G01 X-40.6631 Y23.9066 
G01 X-40.5546 Y24.0151 
G01 X-40.4270 Y24.1003 
G01 X-40.2852 Y24.1591 
G01 X-40.1347 Y24.1890 
G00 Z2.0000 
G00 X-40.1347 Y26.1890 
G01 Z-0.1500 F100.00 
G01 X-38.7733 Y26.1890 F208.00 
G01 X-38.6228 Y26.1591 
G01 X-38.4810 Y26.1003 
G01 X-38.3534 Y26.0151 
G01 X-38.2449 Y25.9066 
G01 X-38.1597 Y25.7790 
G01 X-38.1009 Y25.6372 
G01 X-38.0710 Y25.4867 
G01 X-38.0710 Y25.3333 
G01 X-38.1009 Y25.1828 
G01 X-38.1597 Y25.0410 
G01 X-38.2449 Y24.9134 
G01 X-38.3534 Y24.8049 
G01 X-38.4810 Y24.7197 
G01 X-38.6228 Y24.6609 
G01 X-38.7733 Y24.6310 
G01 X-40.1347 Y24.6310 
G01 X-40.2852 Y24.6609 
G01 X-40.4270 Y24.7197 
G01 X-40.5546 Y24.8049 
G01 X-40.6631 Y24.9134 
G01 X-40.7483 Y25.0410 
G01 X-40.8071 Y25.1828 
G01 X-40.8370 Y25.3333 
G01 X-40.8370 Y25.4867 
G01 X-40.8071 Y25.6372 
G01 X-40.7483 Y25.7790 
G01 X-40.6631 Y25.9066 
G01 X-40.5546 Y26.0151 
G01 X-40.4270 Y26.1003 
G01 X-40.2852 Y26.1591 
G01 X-40.1347 Y26.1890 
G00 Z2.0000 
G00 X-40.1347 Y30.1890 
G01 Z-0.1500 F100.00 
G01 X-38.7733 Y30.1890 F208.00 
G01 X-38.6228 Y30.1591 
G01 X-38.4810 Y30.1003 
G01 X-38.3534 Y30.0151 
G01 X-38.2449 Y29.9066 
G01 X-38.1597 Y29.7790 
G01 X-38.1009 Y29.6372 
G01 X-38.0710 Y29.4867 
G01 X-38.0710 Y29.3333 
G01 X-38.1009 Y29.1828 
G01 X-38.1597 Y29.0410 
G01 X-38.2449 Y28.9134 
G01 X-38.3534 Y28.8049 
G01 X-38.4810 Y28.7197 
G01 X-38.6228 Y28.6609 
G01 X-38.7733 Y28.6310 
G01 X-40.1347 Y28.6310 
G01 X-40.2852 Y28.6609 
G01 X-40.4270 Y28.7197 
G01 X-40.5546 Y28.8049 
G01 X-40.6631 Y28.9134 
G01 X-40.7483 Y29.0410 
G01 X-40.8071 Y29.1828 
G01 X-40.8370 Y29.3333 
G01 X-40.8370 Y29.4867 
G01 X-40.8071 Y29.6372 
G01 X-40.7483 Y29.7790 
G01 X-40.6631 Y29.9066 
G01 X-40.5546 Y30.0151 
G01 X-40.4270 Y30.1003 
G01 X-40.2852 Y30.1591 
G01 X-40.1347 Y30.1890 
G00 Z2.0000 
G00 X-40.1347 Y34.1890 
G01 Z-0.1500 F100.00 
G01 X-38.7733 Y34.1890 F208.00 
G01 X-38.6228 Y34.1591 
G01 X-38.4810 Y34.1003 
G01 X-38.3534 Y34.0151 
G01 X-38.2449 Y33.9066 
G01 X-38.1597 Y33.7790 
G01 X-38.1009 Y33.6372 
G01 X-38.0710 Y33.4867 
G01 X-38.0710 Y33.3333 
G01 X-38.1009 Y33.1828 
G01 X-38.1597 Y33.0410 
G01 X-38.2449 Y32.9134 
G01 X-38.3534 Y32.8049 
G01 X-38.4810 Y32.7197 
G01 X-38.6228 Y32.6609 
G01 X-38.7733 Y32.6310 
G01 X-40.1347 Y32.6310 
G01 X-40.2852 Y32.6609 
G01 X-40.4270 Y32.7197 
G01 X-40.5546 Y32.8049 
G01 X-40.6631 Y32.9134 
G01 X-40.7483 Y33.0410 
G01 X-40.8071 Y33.1828 
G01 X-40.8370 Y33.3333 
G01 X-40.8370 Y33.4867 
G01 X-40.8071 Y33.6372 
G01 X-40.7483 Y33.7790 
G01 X-40.6631 Y33.9066 
G01 X-40.5546 Y34.0151 
G01 X-40.4270 Y34.1003 
G01 X-40.2852 Y34.1591 
G01 X-40.1347 Y34.1890 
G00 Z2.0000 
G00 X-40.1347 Y36.1890 
G01 Z-0.1500 F100.00 
G01 X-38.7733 Y36.1890 F208.00 
G01 X-38.6228 Y36.1591 
G01 X-38.4810 Y36.1003 
G01 X-38.3534 Y36.0151 
G01 X-38.3297 Y35.9914 
G01 X-37.7288 Y35.9914 
G01 X-36.2430 Y37.4772 
G01 X-36.2430 Y53.2059 
G01 X-36.2878 Y53.2507 
G01 X-36.3904 Y53.4042 
G01 X-36.4610 Y53.5747 
G01 X-36.4970 Y53.7557 
G01 X-36.4970 Y55.4643 
G01 X-36.4610 Y55.6453 
G01 X-36.3904 Y55.8158 
G01 X-36.2878 Y55.9693 
G01 X-36.1573 Y56.0998 
G01 X-36.0038 Y56.2024 
G01 X-35.8333 Y56.2730 
G01 X-35.6523 Y56.3090 
G01 X-35.4677 Y56.3090 
G01 X-35.2867 Y56.2730 
G01 X-35.1162 Y56.2024 
G01 X-34.9627 Y56.0998 
G01 X-34.8322 Y55.9693 
G01 X-34.7296 Y55.8158 
G01 X-34.6590 Y55.6453 
G01 X-34.6230 Y55.4643 
G01 X-34.6230 Y53.7557 
G01 X-34.6590 Y53.5747 
G01 X-34.7296 Y53.4042 
G01 X-34.8322 Y53.2507 
G01 X-34.9627 Y53.1202 
G01 X-35.0802 Y53.0417 
G01 X-35.0802 Y37.1791 
G01 X-35.1025 Y37.0668 
G01 X-35.1464 Y36.9610 
G01 X-35.2100 Y36.8658 
G01 X-37.1174 Y34.9584 
G01 X-37.2126 Y34.8948 
G01 X-37.3184 Y34.8509 
G01 X-37.4307 Y34.8286 
G01 X-38.3297 Y34.8286 
G01 X-38.3534 Y34.8049 
G01 X-38.4810 Y34.7197 
G01 X-38.6228 Y34.6609 
G01 X-38.7733 Y34.6310 
G01 X-40.1347 Y34.6310 
G01 X-40.2852 Y34.6609 
G01 X-40.4270 Y34.7197 
G01 X-40.5546 Y34.8049 
G01 X-40.6631 Y34.9134 
G01 X-40.7483 Y35.0410 
G01 X-40.8071 Y35.1828 
G01 X-40.8370 Y35.3333 
G01 X-40.8370 Y35.4867 
G01 X-40.8071 Y35.6372 
G01 X-40.7483 Y35.7790 
G01 X-40.6631 Y35.9066 
G01 X-40.5546 Y36.0151 
G01 X-40.4270 Y36.1003 
G01 X-40.2852 Y36.1591 
G01 X-40.1347 Y36.1890 
G00 Z2.0000 
G00 X-23.5653 Y22.6310 
G01 Z-0.1500 F100.00 
G01 X-24.9267 Y22.6310 F208.00 
G01 X-25.0772 Y22.6609 
G01 X-25.2190 Y22.7197 
G01 X-25.3466 Y22.8049 
G01 X-25.4551 Y22.9134 
G01 X-25.5403 Y23.0410 
G01 X-25.5991 Y23.1828 
G01 X-25.6290 Y23.3333 
G01 X-25.6290 Y23.4867 
G01 X-25.5991 Y23.6372 
G01 X-25.5403 Y23.7790 
G01 X-25.4551 Y23.9066 
G01 X-25.3466 Y24.0151 
G01 X-25.2190 Y24.1003 
G01 X-25.0772 Y24.1591 
G01 X-24.9267 Y24.1890 
G01 X-23.5653 Y24.1890 
G01 X-23.4148 Y24.1591 
G01 X-23.2730 Y24.1003 
G01 X-23.1454 Y24.0151 
G01 X-23.1217 Y23.9914 
G01 X-14.3898 Y23.9914 
G01 X-14.3990 Y24.0377 
G01 X-14.3990 Y24.2223 
G01 X-14.3630 Y24.4033 
G01 X-14.2924 Y24.5738 
G01 X-14.1898 Y24.7273 
G01 X-14.0593 Y24.8578 
G01 X-13.9058 Y24.9604 
G01 X-13.7353 Y25.0310 
G01 X-13.5543 Y25.0670 
G01 X-11.8457 Y25.0670 
G01 X-11.6647 Y25.0310 
G01 X-11.4942 Y24.9604 
G01 X-11.3407 Y24.8578 
G01 X-11.2102 Y24.7273 
G01 X-11.1076 Y24.5738 
G01 X-11.0370 Y24.4033 
G01 X-11.0010 Y24.2223 
G01 X-11.0010 Y24.0377 
G01 X-11.0370 Y23.8567 
G01 X-11.1076 Y23.6862 
G01 X-11.2102 Y23.5327 
G01 X-11.3407 Y23.4022 
G01 X-11.4942 Y23.2996 
G01 X-11.6647 Y23.2290 
G01 X-11.8457 Y23.1930 
G01 X-12.8148 Y23.1930 
G01 X-12.9684 Y23.0394 
G01 X-13.0494 Y22.9584 
G01 X-13.1446 Y22.8948 
G01 X-13.2504 Y22.8509 
G01 X-13.3627 Y22.8286 
G01 X-23.1217 Y22.8286 
G01 X-23.1454 Y22.8049 
G01 X-23.2730 Y22.7197 
G01 X-23.4148 Y22.6609 
G01 X-23.5653 Y22.6310 
G00 Z2.0000 
G00 X-23.5653 Y26.6310 
G01 Z-0.1500 F100.00 
G01 X-24.9267 Y26.6310 F208.00 
G01 X-25.0772 Y26.6609 
G01 X-25.2190 Y26.7197 
G01 X-25.3466 Y26.8049 
G01 X-25.3923 Y26.8506 
G01 X-29.0133 Y26.8506 
G01 X-29.1256 Y26.8729 
G01 X-29.2314 Y26.9168 
G01 X-29.3266 Y26.9804 
G01 X-29.4076 Y27.0614 
G01 X-29.4712 Y27.1566 
G01 X-29.5151 Y27.2624 
G01 X-29.5374 Y27.3747 
G01 X-29.5374 Y27.4893 
G01 X-29.5151 Y27.6016 
G01 X-29.4712 Y27.7074 
G01 X-29.4076 Y27.8026 
G01 X-29.3266 Y27.8836 
G01 X-29.2314 Y27.9472 
G01 X-29.1256 Y27.9911 
G01 X-29.0133 Y28.0134 
G01 X-25.3483 Y28.0134 
G01 X-25.2190 Y28.1003 
G01 X-25.0772 Y28.1591 
G01 X-24.9267 Y28.1890 
G01 X-23.5653 Y28.1890 
G01 X-23.4148 Y28.1591 
G01 X-23.2730 Y28.1003 
G01 X-23.1454 Y28.0151 
G01 X-23.0369 Y27.9066 
G01 X-22.9517 Y27.7790 
G01 X-22.8929 Y27.6372 
G01 X-22.8630 Y27.4867 
G01 X-22.8630 Y27.3333 
G01 X-22.8929 Y27.1828 
G01 X-22.9517 Y27.0410 
G01 X-23.0369 Y26.9134 
G01 X-23.1454 Y26.8049 
G01 X-23.2730 Y26.7197 
G01 X-23.4148 Y26.6609 
G01 X-23.5653 Y26.6310 
G00 Z2.0000 
G00 X-23.5653 Y30.6310 
G01 Z-0.1500 F100.00 
G01 X-24.9267 Y30.6310 F208.00 
G01 X-25.0755 Y30.6606 
G01 X-28.5053 Y30.6606 
G01 X-28.6176 Y30.6829 
G01 X-28.7234 Y30.7268 
G01 X-28.8186 Y30.7904 
G01 X-28.8996 Y30.8714 
G01 X-28.9632 Y30.9666 
G01 X-29.0071 Y31.0724 
G01 X-29.0294 Y31.1847 
G01 X-29.0294 Y54.1593 
G01 X-29.0071 Y54.2716 
G01 X-28.9632 Y54.3774 
G01 X-28.8996 Y54.4726 
G01 X-28.8770 Y54.4952 
G01 X-28.8770 Y55.4643 
G01 X-28.8410 Y55.6453 
G01 X-28.7704 Y55.8158 
G01 X-28.6678 Y55.9693 
G01 X-28.5373 Y56.0998 
G01 X-28.3838 Y56.2024 
G01 X-28.2133 Y56.2730 
G01 X-28.0323 Y56.3090 
G01 X-27.8477 Y56.3090 
G01 X-27.6667 Y56.2730 
G01 X-27.4962 Y56.2024 
G01 X-27.3427 Y56.0998 
G01 X-27.2122 Y55.9693 
G01 X-27.1096 Y55.8158 
G01 X-27.0390 Y55.6453 
G01 X-27.0030 Y55.4643 
G01 X-27.0030 Y53.7557 
G01 X-27.0390 Y53.5747 
G01 X-27.1096 Y53.4042 
G01 X-27.2122 Y53.2507 
G01 X-27.3427 Y53.1202 
G01 X-27.4962 Y53.0176 
G01 X-27.6667 Y52.9470 
G01 X-27.8477 Y52.9110 
G01 X-27.8666 Y52.9110 
G01 X-27.8666 Y31.8234 
G01 X-25.5107 Y31.8234 
G01 X-25.4551 Y31.9066 
G01 X-25.3466 Y32.0151 
G01 X-25.2190 Y32.1003 
G01 X-25.0772 Y32.1591 
G01 X-24.9267 Y32.1890 
G01 X-23.5653 Y32.1890 
G01 X-23.4148 Y32.1591 
G01 X-23.2730 Y32.1003 
G01 X-23.1454 Y32.0151 
G01 X-23.1217 Y31.9914 
G01 X-21.1930 Y31.9914 
G01 X-21.1930 Y32.4323 
G01 X-21.1664 Y32.4966 
G01 X-21.1171 Y32.5459 
G01 X-21.0528 Y32.5725 
G01 X-19.3832 Y32.5725 
G01 X-19.3189 Y32.5459 
G01 X-19.2696 Y32.4966 
G01 X-19.2430 Y32.4323 
G01 X-19.2430 Y30.5597 
G01 X-19.2696 Y30.4954 
G01 X-19.3189 Y30.4461 
G01 X-19.3832 Y30.4195 
G01 X-21.0528 Y30.4195 
G01 X-21.1171 Y30.4461 
G01 X-21.1664 Y30.4954 
G01 X-21.1930 Y30.5597 
G01 X-21.1930 Y30.8286 
G01 X-23.1217 Y30.8286 
G01 X-23.1454 Y30.8049 
G01 X-23.2730 Y30.7197 
G01 X-23.4148 Y30.6609 
G01 X-23.5653 Y30.6310 
G00 Z2.0000 
G00 X-23.5653 Y32.6310 
G01 Z-0.1500 F100.00 
G01 X-24.9267 Y32.6310 F208.00 
G01 X-25.0772 Y32.6609 
G01 X-25.2190 Y32.7197 
G01 X-25.3466 Y32.8049 
G01 X-25.4551 Y32.9134 
G01 X-25.4773 Y32.9466 
G01 X-26.4733 Y32.9466 
G01 X-26.5856 Y32.9689 
G01 X-26.6914 Y33.0128 
G01 X-26.7866 Y33.0764 
G01 X-26.8676 Y33.1574 
G01 X-26.9312 Y33.2526 
G01 X-26.9751 Y33.3584 
G01 X-26.9974 Y33.4707 
G01 X-26.9974 Y49.8413 
G01 X-26.9751 Y49.9536 
G01 X-26.9312 Y50.0594 
G01 X-26.8676 Y50.1546 
G01 X-26.7866 Y50.2356 
G01 X-25.9814 Y51.0408 
G01 X-25.9814 Y53.1096 
G01 X-25.9973 Y53.1202 
G01 X-26.1278 Y53.2507 
G01 X-26.2304 Y53.4042 
G01 X-26.3010 Y53.5747 
G01 X-26.3370 Y53.7557 
G01 X-26.3370 Y55.4643 
G01 X-26.3010 Y55.6453 
G01 X-26.2304 Y55.8158 
G01 X-26.1278 Y55.9693 
G01 X-25.9973 Y56.0998 
G01 X-25.8438 Y56.2024 
G01 X-25.6733 Y56.2730 
G01 X-25.4923 Y56.3090 
G01 X-25.3077 Y56.3090 
G01 X-25.1267 Y56.2730 
G01 X-24.9562 Y56.2024 
G01 X-24.8027 Y56.0998 
G01 X-24.6722 Y55.9693 
G01 X-24.5696 Y55.8158 
G01 X-24.4990 Y55.6453 
G01 X-24.4630 Y55.4643 
G01 X-24.4630 Y53.7557 
G01 X-24.4990 Y53.5747 
G01 X-24.5696 Y53.4042 
G01 X-24.6722 Y53.2507 
G01 X-24.8027 Y53.1202 
G01 X-24.8186 Y53.1096 
G01 X-24.8186 Y51.5345 
G01 X-24.7754 Y51.5056 
G01 X-24.6944 Y51.4246 
G01 X-24.6308 Y51.3294 
G01 X-24.5869 Y51.2236 
G01 X-24.5646 Y51.1113 
G01 X-24.5646 Y50.9967 
G01 X-24.5869 Y50.8844 
G01 X-24.6308 Y50.7786 
G01 X-24.6944 Y50.6834 
G01 X-24.9484 Y50.4294 
G01 X-25.0294 Y50.3484 
G01 X-25.8346 Y49.5432 
G01 X-25.8346 Y34.1094 
G01 X-25.1971 Y34.1094 
G01 X-25.0772 Y34.1591 
G01 X-24.9267 Y34.1890 
G01 X-23.5653 Y34.1890 
G01 X-23.4148 Y34.1591 
G01 X-23.2730 Y34.1003 
G01 X-23.1454 Y34.0151 
G01 X-23.0369 Y33.9066 
G01 X-22.9517 Y33.7790 
G01 X-22.8929 Y33.6372 
G01 X-22.8630 Y33.4867 
G01 X-22.8630 Y33.3333 
G01 X-22.8929 Y33.1828 
G01 X-22.9517 Y33.0410 
G01 X-23.0369 Y32.9134 
G01 X-23.1454 Y32.8049 
G01 X-23.2730 Y32.7197 
G01 X-23.4148 Y32.6609 
G01 X-23.5653 Y32.6310 
G00 Z2.0000 
G00 X-10.2842 Y39.8411 
G01 Z-0.1500 F100.00 
G01 X-10.2842 Y40.0165 F208.00 
G01 X-10.2567 Y40.1898 
G01 X-10.2025 Y40.3567 
G01 X-10.1229 Y40.5131 
G01 X-10.0197 Y40.6550 
G01 X-9.8956 Y40.7791 
G01 X-9.7537 Y40.8823 
G01 X-9.5973 Y40.9619 
G01 X-9.4305 Y41.0161 
G01 X-9.2571 Y41.0436 
G01 X-9.0817 Y41.0436 
G01 X-8.9083 Y41.0161 
G01 X-8.7415 Y40.9619 
G01 X-8.5851 Y40.8823 
G01 X-8.4432 Y40.7791 
G01 X-8.3191 Y40.6550 
G01 X-8.2159 Y40.5131 
G01 X-8.1363 Y40.3567 
G01 X-8.0821 Y40.1898 
G01 X-8.0546 Y40.0165 
G01 X-8.0546 Y39.8411 
G01 X-8.0821 Y39.6677 
G01 X-8.1363 Y39.5009 
G01 X-8.2159 Y39.3445 
G01 X-8.3191 Y39.2026 
G01 X-8.4432 Y39.0785 
G01 X-8.5851 Y38.9753 
G01 X-8.7415 Y38.8957 
G01 X-8.9083 Y38.8415 
G01 X-9.0817 Y38.8140 
G01 X-9.2571 Y38.8140 
G01 X-9.4305 Y38.8415 
G01 X-9.5973 Y38.8957 
G01 X-9.7537 Y38.9753 
G01 X-9.8956 Y39.0785 
G01 X-10.0197 Y39.2026 
G01 X-10.1229 Y39.3445 
G01 X-10.2025 Y39.5009 
G01 X-10.2567 Y39.6677 
G01 X-10.2842 Y39.8411 
G00 Z2.0000 
G00 X-14.8054 Y39.8411 
G01 Z-0.1500 F100.00 
G01 X-14.8054 Y40.0165 F208.00 
G01 X-14.7779 Y40.1898 
G01 X-14.7237 Y40.3567 
G01 X-14.6441 Y40.5131 
G01 X-14.5409 Y40.6550 
G01 X-14.4168 Y40.7791 
G01 X-14.2749 Y40.8823 
G01 X-14.1185 Y40.9619 
G01 X-13.9517 Y41.0161 
G01 X-13.7783 Y41.0436 
G01 X-13.6029 Y41.0436 
G01 X-13.4295 Y41.0161 
G01 X-13.2627 Y40.9619 
G01 X-13.1063 Y40.8823 
G01 X-12.9644 Y40.7791 
G01 X-12.8403 Y40.6550 
G01 X-12.7371 Y40.5131 
G01 X-12.6575 Y40.3567 
G01 X-12.6033 Y40.1898 
G01 X-12.5758 Y40.0165 
G01 X-12.5758 Y39.8411 
G01 X-12.6033 Y39.6677 
G01 X-12.6575 Y39.5009 
G01 X-12.7371 Y39.3445 
G01 X-12.8403 Y39.2026 
G01 X-12.9644 Y39.0785 
G01 X-13.1063 Y38.9753 
G01 X-13.2627 Y38.8957 
G01 X-13.4295 Y38.8415 
G01 X-13.6029 Y38.8140 
G01 X-13.7783 Y38.8140 
G01 X-13.9517 Y38.8415 
G01 X-14.1185 Y38.8957 
G01 X-14.2749 Y38.9753 
G01 X-14.4168 Y39.0785 
G01 X-14.5409 Y39.2026 
G01 X-14.6441 Y39.3445 
G01 X-14.7237 Y39.5009 
G01 X-14.7779 Y39.6677 
G01 X-14.8054 Y39.8411 
G00 Z2.0000 
G00 X-14.6441 Y47.0155 
G01 Z-0.1500 F100.00 
G01 X-14.5409 Y47.1574 F208.00 
G01 X-14.4168 Y47.2815 
G01 X-14.2749 Y47.3847 
G01 X-14.1185 Y47.4643 
G01 X-13.9517 Y47.5185 
G01 X-13.7783 Y47.5460 
G01 X-13.6029 Y47.5460 
G01 X-13.4295 Y47.5185 
G01 X-13.2627 Y47.4643 
G01 X-13.1063 Y47.3847 
G01 X-12.9644 Y47.2815 
G01 X-12.8403 Y47.1574 
G01 X-12.7371 Y47.0155 
G01 X-12.6575 Y46.8591 
G01 X-12.6033 Y46.6923 
G01 X-12.5758 Y46.5189 
G01 X-12.5758 Y46.3435 
G01 X-12.6033 Y46.1701 
G01 X-12.6575 Y46.0033 
G01 X-12.7371 Y45.8469 
G01 X-12.8403 Y45.7050 
G01 X-12.9644 Y45.5809 
G01 X-13.1063 Y45.4777 
G01 X-13.2627 Y45.3981 
G01 X-13.4295 Y45.3439 
G01 X-13.6029 Y45.3164 
G01 X-13.7783 Y45.3164 
G01 X-13.9517 Y45.3439 
G01 X-14.1185 Y45.3981 
G01 X-14.2749 Y45.4777 
G01 X-14.4168 Y45.5809 
G01 X-14.5409 Y45.7050 
G01 X-14.6441 Y45.8469 
G01 X-14.6455 Y45.8498 
G01 X-15.0500 Y45.8498 
G01 X-15.5504 Y45.3494 
G01 X-15.9286 Y44.9712 
G01 X-15.9286 Y31.1847 
G01 X-15.9509 Y31.0724 
G01 X-15.9948 Y30.9666 
G01 X-16.0584 Y30.8714 
G01 X-16.1394 Y30.7904 
G01 X-16.2346 Y30.7268 
G01 X-16.3404 Y30.6829 
G01 X-16.3990 Y30.6713 
G01 X-16.3990 Y30.5597 
G01 X-16.4256 Y30.4954 
G01 X-16.4749 Y30.4461 
G01 X-16.5392 Y30.4195 
G01 X-18.2088 Y30.4195 
G01 X-18.2731 Y30.4461 
G01 X-18.3224 Y30.4954 
G01 X-18.3490 Y30.5597 
G01 X-18.3490 Y32.4323 
G01 X-18.3224 Y32.4966 
G01 X-18.2731 Y32.5459 
G01 X-18.2088 Y32.5725 
G01 X-17.0914 Y32.5725 
G01 X-17.0914 Y45.2693 
G01 X-17.0691 Y45.3816 
G01 X-17.0252 Y45.4874 
G01 X-16.9616 Y45.5826 
G01 X-16.3726 Y46.1716 
G01 X-15.6614 Y46.8828 
G01 X-15.5662 Y46.9464 
G01 X-15.4604 Y46.9903 
G01 X-15.3481 Y47.0126 
G01 X-14.6455 Y47.0126 
G01 X-14.6441 Y47.0155 
G00 Z2.0000 
G00 X-20.2403 Y36.1290 
G01 Z-0.1500 F100.00 
G01 X-18.3677 Y36.1290 F208.00 
G01 X-18.3034 Y36.1024 
G01 X-18.2541 Y36.0531 
G01 X-18.2275 Y35.9888 
G01 X-18.2275 Y34.3192 
G01 X-18.2541 Y34.2549 
G01 X-18.3034 Y34.2056 
G01 X-18.3677 Y34.1790 
G01 X-20.2403 Y34.1790 
G01 X-20.3046 Y34.2056 
G01 X-20.3539 Y34.2549 
G01 X-20.3805 Y34.3192 
G01 X-20.3805 Y34.5726 
G01 X-24.0353 Y34.5726 
G01 X-24.1476 Y34.5949 
G01 X-24.2346 Y34.6310 
G01 X-24.9267 Y34.6310 
G01 X-25.0772 Y34.6609 
G01 X-25.2190 Y34.7197 
G01 X-25.3466 Y34.8049 
G01 X-25.4551 Y34.9134 
G01 X-25.5403 Y35.0410 
G01 X-25.5991 Y35.1828 
G01 X-25.6290 Y35.3333 
G01 X-25.6290 Y35.4867 
G01 X-25.5991 Y35.6372 
G01 X-25.5403 Y35.7790 
G01 X-25.4551 Y35.9066 
G01 X-25.3466 Y36.0151 
G01 X-25.2190 Y36.1003 
G01 X-25.0772 Y36.1591 
G01 X-24.9267 Y36.1890 
G01 X-23.5653 Y36.1890 
G01 X-23.4148 Y36.1591 
G01 X-23.2730 Y36.1003 
G01 X-23.1454 Y36.0151 
G01 X-23.0369 Y35.9066 
G01 X-22.9517 Y35.7790 
G01 X-22.9336 Y35.7354 
G01 X-20.3805 Y35.7354 
G01 X-20.3805 Y35.9888 
G01 X-20.3539 Y36.0531 
G01 X-20.3046 Y36.1024 
G01 X-20.2403 Y36.1290 
G00 Z2.0000 
G00 X-46.1670 Y28.3683 
G01 Z-0.1500 F100.00 
G01 X-46.1670 Y26.4957 F208.00 
G01 X-46.1936 Y26.4314 
G01 X-46.2429 Y26.3821 
G01 X-46.3072 Y26.3555 
G01 X-46.6626 Y26.3555 
G01 X-46.6626 Y24.4445 
G01 X-46.5612 Y24.4445 
G01 X-46.4969 Y24.4179 
G01 X-46.4476 Y24.3686 
G01 X-46.4210 Y24.3043 
G01 X-46.4210 Y22.4317 
G01 X-46.4476 Y22.3674 
G01 X-46.4969 Y22.3181 
G01 X-46.5612 Y22.2915 
G01 X-46.8146 Y22.2915 
G01 X-46.8146 Y21.1554 
G01 X-45.4087 Y21.1554 
G01 X-45.2964 Y21.1331 
G01 X-45.1906 Y21.0892 
G01 X-45.0954 Y21.0256 
G01 X-45.0144 Y20.9446 
G01 X-44.5064 Y20.4366 
G01 X-44.4428 Y20.3414 
G01 X-44.3989 Y20.2356 
G01 X-44.3766 Y20.1233 
G01 X-44.3766 Y18.3821 
G01 X-44.3289 Y18.3624 
G01 X-44.2796 Y18.3131 
G01 X-44.2530 Y18.2488 
G01 X-44.2530 Y17.1792 
G01 X-44.2796 Y17.1149 
G01 X-44.3289 Y17.0656 
G01 X-44.3932 Y17.0390 
G01 X-45.8628 Y17.0390 
G01 X-45.9271 Y17.0656 
G01 X-45.9764 Y17.1149 
G01 X-46.0030 Y17.1792 
G01 X-46.0030 Y18.2488 
G01 X-45.9764 Y18.3131 
G01 X-45.9271 Y18.3624 
G01 X-45.8628 Y18.3890 
G01 X-45.5394 Y18.3890 
G01 X-45.5394 Y19.8252 
G01 X-45.7068 Y19.9926 
G01 X-47.4533 Y19.9926 
G01 X-47.5656 Y20.0149 
G01 X-47.6714 Y20.0588 
G01 X-47.7666 Y20.1224 
G01 X-47.8476 Y20.2034 
G01 X-47.9112 Y20.2986 
G01 X-47.9551 Y20.4044 
G01 X-47.9774 Y20.5167 
G01 X-47.9774 Y22.2915 
G01 X-48.2308 Y22.2915 
G01 X-48.2951 Y22.3181 
G01 X-48.3444 Y22.3674 
G01 X-48.3710 Y22.4317 
G01 X-48.3710 Y24.3043 
G01 X-48.3444 Y24.3686 
G01 X-48.2951 Y24.4179 
G01 X-48.2308 Y24.4445 
G01 X-47.8254 Y24.4445 
G01 X-47.8254 Y26.3555 
G01 X-47.9768 Y26.3555 
G01 X-48.0411 Y26.3821 
G01 X-48.0904 Y26.4314 
G01 X-48.1170 Y26.4957 
G01 X-48.1170 Y28.3683 
G01 X-48.0904 Y28.4326 
G01 X-48.0411 Y28.4819 
G01 X-47.9768 Y28.5085 
G01 X-47.5714 Y28.5085 
G01 X-47.5714 Y36.9920 
G01 X-47.8254 Y37.2460 
G01 X-47.8254 Y37.9380 
G01 X-47.3360 Y38.4274 
G01 X-46.6440 Y38.4274 
G01 X-46.3900 Y38.1734 
G01 X-40.9420 Y38.1734 
G01 X-40.9420 Y38.6798 
G01 X-41.0106 Y38.7484 
G01 X-41.0916 Y38.8294 
G01 X-41.1552 Y38.9246 
G01 X-41.1991 Y39.0304 
G01 X-41.2214 Y39.1427 
G01 X-41.2214 Y53.1096 
G01 X-41.2373 Y53.1202 
G01 X-41.3678 Y53.2507 
G01 X-41.4704 Y53.4042 
G01 X-41.5410 Y53.5747 
G01 X-41.5770 Y53.7557 
G01 X-41.5770 Y55.4643 
G01 X-41.5410 Y55.6453 
G01 X-41.4704 Y55.8158 
G01 X-41.3678 Y55.9693 
G01 X-41.2373 Y56.0998 
G01 X-41.0838 Y56.2024 
G01 X-40.9133 Y56.2730 
G01 X-40.7323 Y56.3090 
G01 X-40.5477 Y56.3090 
G01 X-40.3667 Y56.2730 
G01 X-40.1962 Y56.2024 
G01 X-40.0427 Y56.0998 
G01 X-39.9122 Y55.9693 
G01 X-39.8096 Y55.8158 
G01 X-39.7390 Y55.6453 
G01 X-39.7030 Y55.4643 
G01 X-39.7030 Y53.7557 
G01 X-39.7390 Y53.5747 
G01 X-39.8096 Y53.4042 
G01 X-39.9122 Y53.2507 
G01 X-40.0427 Y53.1202 
G01 X-40.0586 Y53.1096 
G01 X-40.0586 Y39.4408 
G01 X-38.8068 Y38.1890 
G01 X-38.7733 Y38.1890 
G01 X-38.6228 Y38.1591 
G01 X-38.4810 Y38.1003 
G01 X-38.3534 Y38.0151 
G01 X-38.2449 Y37.9066 
G01 X-38.1597 Y37.7790 
G01 X-38.1009 Y37.6372 
G01 X-38.0710 Y37.4867 
G01 X-38.0710 Y37.3333 
G01 X-38.1009 Y37.1828 
G01 X-38.1597 Y37.0410 
G01 X-38.2449 Y36.9134 
G01 X-38.3534 Y36.8049 
G01 X-38.4810 Y36.7197 
G01 X-38.6228 Y36.6609 
G01 X-38.7733 Y36.6310 
G01 X-40.1347 Y36.6310 
G01 X-40.2852 Y36.6609 
G01 X-40.4270 Y36.7197 
G01 X-40.5546 Y36.8049 
G01 X-40.6631 Y36.9134 
G01 X-40.7280 Y37.0106 
G01 X-46.3900 Y37.0106 
G01 X-46.4086 Y36.9920 
G01 X-46.4086 Y34.8714 
G01 X-44.9007 Y34.8714 
G01 X-44.7884 Y34.8491 
G01 X-44.6826 Y34.8052 
G01 X-44.5874 Y34.7416 
G01 X-44.5064 Y34.6606 
G01 X-44.4428 Y34.5654 
G01 X-44.3989 Y34.4596 
G01 X-44.3766 Y34.3473 
G01 X-44.3766 Y34.2327 
G01 X-44.3989 Y34.1204 
G01 X-44.4428 Y34.0146 
G01 X-44.5064 Y33.9194 
G01 X-44.5874 Y33.8384 
G01 X-44.6826 Y33.7748 
G01 X-44.7884 Y33.7309 
G01 X-44.9007 Y33.7086 
G01 X-46.4086 Y33.7086 
G01 X-46.4086 Y28.5085 
G01 X-46.3072 Y28.5085 
G01 X-46.2429 Y28.4819 
G01 X-46.1936 Y28.4326 
G01 X-46.1670 Y28.3683 
G00 Z2.0000 
G00 X-43.3230 Y28.3683 
G01 Z-0.1500 F100.00 
G01 X-43.3230 Y28.0134 F208.00 
G01 X-40.5563 Y28.0134 
G01 X-40.4270 Y28.1003 
G01 X-40.2852 Y28.1591 
G01 X-40.1347 Y28.1890 
G01 X-38.7733 Y28.1890 
G01 X-38.6228 Y28.1591 
G01 X-38.4810 Y28.1003 
G01 X-38.3534 Y28.0151 
G01 X-38.2449 Y27.9066 
G01 X-38.1597 Y27.7790 
G01 X-38.1009 Y27.6372 
G01 X-38.0710 Y27.4867 
G01 X-38.0710 Y27.3333 
G01 X-38.1009 Y27.1828 
G01 X-38.1597 Y27.0410 
G01 X-38.2449 Y26.9134 
G01 X-38.3534 Y26.8049 
G01 X-38.4810 Y26.7197 
G01 X-38.6228 Y26.6609 
G01 X-38.7733 Y26.6310 
G01 X-40.1347 Y26.6310 
G01 X-40.2852 Y26.6609 
G01 X-40.4270 Y26.7197 
G01 X-40.5546 Y26.8049 
G01 X-40.6003 Y26.8506 
G01 X-43.3230 Y26.8506 
G01 X-43.3230 Y26.4957 
G01 X-43.3496 Y26.4314 
G01 X-43.3989 Y26.3821 
G01 X-43.4632 Y26.3555 
G01 X-45.1328 Y26.3555 
G01 X-45.1971 Y26.3821 
G01 X-45.2464 Y26.4314 
G01 X-45.2730 Y26.4957 
G01 X-45.2730 Y28.3683 
G01 X-45.2464 Y28.4326 
G01 X-45.1971 Y28.4819 
G01 X-45.1328 Y28.5085 
G01 X-43.4632 Y28.5085 
G01 X-43.3989 Y28.4819 
G01 X-43.3496 Y28.4326 
G01 X-43.3230 Y28.3683 
G00 Z2.0000 
G00 X-32.0830 Y55.4643 
G01 Z-0.1500 F100.00 
G01 X-32.0830 Y53.7557 F208.00 
G01 X-32.1190 Y53.5747 
G01 X-32.1896 Y53.4042 
G01 X-32.2922 Y53.2507 
G01 X-32.4227 Y53.1202 
G01 X-32.4894 Y53.0756 
G01 X-32.4894 Y36.9759 
G01 X-32.5117 Y36.8636 
G01 X-32.5556 Y36.7578 
G01 X-32.6192 Y36.6626 
G01 X-32.7002 Y36.5816 
G01 X-38.1023 Y31.1795 
G01 X-38.1597 Y31.0410 
G01 X-38.2449 Y30.9134 
G01 X-38.3534 Y30.8049 
G01 X-38.4810 Y30.7197 
G01 X-38.6228 Y30.6609 
G01 X-38.7733 Y30.6310 
G01 X-40.1347 Y30.6310 
G01 X-40.2852 Y30.6609 
G01 X-40.4270 Y30.7197 
G01 X-40.5546 Y30.8049 
G01 X-40.6631 Y30.9134 
G01 X-40.7483 Y31.0410 
G01 X-40.8071 Y31.1828 
G01 X-40.8370 Y31.3333 
G01 X-40.8370 Y31.4867 
G01 X-40.8071 Y31.6372 
G01 X-40.7483 Y31.7790 
G01 X-40.6631 Y31.9066 
G01 X-40.5546 Y32.0151 
G01 X-40.4270 Y32.1003 
G01 X-40.2852 Y32.1591 
G01 X-40.1347 Y32.1890 
G01 X-38.7733 Y32.1890 
G01 X-38.7432 Y32.1830 
G01 X-33.6522 Y37.2740 
G01 X-33.6522 Y53.1551 
G01 X-33.7478 Y53.2507 
G01 X-33.8504 Y53.4042 
G01 X-33.9210 Y53.5747 
G01 X-33.9570 Y53.7557 
G01 X-33.9570 Y55.4643 
G01 X-33.9210 Y55.6453 
G01 X-33.8504 Y55.8158 
G01 X-33.7478 Y55.9693 
G01 X-33.6173 Y56.0998 
G01 X-33.4638 Y56.2024 
G01 X-33.2933 Y56.2730 
G01 X-33.1123 Y56.3090 
G01 X-32.9277 Y56.3090 
G01 X-32.7467 Y56.2730 
G01 X-32.5762 Y56.2024 
G01 X-32.4227 Y56.0998 
G01 X-32.2922 Y55.9693 
G01 X-32.1896 Y55.8158 
G01 X-32.1190 Y55.6453 
G01 X-32.0830 Y55.4643 
G00 Z2.0000 
G00 X-29.5430 Y55.4643 
G01 Z-0.1500 F100.00 
G01 X-29.5430 Y53.7557 F208.00 
G01 X-29.5790 Y53.5747 
G01 X-29.6496 Y53.4042 
G01 X-29.7522 Y53.2507 
G01 X-29.8827 Y53.1202 
G01 X-29.8986 Y53.1096 
G01 X-29.8986 Y29.7914 
G01 X-25.5320 Y29.7914 
G01 X-25.4551 Y29.9066 
G01 X-25.3466 Y30.0151 
G01 X-25.2190 Y30.1003 
G01 X-25.0772 Y30.1591 
G01 X-24.9267 Y30.1890 
G01 X-23.5653 Y30.1890 
G01 X-23.4148 Y30.1591 
G01 X-23.2730 Y30.1003 
G01 X-23.1454 Y30.0151 
G01 X-23.0369 Y29.9066 
G01 X-22.9517 Y29.7790 
G01 X-22.8929 Y29.6372 
G01 X-22.8630 Y29.4867 
G01 X-22.8630 Y29.3333 
G01 X-22.8929 Y29.1828 
G01 X-22.9517 Y29.0410 
G01 X-23.0369 Y28.9134 
G01 X-23.1454 Y28.8049 
G01 X-23.2730 Y28.7197 
G01 X-23.4148 Y28.6609 
G01 X-23.5653 Y28.6310 
G01 X-24.0607 Y28.6310 
G01 X-24.0727 Y28.6286 
G01 X-30.5373 Y28.6286 
G01 X-30.6496 Y28.6509 
G01 X-30.7554 Y28.6948 
G01 X-30.8506 Y28.7584 
G01 X-30.9316 Y28.8394 
G01 X-30.9952 Y28.9346 
G01 X-31.0391 Y29.0404 
G01 X-31.0614 Y29.1527 
G01 X-31.0614 Y53.1096 
G01 X-31.0773 Y53.1202 
G01 X-31.2078 Y53.2507 
G01 X-31.3104 Y53.4042 
G01 X-31.3810 Y53.5747 
G01 X-31.4170 Y53.7557 
G01 X-31.4170 Y55.4643 
G01 X-31.3810 Y55.6453 
G01 X-31.3104 Y55.8158 
G01 X-31.2078 Y55.9693 
G01 X-31.0773 Y56.0998 
G01 X-30.9238 Y56.2024 
G01 X-30.7533 Y56.2730 
G01 X-30.5723 Y56.3090 
G01 X-30.3877 Y56.3090 
G01 X-30.2067 Y56.2730 
G01 X-30.0362 Y56.2024 
G01 X-29.8827 Y56.0998 
G01 X-29.7522 Y55.9693 
G01 X-29.6496 Y55.8158 
G01 X-29.5790 Y55.6453 
G01 X-29.5430 Y55.4643 
G00 Z2.0000 
G00 X-21.9230 Y55.4643 
G01 Z-0.1500 F100.00 
G01 X-21.9230 Y53.7557 F208.00 
G01 X-21.9590 Y53.5747 
G01 X-22.0296 Y53.4042 
G01 X-22.1322 Y53.2507 
G01 X-22.2627 Y53.1202 
G01 X-22.2786 Y53.1096 
G01 X-22.2786 Y52.8188 
G01 X-22.1544 Y52.6946 
G01 X-22.0908 Y52.5994 
G01 X-22.0469 Y52.4936 
G01 X-22.0246 Y52.3813 
G01 X-22.0246 Y52.2667 
G01 X-22.0469 Y52.1544 
G01 X-22.0908 Y52.0486 
G01 X-22.1544 Y51.9534 
G01 X-22.2354 Y51.8724 
G01 X-22.2786 Y51.8435 
G01 X-22.2786 Y49.9807 
G01 X-22.3009 Y49.8684 
G01 X-22.3448 Y49.7626 
G01 X-22.4084 Y49.6674 
G01 X-22.4894 Y49.5864 
G01 X-22.5846 Y49.5228 
G01 X-22.6904 Y49.4789 
G01 X-22.8027 Y49.4566 
G01 X-22.9173 Y49.4566 
G01 X-23.0296 Y49.4789 
G01 X-23.1354 Y49.5228 
G01 X-23.2306 Y49.5864 
G01 X-23.3116 Y49.6674 
G01 X-23.3752 Y49.7626 
G01 X-23.4191 Y49.8684 
G01 X-23.4414 Y49.9807 
G01 X-23.4414 Y53.1096 
G01 X-23.4573 Y53.1202 
G01 X-23.5878 Y53.2507 
G01 X-23.6904 Y53.4042 
G01 X-23.7610 Y53.5747 
G01 X-23.7970 Y53.7557 
G01 X-23.7970 Y55.4643 
G01 X-23.7610 Y55.6453 
G01 X-23.6904 Y55.8158 
G01 X-23.5878 Y55.9693 
G01 X-23.4573 Y56.0998 
G01 X-23.3038 Y56.2024 
G01 X-23.1333 Y56.2730 
G01 X-22.9523 Y56.3090 
G01 X-22.7677 Y56.3090 
G01 X-22.5867 Y56.2730 
G01 X-22.4162 Y56.2024 
G01 X-22.2627 Y56.0998 
G01 X-22.1322 Y55.9693 
G01 X-22.0296 Y55.8158 
G01 X-21.9590 Y55.6453 
G01 X-21.9230 Y55.4643 
G00 Z2.0000 
G00 X-11.8457 Y30.8130 
G01 Z-0.1500 F100.00 
G01 X-13.5543 Y30.8130 F208.00 
G01 X-13.7353 Y30.8490 
G01 X-13.9058 Y30.9196 
G01 X-14.0593 Y31.0222 
G01 X-14.1898 Y31.1527 
G01 X-14.2924 Y31.3062 
G01 X-14.3630 Y31.4767 
G01 X-14.3990 Y31.6577 
G01 X-14.3990 Y31.8423 
G01 X-14.3630 Y32.0233 
G01 X-14.2924 Y32.1938 
G01 X-14.1898 Y32.3473 
G01 X-14.0593 Y32.4778 
G01 X-13.9058 Y32.5804 
G01 X-13.7353 Y32.6510 
G01 X-13.5543 Y32.6870 
G01 X-13.2814 Y32.6870 
G01 X-13.2814 Y34.0942 
G01 X-13.2937 Y34.1013 
G01 X-13.3967 Y34.2043 
G01 X-13.4695 Y34.3305 
G01 X-13.5072 Y34.4712 
G01 X-13.5072 Y34.6143 
G01 X-13.5131 Y34.6284 
G01 X-13.5354 Y34.7407 
G01 X-13.5354 Y34.8553 
G01 X-13.5131 Y34.9676 
G01 X-13.4692 Y35.0734 
G01 X-13.4056 Y35.1686 
G01 X-13.3246 Y35.2496 
G01 X-13.2294 Y35.3132 
G01 X-13.1236 Y35.3571 
G01 X-13.0113 Y35.3794 
G01 X-12.8967 Y35.3794 
G01 X-12.7844 Y35.3571 
G01 X-12.6786 Y35.3132 
G01 X-12.5834 Y35.2496 
G01 X-12.2484 Y34.9146 
G01 X-12.1848 Y34.8194 
G01 X-12.1409 Y34.7136 
G01 X-12.1186 Y34.6013 
G01 X-12.1186 Y32.6870 
G01 X-11.8457 Y32.6870 
G01 X-11.6647 Y32.6510 
G01 X-11.4942 Y32.5804 
G01 X-11.3407 Y32.4778 
G01 X-11.2102 Y32.3473 
G01 X-11.1076 Y32.1938 
G01 X-11.0370 Y32.0233 
G01 X-11.0010 Y31.8423 
G01 X-11.0010 Y31.6577 
G01 X-11.0370 Y31.4767 
G01 X-11.1076 Y31.3062 
G01 X-11.2102 Y31.1527 
G01 X-11.3407 Y31.0222 
G01 X-11.4942 Y30.9196 
G01 X-11.6647 Y30.8490 
G01 X-11.8457 Y30.8130 
G00 Z2.0000 
G00 X-11.8457 Y28.2730 
G01 Z-0.1500 F100.00 
G01 X-13.5543 Y28.2730 F208.00 
G01 X-13.7353 Y28.3090 
G01 X-13.9058 Y28.3796 
G01 X-14.0593 Y28.4822 
G01 X-14.1898 Y28.6127 
G01 X-14.2924 Y28.7662 
G01 X-14.3630 Y28.9367 
G01 X-14.3990 Y29.1177 
G01 X-14.3990 Y29.3023 
G01 X-14.3630 Y29.4833 
G01 X-14.2924 Y29.6538 
G01 X-14.1898 Y29.8073 
G01 X-14.0593 Y29.9378 
G01 X-13.9058 Y30.0404 
G01 X-13.7353 Y30.1110 
G01 X-13.5543 Y30.1470 
G01 X-11.8457 Y30.1470 
G01 X-11.6647 Y30.1110 
G01 X-11.4942 Y30.0404 
G01 X-11.3407 Y29.9378 
G01 X-11.2102 Y29.8073 
G01 X-11.1996 Y29.7914 
G01 X-5.4074 Y29.7914 
G01 X-5.4074 Y45.8498 
G01 X-8.2145 Y45.8498 
G01 X-8.2159 Y45.8469 
G01 X-8.3191 Y45.7050 
G01 X-8.4432 Y45.5809 
G01 X-8.5851 Y45.4777 
G01 X-8.7415 Y45.3981 
G01 X-8.9083 Y45.3439 
G01 X-9.0817 Y45.3164 
G01 X-9.2571 Y45.3164 
G01 X-9.4305 Y45.3439 
G01 X-9.5973 Y45.3981 
G01 X-9.7537 Y45.4777 
G01 X-9.8956 Y45.5809 
G01 X-10.0197 Y45.7050 
G01 X-10.1229 Y45.8469 
G01 X-10.2025 Y46.0033 
G01 X-10.2567 Y46.1701 
G01 X-10.2842 Y46.3435 
G01 X-10.2842 Y46.5189 
G01 X-10.2567 Y46.6923 
G01 X-10.2025 Y46.8591 
G01 X-10.1229 Y47.0155 
G01 X-10.0197 Y47.1574 
G01 X-9.8956 Y47.2815 
G01 X-9.7537 Y47.3847 
G01 X-9.7508 Y47.3861 
G01 X-9.7508 Y47.7906 
G01 X-13.5890 Y51.6288 
G01 X-18.7226 Y46.4952 
G01 X-18.7226 Y38.9730 
G01 X-18.3677 Y38.9730 
G01 X-18.3034 Y38.9464 
G01 X-18.2541 Y38.8971 
G01 X-18.2275 Y38.8328 
G01 X-18.2275 Y37.1632 
G01 X-18.2541 Y37.0989 
G01 X-18.3034 Y37.0496 
G01 X-18.3677 Y37.0230 
G01 X-19.4568 Y37.0230 
G01 X-19.5214 Y36.9584 
G01 X-19.6166 Y36.8948 
G01 X-19.7224 Y36.8509 
G01 X-19.8347 Y36.8286 
G01 X-23.1217 Y36.8286 
G01 X-23.1454 Y36.8049 
G01 X-23.2730 Y36.7197 
G01 X-23.4148 Y36.6609 
G01 X-23.5653 Y36.6310 
G01 X-24.9267 Y36.6310 
G01 X-25.0772 Y36.6609 
G01 X-25.2190 Y36.7197 
G01 X-25.3466 Y36.8049 
G01 X-25.4551 Y36.9134 
G01 X-25.5403 Y37.0410 
G01 X-25.5991 Y37.1828 
G01 X-25.6290 Y37.3333 
G01 X-25.6290 Y37.4867 
G01 X-25.5991 Y37.6372 
G01 X-25.5403 Y37.7790 
G01 X-25.4551 Y37.9066 
G01 X-25.3466 Y38.0151 
G01 X-25.2190 Y38.1003 
G01 X-25.0772 Y38.1591 
G01 X-24.9267 Y38.1890 
G01 X-23.5653 Y38.1890 
G01 X-23.4148 Y38.1591 
G01 X-23.2730 Y38.1003 
G01 X-23.1454 Y38.0151 
G01 X-23.1217 Y37.9914 
G01 X-20.3805 Y37.9914 
G01 X-20.3805 Y38.8328 
G01 X-20.3539 Y38.8971 
G01 X-20.3046 Y38.9464 
G01 X-20.2403 Y38.9730 
G01 X-19.8854 Y38.9730 
G01 X-19.8854 Y46.7933 
G01 X-19.8631 Y46.9056 
G01 X-19.8192 Y47.0114 
G01 X-19.7556 Y47.1066 
G01 X-19.6746 Y47.1876 
G01 X-14.4112 Y52.4510 
G01 X-19.2908 Y57.3306 
G01 X-37.5186 Y57.3306 
G01 X-37.5186 Y56.1104 
G01 X-37.5027 Y56.0998 
G01 X-37.3722 Y55.9693 
G01 X-37.2696 Y55.8158 
G01 X-37.1990 Y55.6453 
G01 X-37.1630 Y55.4643 
G01 X-37.1630 Y53.7557 
G01 X-37.1990 Y53.5747 
G01 X-37.2696 Y53.4042 
G01 X-37.3722 Y53.2507 
G01 X-37.5027 Y53.1202 
G01 X-37.6562 Y53.0176 
G01 X-37.8267 Y52.9470 
G01 X-38.0077 Y52.9110 
G01 X-38.1923 Y52.9110 
G01 X-38.3733 Y52.9470 
G01 X-38.5438 Y53.0176 
G01 X-38.6973 Y53.1202 
G01 X-38.8278 Y53.2507 
G01 X-38.9304 Y53.4042 
G01 X-39.0010 Y53.5747 
G01 X-39.0370 Y53.7557 
G01 X-39.0370 Y55.4643 
G01 X-39.0010 Y55.6453 
G01 X-38.9304 Y55.8158 
G01 X-38.8278 Y55.9693 
G01 X-38.6973 Y56.0998 
G01 X-38.6814 Y56.1104 
G01 X-38.6814 Y57.3306 
G01 X-42.1772 Y57.3306 
G01 X-46.6626 Y52.8452 
G01 X-46.6626 Y40.9674 
G01 X-46.6440 Y40.9674 
G01 X-46.1546 Y40.4780 
G01 X-46.1546 Y39.7860 
G01 X-46.6440 Y39.2966 
G01 X-47.3360 Y39.2966 
G01 X-47.8254 Y39.7860 
G01 X-47.8254 Y53.1433 
G01 X-47.8031 Y53.2556 
G01 X-47.7592 Y53.3614 
G01 X-47.6956 Y53.4566 
G01 X-47.6146 Y53.5376 
G01 X-42.7886 Y58.3636 
G01 X-42.6934 Y58.4272 
G01 X-42.5876 Y58.4711 
G01 X-42.4753 Y58.4934 
G01 X-38.3408 Y58.4934 
G01 X-38.2166 Y58.6176 
G01 X-38.1214 Y58.6812 
G01 X-38.0156 Y58.7251 
G01 X-37.9033 Y58.7474 
G01 X-37.7887 Y58.7474 
G01 X-37.6764 Y58.7251 
G01 X-37.5706 Y58.6812 
G01 X-37.4754 Y58.6176 
G01 X-37.3944 Y58.5366 
G01 X-37.3655 Y58.4934 
G01 X-18.9927 Y58.4934 
G01 X-18.8804 Y58.4711 
G01 X-18.7746 Y58.4272 
G01 X-18.6794 Y58.3636 
G01 X-13.2184 Y52.9026 
G01 X-13.1374 Y52.8216 
G01 X-8.7178 Y48.4020 
G01 X-8.6542 Y48.3068 
G01 X-8.6103 Y48.2010 
G01 X-8.5880 Y48.0887 
G01 X-8.5880 Y47.3861 
G01 X-8.5851 Y47.3847 
G01 X-8.4432 Y47.2815 
G01 X-8.3191 Y47.1574 
G01 X-8.2159 Y47.0155 
G01 X-8.2145 Y47.0126 
G01 X-4.9719 Y47.0126 
G01 X-4.8596 Y46.9903 
G01 X-4.7538 Y46.9464 
G01 X-4.6586 Y46.8828 
G01 X-4.4554 Y46.6796 
G01 X-4.3744 Y46.5986 
G01 X-4.3108 Y46.5034 
G01 X-4.2669 Y46.3976 
G01 X-4.2446 Y46.2853 
G01 X-4.2446 Y20.9485 
G01 X-4.2669 Y20.8362 
G01 X-4.3108 Y20.7304 
G01 X-4.3744 Y20.6352 
G01 X-4.4554 Y20.5542 
G01 X-4.5506 Y20.4906 
G01 X-4.6564 Y20.4467 
G01 X-4.7687 Y20.4244 
G01 X-17.4526 Y20.4244 
G01 X-17.4526 Y19.2804 
G01 X-17.4367 Y19.2698 
G01 X-17.3062 Y19.1393 
G01 X-17.2036 Y18.9858 
G01 X-17.1330 Y18.8153 
G01 X-17.0970 Y18.6343 
G01 X-17.0970 Y16.9257 
G01 X-17.1330 Y16.7447 
G01 X-17.2036 Y16.5742 
G01 X-17.3062 Y16.4207 
G01 X-17.4367 Y16.2902 
G01 X-17.5902 Y16.1876 
G01 X-17.7607 Y16.1170 
G01 X-17.9417 Y16.0810 
G01 X-18.1263 Y16.0810 
G01 X-18.3073 Y16.1170 
G01 X-18.4778 Y16.1876 
G01 X-18.6313 Y16.2902 
G01 X-18.6664 Y16.3253 
G01 X-22.5964 Y12.3954 
G01 X-22.6774 Y12.3144 
G01 X-22.7726 Y12.2508 
G01 X-22.8784 Y12.2069 
G01 X-22.9907 Y12.1846 
G01 X-42.1373 Y12.1846 
G01 X-42.2496 Y12.2069 
G01 X-42.3554 Y12.2508 
G01 X-42.4506 Y12.3144 
G01 X-42.5316 Y12.3954 
G01 X-45.2752 Y15.1390 
G01 X-45.8628 Y15.1390 
G01 X-45.9271 Y15.1656 
G01 X-45.9764 Y15.2149 
G01 X-46.0030 Y15.2792 
G01 X-46.0030 Y16.3488 
G01 X-45.9764 Y16.4131 
G01 X-45.9271 Y16.4624 
G01 X-45.8628 Y16.4890 
G01 X-44.3932 Y16.4890 
G01 X-44.3289 Y16.4624 
G01 X-44.2796 Y16.4131 
G01 X-44.2530 Y16.3488 
G01 X-44.2530 Y15.7612 
G01 X-41.8392 Y13.3474 
G01 X-23.2888 Y13.3474 
G01 X-18.9710 Y17.6652 
G01 X-18.9710 Y18.6343 
G01 X-18.9350 Y18.8153 
G01 X-18.8644 Y18.9858 
G01 X-18.7618 Y19.1393 
G01 X-18.6313 Y19.2698 
G01 X-18.6154 Y19.2804 
G01 X-18.6154 Y21.0631 
G01 X-18.5931 Y21.1754 
G01 X-18.5492 Y21.2812 
G01 X-18.4856 Y21.3764 
G01 X-18.4046 Y21.4574 
G01 X-18.3094 Y21.5210 
G01 X-18.2036 Y21.5649 
G01 X-18.0913 Y21.5872 
G01 X-5.4074 Y21.5872 
G01 X-5.4074 Y28.6286 
G01 X-11.1996 Y28.6286 
G01 X-11.2102 Y28.6127 
G01 X-11.3407 Y28.4822 
G01 X-11.4942 Y28.3796 
G01 X-11.6647 Y28.3090 
G01 X-11.8457 Y28.2730 
G00 Z2.0000 
G00 X-11.8457 Y25.7330 
G01 Z-0.1500 F100.00 
G01 X-13.5543 Y25.7330 F208.00 
G01 X-13.7353 Y25.7690 
G01 X-13.9058 Y25.8396 
G01 X-14.0593 Y25.9422 
G01 X-14.1898 Y26.0727 
G01 X-14.2004 Y26.0886 
G01 X-17.1999 Y26.0886 
G01 X-18.2893 Y24.9992 
G01 X-18.3846 Y24.9356 
G01 X-18.4904 Y24.8917 
G01 X-18.6027 Y24.8694 
G01 X-23.0809 Y24.8694 
G01 X-23.1454 Y24.8049 
G01 X-23.2730 Y24.7197 
G01 X-23.4148 Y24.6609 
G01 X-23.5653 Y24.6310 
G01 X-24.9267 Y24.6310 
G01 X-25.0772 Y24.6609 
G01 X-25.2190 Y24.7197 
G01 X-25.3466 Y24.8049 
G01 X-25.4551 Y24.9134 
G01 X-25.5403 Y25.0410 
G01 X-25.5991 Y25.1828 
G01 X-25.6290 Y25.3333 
G01 X-25.6290 Y25.4867 
G01 X-25.5991 Y25.6372 
G01 X-25.5403 Y25.7790 
G01 X-25.4551 Y25.9066 
G01 X-25.3466 Y26.0151 
G01 X-25.2190 Y26.1003 
G01 X-25.0772 Y26.1591 
G01 X-24.9267 Y26.1890 
G01 X-23.5653 Y26.1890 
G01 X-23.4148 Y26.1591 
G01 X-23.2730 Y26.1003 
G01 X-23.1710 Y26.0322 
G01 X-18.9008 Y26.0322 
G01 X-17.8924 Y27.0406 
G01 X-17.8114 Y27.1216 
G01 X-17.7162 Y27.1852 
G01 X-17.6104 Y27.2291 
G01 X-17.4980 Y27.2514 
G01 X-14.2004 Y27.2514 
G01 X-14.1898 Y27.2673 
G01 X-14.0593 Y27.3978 
G01 X-13.9058 Y27.5004 
G01 X-13.7353 Y27.5710 
G01 X-13.5543 Y27.6070 
G01 X-11.8457 Y27.6070 
G01 X-11.6647 Y27.5710 
G01 X-11.4942 Y27.5004 
G01 X-11.3407 Y27.3978 
G01 X-11.2102 Y27.2673 
G01 X-11.1076 Y27.1138 
G01 X-11.0370 Y26.9433 
G01 X-11.0010 Y26.7623 
G01 X-11.0010 Y26.5777 
G01 X-11.0370 Y26.3967 
G01 X-11.1076 Y26.2262 
G01 X-11.2102 Y26.0727 
G01 X-11.3407 Y25.9422 
G01 X-11.4942 Y25.8396 
G01 X-11.6647 Y25.7690 
G01 X-11.8457 Y25.7330 
G00 Z2.0000 
G00 X-14.5570 Y18.6343 
G01 Z-0.1500 F100.00 
G01 X-14.5570 Y16.9257 F208.00 
G01 X-14.5930 Y16.7447 
G01 X-14.6636 Y16.5742 
G01 X-14.7662 Y16.4207 
G01 X-14.8967 Y16.2902 
G01 X-15.0502 Y16.1876 
G01 X-15.2207 Y16.1170 
G01 X-15.4017 Y16.0810 
G01 X-15.5863 Y16.0810 
G01 X-15.7673 Y16.1170 
G01 X-15.9378 Y16.1876 
G01 X-16.0913 Y16.2902 
G01 X-16.2218 Y16.4207 
G01 X-16.3244 Y16.5742 
G01 X-16.3950 Y16.7447 
G01 X-16.4310 Y16.9257 
G01 X-16.4310 Y18.6343 
G01 X-16.3950 Y18.8153 
G01 X-16.3244 Y18.9858 
G01 X-16.2218 Y19.1393 
G01 X-16.0913 Y19.2698 
G01 X-15.9378 Y19.3724 
G01 X-15.7673 Y19.4430 
G01 X-15.5863 Y19.4790 
G01 X-15.4017 Y19.4790 
G01 X-15.2207 Y19.4430 
G01 X-15.0502 Y19.3724 
G01 X-14.8967 Y19.2698 
G01 X-14.7662 Y19.1393 
G01 X-14.6636 Y18.9858 
G01 X-14.5930 Y18.8153 
G01 X-14.5570 Y18.6343 
G00 Z2.0000 
G00 X-12.0170 Y18.6343 
G01 Z-0.1500 F100.00 
G01 X-12.0170 Y16.9257 F208.00 
G01 X-12.0530 Y16.7447 
G01 X-12.1236 Y16.5742 
G01 X-12.2262 Y16.4207 
G01 X-12.3567 Y16.2902 
G01 X-12.5102 Y16.1876 
G01 X-12.6807 Y16.1170 
G01 X-12.8617 Y16.0810 
G01 X-13.0463 Y16.0810 
G01 X-13.2273 Y16.1170 
G01 X-13.3978 Y16.1876 
G01 X-13.5513 Y16.2902 
G01 X-13.6818 Y16.4207 
G01 X-13.7844 Y16.5742 
G01 X-13.8550 Y16.7447 
G01 X-13.8910 Y16.9257 
G01 X-13.8910 Y18.6343 
G01 X-13.8550 Y18.8153 
G01 X-13.7844 Y18.9858 
G01 X-13.6818 Y19.1393 
G01 X-13.5513 Y19.2698 
G01 X-13.3978 Y19.3724 
G01 X-13.2273 Y19.4430 
G01 X-13.0463 Y19.4790 
G01 X-12.8617 Y19.4790 
G01 X-12.6807 Y19.4430 
G01 X-12.5102 Y19.3724 
G01 X-12.3567 Y19.2698 
G01 X-12.2262 Y19.1393 
G01 X-12.1236 Y18.9858 
G01 X-12.0530 Y18.8153 
G01 X-12.0170 Y18.6343 
G00 Z2.0000 
G00 X-9.4770 Y18.6343 
G01 Z-0.1500 F100.00 
G01 X-9.4770 Y16.9257 F208.00 
G01 X-9.5130 Y16.7447 
G01 X-9.5836 Y16.5742 
G01 X-9.6862 Y16.4207 
G01 X-9.8167 Y16.2902 
G01 X-9.9702 Y16.1876 
G01 X-10.1407 Y16.1170 
G01 X-10.3217 Y16.0810 
G01 X-10.5063 Y16.0810 
G01 X-10.6873 Y16.1170 
G01 X-10.8578 Y16.1876 
G01 X-11.0113 Y16.2902 
G01 X-11.1418 Y16.4207 
G01 X-11.2444 Y16.5742 
G01 X-11.3150 Y16.7447 
G01 X-11.3510 Y16.9257 
G01 X-11.3510 Y18.6343 
G01 X-11.3150 Y18.8153 
G01 X-11.2444 Y18.9858 
G01 X-11.1418 Y19.1393 
G01 X-11.0113 Y19.2698 
G01 X-10.8578 Y19.3724 
G01 X-10.6873 Y19.4430 
G01 X-10.5063 Y19.4790 
G01 X-10.3217 Y19.4790 
G01 X-10.1407 Y19.4430 
G01 X-9.9702 Y19.3724 
G01 X-9.8167 Y19.2698 
G01 X-9.6862 Y19.1393 
G01 X-9.5836 Y18.9858 
G01 X-9.5130 Y18.8153 
G01 X-9.4770 Y18.6343 
G00 Z2.0000 
G00 X-6.9370 Y18.6343 
G01 Z-0.1500 F100.00 
G01 X-6.9370 Y16.9257 F208.00 
G01 X-6.9730 Y16.7447 
G01 X-7.0436 Y16.5742 
G01 X-7.1462 Y16.4207 
G01 X-7.2767 Y16.2902 
G01 X-7.2926 Y16.2796 
G01 X-7.2926 Y10.8647 
G01 X-7.3149 Y10.7524 
G01 X-7.3588 Y10.6466 
G01 X-7.4224 Y10.5514 
G01 X-7.5034 Y10.4704 
G01 X-7.5986 Y10.4068 
G01 X-7.7044 Y10.3629 
G01 X-7.8167 Y10.3406 
G01 X-47.1313 Y10.3406 
G01 X-47.2436 Y10.3629 
G01 X-47.3494 Y10.4068 
G01 X-47.4446 Y10.4704 
G01 X-47.7796 Y10.8054 
G01 X-47.8432 Y10.9006 
G01 X-47.8871 Y11.0064 
G01 X-47.9094 Y11.1187 
G01 X-47.9094 Y16.0890 
G01 X-48.0628 Y16.0890 
G01 X-48.1271 Y16.1156 
G01 X-48.1764 Y16.1649 
G01 X-48.2030 Y16.2292 
G01 X-48.2030 Y17.2988 
G01 X-48.1764 Y17.3631 
G01 X-48.1271 Y17.4124 
G01 X-48.0628 Y17.4390 
G01 X-46.5932 Y17.4390 
G01 X-46.5289 Y17.4124 
G01 X-46.4796 Y17.3631 
G01 X-46.4530 Y17.2988 
G01 X-46.4530 Y16.2292 
G01 X-46.4796 Y16.1649 
G01 X-46.5289 Y16.1156 
G01 X-46.5932 Y16.0890 
G01 X-46.7466 Y16.0890 
G01 X-46.7466 Y11.5034 
G01 X-8.4554 Y11.5034 
G01 X-8.4554 Y16.2796 
G01 X-8.4713 Y16.2902 
G01 X-8.6018 Y16.4207 
G01 X-8.7044 Y16.5742 
G01 X-8.7750 Y16.7447 
G01 X-8.8110 Y16.9257 
G01 X-8.8110 Y18.6343 
G01 X-8.7750 Y18.8153 
G01 X-8.7044 Y18.9858 
G01 X-8.6018 Y19.1393 
G01 X-8.4713 Y19.2698 
G01 X-8.3178 Y19.3724 
G01 X-8.1473 Y19.4430 
G01 X-7.9663 Y19.4790 
G01 X-7.7817 Y19.4790 
G01 X-7.6007 Y19.4430 
G01 X-7.4302 Y19.3724 
G01 X-7.2767 Y19.2698 
G01 X-7.1462 Y19.1393 
G01 X-7.0436 Y18.9858 
G01 X-6.9730 Y18.8153 
G01 X-6.9370 Y18.6343 
G00 Z2.0000 
G00 X-48.0642 Y17.5390 
G01 Z-0.1500 F100.00 
G01 X-46.5918 Y17.5390 F208.00 
G01 X-46.5219 Y17.5203 
G01 X-46.4591 Y17.4841 
G01 X-46.4079 Y17.4329 
G01 X-46.3717 Y17.3701 
G01 X-46.3530 Y17.3002 
G01 X-46.3530 Y16.2278 
G01 X-46.3717 Y16.1579 
G01 X-46.4079 Y16.0951 
G01 X-46.4591 Y16.0439 
G01 X-46.5219 Y16.0077 
G01 X-46.5918 Y15.9890 
G01 X-46.6466 Y15.9890 
G01 X-46.6466 Y11.6034 
G01 X-8.5554 Y11.6034 
G01 X-8.5554 Y16.2329 
G01 X-8.6650 Y16.3424 
G01 X-8.7609 Y16.4745 
G01 X-8.8350 Y16.6199 
G01 X-8.8855 Y16.7752 
G01 X-8.9110 Y16.9364 
G01 X-8.9110 Y18.6236 
G01 X-8.8855 Y18.7848 
G01 X-8.8350 Y18.9401 
G01 X-8.7609 Y19.0855 
G01 X-8.6650 Y19.2176 
G01 X-8.5496 Y19.3330 
G01 X-8.4175 Y19.4289 
G01 X-8.2721 Y19.5030 
G01 X-8.1168 Y19.5535 
G01 X-7.9556 Y19.5790 
G01 X-7.7924 Y19.5790 
G01 X-7.6312 Y19.5535 
G01 X-7.4759 Y19.5030 
G01 X-7.3305 Y19.4289 
G01 X-7.1984 Y19.3330 
G01 X-7.0830 Y19.2176 
G01 X-6.9871 Y19.0855 
G01 X-6.9130 Y18.9401 
G01 X-6.8625 Y18.7848 
G01 X-6.8370 Y18.6236 
G01 X-6.8370 Y16.9364 
G01 X-6.8625 Y16.7752 
G01 X-6.9130 Y16.6199 
G01 X-6.9871 Y16.4745 
G01 X-7.0830 Y16.3424 
G01 X-7.1926 Y16.2329 
G01 X-7.1926 Y10.8549 
G01 X-7.2188 Y10.7232 
G01 X-7.2702 Y10.5992 
G01 X-7.3447 Y10.4876 
G01 X-7.4396 Y10.3927 
G01 X-7.5512 Y10.3182 
G01 X-7.6752 Y10.2668 
G01 X-7.8069 Y10.2406 
G01 X-47.1411 Y10.2406 
G01 X-47.2728 Y10.2668 
G01 X-47.3968 Y10.3182 
G01 X-47.5084 Y10.3927 
G01 X-47.8573 Y10.7416 
G01 X-47.9318 Y10.8532 
G01 X-47.9832 Y10.9772 
G01 X-48.0094 Y11.1089 
G01 X-48.0094 Y15.9890 
G01 X-48.0642 Y15.9890 
G01 X-48.1341 Y16.0077 
G01 X-48.1969 Y16.0439 
G01 X-48.2481 Y16.0951 
G01 X-48.2843 Y16.1579 
G01 X-48.3030 Y16.2278 
G01 X-48.3030 Y17.3002 
G01 X-48.2843 Y17.3701 
G01 X-48.2481 Y17.4329 
G01 X-48.1969 Y17.4841 
G01 X-48.1341 Y17.5203 
G01 X-48.0642 Y17.5390 
G00 Z2.0000 
G00 X-9.3770 Y18.6236 
G01 Z-0.1500 F100.00 
G01 X-9.3770 Y16.9364 F208.00 
G01 X-9.4025 Y16.7752 
G01 X-9.4530 Y16.6199 
G01 X-9.5271 Y16.4745 
G01 X-9.6230 Y16.3424 
G01 X-9.7384 Y16.2270 
G01 X-9.8705 Y16.1311 
G01 X-10.0159 Y16.0570 
G01 X-10.1712 Y16.0065 
G01 X-10.3324 Y15.9810 
G01 X-10.4956 Y15.9810 
G01 X-10.6568 Y16.0065 
G01 X-10.8121 Y16.0570 
G01 X-10.9575 Y16.1311 
G01 X-11.0896 Y16.2270 
G01 X-11.2050 Y16.3424 
G01 X-11.3009 Y16.4745 
G01 X-11.3750 Y16.6199 
G01 X-11.4255 Y16.7752 
G01 X-11.4510 Y16.9364 
G01 X-11.4510 Y18.6236 
G01 X-11.4255 Y18.7848 
G01 X-11.3750 Y18.9401 
G01 X-11.3009 Y19.0855 
G01 X-11.2050 Y19.2176 
G01 X-11.0896 Y19.3330 
G01 X-10.9575 Y19.4289 
G01 X-10.8121 Y19.5030 
G01 X-10.6568 Y19.5535 
G01 X-10.4956 Y19.5790 
G01 X-10.3324 Y19.5790 
G01 X-10.1712 Y19.5535 
G01 X-10.0159 Y19.5030 
G01 X-9.8705 Y19.4289 
G01 X-9.7384 Y19.3330 
G01 X-9.6230 Y19.2176 
G01 X-9.5271 Y19.0855 
G01 X-9.4530 Y18.9401 
G01 X-9.4025 Y18.7848 
G01 X-9.3770 Y18.6236 
G00 Z2.0000 
G00 X-11.9170 Y18.6236 
G01 Z-0.1500 F100.00 
G01 X-11.9170 Y16.9364 F208.00 
G01 X-11.9425 Y16.7752 
G01 X-11.9930 Y16.6199 
G01 X-12.0671 Y16.4745 
G01 X-12.1630 Y16.3424 
G01 X-12.2784 Y16.2270 
G01 X-12.4105 Y16.1311 
G01 X-12.5559 Y16.0570 
G01 X-12.7112 Y16.0065 
G01 X-12.8724 Y15.9810 
G01 X-13.0356 Y15.9810 
G01 X-13.1968 Y16.0065 
G01 X-13.3521 Y16.0570 
G01 X-13.4975 Y16.1311 
G01 X-13.6296 Y16.2270 
G01 X-13.7450 Y16.3424 
G01 X-13.8409 Y16.4745 
G01 X-13.9150 Y16.6199 
G01 X-13.9655 Y16.7752 
G01 X-13.9910 Y16.9364 
G01 X-13.9910 Y18.6236 
G01 X-13.9655 Y18.7848 
G01 X-13.9150 Y18.9401 
G01 X-13.8409 Y19.0855 
G01 X-13.7450 Y19.2176 
G01 X-13.6296 Y19.3330 
G01 X-13.4975 Y19.4289 
G01 X-13.3521 Y19.5030 
G01 X-13.1968 Y19.5535 
G01 X-13.0356 Y19.5790 
G01 X-12.8724 Y19.5790 
G01 X-12.7112 Y19.5535 
G01 X-12.5559 Y19.5030 
G01 X-12.4105 Y19.4289 
G01 X-12.2784 Y19.3330 
G01 X-12.1630 Y19.2176 
G01 X-12.0671 Y19.0855 
G01 X-11.9930 Y18.9401 
G01 X-11.9425 Y18.7848 
G01 X-11.9170 Y18.6236 
G00 Z2.0000 
G00 X-14.4570 Y18.6236 
G01 Z-0.1500 F100.00 
G01 X-14.4570 Y16.9364 F208.00 
G01 X-14.4825 Y16.7752 
G01 X-14.5330 Y16.6199 
G01 X-14.6071 Y16.4745 
G01 X-14.7030 Y16.3424 
G01 X-14.8184 Y16.2270 
G01 X-14.9505 Y16.1311 
G01 X-15.0959 Y16.0570 
G01 X-15.2512 Y16.0065 
G01 X-15.4124 Y15.9810 
G01 X-15.5756 Y15.9810 
G01 X-15.7368 Y16.0065 
G01 X-15.8921 Y16.0570 
G01 X-16.0375 Y16.1311 
G01 X-16.1696 Y16.2270 
G01 X-16.2850 Y16.3424 
G01 X-16.3809 Y16.4745 
G01 X-16.4550 Y16.6199 
G01 X-16.5055 Y16.7752 
G01 X-16.5310 Y16.9364 
G01 X-16.5310 Y18.6236 
G01 X-16.5055 Y18.7848 
G01 X-16.4550 Y18.9401 
G01 X-16.3809 Y19.0855 
G01 X-16.2850 Y19.2176 
G01 X-16.1696 Y19.3330 
G01 X-16.0375 Y19.4289 
G01 X-15.8921 Y19.5030 
G01 X-15.7368 Y19.5535 
G01 X-15.5756 Y19.5790 
G01 X-15.4124 Y19.5790 
G01 X-15.2512 Y19.5535 
G01 X-15.0959 Y19.5030 
G01 X-14.9505 Y19.4289 
G01 X-14.8184 Y19.3330 
G01 X-14.7030 Y19.2176 
G01 X-14.6071 Y19.0855 
G01 X-14.5330 Y18.9401 
G01 X-14.4825 Y18.7848 
G01 X-14.4570 Y18.6236 
G00 Z2.0000 
G00 X-11.8564 Y23.0930 
G01 Z-0.1500 F100.00 
G01 X-12.7734 Y23.0930 F208.00 
G01 X-12.8907 Y22.9756 
G01 X-12.9856 Y22.8807 
G01 X-13.0972 Y22.8062 
G01 X-13.2212 Y22.7548 
G01 X-13.3529 Y22.7286 
G01 X-23.0803 Y22.7286 
G01 X-23.2256 Y22.6310 
G01 X-23.3856 Y22.5648 
G01 X-23.5554 Y22.5310 
G01 X-24.9366 Y22.5310 
G01 X-25.1064 Y22.5648 
G01 X-25.2664 Y22.6310 
G01 X-25.4103 Y22.7272 
G01 X-25.5328 Y22.8497 
G01 X-25.6290 Y22.9936 
G01 X-25.6952 Y23.1536 
G01 X-25.7290 Y23.3234 
G01 X-25.7290 Y23.4966 
G01 X-25.6952 Y23.6664 
G01 X-25.6290 Y23.8264 
G01 X-25.5328 Y23.9703 
G01 X-25.4103 Y24.0928 
G01 X-25.2664 Y24.1890 
G01 X-25.1064 Y24.2552 
G01 X-24.9366 Y24.2890 
G01 X-23.5554 Y24.2890 
G01 X-23.3856 Y24.2552 
G01 X-23.2256 Y24.1890 
G01 X-23.0817 Y24.0928 
G01 X-14.4990 Y24.0914 
G01 X-14.4990 Y24.2116 
G01 X-14.4735 Y24.3728 
G01 X-14.4230 Y24.5281 
G01 X-14.3489 Y24.6735 
G01 X-14.2530 Y24.8056 
G01 X-14.1376 Y24.9210 
G01 X-14.0055 Y25.0169 
G01 X-13.8601 Y25.0910 
G01 X-13.7048 Y25.1415 
G01 X-13.5436 Y25.1670 
G01 X-11.8564 Y25.1670 
G01 X-11.6952 Y25.1415 
G01 X-11.5399 Y25.0910 
G01 X-11.3945 Y25.0169 
G01 X-11.2624 Y24.9210 
G01 X-11.1470 Y24.8056 
G01 X-11.0511 Y24.6735 
G01 X-10.9770 Y24.5281 
G01 X-10.9265 Y24.3728 
G01 X-10.9010 Y24.2116 
G01 X-10.9010 Y24.0484 
G01 X-10.9265 Y23.8872 
G01 X-10.9770 Y23.7319 
G01 X-11.0511 Y23.5865 
G01 X-11.1470 Y23.4544 
G01 X-11.2624 Y23.3390 
G01 X-11.3945 Y23.2431 
G01 X-11.5399 Y23.1690 
G01 X-11.6952 Y23.1185 
G01 X-11.8564 Y23.0930 
G00 Z2.0000 
G00 X-11.8564 Y30.7130 
G01 Z-0.1500 F100.00 
G01 X-13.5436 Y30.7130 F208.00 
G01 X-13.7048 Y30.7385 
G01 X-13.8601 Y30.7890 
G01 X-14.0055 Y30.8631 
G01 X-14.1376 Y30.9590 
G01 X-14.2530 Y31.0744 
G01 X-14.3489 Y31.2065 
G01 X-14.4230 Y31.3519 
G01 X-14.4735 Y31.5072 
G01 X-14.4990 Y31.6684 
G01 X-14.4990 Y31.8316 
G01 X-14.4735 Y31.9928 
G01 X-14.4230 Y32.1481 
G01 X-14.3489 Y32.2935 
G01 X-14.2530 Y32.4256 
G01 X-14.1376 Y32.5410 
G01 X-14.0055 Y32.6369 
G01 X-13.8601 Y32.7110 
G01 X-13.7048 Y32.7615 
G01 X-13.5436 Y32.7870 
G01 X-13.3814 Y32.7870 
G01 X-13.3814 Y34.0476 
G01 X-13.4614 Y34.1276 
G01 X-13.5329 Y34.2346 
G01 X-13.5821 Y34.3535 
G01 X-13.6072 Y34.4797 
G01 X-13.6072 Y34.5944 
G01 X-13.6092 Y34.5992 
G01 X-13.6354 Y34.7309 
G01 X-13.6354 Y34.8651 
G01 X-13.6092 Y34.9968 
G01 X-13.5578 Y35.1208 
G01 X-13.4833 Y35.2324 
G01 X-13.3884 Y35.3273 
G01 X-13.2768 Y35.4018 
G01 X-13.1528 Y35.4532 
G01 X-13.0211 Y35.4794 
G01 X-12.8869 Y35.4794 
G01 X-12.7552 Y35.4532 
G01 X-12.6312 Y35.4018 
G01 X-12.5196 Y35.3273 
G01 X-12.1707 Y34.9784 
G01 X-12.0961 Y34.8668 
G01 X-12.0448 Y34.7428 
G01 X-12.0186 Y34.6111 
G01 X-12.0186 Y32.7870 
G01 X-11.8564 Y32.7870 
G01 X-11.6952 Y32.7615 
G01 X-11.5399 Y32.7110 
G01 X-11.3945 Y32.6369 
G01 X-11.2624 Y32.5410 
G01 X-11.1470 Y32.4256 
G01 X-11.0511 Y32.2935 
G01 X-10.9770 Y32.1481 
G01 X-10.9265 Y31.9928 
G01 X-10.9010 Y31.8316 
G01 X-10.9010 Y31.6684 
G01 X-10.9265 Y31.5072 
G01 X-10.9770 Y31.3519 
G01 X-11.0511 Y31.2065 
G01 X-11.1470 Y31.0744 
G01 X-11.2624 Y30.9590 
G01 X-11.3945 Y30.8631 
G01 X-11.5399 Y30.7890 
G01 X-11.6952 Y30.7385 
G01 X-11.8564 Y30.7130 
G00 Z2.0000 
G00 X-21.8230 Y55.4536 
G01 Z-0.1500 F100.00 
G01 X-21.8230 Y53.7664 F208.00 
G01 X-21.8485 Y53.6052 
G01 X-21.8990 Y53.4499 
G01 X-21.9731 Y53.3045 
G01 X-22.0690 Y53.1724 
G01 X-22.1786 Y53.0629 
G01 X-22.1786 Y52.8602 
G01 X-22.0767 Y52.7584 
G01 X-22.0022 Y52.6468 
G01 X-21.9508 Y52.5228 
G01 X-21.9246 Y52.3911 
G01 X-21.9246 Y52.2569 
G01 X-21.9508 Y52.1252 
G01 X-22.0022 Y52.0012 
G01 X-22.0767 Y51.8896 
G01 X-22.1716 Y51.7947 
G01 X-22.1786 Y51.7901 
G01 X-22.1786 Y49.9709 
G01 X-22.2048 Y49.8392 
G01 X-22.2562 Y49.7152 
G01 X-22.3307 Y49.6036 
G01 X-22.4256 Y49.5087 
G01 X-22.5372 Y49.4342 
G01 X-22.6612 Y49.3828 
G01 X-22.7929 Y49.3566 
G01 X-22.9271 Y49.3566 
G01 X-23.0588 Y49.3828 
G01 X-23.1828 Y49.4342 
G01 X-23.2944 Y49.5087 
G01 X-23.3893 Y49.6036 
G01 X-23.4638 Y49.7152 
G01 X-23.5152 Y49.8392 
G01 X-23.5414 Y49.9709 
G01 X-23.5414 Y53.0629 
G01 X-23.6510 Y53.1724 
G01 X-23.7469 Y53.3045 
G01 X-23.8210 Y53.4499 
G01 X-23.8715 Y53.6052 
G01 X-23.8970 Y53.7664 
G01 X-23.8970 Y55.4536 
G01 X-23.8715 Y55.6148 
G01 X-23.8210 Y55.7701 
G01 X-23.7469 Y55.9155 
G01 X-23.6510 Y56.0476 
G01 X-23.5356 Y56.1630 
G01 X-23.4035 Y56.2589 
G01 X-23.2581 Y56.3330 
G01 X-23.1028 Y56.3835 
G01 X-22.9416 Y56.4090 
G01 X-22.7784 Y56.4090 
G01 X-22.6172 Y56.3835 
G01 X-22.4619 Y56.3330 
G01 X-22.3165 Y56.2589 
G01 X-22.1844 Y56.1630 
G01 X-22.0690 Y56.0476 
G01 X-21.9731 Y55.9155 
G01 X-21.8990 Y55.7701 
G01 X-21.8485 Y55.6148 
G01 X-21.8230 Y55.4536 
G00 Z2.0000 
G00 X-24.3630 Y55.4536 
G01 Z-0.1500 F100.00 
G01 X-24.3630 Y53.7664 F208.00 
G01 X-24.3885 Y53.6052 
G01 X-24.4390 Y53.4499 
G01 X-24.5131 Y53.3045 
G01 X-24.6090 Y53.1724 
G01 X-24.7186 Y53.0629 
G01 X-24.7186 Y51.5879 
G01 X-24.7116 Y51.5833 
G01 X-24.6167 Y51.4884 
G01 X-24.5421 Y51.3768 
G01 X-24.4908 Y51.2528 
G01 X-24.4646 Y51.1211 
G01 X-24.4646 Y50.9869 
G01 X-24.4908 Y50.8552 
G01 X-24.5421 Y50.7312 
G01 X-24.6167 Y50.6196 
G01 X-24.8707 Y50.3656 
G01 X-24.9656 Y50.2707 
G01 X-25.7346 Y49.5018 
G01 X-25.7346 Y34.2094 
G01 X-25.2170 Y34.2094 
G01 X-25.1064 Y34.2552 
G01 X-24.9366 Y34.2890 
G01 X-23.5554 Y34.2890 
G01 X-23.3856 Y34.2552 
G01 X-23.2256 Y34.1890 
G01 X-23.0817 Y34.0928 
G01 X-22.9592 Y33.9703 
G01 X-22.8630 Y33.8264 
G01 X-22.7968 Y33.6664 
G01 X-22.7630 Y33.4966 
G01 X-22.7630 Y33.3234 
G01 X-22.7968 Y33.1536 
G01 X-22.8630 Y32.9936 
G01 X-22.9592 Y32.8497 
G01 X-23.0817 Y32.7272 
G01 X-23.2256 Y32.6310 
G01 X-23.3856 Y32.5648 
G01 X-23.5554 Y32.5310 
G01 X-24.9366 Y32.5310 
G01 X-25.1064 Y32.5648 
G01 X-25.2664 Y32.6310 
G01 X-25.4103 Y32.7272 
G01 X-25.5297 Y32.8466 
G01 X-26.4831 Y32.8466 
G01 X-26.6148 Y32.8728 
G01 X-26.7388 Y32.9242 
G01 X-26.8504 Y32.9987 
G01 X-26.9453 Y33.0936 
G01 X-27.0198 Y33.2052 
G01 X-27.0712 Y33.3292 
G01 X-27.0974 Y33.4609 
G01 X-27.0974 Y49.8511 
G01 X-27.0712 Y49.9828 
G01 X-27.0198 Y50.1068 
G01 X-26.9453 Y50.2184 
G01 X-26.8504 Y50.3133 
G01 X-26.0814 Y51.0822 
G01 X-26.0814 Y53.0629 
G01 X-26.1910 Y53.1724 
G01 X-26.2869 Y53.3045 
G01 X-26.3610 Y53.4499 
G01 X-26.4115 Y53.6052 
G01 X-26.4370 Y53.7664 
G01 X-26.4370 Y55.4536 
G01 X-26.4115 Y55.6148 
G01 X-26.3610 Y55.7701 
G01 X-26.2869 Y55.9155 
G01 X-26.1910 Y56.0476 
G01 X-26.0756 Y56.1630 
G01 X-25.9435 Y56.2589 
G01 X-25.7981 Y56.3330 
G01 X-25.6428 Y56.3835 
G01 X-25.4816 Y56.4090 
G01 X-25.3184 Y56.4090 
G01 X-25.1572 Y56.3835 
G01 X-25.0019 Y56.3330 
G01 X-24.8565 Y56.2589 
G01 X-24.7244 Y56.1630 
G01 X-24.6090 Y56.0476 
G01 X-24.5131 Y55.9155 
G01 X-24.4390 Y55.7701 
G01 X-24.3885 Y55.6148 
G01 X-24.3630 Y55.4536 
G00 Z2.0000 
G00 X-26.9030 Y55.4536 
G01 Z-0.1500 F100.00 
G01 X-26.9030 Y53.7664 F208.00 
G01 X-26.9285 Y53.6052 
G01 X-26.9790 Y53.4499 
G01 X-27.0531 Y53.3045 
G01 X-27.1490 Y53.1724 
G01 X-27.2644 Y53.0570 
G01 X-27.3965 Y52.9611 
G01 X-27.5419 Y52.8870 
G01 X-27.6972 Y52.8365 
G01 X-27.7666 Y52.8255 
G01 X-27.7666 Y31.9234 
G01 X-25.5641 Y31.9234 
G01 X-25.5328 Y31.9703 
G01 X-25.4103 Y32.0928 
G01 X-25.2664 Y32.1890 
G01 X-25.1064 Y32.2552 
G01 X-24.9366 Y32.2890 
G01 X-23.5554 Y32.2890 
G01 X-23.3856 Y32.2552 
G01 X-23.2256 Y32.1890 
G01 X-23.0817 Y32.0928 
G01 X-21.2930 Y32.0914 
G01 X-21.2930 Y32.4337 
G01 X-21.2743 Y32.5036 
G01 X-21.2381 Y32.5664 
G01 X-21.1869 Y32.6176 
G01 X-21.1241 Y32.6538 
G01 X-21.0542 Y32.6725 
G01 X-19.3818 Y32.6725 
G01 X-19.3119 Y32.6538 
G01 X-19.2491 Y32.6176 
G01 X-19.1979 Y32.5664 
G01 X-19.1617 Y32.5036 
G01 X-19.1430 Y32.4337 
G01 X-19.1430 Y30.5583 
G01 X-19.1617 Y30.4884 
G01 X-19.1979 Y30.4256 
G01 X-19.2491 Y30.3744 
G01 X-19.3119 Y30.3382 
G01 X-19.3818 Y30.3195 
G01 X-21.0542 Y30.3195 
G01 X-21.1241 Y30.3382 
G01 X-21.1869 Y30.3744 
G01 X-21.2381 Y30.4256 
G01 X-21.2743 Y30.4884 
G01 X-21.2930 Y30.5583 
G01 X-21.2930 Y30.7286 
G01 X-23.0803 Y30.7286 
G01 X-23.2256 Y30.6310 
G01 X-23.3856 Y30.5648 
G01 X-23.5554 Y30.5310 
G01 X-24.9366 Y30.5310 
G01 X-25.0854 Y30.5606 
G01 X-28.5151 Y30.5606 
G01 X-28.6468 Y30.5868 
G01 X-28.7708 Y30.6382 
G01 X-28.8824 Y30.7127 
G01 X-28.9773 Y30.8076 
G01 X-29.0518 Y30.9192 
G01 X-29.1032 Y31.0432 
G01 X-29.1294 Y31.1749 
G01 X-29.1294 Y54.1691 
G01 X-29.1032 Y54.3008 
G01 X-29.0518 Y54.4248 
G01 X-28.9773 Y54.5364 
G01 X-28.9770 Y55.4536 
G01 X-28.9515 Y55.6148 
G01 X-28.9010 Y55.7701 
G01 X-28.8269 Y55.9155 
G01 X-28.7310 Y56.0476 
G01 X-28.6156 Y56.1630 
G01 X-28.4835 Y56.2589 
G01 X-28.3381 Y56.3330 
G01 X-28.1828 Y56.3835 
G01 X-28.0216 Y56.4090 
G01 X-27.8584 Y56.4090 
G01 X-27.6972 Y56.3835 
G01 X-27.5419 Y56.3330 
G01 X-27.3965 Y56.2589 
G01 X-27.2644 Y56.1630 
G01 X-27.1490 Y56.0476 
G01 X-27.0531 Y55.9155 
G01 X-26.9790 Y55.7701 
G01 X-26.9285 Y55.6148 
G01 X-26.9030 Y55.4536 
G00 Z2.0000 
G00 X-34.5230 Y55.4536 
G01 Z-0.1500 F100.00 
G01 X-34.5230 Y53.7664 F208.00 
G01 X-34.5485 Y53.6052 
G01 X-34.5990 Y53.4499 
G01 X-34.6731 Y53.3045 
G01 X-34.7690 Y53.1724 
G01 X-34.8844 Y53.0570 
G01 X-34.9802 Y52.9874 
G01 X-34.9802 Y37.1693 
G01 X-35.0064 Y37.0376 
G01 X-35.0577 Y36.9136 
G01 X-35.1323 Y36.8020 
G01 X-37.0536 Y34.8807 
G01 X-37.1652 Y34.8062 
G01 X-37.2892 Y34.7548 
G01 X-37.4209 Y34.7286 
G01 X-38.2883 Y34.7286 
G01 X-38.4336 Y34.6310 
G01 X-38.5936 Y34.5648 
G01 X-38.7634 Y34.5310 
G01 X-40.1446 Y34.5310 
G01 X-40.3144 Y34.5648 
G01 X-40.4744 Y34.6310 
G01 X-40.6183 Y34.7272 
G01 X-40.7408 Y34.8497 
G01 X-40.8370 Y34.9936 
G01 X-40.9032 Y35.1536 
G01 X-40.9370 Y35.3234 
G01 X-40.9370 Y35.4966 
G01 X-40.9032 Y35.6664 
G01 X-40.8370 Y35.8264 
G01 X-40.7408 Y35.9703 
G01 X-40.6183 Y36.0928 
G01 X-40.4744 Y36.1890 
G01 X-40.3144 Y36.2552 
G01 X-40.1446 Y36.2890 
G01 X-38.7634 Y36.2890 
G01 X-38.5936 Y36.2552 
G01 X-38.4336 Y36.1890 
G01 X-38.2897 Y36.0928 
G01 X-37.7702 Y36.0914 
G01 X-36.3430 Y37.5186 
G01 X-36.3430 Y53.1645 
G01 X-36.3510 Y53.1724 
G01 X-36.4469 Y53.3045 
G01 X-36.5210 Y53.4499 
G01 X-36.5715 Y53.6052 
G01 X-36.5970 Y53.7664 
G01 X-36.5970 Y55.4536 
G01 X-36.5715 Y55.6148 
G01 X-36.5210 Y55.7701 
G01 X-36.4469 Y55.9155 
G01 X-36.3510 Y56.0476 
G01 X-36.2356 Y56.1630 
G01 X-36.1035 Y56.2589 
G01 X-35.9581 Y56.3330 
G01 X-35.8028 Y56.3835 
G01 X-35.6416 Y56.4090 
G01 X-35.4784 Y56.4090 
G01 X-35.3172 Y56.3835 
G01 X-35.1619 Y56.3330 
G01 X-35.0165 Y56.2589 
G01 X-34.8844 Y56.1630 
G01 X-34.7690 Y56.0476 
G01 X-34.6731 Y55.9155 
G01 X-34.5990 Y55.7701 
G01 X-34.5485 Y55.6148 
G01 X-34.5230 Y55.4536 
G00 Z2.0000 
G00 X-43.4770 Y24.3057 
G01 Z-0.1500 F100.00 
G01 X-43.4770 Y23.9986 F208.00 
G01 X-40.7125 Y23.9986 
G01 X-40.6183 Y24.0928 
G01 X-40.4744 Y24.1890 
G01 X-40.3144 Y24.2552 
G01 X-40.1446 Y24.2890 
G01 X-38.7634 Y24.2890 
G01 X-38.5936 Y24.2552 
G01 X-38.4336 Y24.1890 
G01 X-38.2897 Y24.0928 
G01 X-38.1672 Y23.9703 
G01 X-38.0710 Y23.8264 
G01 X-38.0048 Y23.6664 
G01 X-37.9710 Y23.4966 
G01 X-37.9710 Y23.3234 
G01 X-38.0048 Y23.1536 
G01 X-38.0710 Y22.9936 
G01 X-38.1672 Y22.8497 
G01 X-38.2897 Y22.7272 
G01 X-38.4336 Y22.6310 
G01 X-38.5936 Y22.5648 
G01 X-38.7634 Y22.5310 
G01 X-40.1446 Y22.5310 
G01 X-40.3144 Y22.5648 
G01 X-40.4744 Y22.6310 
G01 X-40.4815 Y22.6358 
G01 X-43.4770 Y22.6358 
G01 X-43.4770 Y22.4303 
G01 X-43.4957 Y22.3604 
G01 X-43.5319 Y22.2976 
G01 X-43.5831 Y22.2464 
G01 X-43.6459 Y22.2102 
G01 X-43.7158 Y22.1915 
G01 X-45.3882 Y22.1915 
G01 X-45.4581 Y22.2102 
G01 X-45.5209 Y22.2464 
G01 X-45.5721 Y22.2976 
G01 X-45.6083 Y22.3604 
G01 X-45.6270 Y22.4303 
G01 X-45.6270 Y24.3057 
G01 X-45.6083 Y24.3756 
G01 X-45.5721 Y24.4384 
G01 X-45.5209 Y24.4896 
G01 X-45.4581 Y24.5258 
G01 X-45.3882 Y24.5445 
G01 X-43.7158 Y24.5445 
G01 X-43.6459 Y24.5258 
G01 X-43.5831 Y24.4896 
G01 X-43.5319 Y24.4384 
G01 X-43.4957 Y24.3756 
G01 X-43.4770 Y24.3057 
G00 Z2.0000 
G00 X-46.3210 Y24.3057 
G01 Z-0.1500 F100.00 
G01 X-46.3210 Y22.4303 F208.00 
G01 X-46.3397 Y22.3604 
G01 X-46.3759 Y22.2976 
G01 X-46.4271 Y22.2464 
G01 X-46.4899 Y22.2102 
G01 X-46.5598 Y22.1915 
G01 X-46.7146 Y22.1915 
G01 X-46.7146 Y21.2554 
G01 X-45.3989 Y21.2554 
G01 X-45.2672 Y21.2292 
G01 X-45.1432 Y21.1778 
G01 X-45.0316 Y21.1033 
G01 X-44.9367 Y21.0084 
G01 X-44.4287 Y20.5004 
G01 X-44.3542 Y20.3888 
G01 X-44.3028 Y20.2648 
G01 X-44.2766 Y20.1331 
G01 X-44.2766 Y18.4441 
G01 X-44.2591 Y18.4341 
G01 X-44.2079 Y18.3829 
G01 X-44.1717 Y18.3201 
G01 X-44.1530 Y18.2502 
G01 X-44.1530 Y17.1778 
G01 X-44.1717 Y17.1079 
G01 X-44.2079 Y17.0451 
G01 X-44.2591 Y16.9939 
G01 X-44.3219 Y16.9577 
G01 X-44.3918 Y16.9390 
G01 X-45.8642 Y16.9390 
G01 X-45.9341 Y16.9577 
G01 X-45.9969 Y16.9939 
G01 X-46.0481 Y17.0451 
G01 X-46.0843 Y17.1079 
G01 X-46.1030 Y17.1778 
G01 X-46.1030 Y18.2502 
G01 X-46.0843 Y18.3201 
G01 X-46.0481 Y18.3829 
G01 X-45.9969 Y18.4341 
G01 X-45.9341 Y18.4703 
G01 X-45.8642 Y18.4890 
G01 X-45.6394 Y18.4890 
G01 X-45.6394 Y19.7838 
G01 X-45.7482 Y19.8926 
G01 X-47.4631 Y19.8926 
G01 X-47.5948 Y19.9188 
G01 X-47.7188 Y19.9702 
G01 X-47.8304 Y20.0447 
G01 X-47.9253 Y20.1396 
G01 X-47.9998 Y20.2512 
G01 X-48.0512 Y20.3752 
G01 X-48.0774 Y20.5069 
G01 X-48.0774 Y22.1915 
G01 X-48.2322 Y22.1915 
G01 X-48.3021 Y22.2102 
G01 X-48.3649 Y22.2464 
G01 X-48.4161 Y22.2976 
G01 X-48.4523 Y22.3604 
G01 X-48.4710 Y22.4303 
G01 X-48.4710 Y24.3057 
G01 X-48.4523 Y24.3756 
G01 X-48.4161 Y24.4384 
G01 X-48.3649 Y24.4896 
G01 X-48.3021 Y24.5258 
G01 X-48.2322 Y24.5445 
G01 X-47.9254 Y24.5445 
G01 X-47.9254 Y26.2555 
G01 X-47.9782 Y26.2555 
G01 X-48.0481 Y26.2742 
G01 X-48.1109 Y26.3104 
G01 X-48.1621 Y26.3616 
G01 X-48.1983 Y26.4244 
G01 X-48.2170 Y26.4943 
G01 X-48.2170 Y28.3697 
G01 X-48.1983 Y28.4396 
G01 X-48.1621 Y28.5024 
G01 X-48.1109 Y28.5536 
G01 X-48.0481 Y28.5898 
G01 X-47.9782 Y28.6085 
G01 X-47.6714 Y28.6085 
G01 X-47.6714 Y36.9505 
G01 X-47.9254 Y37.2045 
G01 X-47.9254 Y37.9795 
G01 X-47.3775 Y38.5274 
G01 X-46.6025 Y38.5274 
G01 X-46.3485 Y38.2734 
G01 X-41.0420 Y38.2734 
G01 X-41.0420 Y38.6384 
G01 X-41.0744 Y38.6707 
G01 X-41.1693 Y38.7656 
G01 X-41.2438 Y38.8772 
G01 X-41.2952 Y39.0012 
G01 X-41.3214 Y39.1329 
G01 X-41.3214 Y53.0629 
G01 X-41.4310 Y53.1724 
G01 X-41.5269 Y53.3045 
G01 X-41.6010 Y53.4499 
G01 X-41.6515 Y53.6052 
G01 X-41.6770 Y53.7664 
G01 X-41.6770 Y55.4536 
G01 X-41.6515 Y55.6148 
G01 X-41.6010 Y55.7701 
G01 X-41.5269 Y55.9155 
G01 X-41.4310 Y56.0476 
G01 X-41.3156 Y56.1630 
G01 X-41.1835 Y56.2589 
G01 X-41.0381 Y56.3330 
G01 X-40.8828 Y56.3835 
G01 X-40.7216 Y56.4090 
G01 X-40.5584 Y56.4090 
G01 X-40.3972 Y56.3835 
G01 X-40.2419 Y56.3330 
G01 X-40.0965 Y56.2589 
G01 X-39.9644 Y56.1630 
G01 X-39.8490 Y56.0476 
G01 X-39.7531 Y55.9155 
G01 X-39.6790 Y55.7701 
G01 X-39.6285 Y55.6148 
G01 X-39.6030 Y55.4536 
G01 X-39.6030 Y53.7664 
G01 X-39.6285 Y53.6052 
G01 X-39.6790 Y53.4499 
G01 X-39.7531 Y53.3045 
G01 X-39.8490 Y53.1724 
G01 X-39.9586 Y53.0629 
G01 X-39.9586 Y39.4822 
G01 X-38.7654 Y38.2890 
G01 X-38.5936 Y38.2552 
G01 X-38.4336 Y38.1890 
G01 X-38.2897 Y38.0928 
G01 X-38.1672 Y37.9703 
G01 X-38.0710 Y37.8264 
G01 X-38.0048 Y37.6664 
G01 X-37.9710 Y37.4966 
G01 X-37.9710 Y37.3234 
G01 X-38.0048 Y37.1536 
G01 X-38.0710 Y36.9936 
G01 X-38.1672 Y36.8497 
G01 X-38.2897 Y36.7272 
G01 X-38.4336 Y36.6310 
G01 X-38.5936 Y36.5648 
G01 X-38.7634 Y36.5310 
G01 X-40.1446 Y36.5310 
G01 X-40.3144 Y36.5648 
G01 X-40.4744 Y36.6310 
G01 X-40.6183 Y36.7272 
G01 X-40.7408 Y36.8497 
G01 X-40.7815 Y36.9106 
G01 X-46.3086 Y36.9106 
G01 X-46.3086 Y34.9714 
G01 X-44.8909 Y34.9714 
G01 X-44.7592 Y34.9452 
G01 X-44.6352 Y34.8938 
G01 X-44.5236 Y34.8193 
G01 X-44.4287 Y34.7244 
G01 X-44.3542 Y34.6128 
G01 X-44.3028 Y34.4888 
G01 X-44.2766 Y34.3571 
G01 X-44.2766 Y34.2229 
G01 X-44.3028 Y34.0912 
G01 X-44.3542 Y33.9672 
G01 X-44.4287 Y33.8556 
G01 X-44.5236 Y33.7607 
G01 X-44.6352 Y33.6862 
G01 X-44.7592 Y33.6348 
G01 X-44.8909 Y33.6086 
G01 X-46.3086 Y33.6086 
G01 X-46.3086 Y28.6085 
G01 X-46.3058 Y28.6085 
G01 X-46.2359 Y28.5898 
G01 X-46.1731 Y28.5536 
G01 X-46.1219 Y28.5024 
G01 X-46.0857 Y28.4396 
G01 X-46.0670 Y28.3697 
G01 X-46.0670 Y26.4943 
G01 X-46.0857 Y26.4244 
G01 X-46.1219 Y26.3616 
G01 X-46.1731 Y26.3104 
G01 X-46.2359 Y26.2742 
G01 X-46.3058 Y26.2555 
G01 X-46.5626 Y26.2555 
G01 X-46.5626 Y24.5445 
G01 X-46.5598 Y24.5445 
G01 X-46.4899 Y24.5258 
G01 X-46.4271 Y24.4896 
G01 X-46.3759 Y24.4384 
G01 X-46.3397 Y24.3756 
G01 X-46.3210 Y24.3057 
G00 Z2.0000 
G00 X-16.2990 Y30.5583 
G01 Z-0.1500 F100.00 
G01 X-16.3177 Y30.4884 F208.00 
G01 X-16.3539 Y30.4256 
G01 X-16.4051 Y30.3744 
G01 X-16.4679 Y30.3382 
G01 X-16.5378 Y30.3195 
G01 X-18.2102 Y30.3195 
G01 X-18.2801 Y30.3382 
G01 X-18.3429 Y30.3744 
G01 X-18.3941 Y30.4256 
G01 X-18.4303 Y30.4884 
G01 X-18.4490 Y30.5583 
G01 X-18.4490 Y32.4337 
G01 X-18.4303 Y32.5036 
G01 X-18.3941 Y32.5664 
G01 X-18.3429 Y32.6176 
G01 X-18.2801 Y32.6538 
G01 X-18.2102 Y32.6725 
G01 X-17.1914 Y32.6725 
G01 X-17.1914 Y45.2791 
G01 X-17.1652 Y45.4108 
G01 X-17.1138 Y45.5348 
G01 X-17.0393 Y45.6464 
G01 X-16.4364 Y46.2493 
G01 X-15.7252 Y46.9605 
G01 X-15.6136 Y47.0350 
G01 X-15.4896 Y47.0864 
G01 X-15.3579 Y47.1126 
G01 X-14.6971 Y47.1126 
G01 X-14.6172 Y47.2226 
G01 X-14.4820 Y47.3578 
G01 X-14.3273 Y47.4702 
G01 X-14.1569 Y47.5570 
G01 X-13.9751 Y47.6161 
G01 X-13.7862 Y47.6460 
G01 X-13.5950 Y47.6460 
G01 X-13.4061 Y47.6161 
G01 X-13.2243 Y47.5570 
G01 X-13.0539 Y47.4702 
G01 X-12.8992 Y47.3578 
G01 X-12.7640 Y47.2226 
G01 X-12.6516 Y47.0679 
G01 X-12.5648 Y46.8975 
G01 X-12.5057 Y46.7157 
G01 X-12.4758 Y46.5268 
G01 X-12.4758 Y46.3356 
G01 X-12.5057 Y46.1467 
G01 X-12.5648 Y45.9649 
G01 X-12.6516 Y45.7945 
G01 X-12.7640 Y45.6398 
G01 X-12.8992 Y45.5046 
G01 X-13.0539 Y45.3922 
G01 X-13.2243 Y45.3054 
G01 X-13.4061 Y45.2463 
G01 X-13.5950 Y45.2164 
G01 X-13.7862 Y45.2164 
G01 X-13.9751 Y45.2463 
G01 X-14.1569 Y45.3054 
G01 X-14.3273 Y45.3922 
G01 X-14.4820 Y45.5046 
G01 X-14.6172 Y45.6398 
G01 X-14.6971 Y45.7498 
G01 X-15.0086 Y45.7498 
G01 X-15.4727 Y45.2856 
G01 X-15.8286 Y44.9298 
G01 X-15.8286 Y31.1749 
G01 X-15.8548 Y31.0432 
G01 X-15.9062 Y30.9192 
G01 X-15.9807 Y30.8076 
G01 X-16.0756 Y30.7127 
G01 X-16.1872 Y30.6382 
G01 X-16.2990 Y30.5919 
G01 X-16.2990 Y30.5583 
G00 Z2.0000 
G00 X-14.9054 Y39.8332 
G01 Z-0.1500 F100.00 
G01 X-14.9054 Y40.0244 F208.00 
G01 X-14.8755 Y40.2133 
G01 X-14.8164 Y40.3951 
G01 X-14.7296 Y40.5655 
G01 X-14.6172 Y40.7202 
G01 X-14.4820 Y40.8554 
G01 X-14.3273 Y40.9678 
G01 X-14.1569 Y41.0546 
G01 X-13.9751 Y41.1137 
G01 X-13.7862 Y41.1436 
G01 X-13.5950 Y41.1436 
G01 X-13.4061 Y41.1137 
G01 X-13.2243 Y41.0546 
G01 X-13.0539 Y40.9678 
G01 X-12.8992 Y40.8554 
G01 X-12.7640 Y40.7202 
G01 X-12.6516 Y40.5655 
G01 X-12.5648 Y40.3951 
G01 X-12.5057 Y40.2133 
G01 X-12.4758 Y40.0244 
G01 X-12.4758 Y39.8332 
G01 X-12.5057 Y39.6443 
G01 X-12.5648 Y39.4625 
G01 X-12.6516 Y39.2921 
G01 X-12.7640 Y39.1374 
G01 X-12.8992 Y39.0022 
G01 X-13.0539 Y38.8898 
G01 X-13.2243 Y38.8030 
G01 X-13.4061 Y38.7439 
G01 X-13.5950 Y38.7140 
G01 X-13.7862 Y38.7140 
G01 X-13.9751 Y38.7439 
G01 X-14.1569 Y38.8030 
G01 X-14.3273 Y38.8898 
G01 X-14.4820 Y39.0022 
G01 X-14.6172 Y39.1374 
G01 X-14.7296 Y39.2921 
G01 X-14.8164 Y39.4625 
G01 X-14.8755 Y39.6443 
G01 X-14.9054 Y39.8332 
G00 Z2.0000 
G00 X-10.3842 Y39.8332 
G01 Z-0.1500 F100.00 
G01 X-10.3842 Y40.0244 F208.00 
G01 X-10.3543 Y40.2133 
G01 X-10.2952 Y40.3951 
G01 X-10.2084 Y40.5655 
G01 X-10.0960 Y40.7202 
G01 X-9.9608 Y40.8554 
G01 X-9.8061 Y40.9678 
G01 X-9.6357 Y41.0546 
G01 X-9.4539 Y41.1137 
G01 X-9.2650 Y41.1436 
G01 X-9.0738 Y41.1436 
G01 X-8.8849 Y41.1137 
G01 X-8.7031 Y41.0546 
G01 X-8.5327 Y40.9678 
G01 X-8.3780 Y40.8554 
G01 X-8.2428 Y40.7202 
G01 X-8.1304 Y40.5655 
G01 X-8.0436 Y40.3951 
G01 X-7.9845 Y40.2133 
G01 X-7.9546 Y40.0244 
G01 X-7.9546 Y39.8332 
G01 X-7.9845 Y39.6443 
G01 X-8.0436 Y39.4625 
G01 X-8.1304 Y39.2921 
G01 X-8.2428 Y39.1374 
G01 X-8.3780 Y39.0022 
G01 X-8.5327 Y38.8898 
G01 X-8.7031 Y38.8030 
G01 X-8.8849 Y38.7439 
G01 X-9.0738 Y38.7140 
G01 X-9.2650 Y38.7140 
G01 X-9.4539 Y38.7439 
G01 X-9.6357 Y38.8030 
G01 X-9.8061 Y38.8898 
G01 X-9.9608 Y39.0022 
G01 X-10.0960 Y39.1374 
G01 X-10.2084 Y39.2921 
G01 X-10.2952 Y39.4625 
G01 X-10.3543 Y39.6443 
G01 X-10.3842 Y39.8332 
G00 Z2.0000 
G00 X-23.5554 Y36.5310 
G01 Z-0.1500 F100.00 
G01 X-24.9366 Y36.5310 F208.00 
G01 X-25.1064 Y36.5648 
G01 X-25.2664 Y36.6310 
G01 X-25.4103 Y36.7272 
G01 X-25.5328 Y36.8497 
G01 X-25.6290 Y36.9936 
G01 X-25.6952 Y37.1536 
G01 X-25.7290 Y37.3234 
G01 X-25.7290 Y37.4966 
G01 X-25.6952 Y37.6664 
G01 X-25.6290 Y37.8264 
G01 X-25.5328 Y37.9703 
G01 X-25.4103 Y38.0928 
G01 X-25.2664 Y38.1890 
G01 X-25.1064 Y38.2552 
G01 X-24.9366 Y38.2890 
G01 X-23.5554 Y38.2890 
G01 X-23.3856 Y38.2552 
G01 X-23.2256 Y38.1890 
G01 X-23.0817 Y38.0928 
G01 X-20.4805 Y38.0914 
G01 X-20.4805 Y38.8342 
G01 X-20.4618 Y38.9041 
G01 X-20.4256 Y38.9669 
G01 X-20.3744 Y39.0181 
G01 X-20.3116 Y39.0543 
G01 X-20.2417 Y39.0730 
G01 X-19.9854 Y39.0730 
G01 X-19.9854 Y46.8031 
G01 X-19.9592 Y46.9348 
G01 X-19.9078 Y47.0588 
G01 X-19.8333 Y47.1704 
G01 X-19.7384 Y47.2653 
G01 X-14.5526 Y52.4510 
G01 X-19.3322 Y57.2306 
G01 X-37.4186 Y57.2306 
G01 X-37.4186 Y56.1571 
G01 X-37.3090 Y56.0476 
G01 X-37.2131 Y55.9155 
G01 X-37.1390 Y55.7701 
G01 X-37.0885 Y55.6148 
G01 X-37.0630 Y55.4536 
G01 X-37.0630 Y53.7664 
G01 X-37.0885 Y53.6052 
G01 X-37.1390 Y53.4499 
G01 X-37.2131 Y53.3045 
G01 X-37.3090 Y53.1724 
G01 X-37.4244 Y53.0570 
G01 X-37.5565 Y52.9611 
G01 X-37.7019 Y52.8870 
G01 X-37.8572 Y52.8365 
G01 X-38.0184 Y52.8110 
G01 X-38.1816 Y52.8110 
G01 X-38.3428 Y52.8365 
G01 X-38.4981 Y52.8870 
G01 X-38.6435 Y52.9611 
G01 X-38.7756 Y53.0570 
G01 X-38.8910 Y53.1724 
G01 X-38.9869 Y53.3045 
G01 X-39.0610 Y53.4499 
G01 X-39.1115 Y53.6052 
G01 X-39.1370 Y53.7664 
G01 X-39.1370 Y55.4536 
G01 X-39.1115 Y55.6148 
G01 X-39.0610 Y55.7701 
G01 X-38.9869 Y55.9155 
G01 X-38.8910 Y56.0476 
G01 X-38.7814 Y56.1571 
G01 X-38.7814 Y57.2306 
G01 X-42.1358 Y57.2306 
G01 X-46.5626 Y52.8038 
G01 X-46.5626 Y41.0275 
G01 X-46.0546 Y40.5195 
G01 X-46.0546 Y39.7445 
G01 X-46.6025 Y39.1966 
G01 X-47.3775 Y39.1966 
G01 X-47.9254 Y39.7445 
G01 X-47.9254 Y53.1531 
G01 X-47.8992 Y53.2848 
G01 X-47.8478 Y53.4088 
G01 X-47.7733 Y53.5204 
G01 X-47.6784 Y53.6153 
G01 X-42.8524 Y58.4413 
G01 X-42.7408 Y58.5158 
G01 X-42.6168 Y58.5672 
G01 X-42.4851 Y58.5934 
G01 X-38.3822 Y58.5934 
G01 X-38.2804 Y58.6953 
G01 X-38.1688 Y58.7698 
G01 X-38.0448 Y58.8212 
G01 X-37.9131 Y58.8474 
G01 X-37.7789 Y58.8474 
G01 X-37.6472 Y58.8212 
G01 X-37.5232 Y58.7698 
G01 X-37.4116 Y58.6953 
G01 X-37.3167 Y58.6004 
G01 X-37.3121 Y58.5934 
G01 X-18.9829 Y58.5934 
G01 X-18.8512 Y58.5672 
G01 X-18.7272 Y58.5158 
G01 X-18.6156 Y58.4413 
G01 X-13.1546 Y52.9803 
G01 X-13.0597 Y52.8854 
G01 X-8.6401 Y48.4658 
G01 X-8.5655 Y48.3542 
G01 X-8.5142 Y48.2302 
G01 X-8.4880 Y48.0985 
G01 X-8.4880 Y47.4377 
G01 X-8.3780 Y47.3578 
G01 X-8.2428 Y47.2226 
G01 X-8.1629 Y47.1126 
G01 X-4.9621 Y47.1126 
G01 X-4.8304 Y47.0864 
G01 X-4.7064 Y47.0350 
G01 X-4.5948 Y46.9605 
G01 X-4.3916 Y46.7573 
G01 X-4.2967 Y46.6624 
G01 X-4.2222 Y46.5508 
G01 X-4.1708 Y46.4268 
G01 X-4.1446 Y46.2951 
G01 X-4.1446 Y20.9387 
G01 X-4.1708 Y20.8070 
G01 X-4.2222 Y20.6830 
G01 X-4.2967 Y20.5714 
G01 X-4.3916 Y20.4765 
G01 X-4.5032 Y20.4019 
G01 X-4.6272 Y20.3506 
G01 X-4.7589 Y20.3244 
G01 X-17.3526 Y20.3244 
G01 X-17.3526 Y19.3271 
G01 X-17.2430 Y19.2176 
G01 X-17.1471 Y19.0855 
G01 X-17.0730 Y18.9401 
G01 X-17.0225 Y18.7848 
G01 X-16.9970 Y18.6236 
G01 X-16.9970 Y16.9364 
G01 X-17.0225 Y16.7752 
G01 X-17.0730 Y16.6199 
G01 X-17.1471 Y16.4745 
G01 X-17.2430 Y16.3424 
G01 X-17.3584 Y16.2270 
G01 X-17.4905 Y16.1311 
G01 X-17.6359 Y16.0570 
G01 X-17.7912 Y16.0065 
G01 X-17.9524 Y15.9810 
G01 X-18.1156 Y15.9810 
G01 X-18.2768 Y16.0065 
G01 X-18.4321 Y16.0570 
G01 X-18.5775 Y16.1311 
G01 X-18.6596 Y16.1907 
G01 X-22.5187 Y12.3316 
G01 X-22.6136 Y12.2367 
G01 X-22.7252 Y12.1622 
G01 X-22.8492 Y12.1108 
G01 X-22.9809 Y12.0846 
G01 X-42.1471 Y12.0846 
G01 X-42.2788 Y12.1108 
G01 X-42.4028 Y12.1622 
G01 X-42.5144 Y12.2367 
G01 X-42.6093 Y12.3316 
G01 X-45.3166 Y15.0390 
G01 X-45.8642 Y15.0390 
G01 X-45.9341 Y15.0577 
G01 X-45.9969 Y15.0939 
G01 X-46.0481 Y15.1451 
G01 X-46.0843 Y15.2079 
G01 X-46.1030 Y15.2778 
G01 X-46.1030 Y16.3502 
G01 X-46.0843 Y16.4201 
G01 X-46.0481 Y16.4829 
G01 X-45.9969 Y16.5341 
G01 X-45.9341 Y16.5703 
G01 X-45.8642 Y16.5890 
G01 X-44.3918 Y16.5890 
G01 X-44.3219 Y16.5703 
G01 X-44.2591 Y16.5341 
G01 X-44.2079 Y16.4829 
G01 X-44.1717 Y16.4201 
G01 X-44.1530 Y16.3502 
G01 X-44.1530 Y15.8026 
G01 X-41.7978 Y13.4474 
G01 X-23.3302 Y13.4474 
G01 X-19.0710 Y17.7066 
G01 X-19.0710 Y18.6236 
G01 X-19.0455 Y18.7848 
G01 X-18.9950 Y18.9401 
G01 X-18.9209 Y19.0855 
G01 X-18.8250 Y19.2176 
G01 X-18.7154 Y19.3271 
G01 X-18.7154 Y21.0729 
G01 X-18.6892 Y21.2046 
G01 X-18.6378 Y21.3286 
G01 X-18.5633 Y21.4402 
G01 X-18.4684 Y21.5351 
G01 X-18.3568 Y21.6096 
G01 X-18.2328 Y21.6610 
G01 X-18.1011 Y21.6872 
G01 X-5.5074 Y21.6872 
G01 X-5.5074 Y28.5286 
G01 X-11.1529 Y28.5286 
G01 X-11.2624 Y28.4190 
G01 X-11.3945 Y28.3231 
G01 X-11.5399 Y28.2490 
G01 X-11.6952 Y28.1985 
G01 X-11.8564 Y28.1730 
G01 X-13.5436 Y28.1730 
G01 X-13.7048 Y28.1985 
G01 X-13.8601 Y28.2490 
G01 X-14.0055 Y28.3231 
G01 X-14.1376 Y28.4190 
G01 X-14.2530 Y28.5344 
G01 X-14.3489 Y28.6665 
G01 X-14.4230 Y28.8119 
G01 X-14.4735 Y28.9672 
G01 X-14.4990 Y29.1284 
G01 X-14.4990 Y29.2916 
G01 X-14.4735 Y29.4528 
G01 X-14.4230 Y29.6081 
G01 X-14.3489 Y29.7535 
G01 X-14.2530 Y29.8856 
G01 X-14.1376 Y30.0010 
G01 X-14.0055 Y30.0969 
G01 X-13.8601 Y30.1710 
G01 X-13.7048 Y30.2215 
G01 X-13.5436 Y30.2470 
G01 X-11.8564 Y30.2470 
G01 X-11.6952 Y30.2215 
G01 X-11.5399 Y30.1710 
G01 X-11.3945 Y30.0969 
G01 X-11.2624 Y30.0010 
G01 X-11.1529 Y29.8914 
G01 X-5.5074 Y29.8914 
G01 X-5.5074 Y45.7498 
G01 X-8.1629 Y45.7498 
G01 X-8.2428 Y45.6398 
G01 X-8.3780 Y45.5046 
G01 X-8.5327 Y45.3922 
G01 X-8.7031 Y45.3054 
G01 X-8.8849 Y45.2463 
G01 X-9.0738 Y45.2164 
G01 X-9.2650 Y45.2164 
G01 X-9.4539 Y45.2463 
G01 X-9.6357 Y45.3054 
G01 X-9.8061 Y45.3922 
G01 X-9.9608 Y45.5046 
G01 X-10.0960 Y45.6398 
G01 X-10.2084 Y45.7945 
G01 X-10.2952 Y45.9649 
G01 X-10.3543 Y46.1467 
G01 X-10.3842 Y46.3356 
G01 X-10.3842 Y46.5268 
G01 X-10.3543 Y46.7157 
G01 X-10.2952 Y46.8975 
G01 X-10.2084 Y47.0679 
G01 X-10.0960 Y47.2226 
G01 X-9.9608 Y47.3578 
G01 X-9.8508 Y47.4377 
G01 X-9.8508 Y47.7492 
G01 X-13.5890 Y51.4874 
G01 X-18.6226 Y46.4538 
G01 X-18.6226 Y39.0730 
G01 X-18.3663 Y39.0730 
G01 X-18.2964 Y39.0543 
G01 X-18.2336 Y39.0181 
G01 X-18.1824 Y38.9669 
G01 X-18.1462 Y38.9041 
G01 X-18.1275 Y38.8342 
G01 X-18.1275 Y37.1618 
G01 X-18.1462 Y37.0919 
G01 X-18.1824 Y37.0291 
G01 X-18.2336 Y36.9779 
G01 X-18.2964 Y36.9417 
G01 X-18.3663 Y36.9230 
G01 X-19.4154 Y36.9230 
G01 X-19.4576 Y36.8807 
G01 X-19.5692 Y36.8062 
G01 X-19.6932 Y36.7548 
G01 X-19.8249 Y36.7286 
G01 X-23.0803 Y36.7286 
G01 X-23.2256 Y36.6310 
G01 X-23.3856 Y36.5648 
G01 X-23.5554 Y36.5310 
G00 Z2.0000 
G00 X-24.9366 Y34.5310 
G01 Z-0.1500 F100.00 
G01 X-25.1064 Y34.5648 F208.00 
G01 X-25.2664 Y34.6310 
G01 X-25.4103 Y34.7272 
G01 X-25.5328 Y34.8497 
G01 X-25.6290 Y34.9936 
G01 X-25.6952 Y35.1536 
G01 X-25.7290 Y35.3234 
G01 X-25.7290 Y35.4966 
G01 X-25.6952 Y35.6664 
G01 X-25.6290 Y35.8264 
G01 X-25.5328 Y35.9703 
G01 X-25.4103 Y36.0928 
G01 X-25.2664 Y36.1890 
G01 X-25.1064 Y36.2552 
G01 X-24.9366 Y36.2890 
G01 X-23.5554 Y36.2890 
G01 X-23.3856 Y36.2552 
G01 X-23.2256 Y36.1890 
G01 X-23.0817 Y36.0928 
G01 X-22.9592 Y35.9703 
G01 X-22.8691 Y35.8354 
G01 X-20.4805 Y35.8354 
G01 X-20.4805 Y35.9902 
G01 X-20.4618 Y36.0601 
G01 X-20.4256 Y36.1229 
G01 X-20.3744 Y36.1741 
G01 X-20.3116 Y36.2103 
G01 X-20.2417 Y36.2290 
G01 X-18.3663 Y36.2290 
G01 X-18.2964 Y36.2103 
G01 X-18.2336 Y36.1741 
G01 X-18.1824 Y36.1229 
G01 X-18.1462 Y36.0601 
G01 X-18.1275 Y35.9902 
G01 X-18.1275 Y34.3178 
G01 X-18.1462 Y34.2479 
G01 X-18.1824 Y34.1851 
G01 X-18.2336 Y34.1339 
G01 X-18.2964 Y34.0977 
G01 X-18.3663 Y34.0790 
G01 X-20.2417 Y34.0790 
G01 X-20.3116 Y34.0977 
G01 X-20.3744 Y34.1339 
G01 X-20.4256 Y34.1851 
G01 X-20.4618 Y34.2479 
G01 X-20.4805 Y34.3178 
G01 X-20.4805 Y34.4726 
G01 X-24.0451 Y34.4726 
G01 X-24.1768 Y34.4988 
G01 X-24.2545 Y34.5310 
G01 X-24.9366 Y34.5310 
G00 Z2.0000 
G00 X-23.5554 Y28.5310 
G01 Z-0.1500 F100.00 
G01 X-24.0508 Y28.5310 F208.00 
G01 X-24.0629 Y28.5286 
G01 X-30.5471 Y28.5286 
G01 X-30.6788 Y28.5548 
G01 X-30.8028 Y28.6062 
G01 X-30.9144 Y28.6807 
G01 X-31.0093 Y28.7756 
G01 X-31.0838 Y28.8872 
G01 X-31.1352 Y29.0112 
G01 X-31.1614 Y29.1429 
G01 X-31.1614 Y53.0629 
G01 X-31.2710 Y53.1724 
G01 X-31.3669 Y53.3045 
G01 X-31.4410 Y53.4499 
G01 X-31.4915 Y53.6052 
G01 X-31.5170 Y53.7664 
G01 X-31.5170 Y55.4536 
G01 X-31.4915 Y55.6148 
G01 X-31.4410 Y55.7701 
G01 X-31.3669 Y55.9155 
G01 X-31.2710 Y56.0476 
G01 X-31.1556 Y56.1630 
G01 X-31.0235 Y56.2589 
G01 X-30.8781 Y56.3330 
G01 X-30.7228 Y56.3835 
G01 X-30.5616 Y56.4090 
G01 X-30.3984 Y56.4090 
G01 X-30.2372 Y56.3835 
G01 X-30.0819 Y56.3330 
G01 X-29.9365 Y56.2589 
G01 X-29.8044 Y56.1630 
G01 X-29.6890 Y56.0476 
G01 X-29.5931 Y55.9155 
G01 X-29.5190 Y55.7701 
G01 X-29.4685 Y55.6148 
G01 X-29.4430 Y55.4536 
G01 X-29.4430 Y53.7664 
G01 X-29.4685 Y53.6052 
G01 X-29.5190 Y53.4499 
G01 X-29.5931 Y53.3045 
G01 X-29.6890 Y53.1724 
G01 X-29.7986 Y53.0629 
G01 X-29.7986 Y29.8914 
G01 X-25.5855 Y29.8914 
G01 X-25.5328 Y29.9703 
G01 X-25.4103 Y30.0928 
G01 X-25.2664 Y30.1890 
G01 X-25.1064 Y30.2552 
G01 X-24.9366 Y30.2890 
G01 X-23.5554 Y30.2890 
G01 X-23.3856 Y30.2552 
G01 X-23.2256 Y30.1890 
G01 X-23.0817 Y30.0928 
G01 X-22.9592 Y29.9703 
G01 X-22.8630 Y29.8264 
G01 X-22.7968 Y29.6664 
G01 X-22.7630 Y29.4966 
G01 X-22.7630 Y29.3234 
G01 X-22.7968 Y29.1536 
G01 X-22.8630 Y28.9936 
G01 X-22.9592 Y28.8497 
G01 X-23.0817 Y28.7272 
G01 X-23.2256 Y28.6310 
G01 X-23.3856 Y28.5648 
G01 X-23.5554 Y28.5310 
G00 Z2.0000 
G00 X-23.5554 Y26.5310 
G01 Z-0.1500 F100.00 
G01 X-24.9366 Y26.5310 F208.00 
G01 X-25.1064 Y26.5648 
G01 X-25.2664 Y26.6310 
G01 X-25.4103 Y26.7272 
G01 X-25.4337 Y26.7506 
G01 X-29.0231 Y26.7506 
G01 X-29.1548 Y26.7768 
G01 X-29.2788 Y26.8282 
G01 X-29.3904 Y26.9027 
G01 X-29.4853 Y26.9976 
G01 X-29.5598 Y27.1092 
G01 X-29.6112 Y27.2332 
G01 X-29.6374 Y27.3649 
G01 X-29.6374 Y27.4991 
G01 X-29.6112 Y27.6308 
G01 X-29.5598 Y27.7548 
G01 X-29.4853 Y27.8664 
G01 X-29.3904 Y27.9613 
G01 X-29.2788 Y28.0358 
G01 X-29.1548 Y28.0872 
G01 X-29.0231 Y28.1134 
G01 X-25.3794 Y28.1134 
G01 X-25.2664 Y28.1890 
G01 X-25.1064 Y28.2552 
G01 X-24.9366 Y28.2890 
G01 X-23.5554 Y28.2890 
G01 X-23.3856 Y28.2552 
G01 X-23.2256 Y28.1890 
G01 X-23.0817 Y28.0928 
G01 X-22.9592 Y27.9703 
G01 X-22.8630 Y27.8264 
G01 X-22.7968 Y27.6664 
G01 X-22.7630 Y27.4966 
G01 X-22.7630 Y27.3234 
G01 X-22.7968 Y27.1536 
G01 X-22.8630 Y26.9936 
G01 X-22.9592 Y26.8497 
G01 X-23.0817 Y26.7272 
G01 X-23.2256 Y26.6310 
G01 X-23.3856 Y26.5648 
G01 X-23.5554 Y26.5310 
G00 Z2.0000 
G00 X-23.5554 Y24.5310 
G01 Z-0.1500 F100.00 
G01 X-24.9366 Y24.5310 F208.00 
G01 X-25.1064 Y24.5648 
G01 X-25.2664 Y24.6310 
G01 X-25.4103 Y24.7272 
G01 X-25.5328 Y24.8497 
G01 X-25.6290 Y24.9936 
G01 X-25.6952 Y25.1536 
G01 X-25.7290 Y25.3234 
G01 X-25.7290 Y25.4966 
G01 X-25.6952 Y25.6664 
G01 X-25.6290 Y25.8264 
G01 X-25.5328 Y25.9703 
G01 X-25.4103 Y26.0928 
G01 X-25.2664 Y26.1890 
G01 X-25.1064 Y26.2552 
G01 X-24.9366 Y26.2890 
G01 X-23.5554 Y26.2890 
G01 X-23.3856 Y26.2552 
G01 X-23.2256 Y26.1890 
G01 X-23.1407 Y26.1322 
G01 X-18.9422 Y26.1322 
G01 X-17.9700 Y27.1044 
G01 X-17.8751 Y27.1993 
G01 X-17.7635 Y27.2738 
G01 X-17.6395 Y27.3252 
G01 X-17.5079 Y27.3514 
G01 X-14.2471 Y27.3514 
G01 X-14.1376 Y27.4610 
G01 X-14.0055 Y27.5569 
G01 X-13.8601 Y27.6310 
G01 X-13.7048 Y27.6815 
G01 X-13.5436 Y27.7070 
G01 X-11.8564 Y27.7070 
G01 X-11.6952 Y27.6815 
G01 X-11.5399 Y27.6310 
G01 X-11.3945 Y27.5569 
G01 X-11.2624 Y27.4610 
G01 X-11.1470 Y27.3456 
G01 X-11.0511 Y27.2135 
G01 X-10.9770 Y27.0681 
G01 X-10.9265 Y26.9128 
G01 X-10.9010 Y26.7516 
G01 X-10.9010 Y26.5884 
G01 X-10.9265 Y26.4272 
G01 X-10.9770 Y26.2719 
G01 X-11.0511 Y26.1265 
G01 X-11.1470 Y25.9944 
G01 X-11.2624 Y25.8790 
G01 X-11.3945 Y25.7831 
G01 X-11.5399 Y25.7090 
G01 X-11.6952 Y25.6585 
G01 X-11.8564 Y25.6330 
G01 X-13.5436 Y25.6330 
G01 X-13.7048 Y25.6585 
G01 X-13.8601 Y25.7090 
G01 X-14.0055 Y25.7831 
G01 X-14.1376 Y25.8790 
G01 X-14.2471 Y25.9886 
G01 X-17.1585 Y25.9886 
G01 X-18.2256 Y24.9215 
G01 X-18.3372 Y24.8469 
G01 X-18.4612 Y24.7956 
G01 X-18.5929 Y24.7694 
G01 X-23.0395 Y24.7694 
G01 X-23.0817 Y24.7272 
G01 X-23.2256 Y24.6310 
G01 X-23.3856 Y24.5648 
G01 X-23.5554 Y24.5310 
G00 Z2.0000 
G00 X-40.1446 Y34.2890 
G01 Z-0.1500 F100.00 
G01 X-38.7634 Y34.2890 F208.00 
G01 X-38.5936 Y34.2552 
G01 X-38.4336 Y34.1890 
G01 X-38.2897 Y34.0928 
G01 X-38.1672 Y33.9703 
G01 X-38.0710 Y33.8264 
G01 X-38.0048 Y33.6664 
G01 X-37.9710 Y33.4966 
G01 X-37.9710 Y33.3234 
G01 X-38.0048 Y33.1536 
G01 X-38.0690 Y32.9987 
G01 X-33.7522 Y37.3154 
G01 X-33.7522 Y53.1137 
G01 X-33.8110 Y53.1724 
G01 X-33.9069 Y53.3045 
G01 X-33.9810 Y53.4499 
G01 X-34.0315 Y53.6052 
G01 X-34.0570 Y53.7664 
G01 X-34.0570 Y55.4536 
G01 X-34.0315 Y55.6148 
G01 X-33.9810 Y55.7701 
G01 X-33.9069 Y55.9155 
G01 X-33.8110 Y56.0476 
G01 X-33.6956 Y56.1630 
G01 X-33.5635 Y56.2589 
G01 X-33.4181 Y56.3330 
G01 X-33.2628 Y56.3835 
G01 X-33.1016 Y56.4090 
G01 X-32.9384 Y56.4090 
G01 X-32.7772 Y56.3835 
G01 X-32.6219 Y56.3330 
G01 X-32.4765 Y56.2589 
G01 X-32.3444 Y56.1630 
G01 X-32.2290 Y56.0476 
G01 X-32.1331 Y55.9155 
G01 X-32.0590 Y55.7701 
G01 X-32.0085 Y55.6148 
G01 X-31.9830 Y55.4536 
G01 X-31.9830 Y53.7664 
G01 X-32.0085 Y53.6052 
G01 X-32.0590 Y53.4499 
G01 X-32.1331 Y53.3045 
G01 X-32.2290 Y53.1724 
G01 X-32.3444 Y53.0570 
G01 X-32.3894 Y53.0244 
G01 X-32.3894 Y36.9661 
G01 X-32.4156 Y36.8344 
G01 X-32.4670 Y36.7104 
G01 X-32.5415 Y36.5988 
G01 X-32.6364 Y36.5039 
G01 X-38.0175 Y31.1228 
G01 X-38.0710 Y30.9936 
G01 X-38.1672 Y30.8497 
G01 X-38.2897 Y30.7272 
G01 X-38.4336 Y30.6310 
G01 X-38.5936 Y30.5648 
G01 X-38.7634 Y30.5310 
G01 X-40.1446 Y30.5310 
G01 X-40.3144 Y30.5648 
G01 X-40.4744 Y30.6310 
G01 X-40.6183 Y30.7272 
G01 X-40.7408 Y30.8497 
G01 X-40.8370 Y30.9936 
G01 X-40.9032 Y31.1536 
G01 X-40.9370 Y31.3234 
G01 X-40.9370 Y31.4966 
G01 X-40.9032 Y31.6664 
G01 X-40.8370 Y31.8264 
G01 X-40.7408 Y31.9703 
G01 X-40.6183 Y32.0928 
G01 X-40.4744 Y32.1890 
G01 X-40.3144 Y32.2552 
G01 X-40.1446 Y32.2890 
G01 X-38.7786 Y32.2890 
G01 X-38.4387 Y32.6290 
G01 X-38.5936 Y32.5648 
G01 X-38.7634 Y32.5310 
G01 X-40.1446 Y32.5310 
G01 X-40.3144 Y32.5648 
G01 X-40.4744 Y32.6310 
G01 X-40.6183 Y32.7272 
G01 X-40.7408 Y32.8497 
G01 X-40.8370 Y32.9936 
G01 X-40.9032 Y33.1536 
G01 X-40.9370 Y33.3234 
G01 X-40.9370 Y33.4966 
G01 X-40.9032 Y33.6664 
G01 X-40.8370 Y33.8264 
G01 X-40.7408 Y33.9703 
G01 X-40.6183 Y34.0928 
G01 X-40.4744 Y34.1890 
G01 X-40.3144 Y34.2552 
G01 X-40.1446 Y34.2890 
G00 Z2.0000 
G00 X-40.1446 Y30.2890 
G01 Z-0.1500 F100.00 
G01 X-38.7634 Y30.2890 F208.00 
G01 X-38.5936 Y30.2552 
G01 X-38.4336 Y30.1890 
G01 X-38.2897 Y30.0928 
G01 X-38.1672 Y29.9703 
G01 X-38.0710 Y29.8264 
G01 X-38.0048 Y29.6664 
G01 X-37.9710 Y29.4966 
G01 X-37.9710 Y29.3234 
G01 X-38.0048 Y29.1536 
G01 X-38.0710 Y28.9936 
G01 X-38.1672 Y28.8497 
G01 X-38.2897 Y28.7272 
G01 X-38.4336 Y28.6310 
G01 X-38.5936 Y28.5648 
G01 X-38.7634 Y28.5310 
G01 X-40.1446 Y28.5310 
G01 X-40.3144 Y28.5648 
G01 X-40.4744 Y28.6310 
G01 X-40.6183 Y28.7272 
G01 X-40.7408 Y28.8497 
G01 X-40.8370 Y28.9936 
G01 X-40.9032 Y29.1536 
G01 X-40.9370 Y29.3234 
G01 X-40.9370 Y29.4966 
G01 X-40.9032 Y29.6664 
G01 X-40.8370 Y29.8264 
G01 X-40.7408 Y29.9703 
G01 X-40.6183 Y30.0928 
G01 X-40.4744 Y30.1890 
G01 X-40.3144 Y30.2552 
G01 X-40.1446 Y30.2890 
G00 Z2.0000 
G00 X-40.1446 Y28.2890 
G01 Z-0.1500 F100.00 
G01 X-38.7634 Y28.2890 F208.00 
G01 X-38.5936 Y28.2552 
G01 X-38.4336 Y28.1890 
G01 X-38.2897 Y28.0928 
G01 X-38.1672 Y27.9703 
G01 X-38.0710 Y27.8264 
G01 X-38.0048 Y27.6664 
G01 X-37.9710 Y27.4966 
G01 X-37.9710 Y27.3234 
G01 X-38.0048 Y27.1536 
G01 X-38.0710 Y26.9936 
G01 X-38.1672 Y26.8497 
G01 X-38.2897 Y26.7272 
G01 X-38.4336 Y26.6310 
G01 X-38.5936 Y26.5648 
G01 X-38.7634 Y26.5310 
G01 X-40.1446 Y26.5310 
G01 X-40.3144 Y26.5648 
G01 X-40.4744 Y26.6310 
G01 X-40.6183 Y26.7272 
G01 X-40.6417 Y26.7506 
G01 X-43.2230 Y26.7506 
G01 X-43.2230 Y26.4943 
G01 X-43.2417 Y26.4244 
G01 X-43.2779 Y26.3616 
G01 X-43.3291 Y26.3104 
G01 X-43.3919 Y26.2742 
G01 X-43.4618 Y26.2555 
G01 X-45.1342 Y26.2555 
G01 X-45.2041 Y26.2742 
G01 X-45.2669 Y26.3104 
G01 X-45.3181 Y26.3616 
G01 X-45.3543 Y26.4244 
G01 X-45.3730 Y26.4943 
G01 X-45.3730 Y28.3697 
G01 X-45.3543 Y28.4396 
G01 X-45.3181 Y28.5024 
G01 X-45.2669 Y28.5536 
G01 X-45.2041 Y28.5898 
G01 X-45.1342 Y28.6085 
G01 X-43.4618 Y28.6085 
G01 X-43.3919 Y28.5898 
G01 X-43.3291 Y28.5536 
G01 X-43.2779 Y28.5024 
G01 X-43.2417 Y28.4396 
G01 X-43.2230 Y28.3697 
G01 X-43.2230 Y28.1134 
G01 X-40.5874 Y28.1134 
G01 X-40.4744 Y28.1890 
G01 X-40.3144 Y28.2552 
G01 X-40.1446 Y28.2890 
G00 Z2.0000 
G00 X-40.1446 Y26.2890 
G01 Z-0.1500 F100.00 
G01 X-38.7634 Y26.2890 F208.00 
G01 X-38.5936 Y26.2552 
G01 X-38.4336 Y26.1890 
G01 X-38.2897 Y26.0928 
G01 X-38.1672 Y25.9703 
G01 X-38.0710 Y25.8264 
G01 X-38.0048 Y25.6664 
G01 X-37.9710 Y25.4966 
G01 X-37.9710 Y25.3234 
G01 X-38.0048 Y25.1536 
G01 X-38.0710 Y24.9936 
G01 X-38.1672 Y24.8497 
G01 X-38.2897 Y24.7272 
G01 X-38.4336 Y24.6310 
G01 X-38.5936 Y24.5648 
G01 X-38.7634 Y24.5310 
G01 X-40.1446 Y24.5310 
G01 X-40.3144 Y24.5648 
G01 X-40.4744 Y24.6310 
G01 X-40.6183 Y24.7272 
G01 X-40.7408 Y24.8497 
G01 X-40.8370 Y24.9936 
G01 X-40.9032 Y25.1536 
G01 X-40.9370 Y25.3234 
G01 X-40.9370 Y25.4966 
G01 X-40.9032 Y25.6664 
G01 X-40.8370 Y25.8264 
G01 X-40.7408 Y25.9703 
G01 X-40.6183 Y26.0928 
G01 X-40.4744 Y26.1890 
G01 X-40.3144 Y26.2552 
G01 X-40.1446 Y26.2890 
G00 Z2.0000 
G00 X-25.2369 Y34.3094 
G01 Z-0.1500 F100.00 
G01 X-25.1356 Y34.3514 F208.00 
G01 X-24.9464 Y34.3890 
G01 X-24.1374 Y34.3890 
G01 X-24.2059 Y34.4026 
G01 X-24.2744 Y34.4310 
G01 X-24.9464 Y34.4310 
G01 X-25.1356 Y34.4686 
G01 X-25.3137 Y34.5424 
G01 X-25.4741 Y34.6496 
G01 X-25.6104 Y34.7859 
G01 X-25.6346 Y34.8221 
G01 X-25.6346 Y34.3094 
G01 X-25.2369 Y34.3094 
G00 Z2.0000 
G00 X-40.1544 Y26.3890 
G01 Z-0.1500 F100.00 
G01 X-38.7536 Y26.3890 F208.00 
G01 X-38.5644 Y26.3514 
G01 X-38.3863 Y26.2776 
G01 X-38.2259 Y26.1704 
G01 X-38.0896 Y26.0341 
G01 X-37.9824 Y25.8737 
G01 X-37.9086 Y25.6956 
G01 X-37.8710 Y25.5064 
G01 X-37.8710 Y25.3136 
G01 X-37.9086 Y25.1244 
G01 X-37.9824 Y24.9463 
G01 X-38.0896 Y24.7859 
G01 X-38.2259 Y24.6496 
G01 X-38.3863 Y24.5424 
G01 X-38.5644 Y24.4686 
G01 X-38.7536 Y24.4310 
G01 X-40.1544 Y24.4310 
G01 X-40.3436 Y24.4686 
G01 X-40.5217 Y24.5424 
G01 X-40.6821 Y24.6496 
G01 X-40.8184 Y24.7859 
G01 X-40.9256 Y24.9463 
G01 X-40.9994 Y25.1244 
G01 X-41.0370 Y25.3136 
G01 X-41.0370 Y25.5064 
G01 X-40.9994 Y25.6956 
G01 X-40.9256 Y25.8737 
G01 X-40.8184 Y26.0341 
G01 X-40.6821 Y26.1704 
G01 X-40.5217 Y26.2776 
G01 X-40.3436 Y26.3514 
G01 X-40.1544 Y26.3890 
G00 Z2.0000 
G00 X-40.1544 Y28.3890 
G01 Z-0.1500 F100.00 
G01 X-38.7536 Y28.3890 F208.00 
G01 X-38.5644 Y28.3514 
G01 X-38.3863 Y28.2776 
G01 X-38.2259 Y28.1704 
G01 X-38.0896 Y28.0341 
G01 X-37.9824 Y27.8737 
G01 X-37.9086 Y27.6956 
G01 X-37.8710 Y27.5064 
G01 X-37.8710 Y27.3136 
G01 X-37.9086 Y27.1244 
G01 X-37.9824 Y26.9463 
G01 X-38.0896 Y26.7859 
G01 X-38.2259 Y26.6496 
G01 X-38.3863 Y26.5424 
G01 X-38.5644 Y26.4686 
G01 X-38.7536 Y26.4310 
G01 X-40.1544 Y26.4310 
G01 X-40.3436 Y26.4686 
G01 X-40.5217 Y26.5424 
G01 X-40.6821 Y26.6496 
G01 X-43.1230 Y26.6506 
G01 X-43.1230 Y26.4811 
G01 X-43.1486 Y26.3858 
G01 X-43.1979 Y26.3002 
G01 X-43.2677 Y26.2304 
G01 X-43.3533 Y26.1811 
G01 X-43.4486 Y26.1555 
G01 X-45.1474 Y26.1555 
G01 X-45.2427 Y26.1811 
G01 X-45.3283 Y26.2304 
G01 X-45.3981 Y26.3002 
G01 X-45.4474 Y26.3858 
G01 X-45.4730 Y26.4811 
G01 X-45.4730 Y28.3829 
G01 X-45.4474 Y28.4782 
G01 X-45.3981 Y28.5638 
G01 X-45.3283 Y28.6336 
G01 X-45.2427 Y28.6829 
G01 X-45.1474 Y28.7085 
G01 X-43.4486 Y28.7085 
G01 X-43.3533 Y28.6829 
G01 X-43.2677 Y28.6336 
G01 X-43.1979 Y28.5638 
G01 X-43.1486 Y28.4782 
G01 X-43.1230 Y28.3829 
G01 X-43.1230 Y28.2134 
G01 X-40.6178 Y28.2134 
G01 X-40.5217 Y28.2776 
G01 X-40.3436 Y28.3514 
G01 X-40.1544 Y28.3890 
G00 Z2.0000 
G00 X-40.1544 Y30.3890 
G01 Z-0.1500 F100.00 
G01 X-38.7536 Y30.3890 F208.00 
G01 X-38.5644 Y30.3514 
G01 X-38.3863 Y30.2776 
G01 X-38.2259 Y30.1704 
G01 X-38.0896 Y30.0341 
G01 X-37.9824 Y29.8737 
G01 X-37.9086 Y29.6956 
G01 X-37.8710 Y29.5064 
G01 X-37.8710 Y29.3136 
G01 X-37.9086 Y29.1244 
G01 X-37.9824 Y28.9463 
G01 X-38.0896 Y28.7859 
G01 X-38.2259 Y28.6496 
G01 X-38.3863 Y28.5424 
G01 X-38.5644 Y28.4686 
G01 X-38.7536 Y28.4310 
G01 X-40.1544 Y28.4310 
G01 X-40.3436 Y28.4686 
G01 X-40.5217 Y28.5424 
G01 X-40.6821 Y28.6496 
G01 X-40.8184 Y28.7859 
G01 X-40.9256 Y28.9463 
G01 X-40.9994 Y29.1244 
G01 X-41.0370 Y29.3136 
G01 X-41.0370 Y29.5064 
G01 X-40.9994 Y29.6956 
G01 X-40.9256 Y29.8737 
G01 X-40.8184 Y30.0341 
G01 X-40.6821 Y30.1704 
G01 X-40.5217 Y30.2776 
G01 X-40.3436 Y30.3514 
G01 X-40.1544 Y30.3890 
G00 Z2.0000 
G00 X-40.1544 Y34.3890 
G01 Z-0.1500 F100.00 
G01 X-38.7536 Y34.3890 F208.00 
G01 X-38.5644 Y34.3514 
G01 X-38.3863 Y34.2776 
G01 X-38.2259 Y34.1704 
G01 X-38.0896 Y34.0341 
G01 X-37.9824 Y33.8737 
G01 X-37.9086 Y33.6956 
G01 X-37.8710 Y33.5064 
G01 X-37.8710 Y33.3381 
G01 X-33.8522 Y37.3569 
G01 X-33.8522 Y53.0722 
G01 X-33.8873 Y53.1073 
G01 X-33.9924 Y53.2521 
G01 X-34.0737 Y53.4115 
G01 X-34.1290 Y53.5817 
G01 X-34.1570 Y53.7585 
G01 X-34.1570 Y55.4615 
G01 X-34.1290 Y55.6382 
G01 X-34.0737 Y55.8085 
G01 X-33.9924 Y55.9679 
G01 X-33.8873 Y56.1127 
G01 X-33.7607 Y56.2393 
G01 X-33.6159 Y56.3444 
G01 X-33.4565 Y56.4257 
G01 X-33.2862 Y56.4810 
G01 X-33.1095 Y56.5090 
G01 X-32.9305 Y56.5090 
G01 X-32.7538 Y56.4810 
G01 X-32.5835 Y56.4257 
G01 X-32.4241 Y56.3444 
G01 X-32.2793 Y56.2393 
G01 X-32.1527 Y56.1127 
G01 X-32.0476 Y55.9679 
G01 X-31.9663 Y55.8085 
G01 X-31.9110 Y55.6382 
G01 X-31.8830 Y55.4615 
G01 X-31.8830 Y53.7585 
G01 X-31.9110 Y53.5817 
G01 X-31.9663 Y53.4115 
G01 X-32.0476 Y53.2521 
G01 X-32.1527 Y53.1073 
G01 X-32.2793 Y52.9807 
G01 X-32.2894 Y52.9734 
G01 X-32.2894 Y36.9562 
G01 X-32.3194 Y36.8053 
G01 X-32.3783 Y36.6631 
G01 X-32.4638 Y36.5351 
G01 X-32.5727 Y36.4262 
G01 X-37.9328 Y31.0662 
G01 X-37.9824 Y30.9463 
G01 X-38.0896 Y30.7859 
G01 X-38.2259 Y30.6496 
G01 X-38.3863 Y30.5424 
G01 X-38.5644 Y30.4686 
G01 X-38.7536 Y30.4310 
G01 X-40.1544 Y30.4310 
G01 X-40.3436 Y30.4686 
G01 X-40.5217 Y30.5424 
G01 X-40.6821 Y30.6496 
G01 X-40.8184 Y30.7859 
G01 X-40.9256 Y30.9463 
G01 X-40.9994 Y31.1244 
G01 X-41.0370 Y31.3136 
G01 X-41.0370 Y31.5064 
G01 X-40.9994 Y31.6956 
G01 X-40.9256 Y31.8737 
G01 X-40.8184 Y32.0341 
G01 X-40.6821 Y32.1704 
G01 X-40.5217 Y32.2776 
G01 X-40.3436 Y32.3514 
G01 X-40.1544 Y32.3890 
G01 X-38.8201 Y32.3890 
G01 X-38.7781 Y32.4310 
G01 X-40.1544 Y32.4310 
G01 X-40.3436 Y32.4686 
G01 X-40.5217 Y32.5424 
G01 X-40.6821 Y32.6496 
G01 X-40.8184 Y32.7859 
G01 X-40.9256 Y32.9463 
G01 X-40.9994 Y33.1244 
G01 X-41.0370 Y33.3136 
G01 X-41.0370 Y33.5064 
G01 X-40.9994 Y33.6956 
G01 X-40.9256 Y33.8737 
G01 X-40.8184 Y34.0341 
G01 X-40.6821 Y34.1704 
G01 X-40.5217 Y34.2776 
G01 X-40.3436 Y34.3514 
G01 X-40.1544 Y34.3890 
G00 Z2.0000 
G00 X-23.5456 Y24.4310 
G01 Z-0.1500 F100.00 
G01 X-24.9464 Y24.4310 F208.00 
G01 X-25.1356 Y24.4686 
G01 X-25.3137 Y24.5424 
G01 X-25.4741 Y24.6496 
G01 X-25.6104 Y24.7859 
G01 X-25.7176 Y24.9463 
G01 X-25.7914 Y25.1244 
G01 X-25.8290 Y25.3136 
G01 X-25.8290 Y25.5064 
G01 X-25.7914 Y25.6956 
G01 X-25.7176 Y25.8737 
G01 X-25.6104 Y26.0341 
G01 X-25.4741 Y26.1704 
G01 X-25.3137 Y26.2776 
G01 X-25.1356 Y26.3514 
G01 X-24.9464 Y26.3890 
G01 X-23.5456 Y26.3890 
G01 X-23.3564 Y26.3514 
G01 X-23.1783 Y26.2776 
G01 X-23.1104 Y26.2322 
G01 X-18.9836 Y26.2322 
G01 X-18.0477 Y27.1681 
G01 X-17.9389 Y27.2770 
G01 X-17.8109 Y27.3625 
G01 X-17.6687 Y27.4214 
G01 X-17.5177 Y27.4514 
G01 X-14.2886 Y27.4514 
G01 X-14.2027 Y27.5373 
G01 X-14.0579 Y27.6424 
G01 X-13.8985 Y27.7237 
G01 X-13.7282 Y27.7790 
G01 X-13.5515 Y27.8070 
G01 X-11.8485 Y27.8070 
G01 X-11.6718 Y27.7790 
G01 X-11.5015 Y27.7237 
G01 X-11.3421 Y27.6424 
G01 X-11.1973 Y27.5373 
G01 X-11.0707 Y27.4107 
G01 X-10.9656 Y27.2659 
G01 X-10.8843 Y27.1065 
G01 X-10.8290 Y26.9362 
G01 X-10.8010 Y26.7595 
G01 X-10.8010 Y26.5805 
G01 X-10.8290 Y26.4038 
G01 X-10.8843 Y26.2335 
G01 X-10.9656 Y26.0741 
G01 X-11.0707 Y25.9293 
G01 X-11.1973 Y25.8027 
G01 X-11.3421 Y25.6975 
G01 X-11.5015 Y25.6163 
G01 X-11.6718 Y25.5610 
G01 X-11.8485 Y25.5330 
G01 X-13.5515 Y25.5330 
G01 X-13.7282 Y25.5610 
G01 X-13.8985 Y25.6163 
G01 X-14.0579 Y25.6975 
G01 X-14.2027 Y25.8027 
G01 X-14.2886 Y25.8886 
G01 X-17.1171 Y25.8886 
G01 X-18.1619 Y24.8438 
G01 X-18.2898 Y24.7583 
G01 X-18.4320 Y24.6994 
G01 X-18.5830 Y24.6694 
G01 X-22.9981 Y24.6694 
G01 X-23.0179 Y24.6496 
G01 X-23.1783 Y24.5424 
G01 X-23.3564 Y24.4686 
G01 X-23.5456 Y24.4310 
G00 Z2.0000 
G00 X-23.5456 Y26.4310 
G01 Z-0.1500 F100.00 
G01 X-24.9464 Y26.4310 F208.00 
G01 X-25.1356 Y26.4686 
G01 X-25.3137 Y26.5424 
G01 X-25.4741 Y26.6496 
G01 X-29.0330 Y26.6506 
G01 X-29.1839 Y26.6806 
G01 X-29.3261 Y26.7395 
G01 X-29.4541 Y26.8250 
G01 X-29.5630 Y26.9339 
G01 X-29.6485 Y27.0619 
G01 X-29.7074 Y27.2041 
G01 X-29.7374 Y27.3550 
G01 X-29.7374 Y27.5090 
G01 X-29.7074 Y27.6599 
G01 X-29.6485 Y27.8021 
G01 X-29.5630 Y27.9301 
G01 X-29.4541 Y28.0389 
G01 X-29.3261 Y28.1245 
G01 X-29.1839 Y28.1834 
G01 X-29.0330 Y28.2134 
G01 X-25.4098 Y28.2134 
G01 X-25.3137 Y28.2776 
G01 X-25.1356 Y28.3514 
G01 X-24.9464 Y28.3890 
G01 X-23.5456 Y28.3890 
G01 X-23.3564 Y28.3514 
G01 X-23.1783 Y28.2776 
G01 X-23.0179 Y28.1704 
G01 X-22.8816 Y28.0341 
G01 X-22.7744 Y27.8737 
G01 X-22.7006 Y27.6956 
G01 X-22.6630 Y27.5064 
G01 X-22.6630 Y27.3136 
G01 X-22.7006 Y27.1244 
G01 X-22.7744 Y26.9463 
G01 X-22.8816 Y26.7859 
G01 X-23.0179 Y26.6496 
G01 X-23.1783 Y26.5424 
G01 X-23.3564 Y26.4686 
G01 X-23.5456 Y26.4310 
G00 Z2.0000 
G00 X-23.5456 Y28.4310 
G01 Z-0.1500 F100.00 
G01 X-24.0410 Y28.4310 F208.00 
G01 X-24.0530 Y28.4286 
G01 X-30.5570 Y28.4286 
G01 X-30.7079 Y28.4586 
G01 X-30.8501 Y28.5175 
G01 X-30.9781 Y28.6030 
G01 X-31.0870 Y28.7119 
G01 X-31.1725 Y28.8399 
G01 X-31.2314 Y28.9821 
G01 X-31.2614 Y29.1330 
G01 X-31.2614 Y53.0214 
G01 X-31.3473 Y53.1073 
G01 X-31.4524 Y53.2521 
G01 X-31.5337 Y53.4115 
G01 X-31.5890 Y53.5817 
G01 X-31.6170 Y53.7585 
G01 X-31.6170 Y55.4615 
G01 X-31.5890 Y55.6382 
G01 X-31.5337 Y55.8085 
G01 X-31.4524 Y55.9679 
G01 X-31.3473 Y56.1127 
G01 X-31.2207 Y56.2393 
G01 X-31.0759 Y56.3444 
G01 X-30.9165 Y56.4257 
G01 X-30.7462 Y56.4810 
G01 X-30.5695 Y56.5090 
G01 X-30.3905 Y56.5090 
G01 X-30.2138 Y56.4810 
G01 X-30.0435 Y56.4257 
G01 X-29.8841 Y56.3444 
G01 X-29.7393 Y56.2393 
G01 X-29.6127 Y56.1127 
G01 X-29.5076 Y55.9679 
G01 X-29.4263 Y55.8085 
G01 X-29.3710 Y55.6382 
G01 X-29.3430 Y55.4615 
G01 X-29.3430 Y53.7585 
G01 X-29.3710 Y53.5817 
G01 X-29.4263 Y53.4115 
G01 X-29.5076 Y53.2521 
G01 X-29.6127 Y53.1073 
G01 X-29.6986 Y53.0214 
G01 X-29.6986 Y29.9914 
G01 X-25.6390 Y29.9914 
G01 X-25.6104 Y30.0341 
G01 X-25.4741 Y30.1704 
G01 X-25.3137 Y30.2776 
G01 X-25.1356 Y30.3514 
G01 X-24.9464 Y30.3890 
G01 X-23.5456 Y30.3890 
G01 X-23.3564 Y30.3514 
G01 X-23.1783 Y30.2776 
G01 X-23.0179 Y30.1704 
G01 X-22.8816 Y30.0341 
G01 X-22.7744 Y29.8737 
G01 X-22.7006 Y29.6956 
G01 X-22.6630 Y29.5064 
G01 X-22.6630 Y29.3136 
G01 X-22.7006 Y29.1244 
G01 X-22.7744 Y28.9463 
G01 X-22.8816 Y28.7859 
G01 X-23.0179 Y28.6496 
G01 X-23.1783 Y28.5424 
G01 X-23.3564 Y28.4686 
G01 X-23.5456 Y28.4310 
G00 Z2.0000 
G00 X-10.4842 Y39.8253 
G01 Z-0.1500 F100.00 
G01 X-10.4842 Y40.0323 F208.00 
G01 X-10.4518 Y40.2367 
G01 X-10.3879 Y40.4335 
G01 X-10.2939 Y40.6179 
G01 X-10.1723 Y40.7853 
G01 X-10.0259 Y40.9317 
G01 X-9.8585 Y41.0533 
G01 X-9.6741 Y41.1473 
G01 X-9.4773 Y41.2112 
G01 X-9.2729 Y41.2436 
G01 X-9.0659 Y41.2436 
G01 X-8.8615 Y41.2112 
G01 X-8.6647 Y41.1473 
G01 X-8.4803 Y41.0533 
G01 X-8.3129 Y40.9317 
G01 X-8.1665 Y40.7853 
G01 X-8.0449 Y40.6179 
G01 X-7.9509 Y40.4335 
G01 X-7.8870 Y40.2367 
G01 X-7.8546 Y40.0323 
G01 X-7.8546 Y39.8253 
G01 X-7.8870 Y39.6209 
G01 X-7.9509 Y39.4241 
G01 X-8.0449 Y39.2397 
G01 X-8.1665 Y39.0723 
G01 X-8.3129 Y38.9259 
G01 X-8.4803 Y38.8043 
G01 X-8.6647 Y38.7103 
G01 X-8.8615 Y38.6464 
G01 X-9.0659 Y38.6140 
G01 X-9.2729 Y38.6140 
G01 X-9.4773 Y38.6464 
G01 X-9.6741 Y38.7103 
G01 X-9.8585 Y38.8043 
G01 X-10.0259 Y38.9259 
G01 X-10.1723 Y39.0723 
G01 X-10.2939 Y39.2397 
G01 X-10.3879 Y39.4241 
G01 X-10.4518 Y39.6209 
G01 X-10.4842 Y39.8253 
G00 Z2.0000 
G00 X-15.0054 Y39.8253 
G01 Z-0.1500 F100.00 
G01 X-15.0054 Y40.0323 F208.00 
G01 X-14.9730 Y40.2367 
G01 X-14.9091 Y40.4335 
G01 X-14.8151 Y40.6179 
G01 X-14.6935 Y40.7853 
G01 X-14.5471 Y40.9317 
G01 X-14.3797 Y41.0533 
G01 X-14.1953 Y41.1473 
G01 X-13.9985 Y41.2112 
G01 X-13.7941 Y41.2436 
G01 X-13.5871 Y41.2436 
G01 X-13.3827 Y41.2112 
G01 X-13.1859 Y41.1473 
G01 X-13.0015 Y41.0533 
G01 X-12.8341 Y40.9317 
G01 X-12.6877 Y40.7853 
G01 X-12.5661 Y40.6179 
G01 X-12.4721 Y40.4335 
G01 X-12.4082 Y40.2367 
G01 X-12.3758 Y40.0323 
G01 X-12.3758 Y39.8253 
G01 X-12.4082 Y39.6209 
G01 X-12.4721 Y39.4241 
G01 X-12.5661 Y39.2397 
G01 X-12.6877 Y39.0723 
G01 X-12.8341 Y38.9259 
G01 X-13.0015 Y38.8043 
G01 X-13.1859 Y38.7103 
G01 X-13.3827 Y38.6464 
G01 X-13.5871 Y38.6140 
G01 X-13.7941 Y38.6140 
G01 X-13.9985 Y38.6464 
G01 X-14.1953 Y38.7103 
G01 X-14.3797 Y38.8043 
G01 X-14.5471 Y38.9259 
G01 X-14.6935 Y39.0723 
G01 X-14.8151 Y39.2397 
G01 X-14.9091 Y39.4241 
G01 X-14.9730 Y39.6209 
G01 X-15.0054 Y39.8253 
G00 Z2.0000 
G00 X-16.2246 Y30.4498 
G01 Z-0.1500 F100.00 
G01 X-16.2739 Y30.3642 F208.00 
G01 X-16.3437 Y30.2944 
G01 X-16.4293 Y30.2451 
G01 X-16.5246 Y30.2195 
G01 X-18.2234 Y30.2195 
G01 X-18.3187 Y30.2451 
G01 X-18.4043 Y30.2944 
G01 X-18.4741 Y30.3642 
G01 X-18.5234 Y30.4498 
G01 X-18.5490 Y30.5451 
G01 X-18.5490 Y32.4469 
G01 X-18.5234 Y32.5422 
G01 X-18.4741 Y32.6278 
G01 X-18.4043 Y32.6976 
G01 X-18.3187 Y32.7469 
G01 X-18.2234 Y32.7725 
G01 X-17.2914 Y32.7725 
G01 X-17.2914 Y45.2890 
G01 X-17.2614 Y45.4399 
G01 X-17.2025 Y45.5821 
G01 X-17.1169 Y45.7101 
G01 X-16.5001 Y46.3270 
G01 X-15.7889 Y47.0382 
G01 X-15.6609 Y47.1237 
G01 X-15.5187 Y47.1826 
G01 X-15.3678 Y47.2126 
G01 X-14.7481 Y47.2126 
G01 X-14.6935 Y47.2877 
G01 X-14.5471 Y47.4341 
G01 X-14.3797 Y47.5557 
G01 X-14.1953 Y47.6497 
G01 X-13.9985 Y47.7136 
G01 X-13.7941 Y47.7460 
G01 X-13.5871 Y47.7460 
G01 X-13.3827 Y47.7136 
G01 X-13.1859 Y47.6497 
G01 X-13.0015 Y47.5557 
G01 X-12.8341 Y47.4341 
G01 X-12.6877 Y47.2877 
G01 X-12.5661 Y47.1203 
G01 X-12.4721 Y46.9359 
G01 X-12.4082 Y46.7391 
G01 X-12.3758 Y46.5347 
G01 X-12.3758 Y46.3277 
G01 X-12.4082 Y46.1233 
G01 X-12.4721 Y45.9265 
G01 X-12.5661 Y45.7421 
G01 X-12.6877 Y45.5747 
G01 X-12.8341 Y45.4283 
G01 X-13.0015 Y45.3067 
G01 X-13.1859 Y45.2127 
G01 X-13.3827 Y45.1488 
G01 X-13.5871 Y45.1164 
G01 X-13.7941 Y45.1164 
G01 X-13.9985 Y45.1488 
G01 X-14.1953 Y45.2127 
G01 X-14.3797 Y45.3067 
G01 X-14.5471 Y45.4283 
G01 X-14.6935 Y45.5747 
G01 X-14.7481 Y45.6498 
G01 X-14.9671 Y45.6498 
G01 X-15.3950 Y45.2219 
G01 X-15.7286 Y44.8883 
G01 X-15.7286 Y31.1650 
G01 X-15.7586 Y31.0141 
G01 X-15.8175 Y30.8719 
G01 X-15.9030 Y30.7439 
G01 X-16.0119 Y30.6350 
G01 X-16.1399 Y30.5495 
G01 X-16.2051 Y30.5225 
G01 X-16.2246 Y30.4498 
G00 Z2.0000 
G00 X-46.2210 Y24.3189 
G01 Z-0.1500 F100.00 
G01 X-46.2210 Y22.4171 F208.00 
G01 X-46.2466 Y22.3218 
G01 X-46.2959 Y22.2362 
G01 X-46.3657 Y22.1664 
G01 X-46.4513 Y22.1171 
G01 X-46.5466 Y22.0915 
G01 X-46.6146 Y22.0915 
G01 X-46.6146 Y21.3554 
G01 X-45.3890 Y21.3554 
G01 X-45.2381 Y21.3254 
G01 X-45.0959 Y21.2665 
G01 X-44.9679 Y21.1809 
G01 X-44.8590 Y21.0721 
G01 X-44.3510 Y20.5641 
G01 X-44.2655 Y20.4361 
G01 X-44.2066 Y20.2939 
G01 X-44.1766 Y20.1430 
G01 X-44.1766 Y18.4929 
G01 X-44.1279 Y18.4443 
G01 X-44.0786 Y18.3587 
G01 X-44.0530 Y18.2634 
G01 X-44.0530 Y17.1646 
G01 X-44.0786 Y17.0693 
G01 X-44.1279 Y16.9837 
G01 X-44.1977 Y16.9139 
G01 X-44.2833 Y16.8646 
G01 X-44.3786 Y16.8390 
G01 X-45.8774 Y16.8390 
G01 X-45.9727 Y16.8646 
G01 X-46.0583 Y16.9139 
G01 X-46.1281 Y16.9837 
G01 X-46.1774 Y17.0693 
G01 X-46.2030 Y17.1646 
G01 X-46.2030 Y18.2634 
G01 X-46.1774 Y18.3587 
G01 X-46.1281 Y18.4443 
G01 X-46.0583 Y18.5141 
G01 X-45.9727 Y18.5634 
G01 X-45.8774 Y18.5890 
G01 X-45.7394 Y18.5890 
G01 X-45.7394 Y19.7423 
G01 X-45.7897 Y19.7926 
G01 X-47.4730 Y19.7926 
G01 X-47.6239 Y19.8226 
G01 X-47.7661 Y19.8815 
G01 X-47.8941 Y19.9670 
G01 X-48.0030 Y20.0759 
G01 X-48.0885 Y20.2039 
G01 X-48.1474 Y20.3461 
G01 X-48.1774 Y20.4970 
G01 X-48.1774 Y22.0915 
G01 X-48.2454 Y22.0915 
G01 X-48.3407 Y22.1171 
G01 X-48.4263 Y22.1664 
G01 X-48.4961 Y22.2362 
G01 X-48.5454 Y22.3218 
G01 X-48.5710 Y22.4171 
G01 X-48.5710 Y24.3189 
G01 X-48.5454 Y24.4142 
G01 X-48.4961 Y24.4998 
G01 X-48.4263 Y24.5696 
G01 X-48.3407 Y24.6189 
G01 X-48.2454 Y24.6445 
G01 X-48.0254 Y24.6445 
G01 X-48.0254 Y26.1646 
G01 X-48.0867 Y26.1811 
G01 X-48.1723 Y26.2304 
G01 X-48.2421 Y26.3002 
G01 X-48.2914 Y26.3858 
G01 X-48.3170 Y26.4811 
G01 X-48.3170 Y28.3829 
G01 X-48.2914 Y28.4782 
G01 X-48.2421 Y28.5638 
G01 X-48.1723 Y28.6336 
G01 X-48.0867 Y28.6829 
G01 X-47.9914 Y28.7085 
G01 X-47.7714 Y28.7085 
G01 X-47.7714 Y36.9091 
G01 X-48.0254 Y37.1631 
G01 X-48.0254 Y38.0209 
G01 X-47.4189 Y38.6274 
G01 X-46.5611 Y38.6274 
G01 X-46.3071 Y38.3734 
G01 X-41.1420 Y38.3734 
G01 X-41.1420 Y38.5969 
G01 X-41.2470 Y38.7019 
G01 X-41.3325 Y38.8299 
G01 X-41.3914 Y38.9721 
G01 X-41.4214 Y39.1230 
G01 X-41.4214 Y53.0214 
G01 X-41.5073 Y53.1073 
G01 X-41.6124 Y53.2521 
G01 X-41.6937 Y53.4115 
G01 X-41.7490 Y53.5817 
G01 X-41.7770 Y53.7585 
G01 X-41.7770 Y55.4615 
G01 X-41.7490 Y55.6382 
G01 X-41.6937 Y55.8085 
G01 X-41.6124 Y55.9679 
G01 X-41.5073 Y56.1127 
G01 X-41.3807 Y56.2393 
G01 X-41.2359 Y56.3444 
G01 X-41.0765 Y56.4257 
G01 X-40.9062 Y56.4810 
G01 X-40.7295 Y56.5090 
G01 X-40.5505 Y56.5090 
G01 X-40.3738 Y56.4810 
G01 X-40.2035 Y56.4257 
G01 X-40.0441 Y56.3444 
G01 X-39.8993 Y56.2393 
G01 X-39.7727 Y56.1127 
G01 X-39.6675 Y55.9679 
G01 X-39.5863 Y55.8085 
G01 X-39.5310 Y55.6382 
G01 X-39.5030 Y55.4615 
G01 X-39.5030 Y53.7585 
G01 X-39.5310 Y53.5817 
G01 X-39.5863 Y53.4115 
G01 X-39.6675 Y53.2521 
G01 X-39.7727 Y53.1073 
G01 X-39.8586 Y53.0214 
G01 X-39.8586 Y39.5237 
G01 X-38.7166 Y38.3816 
G01 X-38.5644 Y38.3514 
