(.../Documents/EAGLE/ulps/pcb-gcode.ulp)
(Copyright 2005 - 2012 by John Johnson)
(See readme.txt for licensing terms.)
(This file generated from the board:)
(.../Teensy_Stromzaehler Orig/Teensy_Stromzaehler.brd)
(Current profile is .../EAGLE/ulps/profiles/generic.pp  )
(This file generated 28.11.20 14:37)
(Settings from pcb-machine.h)
(  Tool Size)
(0.1500 )
(Z Axis Settings)
(  High     Up        Down     Drill)
(20.4000 	2.0000 	-0.1500 	-1.9000 )
(spindle on time = 3.0000)
(milling depth = -1.3000)
(text depth = -0.1000)
(tool change at 0.0000 0.0000 20.4000 )
(feed rate xy = F208.00 )
(feed rate z  = F100.00 )
(Settings from pcb-defaults.h)
(isolate min = 0.1000)
(isolate max = 0.5000)
(isolate step = 0.1000)
(Generated bottom outlines, bottom drill, )
(Unit of measure: mm)
( Tool|       Size       |  Min Sub |  Max Sub |   Count )
( T01  1.000mm 0.0394in 0.0000in 0.0000in )
( T02  1.016mm 0.0400in 0.0000in 0.0000in )
(Metric Mode)
G21
(Absolute Coordinates)
G90
M05
G00 Z20.4000 
G00 X0.0000 Y0.0000 
M06 T01  ; 1.0000 
G00 Z2.0000 
M03
G04 P3.000000
G00 Z2.000000
G00 X-31.7500 Y8.8900 
G01 Z-1.9000 F100.00 
G01 Z2.000000
(R2.0000  P2.000000)
(G00 Z2.000000)
G00 X-34.2900 Y8.8900 
G01 Z-1.900000
G01 Z2.000000
(G00 Z2.000000)
G00 X-36.8300 Y8.8900 
G01 Z-1.900000
G01 Z2.000000
(G00 Z2.000000)
G00 X-29.2100 Y8.8900 
G01 Z-1.900000
G01 Z2.000000
M05
G00 Z20.4000 
M06 T02  ; 1.0160 
G00 Z2.0000 
M03
G04 P3.000000
G00 Z2.000000
G00 X-33.0200 Y39.3700 
G01 Z-1.9000 F100.00 
G01 Z2.000000
(R2.0000  P2.000000)
(G00 Z2.000000)
G00 X-33.0200 Y16.5100 
G01 Z-1.900000
G01 Z2.000000
(G00 Z2.000000)
G00 X-35.5600 Y39.3700 
G01 Z-1.900000
G01 Z2.000000
(G00 Z2.000000)
G00 X-35.5600 Y16.5100 
G01 Z-1.900000
G01 Z2.000000
(G00 Z2.000000)
G00 X-38.1000 Y39.3700 
G01 Z-1.900000
G01 Z2.000000
(G00 Z2.000000)
G00 X-38.1000 Y16.5100 
G01 Z-1.900000
G01 Z2.000000
(G00 Z2.000000)
G00 X-5.0800 Y39.3700 
G01 Z-1.900000
G01 Z2.000000
(G00 Z2.000000)
G00 X-5.0800 Y16.5100 
G01 Z-1.900000
G01 Z2.000000
(G00 Z2.000000)
G00 X-7.6200 Y39.3700 
G01 Z-1.900000
G01 Z2.000000
(G00 Z2.000000)
G00 X-7.6200 Y10.1600 
G01 Z-1.900000
G01 Z2.000000
(G00 Z2.000000)
G00 X-7.6200 Y16.5100 
G01 Z-1.900000
G01 Z2.000000
(G00 Z2.000000)
G00 X-10.1600 Y39.3700 
G01 Z-1.900000
G01 Z2.000000
(G00 Z2.000000)
G00 X-10.1600 Y10.1600 
G01 Z-1.900000
G01 Z2.000000
(G00 Z2.000000)
G00 X-10.1600 Y16.5100 
G01 Z-1.900000
G01 Z2.000000
(G00 Z2.000000)
G00 X-12.7000 Y39.3700 
G01 Z-1.900000
G01 Z2.000000
(G00 Z2.000000)
G00 X-12.7000 Y10.1600 
G01 Z-1.900000
G01 Z2.000000
(G00 Z2.000000)
G00 X-12.7000 Y16.5100 
G01 Z-1.900000
G01 Z2.000000
(G00 Z2.000000)
G00 X-15.2400 Y39.3700 
G01 Z-1.900000
G01 Z2.000000
(G00 Z2.000000)
G00 X-15.2400 Y10.1600 
G01 Z-1.900000
G01 Z2.000000
(G00 Z2.000000)
G00 X-15.2400 Y16.5100 
G01 Z-1.900000
G01 Z2.000000
(G00 Z2.000000)
G00 X-17.7800 Y39.3700 
G01 Z-1.900000
G01 Z2.000000
(G00 Z2.000000)
G00 X-17.7800 Y10.1600 
G01 Z-1.900000
G01 Z2.000000
(G00 Z2.000000)
G00 X-17.7800 Y16.5100 
G01 Z-1.900000
G01 Z2.000000
(G00 Z2.000000)
G00 X-20.3200 Y39.3700 
G01 Z-1.900000
G01 Z2.000000
(G00 Z2.000000)
G00 X-20.3200 Y10.1600 
G01 Z-1.900000
G01 Z2.000000
(G00 Z2.000000)
G00 X-20.3200 Y16.5100 
G01 Z-1.900000
G01 Z2.000000
(G00 Z2.000000)
G00 X-22.8600 Y39.3700 
G01 Z-1.900000
G01 Z2.000000
(G00 Z2.000000)
G00 X-22.8600 Y16.5100 
G01 Z-1.900000
G01 Z2.000000
(G00 Z2.000000)
G00 X-2.5400 Y39.3700 
G01 Z-1.900000
G01 Z2.000000
(G00 Z2.000000)
G00 X-2.5400 Y16.5100 
G01 Z-1.900000
G01 Z2.000000
(G00 Z2.000000)
G00 X-25.4000 Y39.3700 
G01 Z-1.900000
G01 Z2.000000
(G00 Z2.000000)
G00 X-25.4000 Y16.5100 
G01 Z-1.900000
G01 Z2.000000
(G00 Z2.000000)
G00 X-27.9400 Y39.3700 
G01 Z-1.900000
G01 Z2.000000
(G00 Z2.000000)
G00 X-27.9400 Y16.5100 
G01 Z-1.900000
G01 Z2.000000
(G00 Z2.000000)
G00 X-30.4800 Y39.3700 
G01 Z-1.900000
G01 Z2.000000
(G00 Z2.000000)
G00 X-30.4800 Y16.5100 
G01 Z-1.900000
G01 Z2.000000
T01 
G00 Z20.4000 
M05
M02
