(.../Documents/EAGLE/ulps/pcb-gcode.ulp)
(Copyright 2005 - 2012 by John Johnson)
(See readme.txt for licensing terms.)
(This file generated from the board:)
(.../Wemos_13a_MOIST/wemos_13a_moist.brd)
(Current profile is .../EAGLE/ulps/profiles/generic.pp  )
(This file generated 04.01.20 12:28)
(Settings from pcb-machine.h)
(  Tool Size)
(0.1500 )
(Z Axis Settings)
(  High     Up        Down     Drill)
(20.4000 	2.0000 	-0.1500 	-1.8000 )
(spindle on time = 3.0000)
(milling depth = -1.3000)
(text depth = -0.1000)
(tool change at 0.0000 0.0000 20.4000 )
(feed rate xy = F208.00 )
(feed rate z  = F100.00 )
(Settings from pcb-defaults.h)
(isolate min = 0.0100)
(isolate max = 0.5000)
(isolate step = 0.1000)
(Generated bottom outlines, bottom drill, )
(Unit of measure: mm)
( Tool|       Size       |  Min Sub |  Max Sub |   Count )
( T01  0.800mm 0.0315in 0.0000in 0.0000in )
( T02  0.813mm 0.0320in 0.0000in 0.0000in )
( T03  0.850mm 0.0335in 0.0000in 0.0000in )
( T04  1.000mm 0.0394in 0.0000in 0.0000in )
( T05  1.016mm 0.0400in 0.0000in 0.0000in )
( T06  1.200mm 0.0472in 0.0000in 0.0000in )
(Metric Mode)
G21
(Absolute Coordinates)
G90
M05
G00 Z20.4000 
G00 X0.0000 Y0.0000 
M06 T01  ; 0.8000 
G00 Z2.0000 
M03
G04 P3.000000
G00 Z2.000000
G00 X-38.1000 Y43.1800 
G01 Z-1.8000 F100.00 
G01 Z2.000000
(R2.0000  P2.000000)
(G00 Z2.000000)
G00 X-13.3350 Y8.8900 
G01 Z-1.800000
G01 Z2.000000
(G00 Z2.000000)
G00 X-16.5100 Y40.0050 
G01 Z-1.800000
G01 Z2.000000
(G00 Z2.000000)
G00 X-20.3200 Y45.7200 
G01 Z-1.800000
G01 Z2.000000
M05
G00 Z20.4000 
M06 T02  ; 0.8128 
G00 Z2.0000 
M03
G04 P3.000000
G00 Z2.000000
G00 X-5.0800 Y16.5100 
G01 Z-1.8000 F100.00 
G01 Z2.000000
(R2.0000  P2.000000)
(G00 Z2.000000)
G00 X-5.0800 Y19.0500 
G01 Z-1.800000
G01 Z2.000000
(G00 Z2.000000)
G00 X-5.0800 Y21.5900 
G01 Z-1.800000
G01 Z2.000000
(G00 Z2.000000)
G00 X-55.2450 Y32.3850 
G01 Z-1.800000
G01 Z2.000000
(G00 Z2.000000)
G00 X-55.2450 Y34.9250 
G01 Z-1.800000
G01 Z2.000000
(G00 Z2.000000)
G00 X-55.2450 Y37.4650 
G01 Z-1.800000
G01 Z2.000000
(G00 Z2.000000)
G00 X-55.2450 Y40.0050 
G01 Z-1.800000
G01 Z2.000000
(G00 Z2.000000)
G00 X-5.7150 Y34.2900 
G01 Z-1.800000
G01 Z2.000000
(G00 Z2.000000)
G00 X-5.7150 Y36.8300 
G01 Z-1.800000
G01 Z2.000000
(G00 Z2.000000)
G00 X-62.8650 Y32.3850 
G01 Z-1.800000
G01 Z2.000000
(G00 Z2.000000)
G00 X-62.8650 Y34.9250 
G01 Z-1.800000
G01 Z2.000000
(G00 Z2.000000)
G00 X-62.8650 Y37.4650 
G01 Z-1.800000
G01 Z2.000000
(G00 Z2.000000)
G00 X-62.8650 Y40.0050 
G01 Z-1.800000
G01 Z2.000000
(G00 Z2.000000)
G00 X-21.5900 Y48.2600 
G01 Z-1.800000
G01 Z2.000000
(G00 Z2.000000)
G00 X-29.2100 Y48.2600 
G01 Z-1.800000
G01 Z2.000000
M05
G00 Z20.4000 
M06 T03  ; 0.8500 
G00 Z2.0000 
M03
G04 P3.000000
G00 Z2.000000
G00 X-57.7850 Y48.2600 
G01 Z-1.8000 F100.00 
G01 Z2.000000
(R2.0000  P2.000000)
(G00 Z2.000000)
G00 X-75.5650 Y46.3550 
G01 Z-1.800000
G01 Z2.000000
(G00 Z2.000000)
G00 X-11.4300 Y26.0350 
G01 Z-1.800000
G01 Z2.000000
(G00 Z2.000000)
G00 X-22.2250 Y28.5750 
G01 Z-1.800000
G01 Z2.000000
M05
G00 Z20.4000 
M06 T04  ; 1.0000 
G00 Z2.0000 
M03
G04 P3.000000
G00 Z2.000000
G00 X-32.3850 Y31.7500 
G01 Z-1.8000 F100.00 
G01 Z2.000000
(R2.0000  P2.000000)
(G00 Z2.000000)
G00 X-32.3850 Y8.8900 
G01 Z-1.800000
G01 Z2.000000
(G00 Z2.000000)
G00 X-34.9250 Y31.7500 
G01 Z-1.800000
G01 Z2.000000
(G00 Z2.000000)
G00 X-34.9250 Y8.8900 
G01 Z-1.800000
G01 Z2.000000
(G00 Z2.000000)
G00 X-17.1450 Y31.7500 
G01 Z-1.800000
G01 Z2.000000
(G00 Z2.000000)
G00 X-17.1450 Y8.8900 
G01 Z-1.800000
G01 Z2.000000
(G00 Z2.000000)
G00 X-19.6850 Y31.7500 
G01 Z-1.800000
G01 Z2.000000
(G00 Z2.000000)
G00 X-19.6850 Y8.8900 
G01 Z-1.800000
G01 Z2.000000
(G00 Z2.000000)
G00 X-22.2250 Y31.7500 
G01 Z-1.800000
G01 Z2.000000
(G00 Z2.000000)
G00 X-22.2250 Y8.8900 
G01 Z-1.800000
G01 Z2.000000
(G00 Z2.000000)
G00 X-24.7650 Y31.7500 
G01 Z-1.800000
G01 Z2.000000
(G00 Z2.000000)
G00 X-24.7650 Y8.8900 
G01 Z-1.800000
G01 Z2.000000
(G00 Z2.000000)
G00 X-27.3050 Y31.7500 
G01 Z-1.800000
G01 Z2.000000
(G00 Z2.000000)
G00 X-27.3050 Y8.8900 
G01 Z-1.800000
G01 Z2.000000
(G00 Z2.000000)
G00 X-29.8450 Y31.7500 
G01 Z-1.800000
G01 Z2.000000
(G00 Z2.000000)
G00 X-29.8450 Y8.8900 
G01 Z-1.800000
G01 Z2.000000
M05
G00 Z20.4000 
M06 T05  ; 1.0160 
G00 Z2.0000 
M03
G04 P3.000000
G00 Z2.000000
G00 X-36.8300 Y45.7200 
G01 Z-1.8000 F100.00 
G01 Z2.000000
(R2.0000  P2.000000)
(G00 Z2.000000)
G00 X-36.8300 Y48.2600 
G01 Z-1.800000
G01 Z2.000000
(G00 Z2.000000)
G00 X-36.8300 Y50.8000 
G01 Z-1.800000
G01 Z2.000000
(G00 Z2.000000)
G00 X-54.6100 Y45.7200 
G01 Z-1.800000
G01 Z2.000000
(G00 Z2.000000)
G00 X-54.6100 Y48.2600 
G01 Z-1.800000
G01 Z2.000000
(G00 Z2.000000)
G00 X-54.6100 Y50.8000 
G01 Z-1.800000
G01 Z2.000000
(G00 Z2.000000)
G00 X-74.2950 Y7.6200 
G01 Z-1.800000
G01 Z2.000000
(G00 Z2.000000)
G00 X-76.8350 Y7.6200 
G01 Z-1.800000
G01 Z2.000000
(G00 Z2.000000)
G00 X-78.1050 Y43.1800 
G01 Z-1.800000
G01 Z2.000000
(G00 Z2.000000)
G00 X-80.6450 Y43.1800 
G01 Z-1.800000
G01 Z2.000000
(G00 Z2.000000)
G00 X-13.9700 Y39.3700 
G01 Z-1.800000
G01 Z2.000000
(G00 Z2.000000)
G00 X-13.9700 Y41.9100 
G01 Z-1.800000
G01 Z2.000000
(G00 Z2.000000)
G00 X-13.9700 Y44.4500 
G01 Z-1.800000
G01 Z2.000000
M05
G00 Z20.4000 
M06 T06  ; 1.2000 
G00 Z2.0000 
M03
G04 P3.000000
G00 Z2.000000
G00 X-68.5800 Y36.1950 
G01 Z-1.8000 F100.00 
G01 Z2.000000
(R2.0000  P2.000000)
(G00 Z2.000000)
G00 X-68.5800 Y13.3350 
G01 Z-1.800000
G01 Z2.000000
(G00 Z2.000000)
G00 X-71.7550 Y13.3350 
G01 Z-1.800000
G01 Z2.000000
(G00 Z2.000000)
G00 X-79.3750 Y13.3350 
G01 Z-1.800000
G01 Z2.000000
(G00 Z2.000000)
G00 X-82.5500 Y36.1950 
G01 Z-1.800000
G01 Z2.000000
(G00 Z2.000000)
G00 X-82.5500 Y13.3350 
G01 Z-1.800000
G01 Z2.000000
T01 
G00 Z20.4000 
M05
M02
