(.../Documents/EAGLE/ulps/pcb-gcode.ulp)
(Copyright 2005 - 2012 by John Johnson)
(See readme.txt for licensing terms.)
(This file generated from the board:)
(.../Wemos_13a_MOIST/wemos_13a_moist.brd)
(Current profile is .../EAGLE/ulps/profiles/generic.pp  )
(This file generated 04.01.20 12:27)
(Settings from pcb-machine.h)
(  Tool Size)
(0.1500 )
(Z Axis Settings)
(  High     Up        Down     Drill)
(20.4000 	2.0000 	-0.1500 	-1.8000 )
(spindle on time = 3.0000)
(milling depth = -1.3000)
(text depth = -0.1000)
(tool change at 0.0000 0.0000 20.4000 )
(feed rate xy = F208.00 )
(feed rate z  = F100.00 )
(Settings from pcb-defaults.h)
(isolate min = 0.0100)
(isolate max = 0.5000)
(isolate step = 0.1000)
(Generated bottom outlines, bottom drill, )
(Unit of measure: mm)
(Metric Mode)
G21
(Absolute Coordinates)
G90
G00 X0.0000 Y0.0000 
M03
G04 P3.000000
G00 Z2.0000 
G00 X-68.9619 Y49.2750 
G01 Z-0.1500 F100.00 
G01 X-68.6064 Y49.2750 F208.00 
G01 X-68.6064 Y50.5350 
G01 X-68.8319 Y50.5350 
G01 X-68.8631 Y50.5479 
G01 X-68.8871 Y50.5719 
G01 X-68.9000 Y50.6031 
G01 X-68.9000 Y51.6369 
G01 X-68.8871 Y51.6681 
G01 X-68.8631 Y51.6921 
G01 X-68.8319 Y51.7050 
G01 X-67.3981 Y51.7050 
G01 X-67.3668 Y51.6921 
G01 X-67.3429 Y51.6681 
G01 X-67.3300 Y51.6369 
G01 X-67.3300 Y50.6031 
G01 X-67.3429 Y50.5719 
G01 X-67.3668 Y50.5479 
G01 X-67.3981 Y50.5350 
G01 X-67.6236 Y50.5350 
G01 X-67.6236 Y49.2750 
G01 X-66.9281 Y49.2750 
G01 X-66.8969 Y49.2621 
G01 X-66.8729 Y49.2381 
G01 X-66.8600 Y49.2069 
G01 X-66.8600 Y47.5731 
G01 X-66.8729 Y47.5419 
G01 X-66.8969 Y47.5179 
G01 X-66.9281 Y47.5050 
G01 X-68.9619 Y47.5050 
G01 X-68.9931 Y47.5179 
G01 X-69.0171 Y47.5419 
G01 X-69.0300 Y47.5731 
G01 X-69.0300 Y49.2069 
G01 X-69.0171 Y49.2381 
G01 X-68.9931 Y49.2621 
G01 X-68.9619 Y49.2750 
G00 Z2.0000 
G00 X-68.9619 Y46.4750 
G01 Z-0.1500 F100.00 
G01 X-66.9281 Y46.4750 F208.00 
G01 X-66.8969 Y46.4621 
G01 X-66.8729 Y46.4381 
G01 X-66.8600 Y46.4069 
G01 X-66.8600 Y45.1999 
G01 X-65.7383 Y44.0782 
G01 X-65.6468 Y43.9867 
G01 X-65.5821 Y43.8747 
G01 X-65.5486 Y43.7497 
G01 X-65.5486 Y38.7949 
G01 X-64.6085 Y37.8548 
G01 X-63.6753 Y37.8548 
G01 X-63.6606 Y37.8903 
G01 X-63.5624 Y38.0373 
G01 X-63.4373 Y38.1624 
G01 X-63.2903 Y38.2606 
G01 X-63.1269 Y38.3283 
G01 X-62.9534 Y38.3628 
G01 X-62.7766 Y38.3628 
G01 X-62.6031 Y38.3283 
G01 X-62.4397 Y38.2606 
G01 X-62.2927 Y38.1624 
G01 X-62.1676 Y38.0373 
G01 X-62.0694 Y37.8903 
G01 X-62.0017 Y37.7269 
G01 X-61.9672 Y37.5534 
G01 X-61.9672 Y37.3766 
G01 X-62.0017 Y37.2031 
G01 X-62.0694 Y37.0397 
G01 X-62.1676 Y36.8927 
G01 X-62.2927 Y36.7676 
G01 X-62.4397 Y36.6694 
G01 X-62.6031 Y36.6017 
G01 X-62.7766 Y36.5672 
G01 X-62.9534 Y36.5672 
G01 X-63.1269 Y36.6017 
G01 X-63.2903 Y36.6694 
G01 X-63.4373 Y36.7676 
G01 X-63.5624 Y36.8927 
G01 X-63.6606 Y37.0397 
G01 X-63.6753 Y37.0752 
G01 X-64.8213 Y37.0752 
G01 X-64.9205 Y37.1018 
G01 X-65.0093 Y37.1531 
G01 X-66.0999 Y38.2436 
G01 X-66.1047 Y38.2436 
G01 X-66.2297 Y38.2771 
G01 X-66.3417 Y38.3418 
G01 X-66.4332 Y38.4333 
G01 X-66.4979 Y38.5453 
G01 X-66.5314 Y38.6703 
G01 X-66.5314 Y43.4815 
G01 X-67.7549 Y44.7050 
G01 X-68.9619 Y44.7050 
G01 X-68.9931 Y44.7179 
G01 X-69.0171 Y44.7418 
G01 X-69.0300 Y44.7731 
G01 X-69.0300 Y46.4069 
G01 X-69.0171 Y46.4381 
G01 X-68.9931 Y46.4621 
G01 X-68.9619 Y46.4750 
G00 Z2.0000 
G00 X-80.4950 Y46.0581 
G01 Z-0.1500 F100.00 
G01 X-80.4950 Y46.4364 F208.00 
G01 X-80.5014 Y46.4603 
G01 X-80.5014 Y46.5897 
G01 X-80.4950 Y46.6136 
G01 X-80.4950 Y46.9919 
G01 X-80.4821 Y47.0231 
G01 X-80.4581 Y47.0471 
G01 X-80.4269 Y47.0600 
G01 X-79.5931 Y47.0600 
G01 X-79.5619 Y47.0471 
G01 X-79.5379 Y47.0231 
G01 X-79.5250 Y46.9919 
G01 X-79.5250 Y46.8464 
G01 X-76.0954 Y46.8464 
G01 X-76.0256 Y46.9162 
G01 X-75.9072 Y46.9953 
G01 X-75.7757 Y47.0497 
G01 X-75.6362 Y47.0775 
G01 X-75.4938 Y47.0775 
G01 X-75.3543 Y47.0497 
G01 X-75.2228 Y46.9953 
G01 X-75.1044 Y46.9162 
G01 X-75.0038 Y46.8156 
G01 X-74.9247 Y46.6972 
G01 X-74.8703 Y46.5657 
G01 X-74.8425 Y46.4262 
G01 X-74.8425 Y46.2838 
G01 X-74.8703 Y46.1443 
G01 X-74.9247 Y46.0128 
G01 X-75.0038 Y45.8944 
G01 X-75.1044 Y45.7938 
G01 X-75.2228 Y45.7147 
G01 X-75.3543 Y45.6603 
G01 X-75.4938 Y45.6325 
G01 X-75.6362 Y45.6325 
G01 X-75.7757 Y45.6603 
G01 X-75.9072 Y45.7147 
G01 X-76.0256 Y45.7938 
G01 X-76.0954 Y45.8636 
G01 X-79.9047 Y45.8636 
G01 X-80.0297 Y45.8971 
G01 X-80.1417 Y45.9618 
G01 X-80.1699 Y45.9900 
G01 X-80.4269 Y45.9900 
G01 X-80.4581 Y46.0029 
G01 X-80.4821 Y46.0269 
G01 X-80.4950 Y46.0581 
G00 Z2.0000 
G00 X-79.5450 Y48.1581 
G01 Z-0.1500 F100.00 
G01 X-79.5450 Y49.0919 F208.00 
G01 X-79.5321 Y49.1231 
G01 X-79.5081 Y49.1471 
G01 X-79.4769 Y49.1600 
G01 X-78.6431 Y49.1600 
G01 X-78.6119 Y49.1471 
G01 X-78.5879 Y49.1231 
G01 X-78.5750 Y49.0919 
G01 X-78.5750 Y49.0148 
G01 X-74.7265 Y49.0148 
G01 X-74.0498 Y49.6915 
G01 X-74.0498 Y51.5786 
G01 X-76.4550 Y51.5786 
G01 X-76.4550 Y51.0531 
G01 X-76.4679 Y51.0219 
G01 X-76.4918 Y50.9979 
G01 X-76.5231 Y50.9850 
G01 X-78.1569 Y50.9850 
G01 X-78.1881 Y50.9979 
G01 X-78.2121 Y51.0219 
G01 X-78.2250 Y51.0531 
G01 X-78.2250 Y53.0869 
G01 X-78.2121 Y53.1181 
G01 X-78.1881 Y53.1421 
G01 X-78.1569 Y53.1550 
G01 X-76.5231 Y53.1550 
G01 X-76.4918 Y53.1421 
G01 X-76.4679 Y53.1181 
G01 X-76.4550 Y53.0869 
G01 X-76.4550 Y52.5614 
G01 X-72.3253 Y52.5614 
G01 X-72.2003 Y52.5279 
G01 X-72.0883 Y52.4632 
G01 X-72.0849 Y52.4598 
G01 X-71.1000 Y52.4598 
G01 X-71.1000 Y52.5869 
G01 X-71.0871 Y52.6181 
G01 X-71.0631 Y52.6421 
G01 X-71.0319 Y52.6550 
G01 X-69.5981 Y52.6550 
G01 X-69.5669 Y52.6421 
G01 X-69.5429 Y52.6181 
G01 X-69.5300 Y52.5869 
G01 X-69.5300 Y51.5531 
G01 X-69.5429 Y51.5219 
G01 X-69.5669 Y51.4979 
G01 X-69.5981 Y51.4850 
G01 X-71.0319 Y51.4850 
G01 X-71.0631 Y51.4979 
G01 X-71.0871 Y51.5219 
G01 X-71.1000 Y51.5531 
G01 X-71.1000 Y51.6802 
G01 X-72.0849 Y51.6802 
G01 X-72.0883 Y51.6768 
G01 X-72.2003 Y51.6121 
G01 X-72.3253 Y51.5786 
G01 X-73.2702 Y51.5786 
G01 X-73.2702 Y49.4787 
G01 X-73.2968 Y49.3795 
G01 X-73.3481 Y49.2907 
G01 X-74.2531 Y48.3857 
G01 X-74.3257 Y48.3131 
G01 X-74.4145 Y48.2618 
G01 X-74.5137 Y48.2352 
G01 X-78.5750 Y48.2352 
G01 X-78.5750 Y48.1581 
G01 X-78.5879 Y48.1269 
G01 X-78.6119 Y48.1029 
G01 X-78.6431 Y48.0900 
G01 X-79.4769 Y48.0900 
G01 X-79.5081 Y48.1029 
G01 X-79.5321 Y48.1269 
G01 X-79.5450 Y48.1581 
G00 Z2.0000 
G00 X-68.8319 Y53.6050 
G01 Z-0.1500 F100.00 
G01 X-67.3981 Y53.6050 F208.00 
G01 X-67.3668 Y53.5921 
G01 X-67.3429 Y53.5681 
G01 X-67.3300 Y53.5369 
G01 X-67.3300 Y53.4098 
G01 X-63.7637 Y53.4098 
G01 X-63.6645 Y53.3832 
G01 X-63.5757 Y53.3319 
G01 X-61.5351 Y51.2914 
G01 X-56.0623 Y51.2914 
G01 X-56.0299 Y51.3399 
G01 X-55.9119 Y51.4579 
G01 X-55.7732 Y51.5506 
G01 X-55.6191 Y51.6144 
G01 X-55.4554 Y51.6470 
G01 X-53.7646 Y51.6470 
G01 X-53.6009 Y51.6144 
G01 X-53.4468 Y51.5506 
G01 X-53.3081 Y51.4579 
G01 X-53.1901 Y51.3399 
G01 X-53.1577 Y51.2914 
G01 X-50.1003 Y51.2914 
G01 X-49.9753 Y51.2579 
G01 X-49.8633 Y51.1932 
G01 X-49.7718 Y51.1017 
G01 X-49.7071 Y50.9897 
G01 X-49.6736 Y50.8647 
G01 X-49.6736 Y13.2703 
G01 X-49.7071 Y13.1453 
G01 X-49.7718 Y13.0333 
G01 X-49.8633 Y12.9418 
G01 X-49.9753 Y12.8771 
G01 X-50.1003 Y12.8436 
G01 X-67.2450 Y12.8436 
G01 X-67.2450 Y12.0681 
G01 X-67.2579 Y12.0369 
G01 X-67.2819 Y12.0129 
G01 X-67.3131 Y12.0000 
G01 X-69.8469 Y12.0000 
G01 X-69.8781 Y12.0129 
G01 X-69.9021 Y12.0369 
G01 X-69.9150 Y12.0681 
G01 X-69.9150 Y14.6019 
G01 X-69.9021 Y14.6331 
G01 X-69.8781 Y14.6571 
G01 X-69.8469 Y14.6700 
G01 X-67.3131 Y14.6700 
G01 X-67.2819 Y14.6571 
G01 X-67.2579 Y14.6331 
G01 X-67.2450 Y14.6019 
G01 X-67.2450 Y13.8264 
G01 X-50.6564 Y13.8264 
G01 X-50.6564 Y50.3086 
G01 X-53.1577 Y50.3086 
G01 X-53.1901 Y50.2601 
G01 X-53.3081 Y50.1421 
G01 X-53.4468 Y50.0494 
G01 X-53.6009 Y49.9856 
G01 X-53.7646 Y49.9530 
G01 X-55.4554 Y49.9530 
G01 X-55.6191 Y49.9856 
G01 X-55.7732 Y50.0494 
G01 X-55.9119 Y50.1421 
G01 X-56.0299 Y50.2601 
G01 X-56.0623 Y50.3086 
G01 X-61.3915 Y50.3086 
G01 X-62.3736 Y49.3265 
G01 X-62.3736 Y44.2650 
G01 X-61.5431 Y44.2650 
G01 X-61.5119 Y44.2521 
G01 X-61.4879 Y44.2281 
G01 X-61.4750 Y44.1969 
G01 X-61.4750 Y42.1631 
G01 X-61.4879 Y42.1319 
G01 X-61.5119 Y42.1079 
G01 X-61.5431 Y42.0950 
G01 X-62.3736 Y42.0950 
G01 X-62.3736 Y40.7564 
G01 X-62.2927 Y40.7024 
G01 X-62.1676 Y40.5773 
G01 X-62.0694 Y40.4303 
G01 X-62.0017 Y40.2669 
G01 X-61.9672 Y40.0934 
G01 X-61.9672 Y39.9166 
G01 X-62.0017 Y39.7431 
G01 X-62.0694 Y39.5797 
G01 X-62.1676 Y39.4327 
G01 X-62.2927 Y39.3076 
G01 X-62.4397 Y39.2094 
G01 X-62.6031 Y39.1417 
G01 X-62.7766 Y39.1072 
G01 X-62.9534 Y39.1072 
G01 X-63.1269 Y39.1417 
G01 X-63.2903 Y39.2094 
G01 X-63.4373 Y39.3076 
G01 X-63.5624 Y39.4327 
G01 X-63.6606 Y39.5797 
G01 X-63.7283 Y39.7431 
G01 X-63.7628 Y39.9166 
G01 X-63.7628 Y40.0934 
G01 X-63.7283 Y40.2669 
G01 X-63.6606 Y40.4303 
G01 X-63.5624 Y40.5773 
G01 X-63.4373 Y40.7024 
G01 X-63.3564 Y40.7564 
G01 X-63.3564 Y49.5947 
G01 X-63.3229 Y49.7197 
G01 X-63.2582 Y49.8317 
G01 X-63.1667 Y49.9232 
G01 X-62.2181 Y50.8718 
G01 X-63.9765 Y52.6302 
G01 X-67.3300 Y52.6302 
G01 X-67.3300 Y52.5031 
G01 X-67.3429 Y52.4719 
G01 X-67.3668 Y52.4479 
G01 X-67.3981 Y52.4350 
G01 X-68.8319 Y52.4350 
G01 X-68.8631 Y52.4479 
G01 X-68.8871 Y52.4719 
G01 X-68.9000 Y52.5031 
G01 X-68.9000 Y53.5369 
G01 X-68.8871 Y53.5681 
G01 X-68.8631 Y53.5921 
G01 X-68.8319 Y53.6050 
G00 Z2.0000 
G00 X-55.4554 Y49.1070 
G01 Z-0.1500 F100.00 
G01 X-53.7646 Y49.1070 F208.00 
G01 X-53.6009 Y49.0744 
G01 X-53.4468 Y49.0106 
G01 X-53.3081 Y48.9179 
G01 X-53.1901 Y48.7999 
G01 X-53.0974 Y48.6612 
G01 X-53.0336 Y48.5071 
G01 X-53.0010 Y48.3434 
G01 X-53.0010 Y48.1766 
G01 X-53.0336 Y48.0129 
G01 X-53.0974 Y47.8588 
G01 X-53.1901 Y47.7201 
G01 X-53.3081 Y47.6021 
G01 X-53.4468 Y47.5094 
G01 X-53.6009 Y47.4456 
G01 X-53.7646 Y47.4130 
G01 X-55.4554 Y47.4130 
G01 X-55.6191 Y47.4456 
G01 X-55.7732 Y47.5094 
G01 X-55.9119 Y47.6021 
G01 X-56.0299 Y47.7201 
G01 X-56.0623 Y47.7686 
G01 X-57.2546 Y47.7686 
G01 X-57.3244 Y47.6988 
G01 X-57.4428 Y47.6197 
G01 X-57.5743 Y47.5653 
G01 X-57.7138 Y47.5375 
G01 X-57.8562 Y47.5375 
G01 X-57.9957 Y47.5653 
G01 X-58.1272 Y47.6197 
G01 X-58.2456 Y47.6988 
G01 X-58.3462 Y47.7994 
G01 X-58.4253 Y47.9178 
G01 X-58.4797 Y48.0493 
G01 X-58.5075 Y48.1888 
G01 X-58.5075 Y48.3312 
G01 X-58.4797 Y48.4707 
G01 X-58.4253 Y48.6022 
G01 X-58.3462 Y48.7206 
G01 X-58.2456 Y48.8212 
G01 X-58.1272 Y48.9003 
G01 X-57.9957 Y48.9547 
G01 X-57.8562 Y48.9825 
G01 X-57.7138 Y48.9825 
G01 X-57.5743 Y48.9547 
G01 X-57.4428 Y48.9003 
G01 X-57.3244 Y48.8212 
G01 X-57.2546 Y48.7514 
G01 X-56.0623 Y48.7514 
G01 X-56.0299 Y48.7999 
G01 X-55.9119 Y48.9179 
G01 X-55.7732 Y49.0106 
G01 X-55.6191 Y49.0744 
G01 X-55.4554 Y49.1070 
G00 Z2.0000 
G00 X-37.6754 Y46.5670 
G01 Z-0.1500 F100.00 
G01 X-35.9846 Y46.5670 F208.00 
G01 X-35.8209 Y46.5344 
G01 X-35.6668 Y46.4706 
G01 X-35.5281 Y46.3779 
G01 X-35.4101 Y46.2599 
G01 X-35.3174 Y46.1212 
G01 X-35.2536 Y45.9671 
G01 X-35.2210 Y45.8034 
G01 X-35.2210 Y45.6366 
G01 X-35.2536 Y45.4729 
G01 X-35.3174 Y45.3188 
G01 X-35.4101 Y45.1801 
G01 X-35.5281 Y45.0621 
G01 X-35.6668 Y44.9694 
G01 X-35.8209 Y44.9056 
G01 X-35.9846 Y44.8730 
G01 X-36.9821 Y44.8730 
G01 X-37.6086 Y44.2465 
G01 X-37.6086 Y43.6619 
G01 X-37.5654 Y43.6187 
G01 X-37.4901 Y43.5060 
G01 X-37.4382 Y43.3807 
G01 X-37.4118 Y43.2478 
G01 X-37.4118 Y43.1122 
G01 X-37.4382 Y42.9793 
G01 X-37.4901 Y42.8540 
G01 X-37.5654 Y42.7413 
G01 X-37.6613 Y42.6454 
G01 X-37.7740 Y42.5701 
G01 X-37.8993 Y42.5182 
G01 X-38.0322 Y42.4918 
G01 X-38.1678 Y42.4918 
G01 X-38.3007 Y42.5182 
G01 X-38.4260 Y42.5701 
G01 X-38.5387 Y42.6454 
G01 X-38.6346 Y42.7413 
G01 X-38.7099 Y42.8540 
G01 X-38.7617 Y42.9793 
G01 X-38.7882 Y43.1122 
G01 X-38.7882 Y43.2478 
G01 X-38.7617 Y43.3807 
G01 X-38.7099 Y43.5060 
G01 X-38.6346 Y43.6187 
G01 X-38.5914 Y43.6619 
G01 X-38.5914 Y44.5147 
G01 X-38.5579 Y44.6397 
G01 X-38.4932 Y44.7517 
G01 X-38.4017 Y44.8432 
G01 X-38.1574 Y45.0876 
G01 X-38.2499 Y45.1801 
G01 X-38.3426 Y45.3188 
G01 X-38.4064 Y45.4729 
G01 X-38.4390 Y45.6366 
G01 X-38.4390 Y45.8034 
G01 X-38.4064 Y45.9671 
G01 X-38.3426 Y46.1212 
G01 X-38.2499 Y46.2599 
G01 X-38.1319 Y46.3779 
G01 X-37.9932 Y46.4706 
G01 X-37.8391 Y46.5344 
G01 X-37.6754 Y46.5670 
G00 Z2.0000 
G00 X-78.9520 Y42.3346 
G01 Z-0.1500 F100.00 
G01 X-78.9520 Y44.0254 F208.00 
G01 X-78.9194 Y44.1891 
G01 X-78.8556 Y44.3432 
G01 X-78.7629 Y44.4819 
G01 X-78.6449 Y44.5999 
G01 X-78.5062 Y44.6926 
G01 X-78.3521 Y44.7564 
G01 X-78.1884 Y44.7890 
G01 X-78.0216 Y44.7890 
G01 X-77.8579 Y44.7564 
G01 X-77.7038 Y44.6926 
G01 X-77.5651 Y44.5999 
G01 X-77.4471 Y44.4819 
G01 X-77.3544 Y44.3432 
G01 X-77.2906 Y44.1891 
G01 X-77.2580 Y44.0254 
G01 X-77.2580 Y43.6714 
G01 X-71.6903 Y43.6714 
G01 X-71.5653 Y43.6379 
G01 X-71.4533 Y43.5732 
G01 X-68.1868 Y40.3067 
G01 X-68.1221 Y40.1947 
G01 X-68.0886 Y40.0697 
G01 X-68.0886 Y37.5300 
G01 X-67.3131 Y37.5300 
G01 X-67.2819 Y37.5171 
G01 X-67.2579 Y37.4931 
G01 X-67.2450 Y37.4619 
G01 X-67.2450 Y34.9281 
G01 X-67.2579 Y34.8969 
G01 X-67.2819 Y34.8729 
G01 X-67.3131 Y34.8600 
G01 X-69.8469 Y34.8600 
G01 X-69.8781 Y34.8729 
G01 X-69.9021 Y34.8969 
G01 X-69.9150 Y34.9281 
G01 X-69.9150 Y37.4619 
G01 X-69.9021 Y37.4931 
G01 X-69.8781 Y37.5171 
G01 X-69.8469 Y37.5300 
G01 X-69.0714 Y37.5300 
G01 X-69.0714 Y39.8015 
G01 X-71.9585 Y42.6886 
G01 X-77.2580 Y42.6886 
G01 X-77.2580 Y42.3346 
G01 X-77.2906 Y42.1709 
G01 X-77.3544 Y42.0168 
G01 X-77.4471 Y41.8781 
G01 X-77.5651 Y41.7601 
G01 X-77.7038 Y41.6674 
G01 X-77.8579 Y41.6035 
G01 X-78.0216 Y41.5710 
G01 X-78.1884 Y41.5710 
G01 X-78.3521 Y41.6035 
G01 X-78.5062 Y41.6674 
G01 X-78.6449 Y41.7601 
G01 X-78.7629 Y41.8781 
G01 X-78.8556 Y42.0168 
G01 X-78.9194 Y42.1709 
G01 X-78.9520 Y42.3346 
G00 Z2.0000 
G00 X-81.2831 Y12.0000 
G01 Z-0.1500 F100.00 
G01 X-83.8169 Y12.0000 F208.00 
G01 X-83.8481 Y12.0129 
G01 X-83.8721 Y12.0369 
G01 X-83.8850 Y12.0681 
G01 X-83.8850 Y12.8436 
G01 X-87.0597 Y12.8436 
G01 X-87.1847 Y12.8771 
G01 X-87.2967 Y12.9418 
G01 X-87.3882 Y13.0333 
G01 X-87.4529 Y13.1453 
G01 X-87.4864 Y13.2703 
G01 X-87.4864 Y47.6897 
G01 X-87.4529 Y47.8147 
G01 X-87.3882 Y47.9267 
G01 X-87.2967 Y48.0182 
G01 X-86.6617 Y48.6532 
G01 X-86.5497 Y48.7179 
G01 X-86.4247 Y48.7514 
G01 X-86.4199 Y48.7514 
G01 X-86.3069 Y48.8643 
G01 X-86.2343 Y48.9369 
G01 X-86.1455 Y48.9882 
G01 X-86.0463 Y49.0148 
G01 X-82.4064 Y49.0148 
G01 X-82.4064 Y50.3597 
G01 X-82.3729 Y50.4847 
G01 X-82.3082 Y50.5967 
G01 X-82.2167 Y50.6882 
G01 X-81.0250 Y51.8799 
G01 X-81.0250 Y53.0869 
G01 X-81.0121 Y53.1181 
G01 X-80.9881 Y53.1421 
G01 X-80.9569 Y53.1550 
G01 X-79.3231 Y53.1550 
G01 X-79.2919 Y53.1421 
G01 X-79.2679 Y53.1181 
G01 X-79.2550 Y53.0869 
G01 X-79.2550 Y51.0531 
G01 X-79.2679 Y51.0219 
G01 X-79.2919 Y50.9979 
G01 X-79.3231 Y50.9850 
G01 X-80.5301 Y50.9850 
G01 X-81.4236 Y50.0915 
G01 X-81.4236 Y49.1316 
G01 X-81.4081 Y49.1471 
G01 X-81.3769 Y49.1600 
G01 X-80.5431 Y49.1600 
G01 X-80.5119 Y49.1471 
G01 X-80.4879 Y49.1231 
G01 X-80.4750 Y49.0919 
G01 X-80.4750 Y48.1581 
G01 X-80.4879 Y48.1269 
G01 X-80.5119 Y48.1029 
G01 X-80.5431 Y48.0900 
G01 X-81.3769 Y48.0900 
G01 X-81.4081 Y48.1029 
G01 X-81.4321 Y48.1269 
G01 X-81.4450 Y48.1581 
G01 X-81.4450 Y48.2352 
G01 X-81.6099 Y48.2352 
G01 X-81.6133 Y48.2318 
G01 X-81.7253 Y48.1671 
G01 X-81.8503 Y48.1336 
G01 X-81.9797 Y48.1336 
G01 X-82.1047 Y48.1671 
G01 X-82.2167 Y48.2318 
G01 X-82.2201 Y48.2352 
G01 X-85.8335 Y48.2352 
G01 X-85.8686 Y48.2001 
G01 X-85.8686 Y48.1953 
G01 X-85.9021 Y48.0703 
G01 X-85.9668 Y47.9583 
G01 X-86.5036 Y47.4215 
G01 X-86.5036 Y13.8264 
G01 X-83.8850 Y13.8264 
G01 X-83.8850 Y14.6019 
G01 X-83.8721 Y14.6331 
G01 X-83.8481 Y14.6571 
G01 X-83.8169 Y14.6700 
G01 X-83.0414 Y14.6700 
G01 X-83.0414 Y25.4647 
G01 X-83.0079 Y25.5897 
G01 X-82.9432 Y25.7017 
G01 X-82.8517 Y25.7932 
G01 X-82.7397 Y25.8579 
G01 X-82.6147 Y25.8914 
G01 X-56.7185 Y25.8914 
G01 X-55.7364 Y26.8735 
G01 X-55.7364 Y31.6336 
G01 X-55.8173 Y31.6876 
G01 X-55.9424 Y31.8127 
G01 X-56.0406 Y31.9597 
G01 X-56.1083 Y32.1231 
G01 X-56.1428 Y32.2966 
G01 X-56.1428 Y32.4734 
G01 X-56.1083 Y32.6469 
G01 X-56.0406 Y32.8103 
G01 X-55.9424 Y32.9573 
G01 X-55.8173 Y33.0824 
G01 X-55.6703 Y33.1806 
G01 X-55.5069 Y33.2483 
G01 X-55.3334 Y33.2828 
G01 X-55.1566 Y33.2828 
G01 X-54.9831 Y33.2483 
G01 X-54.8197 Y33.1806 
G01 X-54.6727 Y33.0824 
G01 X-54.5476 Y32.9573 
G01 X-54.4494 Y32.8103 
G01 X-54.3817 Y32.6469 
G01 X-54.3472 Y32.4734 
G01 X-54.3472 Y32.2966 
G01 X-54.3662 Y32.2011 
G01 X-54.2168 Y32.0517 
G01 X-54.1521 Y31.9397 
G01 X-54.1186 Y31.8147 
G01 X-54.1186 Y31.6853 
G01 X-54.1521 Y31.5603 
G01 X-54.2168 Y31.4483 
G01 X-54.3083 Y31.3568 
G01 X-54.4203 Y31.2921 
G01 X-54.5453 Y31.2586 
G01 X-54.6747 Y31.2586 
G01 X-54.7536 Y31.2797 
G01 X-54.7536 Y26.6053 
G01 X-54.7871 Y26.4803 
G01 X-54.8518 Y26.3683 
G01 X-56.1218 Y25.0983 
G01 X-56.2133 Y25.0068 
G01 X-56.3253 Y24.9421 
G01 X-56.4503 Y24.9086 
G01 X-82.0586 Y24.9086 
G01 X-82.0586 Y14.6700 
G01 X-81.2831 Y14.6700 
G01 X-81.2519 Y14.6571 
G01 X-81.2279 Y14.6331 
G01 X-81.2150 Y14.6019 
G01 X-81.2150 Y12.0681 
G01 X-81.2279 Y12.0369 
G01 X-81.2519 Y12.0129 
G01 X-81.2831 Y12.0000 
G00 Z2.0000 
G00 X-70.4881 Y12.0000 
G01 Z-0.1500 F100.00 
G01 X-73.0219 Y12.0000 F208.00 
G01 X-73.0531 Y12.0129 
G01 X-73.0771 Y12.0369 
G01 X-73.0900 Y12.0681 
G01 X-73.0900 Y12.8436 
G01 X-73.8036 Y12.8436 
G01 X-73.8036 Y9.0723 
G01 X-73.7551 Y9.0399 
G01 X-73.6371 Y8.9219 
G01 X-73.5444 Y8.7832 
G01 X-73.4806 Y8.6291 
G01 X-73.4480 Y8.4654 
G01 X-73.4480 Y6.7746 
G01 X-73.4806 Y6.6109 
G01 X-73.5444 Y6.4568 
G01 X-73.6371 Y6.3181 
G01 X-73.7551 Y6.2001 
G01 X-73.8938 Y6.1074 
G01 X-74.0479 Y6.0436 
G01 X-74.2116 Y6.0110 
G01 X-74.3784 Y6.0110 
G01 X-74.5421 Y6.0436 
G01 X-74.6962 Y6.1074 
G01 X-74.8349 Y6.2001 
G01 X-74.9529 Y6.3181 
G01 X-75.0456 Y6.4568 
G01 X-75.1094 Y6.6109 
G01 X-75.1420 Y6.7746 
G01 X-75.1420 Y8.4654 
G01 X-75.1094 Y8.6291 
G01 X-75.0456 Y8.7832 
G01 X-74.9529 Y8.9219 
G01 X-74.8349 Y9.0399 
G01 X-74.7864 Y9.0723 
G01 X-74.7864 Y13.3997 
G01 X-74.7529 Y13.5247 
G01 X-74.6882 Y13.6367 
G01 X-74.5967 Y13.7282 
G01 X-74.4847 Y13.7929 
G01 X-74.3597 Y13.8264 
G01 X-73.0900 Y13.8264 
G01 X-73.0900 Y14.6019 
G01 X-73.0771 Y14.6331 
G01 X-73.0531 Y14.6571 
G01 X-73.0219 Y14.6700 
G01 X-70.4881 Y14.6700 
G01 X-70.4569 Y14.6571 
G01 X-70.4329 Y14.6331 
G01 X-70.4200 Y14.6019 
G01 X-70.4200 Y12.0681 
G01 X-70.4329 Y12.0369 
G01 X-70.4569 Y12.0129 
G01 X-70.4881 Y12.0000 
G00 Z2.0000 
G00 X-78.1081 Y12.0000 
G01 Z-0.1500 F100.00 
G01 X-78.8836 Y12.0000 F208.00 
G01 X-78.8836 Y10.3635 
G01 X-77.4674 Y8.9474 
G01 X-77.3749 Y9.0399 
G01 X-77.2362 Y9.1326 
G01 X-77.0821 Y9.1964 
G01 X-76.9184 Y9.2290 
G01 X-76.7516 Y9.2290 
G01 X-76.5879 Y9.1964 
G01 X-76.4338 Y9.1326 
G01 X-76.2951 Y9.0399 
G01 X-76.1771 Y8.9219 
G01 X-76.0844 Y8.7832 
G01 X-76.0206 Y8.6291 
G01 X-75.9880 Y8.4654 
G01 X-75.9880 Y6.7746 
G01 X-76.0206 Y6.6109 
G01 X-76.0844 Y6.4568 
G01 X-76.1771 Y6.3181 
G01 X-76.2951 Y6.2001 
G01 X-76.4338 Y6.1074 
G01 X-76.5879 Y6.0436 
G01 X-76.7516 Y6.0110 
G01 X-76.9184 Y6.0110 
G01 X-77.0821 Y6.0436 
G01 X-77.2362 Y6.1074 
G01 X-77.3749 Y6.2001 
G01 X-77.4929 Y6.3181 
G01 X-77.5856 Y6.4568 
G01 X-77.6494 Y6.6109 
G01 X-77.6820 Y6.7746 
G01 X-77.6820 Y7.7721 
G01 X-79.7682 Y9.8583 
G01 X-79.8329 Y9.9703 
G01 X-79.8664 Y10.0953 
G01 X-79.8664 Y12.0000 
G01 X-80.6419 Y12.0000 
G01 X-80.6731 Y12.0129 
G01 X-80.6971 Y12.0369 
G01 X-80.7100 Y12.0681 
G01 X-80.7100 Y14.6019 
G01 X-80.6971 Y14.6331 
G01 X-80.6731 Y14.6571 
G01 X-80.6419 Y14.6700 
G01 X-78.1081 Y14.6700 
G01 X-78.0769 Y14.6571 
G01 X-78.0529 Y14.6331 
G01 X-78.0400 Y14.6019 
G01 X-78.0400 Y12.0681 
G01 X-78.0529 Y12.0369 
G01 X-78.0769 Y12.0129 
G01 X-78.1081 Y12.0000 
G00 Z2.0000 
G00 X-81.2831 Y34.8600 
G01 Z-0.1500 F100.00 
G01 X-83.8169 Y34.8600 F208.00 
G01 X-83.8481 Y34.8729 
G01 X-83.8721 Y34.8969 
G01 X-83.8850 Y34.9281 
G01 X-83.8850 Y37.4619 
G01 X-83.8721 Y37.4931 
G01 X-83.8481 Y37.5171 
G01 X-83.8169 Y37.5300 
G01 X-83.0414 Y37.5300 
G01 X-83.0414 Y41.3397 
G01 X-83.0079 Y41.4647 
G01 X-82.9432 Y41.5767 
G01 X-82.8517 Y41.6682 
G01 X-81.4920 Y43.0279 
G01 X-81.4920 Y44.0254 
G01 X-81.4594 Y44.1891 
G01 X-81.3956 Y44.3432 
G01 X-81.3029 Y44.4819 
G01 X-81.1849 Y44.5999 
G01 X-81.0462 Y44.6926 
G01 X-80.8921 Y44.7564 
G01 X-80.7284 Y44.7890 
G01 X-80.5616 Y44.7890 
G01 X-80.3979 Y44.7564 
G01 X-80.2438 Y44.6926 
G01 X-80.1051 Y44.5999 
G01 X-79.9871 Y44.4819 
G01 X-79.8944 Y44.3432 
G01 X-79.8306 Y44.1891 
G01 X-79.7980 Y44.0254 
G01 X-79.7980 Y42.3346 
G01 X-79.8306 Y42.1709 
G01 X-79.8944 Y42.0168 
G01 X-79.9871 Y41.8781 
G01 X-80.1051 Y41.7601 
G01 X-80.2438 Y41.6674 
G01 X-80.3979 Y41.6035 
G01 X-80.5616 Y41.5710 
G01 X-80.7284 Y41.5710 
G01 X-80.8921 Y41.6035 
G01 X-81.0462 Y41.6674 
G01 X-81.1849 Y41.7601 
G01 X-81.2774 Y41.8526 
G01 X-82.0586 Y41.0715 
G01 X-82.0586 Y37.5300 
G01 X-81.2831 Y37.5300 
G01 X-81.2519 Y37.5171 
G01 X-81.2279 Y37.4931 
G01 X-81.2150 Y37.4619 
G01 X-81.2150 Y34.9281 
G01 X-81.2279 Y34.8969 
G01 X-81.2519 Y34.8729 
G01 X-81.2831 Y34.8600 
G00 Z2.0000 
G00 X-6.0238 Y35.0354 
G01 Z-0.1500 F100.00 
G01 X-5.4062 Y35.0354 F208.00 
G01 X-4.9696 Y34.5988 
G01 X-4.9696 Y33.9812 
G01 X-5.4062 Y33.5446 
G01 X-6.0238 Y33.5446 
G01 X-6.2778 Y33.7986 
G01 X-8.3986 Y33.7986 
G01 X-8.3986 Y28.5103 
G01 X-8.4321 Y28.3853 
G01 X-8.4968 Y28.2733 
G01 X-8.5883 Y28.1818 
G01 X-10.7075 Y26.0626 
G01 X-10.7075 Y25.9638 
G01 X-10.7353 Y25.8243 
G01 X-10.7897 Y25.6928 
G01 X-10.8688 Y25.5744 
G01 X-10.9386 Y25.5046 
G01 X-10.9386 Y23.8750 
G01 X-10.4131 Y23.8750 
G01 X-10.3819 Y23.8621 
G01 X-10.3579 Y23.8381 
G01 X-10.3450 Y23.8069 
G01 X-10.3450 Y23.4814 
G01 X-6.4153 Y23.4814 
G01 X-6.2903 Y23.4479 
G01 X-6.1783 Y23.3832 
G01 X-5.3719 Y22.5768 
G01 X-5.1809 Y22.6148 
G01 X-4.9791 Y22.6148 
G01 X-4.7811 Y22.5754 
G01 X-4.5946 Y22.4982 
G01 X-4.4267 Y22.3860 
G01 X-4.2840 Y22.2433 
G01 X-4.1718 Y22.0754 
G01 X-4.0946 Y21.8889 
G01 X-4.0552 Y21.6909 
G01 X-4.0552 Y21.4891 
G01 X-4.0946 Y21.2911 
G01 X-4.1718 Y21.1046 
G01 X-4.2840 Y20.9367 
G01 X-4.4267 Y20.7940 
G01 X-4.5946 Y20.6818 
G01 X-4.7811 Y20.6046 
G01 X-4.9791 Y20.5652 
G01 X-5.1809 Y20.5652 
G01 X-5.3789 Y20.6046 
G01 X-5.5654 Y20.6818 
G01 X-5.7333 Y20.7940 
G01 X-5.8760 Y20.9367 
G01 X-5.9882 Y21.1046 
G01 X-6.0654 Y21.2911 
G01 X-6.1048 Y21.4891 
G01 X-6.1048 Y21.6909 
G01 X-6.0668 Y21.8819 
G01 X-6.6835 Y22.4986 
G01 X-10.3450 Y22.4986 
G01 X-10.3450 Y22.1731 
G01 X-10.3579 Y22.1419 
G01 X-10.3819 Y22.1179 
G01 X-10.4131 Y22.1050 
G01 X-12.4469 Y22.1050 
G01 X-12.4781 Y22.1179 
G01 X-12.5021 Y22.1419 
G01 X-12.5150 Y22.1731 
G01 X-12.5150 Y23.8069 
G01 X-12.5021 Y23.8381 
G01 X-12.4781 Y23.8621 
G01 X-12.4469 Y23.8750 
G01 X-11.9214 Y23.8750 
G01 X-11.9214 Y25.5046 
G01 X-11.9912 Y25.5744 
G01 X-12.0703 Y25.6928 
G01 X-12.1247 Y25.8243 
G01 X-12.1525 Y25.9638 
G01 X-12.1525 Y26.1062 
G01 X-12.1247 Y26.2457 
G01 X-12.0703 Y26.3772 
G01 X-11.9912 Y26.4956 
G01 X-11.8906 Y26.5962 
G01 X-11.7722 Y26.6753 
G01 X-11.6407 Y26.7297 
G01 X-11.5012 Y26.7575 
G01 X-11.4024 Y26.7575 
G01 X-9.3814 Y28.7785 
G01 X-9.3814 Y35.0686 
G01 X-16.5747 Y35.0686 
G01 X-16.6997 Y35.1021 
G01 X-16.8117 Y35.1668 
G01 X-16.9032 Y35.2583 
G01 X-16.9679 Y35.3703 
G01 X-17.0014 Y35.4953 
G01 X-17.0014 Y39.5231 
G01 X-17.0446 Y39.5663 
G01 X-17.1199 Y39.6790 
G01 X-17.1717 Y39.8043 
G01 X-17.1982 Y39.9372 
G01 X-17.1982 Y40.0728 
G01 X-17.1717 Y40.2057 
G01 X-17.1199 Y40.3310 
G01 X-17.0446 Y40.4437 
G01 X-17.0014 Y40.4869 
G01 X-17.0014 Y40.7047 
G01 X-16.9679 Y40.8297 
G01 X-16.9032 Y40.9417 
G01 X-16.8117 Y41.0332 
G01 X-15.6332 Y42.2117 
G01 X-15.5417 Y42.3032 
G01 X-15.4542 Y42.3538 
G01 X-15.3899 Y42.4499 
G01 X-15.2719 Y42.5679 
G01 X-15.1332 Y42.6606 
G01 X-14.9791 Y42.7244 
G01 X-14.8154 Y42.7570 
G01 X-13.1246 Y42.7570 
G01 X-12.9609 Y42.7244 
G01 X-12.8068 Y42.6606 
G01 X-12.6681 Y42.5679 
G01 X-12.5501 Y42.4499 
G01 X-12.4574 Y42.3112 
G01 X-12.3936 Y42.1571 
G01 X-12.3610 Y41.9934 
G01 X-12.3610 Y41.8266 
G01 X-12.3936 Y41.6629 
G01 X-12.4574 Y41.5088 
G01 X-12.5501 Y41.3701 
G01 X-12.6681 Y41.2521 
G01 X-12.8068 Y41.1594 
G01 X-12.9609 Y41.0956 
G01 X-13.1246 Y41.0630 
G01 X-14.8154 Y41.0630 
G01 X-14.9791 Y41.0956 
G01 X-15.1332 Y41.1594 
G01 X-15.2306 Y41.2245 
G01 X-15.9934 Y40.4617 
G01 X-15.9754 Y40.4437 
G01 X-15.9001 Y40.3310 
G01 X-15.8482 Y40.2057 
G01 X-15.8218 Y40.0728 
G01 X-15.8218 Y39.9372 
G01 X-15.8482 Y39.8043 
G01 X-15.9001 Y39.6790 
G01 X-15.9754 Y39.5663 
G01 X-16.0186 Y39.5231 
G01 X-16.0186 Y36.0514 
G01 X-8.8253 Y36.0514 
G01 X-8.7003 Y36.0179 
G01 X-8.5883 Y35.9532 
G01 X-8.4968 Y35.8617 
G01 X-8.4321 Y35.7497 
G01 X-8.3986 Y35.6247 
G01 X-8.3986 Y34.7814 
G01 X-6.2778 Y34.7814 
G01 X-6.0238 Y35.0354 
G00 Z2.0000 
G00 X-56.1428 Y39.9166 
G01 Z-0.1500 F100.00 
G01 X-56.1428 Y40.0934 F208.00 
G01 X-56.1083 Y40.2669 
G01 X-56.0406 Y40.4303 
G01 X-55.9424 Y40.5773 
G01 X-55.8173 Y40.7024 
G01 X-55.6703 Y40.8006 
G01 X-55.5069 Y40.8683 
G01 X-55.3334 Y40.9028 
G01 X-55.1566 Y40.9028 
G01 X-54.9831 Y40.8683 
G01 X-54.8197 Y40.8006 
G01 X-54.6727 Y40.7024 
G01 X-54.5476 Y40.5773 
G01 X-54.4494 Y40.4303 
G01 X-54.3817 Y40.2669 
G01 X-54.3472 Y40.0934 
G01 X-54.3472 Y39.9166 
G01 X-54.3817 Y39.7431 
G01 X-54.4494 Y39.5797 
G01 X-54.5476 Y39.4327 
G01 X-54.6727 Y39.3076 
G01 X-54.8197 Y39.2094 
G01 X-54.9831 Y39.1417 
G01 X-55.1566 Y39.1072 
G01 X-55.3334 Y39.1072 
G01 X-55.5069 Y39.1417 
G01 X-55.6703 Y39.2094 
G01 X-55.8173 Y39.3076 
G01 X-55.9424 Y39.4327 
G01 X-56.0406 Y39.5797 
G01 X-56.1083 Y39.7431 
G01 X-56.1428 Y39.9166 
G00 Z2.0000 
G00 X-56.1428 Y37.3766 
G01 Z-0.1500 F100.00 
G01 X-56.1428 Y37.5534 F208.00 
G01 X-56.1083 Y37.7269 
G01 X-56.0406 Y37.8903 
G01 X-55.9424 Y38.0373 
G01 X-55.8173 Y38.1624 
G01 X-55.6703 Y38.2606 
G01 X-55.5069 Y38.3283 
G01 X-55.3334 Y38.3628 
G01 X-55.1566 Y38.3628 
G01 X-54.9831 Y38.3283 
G01 X-54.8197 Y38.2606 
G01 X-54.6727 Y38.1624 
G01 X-54.5476 Y38.0373 
G01 X-54.4494 Y37.8903 
G01 X-54.3817 Y37.7269 
G01 X-54.3472 Y37.5534 
G01 X-54.3472 Y37.3766 
G01 X-54.3817 Y37.2031 
G01 X-54.4494 Y37.0397 
G01 X-54.5476 Y36.8927 
G01 X-54.6727 Y36.7676 
G01 X-54.8197 Y36.6694 
G01 X-54.9831 Y36.6017 
G01 X-55.1566 Y36.5672 
G01 X-55.3334 Y36.5672 
G01 X-55.5069 Y36.6017 
G01 X-55.6703 Y36.6694 
G01 X-55.8173 Y36.7676 
G01 X-55.9424 Y36.8927 
G01 X-56.0406 Y37.0397 
G01 X-56.1083 Y37.2031 
G01 X-56.1428 Y37.3766 
G00 Z2.0000 
G00 X-56.1428 Y34.8366 
G01 Z-0.1500 F100.00 
G01 X-56.1428 Y35.0134 F208.00 
G01 X-56.1083 Y35.1869 
G01 X-56.0406 Y35.3503 
G01 X-55.9424 Y35.4973 
G01 X-55.8173 Y35.6224 
G01 X-55.6703 Y35.7206 
G01 X-55.5069 Y35.7883 
G01 X-55.3334 Y35.8228 
G01 X-55.1566 Y35.8228 
G01 X-54.9831 Y35.7883 
G01 X-54.8197 Y35.7206 
G01 X-54.6727 Y35.6224 
G01 X-54.5476 Y35.4973 
G01 X-54.4494 Y35.3503 
G01 X-54.3817 Y35.1869 
G01 X-54.3472 Y35.0134 
G01 X-54.3472 Y34.8366 
G01 X-54.3817 Y34.6631 
G01 X-54.4494 Y34.4997 
G01 X-54.5476 Y34.3527 
G01 X-54.6727 Y34.2276 
G01 X-54.8197 Y34.1294 
G01 X-54.9831 Y34.0617 
G01 X-55.1566 Y34.0272 
G01 X-55.3334 Y34.0272 
G01 X-55.5069 Y34.0617 
G01 X-55.6703 Y34.1294 
G01 X-55.8173 Y34.2276 
G01 X-55.9424 Y34.3527 
G01 X-56.0406 Y34.4997 
G01 X-56.1083 Y34.6631 
G01 X-56.1428 Y34.8366 
G00 Z2.0000 
G00 X-63.7628 Y34.8366 
G01 Z-0.1500 F100.00 
G01 X-63.7628 Y35.0134 F208.00 
G01 X-63.7283 Y35.1869 
G01 X-63.6606 Y35.3503 
G01 X-63.5624 Y35.4973 
G01 X-63.4373 Y35.6224 
G01 X-63.2903 Y35.7206 
G01 X-63.1269 Y35.7883 
G01 X-62.9534 Y35.8228 
G01 X-62.7766 Y35.8228 
G01 X-62.6031 Y35.7883 
G01 X-62.4397 Y35.7206 
G01 X-62.2927 Y35.6224 
G01 X-62.1676 Y35.4973 
G01 X-62.1136 Y35.4164 
G01 X-60.0514 Y35.4164 
G01 X-60.0514 Y42.0950 
G01 X-60.3769 Y42.0950 
G01 X-60.4081 Y42.1079 
G01 X-60.4321 Y42.1319 
G01 X-60.4450 Y42.1631 
G01 X-60.4450 Y44.1969 
G01 X-60.4321 Y44.2281 
G01 X-60.4081 Y44.2521 
G01 X-60.3769 Y44.2650 
G01 X-58.7431 Y44.2650 
G01 X-58.7119 Y44.2521 
G01 X-58.6879 Y44.2281 
G01 X-58.6750 Y44.1969 
G01 X-58.6750 Y43.6714 
G01 X-57.3535 Y43.6714 
G01 X-55.9374 Y45.0876 
G01 X-56.0299 Y45.1801 
G01 X-56.1226 Y45.3188 
G01 X-56.1864 Y45.4729 
G01 X-56.2190 Y45.6366 
G01 X-56.2190 Y45.8034 
G01 X-56.1864 Y45.9671 
G01 X-56.1226 Y46.1212 
G01 X-56.0299 Y46.2599 
G01 X-55.9119 Y46.3779 
G01 X-55.7732 Y46.4706 
G01 X-55.6191 Y46.5344 
G01 X-55.4554 Y46.5670 
G01 X-53.7646 Y46.5670 
G01 X-53.6009 Y46.5344 
G01 X-53.4468 Y46.4706 
G01 X-53.3081 Y46.3779 
G01 X-53.1901 Y46.2599 
G01 X-53.0974 Y46.1212 
G01 X-53.0336 Y45.9671 
G01 X-53.0010 Y45.8034 
G01 X-53.0010 Y45.6366 
G01 X-53.0336 Y45.4729 
G01 X-53.0974 Y45.3188 
G01 X-53.1901 Y45.1801 
G01 X-53.3081 Y45.0621 
G01 X-53.4468 Y44.9694 
G01 X-53.6009 Y44.9056 
G01 X-53.7646 Y44.8730 
G01 X-54.7621 Y44.8730 
G01 X-56.7568 Y42.8783 
G01 X-56.8483 Y42.7868 
G01 X-56.9603 Y42.7221 
G01 X-57.0853 Y42.6886 
G01 X-58.6750 Y42.6886 
G01 X-58.6750 Y42.1631 
G01 X-58.6879 Y42.1319 
G01 X-58.7119 Y42.1079 
G01 X-58.7431 Y42.0950 
G01 X-59.0686 Y42.0950 
G01 X-59.0686 Y34.9903 
G01 X-59.1021 Y34.8653 
G01 X-59.1668 Y34.7533 
G01 X-59.3883 Y34.5318 
G01 X-59.5003 Y34.4671 
G01 X-59.6253 Y34.4336 
G01 X-62.1136 Y34.4336 
G01 X-62.1676 Y34.3527 
G01 X-62.2927 Y34.2276 
G01 X-62.4397 Y34.1294 
G01 X-62.6031 Y34.0617 
G01 X-62.7766 Y34.0272 
G01 X-62.9534 Y34.0272 
G01 X-63.1269 Y34.0617 
G01 X-63.2903 Y34.1294 
G01 X-63.4373 Y34.2276 
G01 X-63.5624 Y34.3527 
G01 X-63.6606 Y34.4997 
G01 X-63.7283 Y34.6631 
G01 X-63.7628 Y34.8366 
G00 Z2.0000 
G00 X-63.7628 Y32.2966 
G01 Z-0.1500 F100.00 
G01 X-63.7628 Y32.4734 F208.00 
G01 X-63.7283 Y32.6469 
G01 X-63.6606 Y32.8103 
G01 X-63.5624 Y32.9573 
G01 X-63.4373 Y33.0824 
G01 X-63.2903 Y33.1806 
G01 X-63.1269 Y33.2483 
G01 X-62.9534 Y33.2828 
G01 X-62.7766 Y33.2828 
G01 X-62.6031 Y33.2483 
G01 X-62.4397 Y33.1806 
G01 X-62.2927 Y33.0824 
G01 X-62.1676 Y32.9573 
G01 X-62.0694 Y32.8103 
G01 X-62.0017 Y32.6469 
G01 X-61.9672 Y32.4734 
G01 X-61.9672 Y32.2966 
G01 X-62.0017 Y32.1231 
G01 X-62.0694 Y31.9597 
G01 X-62.1676 Y31.8127 
G01 X-62.2927 Y31.6876 
G01 X-62.4397 Y31.5894 
G01 X-62.6031 Y31.5217 
G01 X-62.7766 Y31.4872 
G01 X-62.9534 Y31.4872 
G01 X-63.1269 Y31.5217 
G01 X-63.2903 Y31.5894 
G01 X-63.4373 Y31.6876 
G01 X-63.5624 Y31.8127 
G01 X-63.6606 Y31.9597 
G01 X-63.7283 Y32.1231 
G01 X-63.7628 Y32.2966 
G00 Z2.0000 
G00 X-5.8760 Y19.7033 
G01 Z-0.1500 F100.00 
G01 X-5.7333 Y19.8460 F208.00 
G01 X-5.5654 Y19.9582 
G01 X-5.3789 Y20.0354 
G01 X-5.1809 Y20.0748 
G01 X-4.9791 Y20.0748 
G01 X-4.7811 Y20.0354 
G01 X-4.5946 Y19.9582 
G01 X-4.4267 Y19.8460 
G01 X-4.2840 Y19.7033 
G01 X-4.1718 Y19.5354 
G01 X-4.0946 Y19.3489 
G01 X-4.0552 Y19.1509 
G01 X-4.0552 Y18.9491 
G01 X-4.0946 Y18.7511 
G01 X-4.1718 Y18.5646 
G01 X-4.2840 Y18.3967 
G01 X-4.4267 Y18.2540 
G01 X-4.5946 Y18.1418 
G01 X-4.7811 Y18.0646 
G01 X-4.9791 Y18.0252 
G01 X-5.1809 Y18.0252 
G01 X-5.3789 Y18.0646 
G01 X-5.5654 Y18.1418 
G01 X-5.7333 Y18.2540 
G01 X-5.8760 Y18.3967 
G01 X-5.9842 Y18.5586 
G01 X-10.2247 Y18.5586 
G01 X-10.3497 Y18.5921 
G01 X-10.4617 Y18.6568 
G01 X-10.5532 Y18.7483 
G01 X-11.1099 Y19.3050 
G01 X-12.4469 Y19.3050 
G01 X-12.4781 Y19.3179 
G01 X-12.5021 Y19.3419 
G01 X-12.5150 Y19.3731 
G01 X-12.5150 Y19.8286 
G01 X-19.1147 Y19.8286 
G01 X-19.2397 Y19.8621 
G01 X-19.3517 Y19.9268 
G01 X-19.4432 Y20.0183 
G01 X-28.2417 Y28.8168 
G01 X-28.3332 Y28.9083 
G01 X-28.3979 Y29.0203 
G01 X-28.4314 Y29.1453 
G01 X-28.4314 Y31.1035 
G01 X-28.3979 Y31.2285 
G01 X-28.3332 Y31.3405 
G01 X-28.1212 Y31.5526 
G01 X-28.1440 Y31.6674 
G01 X-28.1440 Y31.8326 
G01 X-28.1118 Y31.9947 
G01 X-28.0485 Y32.1474 
G01 X-27.9567 Y32.2848 
G01 X-27.8398 Y32.4017 
G01 X-27.7024 Y32.4935 
G01 X-27.5497 Y32.5568 
G01 X-27.3876 Y32.5890 
G01 X-27.2224 Y32.5890 
G01 X-27.0603 Y32.5568 
G01 X-26.9076 Y32.4935 
G01 X-26.7702 Y32.4017 
G01 X-26.6533 Y32.2848 
G01 X-26.5615 Y32.1474 
G01 X-26.4982 Y31.9947 
G01 X-26.4660 Y31.8326 
G01 X-26.4660 Y31.6674 
G01 X-26.4982 Y31.5053 
G01 X-26.5615 Y31.3526 
G01 X-26.6533 Y31.2152 
G01 X-26.7702 Y31.0983 
G01 X-26.9076 Y31.0065 
G01 X-27.0603 Y30.9432 
G01 X-27.2224 Y30.9110 
G01 X-27.3729 Y30.9110 
G01 X-27.4486 Y30.8353 
G01 X-27.4486 Y29.4135 
G01 X-18.8465 Y20.8114 
G01 X-12.5150 Y20.8114 
G01 X-12.5150 Y21.0069 
G01 X-12.5021 Y21.0381 
G01 X-12.4781 Y21.0621 
G01 X-12.4469 Y21.0750 
G01 X-10.4131 Y21.0750 
G01 X-10.3819 Y21.0621 
G01 X-10.3579 Y21.0381 
G01 X-10.3450 Y21.0069 
G01 X-10.3450 Y19.9299 
G01 X-9.9565 Y19.5414 
G01 X-5.9842 Y19.5414 
G01 X-5.8760 Y19.7033 
G00 Z2.0000 
G00 X-17.9840 Y8.8074 
G01 Z-0.1500 F100.00 
G01 X-17.9840 Y8.9726 F208.00 
G01 X-17.9518 Y9.1347 
G01 X-17.8885 Y9.2874 
G01 X-17.7967 Y9.4248 
G01 X-17.6798 Y9.5417 
G01 X-17.5424 Y9.6335 
G01 X-17.3897 Y9.6968 
G01 X-17.2276 Y9.7290 
G01 X-17.0624 Y9.7290 
G01 X-16.9003 Y9.6968 
G01 X-16.7476 Y9.6335 
G01 X-16.6102 Y9.5417 
G01 X-16.4933 Y9.4248 
G01 X-16.4643 Y9.3814 
G01 X-13.8169 Y9.3814 
G01 X-13.7737 Y9.4246 
G01 X-13.6610 Y9.4999 
G01 X-13.5357 Y9.5518 
G01 X-13.4028 Y9.5782 
G01 X-13.2672 Y9.5782 
G01 X-13.1343 Y9.5518 
G01 X-13.0090 Y9.4999 
G01 X-12.8963 Y9.4246 
G01 X-12.8004 Y9.3287 
G01 X-12.7251 Y9.2160 
G01 X-12.6732 Y9.0907 
G01 X-12.6468 Y8.9578 
G01 X-12.6468 Y8.8222 
G01 X-12.6732 Y8.6893 
G01 X-12.7251 Y8.5640 
G01 X-12.8004 Y8.4513 
G01 X-12.8963 Y8.3554 
G01 X-13.0090 Y8.2801 
G01 X-13.1343 Y8.2282 
G01 X-13.2672 Y8.2018 
G01 X-13.4028 Y8.2018 
G01 X-13.5357 Y8.2282 
G01 X-13.6610 Y8.2801 
G01 X-13.7737 Y8.3554 
G01 X-13.8169 Y8.3986 
G01 X-16.4643 Y8.3986 
G01 X-16.4933 Y8.3552 
G01 X-16.6102 Y8.2383 
G01 X-16.6536 Y8.2093 
G01 X-16.6536 Y5.6503 
G01 X-16.6871 Y5.5253 
G01 X-16.7518 Y5.4133 
G01 X-16.8433 Y5.3218 
G01 X-16.9553 Y5.2571 
G01 X-17.0803 Y5.2236 
G01 X-38.1647 Y5.2236 
G01 X-38.2897 Y5.2571 
G01 X-38.4017 Y5.3218 
G01 X-38.4932 Y5.4133 
G01 X-38.5579 Y5.5253 
G01 X-38.5914 Y5.6503 
G01 X-38.5914 Y40.1637 
G01 X-38.5579 Y40.2886 
G01 X-38.4932 Y40.4007 
G01 X-37.5064 Y41.3876 
G01 X-37.3943 Y41.4522 
G01 X-37.2693 Y41.4857 
G01 X-36.6792 Y41.4857 
G01 X-34.1464 Y44.0185 
G01 X-34.1464 Y47.7686 
G01 X-35.3777 Y47.7686 
G01 X-35.4101 Y47.7201 
G01 X-35.5281 Y47.6021 
G01 X-35.6668 Y47.5094 
G01 X-35.8209 Y47.4456 
G01 X-35.9846 Y47.4130 
G01 X-37.6754 Y47.4130 
G01 X-37.8391 Y47.4456 
G01 X-37.9932 Y47.5094 
G01 X-38.1319 Y47.6021 
G01 X-38.2499 Y47.7201 
G01 X-38.3426 Y47.8588 
G01 X-38.4064 Y48.0129 
G01 X-38.4390 Y48.1766 
G01 X-38.4390 Y48.3434 
G01 X-38.4064 Y48.5071 
G01 X-38.3426 Y48.6612 
G01 X-38.2499 Y48.7999 
G01 X-38.1319 Y48.9179 
G01 X-37.9932 Y49.0106 
G01 X-37.8391 Y49.0744 
G01 X-37.6754 Y49.1070 
G01 X-35.9846 Y49.1070 
G01 X-35.8209 Y49.0744 
G01 X-35.6668 Y49.0106 
G01 X-35.5281 Y48.9179 
G01 X-35.4101 Y48.7999 
G01 X-35.3777 Y48.7514 
G01 X-29.7728 Y48.7514 
G01 X-29.5188 Y49.0054 
G01 X-28.9012 Y49.0054 
G01 X-28.4646 Y48.5688 
G01 X-28.4646 Y47.9512 
G01 X-28.9012 Y47.5146 
G01 X-29.5188 Y47.5146 
G01 X-29.7728 Y47.7686 
G01 X-33.1636 Y47.7686 
G01 X-33.1636 Y43.7503 
G01 X-33.1971 Y43.6253 
G01 X-33.2618 Y43.5133 
G01 X-36.0824 Y40.6926 
G01 X-36.1739 Y40.6011 
G01 X-36.2860 Y40.5364 
G01 X-36.4110 Y40.5029 
G01 X-37.0011 Y40.5029 
G01 X-37.6086 Y39.8954 
G01 X-37.6086 Y6.2064 
G01 X-17.6364 Y6.2064 
G01 X-17.6364 Y8.2093 
G01 X-17.6798 Y8.2383 
G01 X-17.7967 Y8.3552 
G01 X-17.8885 Y8.4926 
G01 X-17.9518 Y8.6453 
G01 X-17.9840 Y8.8074 
G00 Z2.0000 
G00 X-17.9840 Y31.6674 
G01 Z-0.1500 F100.00 
G01 X-17.9840 Y31.8326 F208.00 
G01 X-17.9518 Y31.9947 
G01 X-17.8885 Y32.1474 
G01 X-17.7967 Y32.2848 
G01 X-17.6798 Y32.4017 
G01 X-17.5424 Y32.4935 
G01 X-17.3897 Y32.5568 
G01 X-17.2276 Y32.5890 
G01 X-17.0624 Y32.5890 
G01 X-16.9003 Y32.5568 
G01 X-16.7476 Y32.4935 
G01 X-16.6102 Y32.4017 
G01 X-16.4933 Y32.2848 
G01 X-16.4015 Y32.1474 
G01 X-16.3382 Y31.9947 
G01 X-16.3060 Y31.8326 
G01 X-16.3060 Y31.6674 
G01 X-16.3382 Y31.5053 
G01 X-16.4015 Y31.3526 
G01 X-16.4933 Y31.2152 
G01 X-16.6102 Y31.0983 
G01 X-16.7476 Y31.0065 
G01 X-16.9003 Y30.9432 
G01 X-17.0624 Y30.9110 
G01 X-17.2276 Y30.9110 
G01 X-17.3897 Y30.9432 
G01 X-17.5424 Y31.0065 
G01 X-17.6798 Y31.0983 
G01 X-17.7967 Y31.2152 
G01 X-17.8885 Y31.3526 
G01 X-17.9518 Y31.5053 
G01 X-17.9840 Y31.6674 
G00 Z2.0000 
G00 X-35.7640 Y8.8074 
G01 Z-0.1500 F100.00 
G01 X-35.7640 Y8.9726 F208.00 
G01 X-35.7318 Y9.1347 
G01 X-35.6685 Y9.2874 
G01 X-35.5767 Y9.4248 
G01 X-35.4598 Y9.5417 
G01 X-35.3224 Y9.6335 
G01 X-35.1697 Y9.6968 
G01 X-35.0076 Y9.7290 
G01 X-34.8424 Y9.7290 
G01 X-34.6803 Y9.6968 
G01 X-34.5276 Y9.6335 
G01 X-34.3902 Y9.5417 
G01 X-34.2733 Y9.4248 
G01 X-34.1815 Y9.2874 
G01 X-34.1182 Y9.1347 
G01 X-34.0860 Y8.9726 
G01 X-34.0860 Y8.8074 
G01 X-34.1182 Y8.6453 
G01 X-34.1815 Y8.4926 
G01 X-34.2733 Y8.3552 
G01 X-34.3902 Y8.2383 
G01 X-34.5276 Y8.1465 
G01 X-34.6803 Y8.0832 
G01 X-34.8424 Y8.0510 
G01 X-35.0076 Y8.0510 
G01 X-35.1697 Y8.0832 
G01 X-35.3224 Y8.1465 
G01 X-35.4598 Y8.2383 
G01 X-35.5767 Y8.3552 
G01 X-35.6685 Y8.4926 
G01 X-35.7318 Y8.6453 
G01 X-35.7640 Y8.8074 
G00 Z2.0000 
G00 X-33.2240 Y8.8074 
G01 Z-0.1500 F100.00 
G01 X-33.2240 Y8.9726 F208.00 
G01 X-33.1918 Y9.1347 
G01 X-33.1285 Y9.2874 
G01 X-33.0367 Y9.4248 
G01 X-32.9198 Y9.5417 
G01 X-32.7824 Y9.6335 
G01 X-32.6297 Y9.6968 
G01 X-32.4676 Y9.7290 
G01 X-32.3024 Y9.7290 
G01 X-32.1403 Y9.6968 
G01 X-31.9876 Y9.6335 
G01 X-31.8502 Y9.5417 
G01 X-31.7333 Y9.4248 
G01 X-31.6415 Y9.2874 
G01 X-31.5782 Y9.1347 
G01 X-31.5460 Y8.9726 
G01 X-31.5460 Y8.8074 
G01 X-31.5782 Y8.6453 
G01 X-31.6415 Y8.4926 
G01 X-31.7333 Y8.3552 
G01 X-31.8502 Y8.2383 
G01 X-31.9876 Y8.1465 
G01 X-32.1403 Y8.0832 
G01 X-32.3024 Y8.0510 
G01 X-32.4676 Y8.0510 
G01 X-32.6297 Y8.0832 
G01 X-32.7824 Y8.1465 
G01 X-32.9198 Y8.2383 
G01 X-33.0367 Y8.3552 
G01 X-33.1285 Y8.4926 
G01 X-33.1918 Y8.6453 
G01 X-33.2240 Y8.8074 
G00 Z2.0000 
G00 X-30.6840 Y8.8074 
G01 Z-0.1500 F100.00 
G01 X-30.6840 Y8.9726 F208.00 
G01 X-30.6518 Y9.1347 
G01 X-30.5885 Y9.2874 
G01 X-30.4967 Y9.4248 
G01 X-30.3798 Y9.5417 
G01 X-30.2424 Y9.6335 
G01 X-30.0897 Y9.6968 
G01 X-29.9276 Y9.7290 
G01 X-29.7624 Y9.7290 
G01 X-29.6003 Y9.6968 
G01 X-29.4476 Y9.6335 
G01 X-29.3102 Y9.5417 
G01 X-29.1933 Y9.4248 
G01 X-29.1015 Y9.2874 
G01 X-29.0382 Y9.1347 
G01 X-29.0060 Y8.9726 
G01 X-29.0060 Y8.8074 
G01 X-29.0382 Y8.6453 
G01 X-29.1015 Y8.4926 
G01 X-29.1933 Y8.3552 
G01 X-29.3102 Y8.2383 
G01 X-29.4476 Y8.1465 
G01 X-29.6003 Y8.0832 
G01 X-29.7624 Y8.0510 
G01 X-29.9276 Y8.0510 
G01 X-30.0897 Y8.0832 
G01 X-30.2424 Y8.1465 
G01 X-30.3798 Y8.2383 
G01 X-30.4967 Y8.3552 
G01 X-30.5885 Y8.4926 
G01 X-30.6518 Y8.6453 
G01 X-30.6840 Y8.8074 
G00 Z2.0000 
G00 X-28.1440 Y8.8074 
G01 Z-0.1500 F100.00 
G01 X-28.1440 Y8.9726 F208.00 
G01 X-28.1118 Y9.1347 
G01 X-28.0485 Y9.2874 
G01 X-27.9567 Y9.4248 
G01 X-27.8398 Y9.5417 
G01 X-27.7024 Y9.6335 
G01 X-27.5497 Y9.6968 
G01 X-27.3876 Y9.7290 
G01 X-27.2224 Y9.7290 
G01 X-27.0603 Y9.6968 
G01 X-26.9076 Y9.6335 
G01 X-26.7702 Y9.5417 
G01 X-26.6533 Y9.4248 
G01 X-26.5615 Y9.2874 
G01 X-26.4982 Y9.1347 
G01 X-26.4660 Y8.9726 
G01 X-26.4660 Y8.8074 
G01 X-26.4982 Y8.6453 
G01 X-26.5615 Y8.4926 
G01 X-26.6533 Y8.3552 
G01 X-26.7702 Y8.2383 
G01 X-26.9076 Y8.1465 
G01 X-27.0603 Y8.0832 
G01 X-27.2224 Y8.0510 
G01 X-27.3876 Y8.0510 
G01 X-27.5497 Y8.0832 
G01 X-27.7024 Y8.1465 
G01 X-27.8398 Y8.2383 
G01 X-27.9567 Y8.3552 
G01 X-28.0485 Y8.4926 
G01 X-28.1118 Y8.6453 
G01 X-28.1440 Y8.8074 
G00 Z2.0000 
G00 X-25.6040 Y8.8074 
G01 Z-0.1500 F100.00 
G01 X-25.6040 Y8.9726 F208.00 
G01 X-25.5718 Y9.1347 
G01 X-25.5085 Y9.2874 
G01 X-25.4167 Y9.4248 
G01 X-25.2998 Y9.5417 
G01 X-25.1624 Y9.6335 
G01 X-25.0097 Y9.6968 
G01 X-24.8476 Y9.7290 
G01 X-24.6824 Y9.7290 
G01 X-24.5203 Y9.6968 
G01 X-24.3676 Y9.6335 
G01 X-24.2302 Y9.5417 
G01 X-24.1133 Y9.4248 
G01 X-24.0215 Y9.2874 
G01 X-23.9582 Y9.1347 
G01 X-23.9260 Y8.9726 
G01 X-23.9260 Y8.8074 
G01 X-23.9582 Y8.6453 
G01 X-24.0215 Y8.4926 
G01 X-24.1133 Y8.3552 
G01 X-24.2302 Y8.2383 
G01 X-24.3676 Y8.1465 
G01 X-24.5203 Y8.0832 
G01 X-24.6824 Y8.0510 
G01 X-24.8476 Y8.0510 
G01 X-25.0097 Y8.0832 
G01 X-25.1624 Y8.1465 
G01 X-25.2998 Y8.2383 
G01 X-25.4167 Y8.3552 
G01 X-25.5085 Y8.4926 
G01 X-25.5718 Y8.6453 
G01 X-25.6040 Y8.8074 
G00 Z2.0000 
G00 X-23.0640 Y8.8074 
G01 Z-0.1500 F100.00 
G01 X-23.0640 Y8.9726 F208.00 
G01 X-23.0318 Y9.1347 
G01 X-22.9685 Y9.2874 
G01 X-22.8767 Y9.4248 
G01 X-22.7598 Y9.5417 
G01 X-22.6224 Y9.6335 
G01 X-22.4697 Y9.6968 
G01 X-22.3076 Y9.7290 
G01 X-22.1424 Y9.7290 
G01 X-21.9803 Y9.6968 
G01 X-21.8276 Y9.6335 
G01 X-21.6902 Y9.5417 
G01 X-21.5733 Y9.4248 
G01 X-21.4815 Y9.2874 
G01 X-21.4182 Y9.1347 
G01 X-21.3860 Y8.9726 
G01 X-21.3860 Y8.8074 
G01 X-21.4182 Y8.6453 
G01 X-21.4815 Y8.4926 
G01 X-21.5733 Y8.3552 
G01 X-21.6902 Y8.2383 
G01 X-21.8276 Y8.1465 
G01 X-21.9803 Y8.0832 
G01 X-22.1424 Y8.0510 
G01 X-22.3076 Y8.0510 
G01 X-22.4697 Y8.0832 
G01 X-22.6224 Y8.1465 
G01 X-22.7598 Y8.2383 
G01 X-22.8767 Y8.3552 
G01 X-22.9685 Y8.4926 
G01 X-23.0318 Y8.6453 
G01 X-23.0640 Y8.8074 
G00 Z2.0000 
G00 X-35.7640 Y31.6674 
G01 Z-0.1500 F100.00 
G01 X-35.7640 Y31.8326 F208.00 
G01 X-35.7318 Y31.9947 
G01 X-35.6685 Y32.1474 
G01 X-35.5767 Y32.2848 
G01 X-35.4598 Y32.4017 
G01 X-35.3224 Y32.4935 
G01 X-35.1697 Y32.5568 
G01 X-35.0076 Y32.5890 
G01 X-34.8424 Y32.5890 
G01 X-34.6803 Y32.5568 
G01 X-34.5276 Y32.4935 
G01 X-34.3902 Y32.4017 
G01 X-34.2733 Y32.2848 
G01 X-34.1815 Y32.1474 
G01 X-34.1182 Y31.9947 
G01 X-34.0860 Y31.8326 
G01 X-34.0860 Y31.6674 
G01 X-34.1182 Y31.5053 
G01 X-34.1815 Y31.3526 
G01 X-34.2733 Y31.2152 
G01 X-34.3902 Y31.0983 
G01 X-34.5276 Y31.0065 
G01 X-34.6803 Y30.9432 
G01 X-34.8424 Y30.9110 
G01 X-35.0076 Y30.9110 
G01 X-35.1697 Y30.9432 
G01 X-35.3224 Y31.0065 
G01 X-35.4598 Y31.0983 
G01 X-35.5767 Y31.2152 
G01 X-35.6685 Y31.3526 
G01 X-35.7318 Y31.5053 
G01 X-35.7640 Y31.6674 
G00 Z2.0000 
G00 X-33.2240 Y31.6674 
G01 Z-0.1500 F100.00 
G01 X-33.2240 Y31.8326 F208.00 
G01 X-33.1918 Y31.9947 
G01 X-33.1285 Y32.1474 
G01 X-33.0367 Y32.2848 
G01 X-32.9198 Y32.4017 
G01 X-32.8764 Y32.4307 
G01 X-32.8764 Y40.0697 
G01 X-32.8429 Y40.1947 
G01 X-32.7782 Y40.3067 
G01 X-30.1467 Y42.9382 
G01 X-30.0347 Y43.0029 
G01 X-29.9097 Y43.0364 
G01 X-28.4087 Y43.0364 
G01 X-28.2837 Y43.0029 
G01 X-28.2097 Y42.9602 
G01 X-27.4405 Y42.9602 
G01 X-27.4093 Y42.9473 
G01 X-27.3853 Y42.9233 
G01 X-27.3724 Y42.8921 
G01 X-27.3724 Y42.1979 
G01 X-27.3853 Y42.1667 
G01 X-27.4093 Y42.1427 
G01 X-27.4405 Y42.1298 
G01 X-28.2097 Y42.1298 
G01 X-28.2837 Y42.0871 
G01 X-28.4087 Y42.0536 
G01 X-29.6415 Y42.0536 
G01 X-31.8936 Y39.8015 
G01 X-31.8936 Y32.4307 
G01 X-31.8502 Y32.4017 
G01 X-31.7333 Y32.2848 
G01 X-31.6415 Y32.1474 
G01 X-31.5782 Y31.9947 
G01 X-31.5460 Y31.8326 
G01 X-31.5460 Y31.6674 
G01 X-31.5782 Y31.5053 
G01 X-31.6415 Y31.3526 
G01 X-31.7333 Y31.2152 
G01 X-31.8502 Y31.0983 
G01 X-31.9876 Y31.0065 
G01 X-32.1403 Y30.9432 
G01 X-32.3024 Y30.9110 
G01 X-32.4676 Y30.9110 
G01 X-32.6297 Y30.9432 
G01 X-32.7824 Y31.0065 
G01 X-32.9198 Y31.0983 
G01 X-33.0367 Y31.2152 
G01 X-33.1285 Y31.3526 
G01 X-33.1918 Y31.5053 
G01 X-33.2240 Y31.6674 
G00 Z2.0000 
G00 X-30.6840 Y31.6674 
G01 Z-0.1500 F100.00 
G01 X-30.6840 Y31.8326 F208.00 
G01 X-30.6518 Y31.9947 
G01 X-30.5885 Y32.1474 
G01 X-30.4967 Y32.2848 
G01 X-30.3798 Y32.4017 
G01 X-30.2424 Y32.4935 
G01 X-30.0897 Y32.5568 
G01 X-29.9276 Y32.5890 
G01 X-29.7624 Y32.5890 
G01 X-29.6003 Y32.5568 
G01 X-29.4476 Y32.4935 
G01 X-29.3102 Y32.4017 
G01 X-29.1933 Y32.2848 
G01 X-29.1015 Y32.1474 
G01 X-29.0382 Y31.9947 
G01 X-29.0060 Y31.8326 
G01 X-29.0060 Y31.6674 
G01 X-29.0382 Y31.5053 
G01 X-29.1015 Y31.3526 
G01 X-29.1933 Y31.2152 
G01 X-29.3102 Y31.0983 
G01 X-29.4476 Y31.0065 
G01 X-29.6003 Y30.9432 
G01 X-29.7624 Y30.9110 
G01 X-29.9276 Y30.9110 
G01 X-30.0897 Y30.9432 
G01 X-30.2424 Y31.0065 
G01 X-30.3798 Y31.0983 
G01 X-30.4967 Y31.2152 
G01 X-30.5885 Y31.3526 
G01 X-30.6518 Y31.5053 
G01 X-30.6840 Y31.6674 
G00 Z2.0000 
G00 X-25.6040 Y31.6674 
G01 Z-0.1500 F100.00 
G01 X-25.6040 Y31.8326 F208.00 
G01 X-25.5718 Y31.9947 
G01 X-25.5085 Y32.1474 
G01 X-25.4167 Y32.2848 
G01 X-25.2998 Y32.4017 
G01 X-25.2564 Y32.4307 
G01 X-25.2564 Y32.4497 
G01 X-25.2229 Y32.5747 
G01 X-25.1582 Y32.6867 
G01 X-25.0667 Y32.7782 
G01 X-23.1617 Y34.6832 
G01 X-23.0497 Y34.7479 
G01 X-22.9247 Y34.7814 
G01 X-19.5414 Y34.7814 
G01 X-19.5414 Y37.8965 
G01 X-19.8885 Y38.2436 
G01 X-22.3913 Y38.2436 
G01 X-22.5163 Y38.2771 
G01 X-22.5903 Y38.3198 
G01 X-23.3595 Y38.3198 
G01 X-23.3907 Y38.3327 
G01 X-23.4147 Y38.3567 
G01 X-23.4276 Y38.3879 
G01 X-23.4276 Y39.0821 
G01 X-23.4147 Y39.1133 
G01 X-23.3907 Y39.1373 
G01 X-23.3595 Y39.1502 
G01 X-22.5903 Y39.1502 
G01 X-22.5163 Y39.1929 
G01 X-22.3913 Y39.2264 
G01 X-19.6203 Y39.2264 
G01 X-19.4953 Y39.1929 
G01 X-19.3833 Y39.1282 
G01 X-18.7483 Y38.4932 
G01 X-18.6568 Y38.4017 
G01 X-18.5921 Y38.2897 
G01 X-18.5586 Y38.1647 
G01 X-18.5586 Y34.2253 
G01 X-18.5921 Y34.1003 
G01 X-18.6568 Y33.9883 
G01 X-18.7483 Y33.8968 
G01 X-18.8603 Y33.8321 
G01 X-18.9853 Y33.7986 
G01 X-22.6565 Y33.7986 
G01 X-24.1418 Y32.3133 
G01 X-24.1133 Y32.2848 
G01 X-24.0215 Y32.1474 
G01 X-23.9582 Y31.9947 
G01 X-23.9260 Y31.8326 
G01 X-23.9260 Y31.6674 
G01 X-23.9582 Y31.5053 
G01 X-24.0215 Y31.3526 
G01 X-24.1133 Y31.2152 
G01 X-24.2302 Y31.0983 
G01 X-24.3676 Y31.0065 
G01 X-24.5203 Y30.9432 
G01 X-24.6824 Y30.9110 
G01 X-24.8476 Y30.9110 
G01 X-25.0097 Y30.9432 
G01 X-25.1624 Y31.0065 
G01 X-25.2998 Y31.0983 
G01 X-25.4167 Y31.2152 
G01 X-25.5085 Y31.3526 
G01 X-25.5718 Y31.5053 
G01 X-25.6040 Y31.6674 
G00 Z2.0000 
G00 X-23.0640 Y31.6674 
G01 Z-0.1500 F100.00 
G01 X-23.0640 Y31.8326 F208.00 
G01 X-23.0318 Y31.9947 
G01 X-22.9685 Y32.1474 
G01 X-22.8767 Y32.2848 
G01 X-22.7598 Y32.4017 
G01 X-22.6224 Y32.4935 
G01 X-22.4697 Y32.5568 
G01 X-22.3076 Y32.5890 
G01 X-22.1424 Y32.5890 
G01 X-21.9803 Y32.5568 
G01 X-21.8276 Y32.4935 
G01 X-21.6902 Y32.4017 
G01 X-21.5733 Y32.2848 
G01 X-21.4815 Y32.1474 
G01 X-21.4182 Y31.9947 
G01 X-21.3860 Y31.8326 
G01 X-21.3860 Y31.6674 
G01 X-21.4182 Y31.5053 
G01 X-21.4815 Y31.3526 
G01 X-21.5733 Y31.2152 
G01 X-21.6902 Y31.0983 
G01 X-21.7336 Y31.0693 
G01 X-21.7336 Y29.1054 
G01 X-21.6638 Y29.0356 
G01 X-21.5847 Y28.9172 
G01 X-21.5303 Y28.7857 
G01 X-21.5025 Y28.6462 
G01 X-21.5025 Y28.5038 
G01 X-21.5303 Y28.3643 
G01 X-21.5847 Y28.2328 
G01 X-21.6638 Y28.1144 
G01 X-21.7644 Y28.0138 
G01 X-21.8828 Y27.9347 
G01 X-22.0143 Y27.8803 
G01 X-22.1538 Y27.8525 
G01 X-22.2962 Y27.8525 
G01 X-22.4357 Y27.8803 
G01 X-22.5672 Y27.9347 
G01 X-22.6856 Y28.0138 
G01 X-22.7862 Y28.1144 
G01 X-22.8653 Y28.2328 
G01 X-22.9197 Y28.3643 
G01 X-22.9475 Y28.5038 
G01 X-22.9475 Y28.6462 
G01 X-22.9197 Y28.7857 
G01 X-22.8653 Y28.9172 
G01 X-22.7862 Y29.0356 
G01 X-22.7164 Y29.1054 
G01 X-22.7164 Y31.0693 
G01 X-22.7598 Y31.0983 
G01 X-22.8767 Y31.2152 
G01 X-22.9685 Y31.3526 
G01 X-23.0318 Y31.5053 
G01 X-23.0640 Y31.6674 
G00 Z2.0000 
G00 X-20.5240 Y31.6674 
G01 Z-0.1500 F100.00 
G01 X-20.5240 Y31.8326 F208.00 
G01 X-20.4918 Y31.9947 
G01 X-20.4285 Y32.1474 
G01 X-20.3367 Y32.2848 
G01 X-20.2198 Y32.4017 
G01 X-20.0824 Y32.4935 
G01 X-19.9297 Y32.5568 
G01 X-19.7676 Y32.5890 
G01 X-19.6024 Y32.5890 
G01 X-19.4403 Y32.5568 
G01 X-19.2876 Y32.4935 
G01 X-19.1502 Y32.4017 
G01 X-19.0333 Y32.2848 
G01 X-18.9415 Y32.1474 
G01 X-18.8782 Y31.9947 
G01 X-18.8460 Y31.8326 
G01 X-18.8460 Y31.6674 
G01 X-18.8782 Y31.5053 
G01 X-18.9415 Y31.3526 
G01 X-19.0333 Y31.2152 
G01 X-19.1502 Y31.0983 
G01 X-19.2876 Y31.0065 
G01 X-19.4403 Y30.9432 
G01 X-19.6024 Y30.9110 
G01 X-19.7676 Y30.9110 
G01 X-19.9297 Y30.9432 
G01 X-20.0824 Y31.0065 
G01 X-20.2198 Y31.0983 
G01 X-20.3367 Y31.2152 
G01 X-20.4285 Y31.3526 
G01 X-20.4918 Y31.5053 
G01 X-20.5240 Y31.6674 
G00 Z2.0000 
G00 X-27.4405 Y35.7798 
G01 Z-0.1500 F100.00 
G01 X-29.5063 Y35.7798 F208.00 
G01 X-29.5375 Y35.7927 
G01 X-29.5615 Y35.8167 
G01 X-29.5744 Y35.8479 
G01 X-29.5744 Y36.5421 
G01 X-29.5615 Y36.5733 
G01 X-29.5375 Y36.5973 
G01 X-29.5063 Y36.6102 
G01 X-28.6600 Y36.6102 
G01 X-28.6600 Y36.8551 
G01 X-28.8005 Y36.9956 
G01 X-28.8547 Y37.0498 
G01 X-29.5063 Y37.0498 
G01 X-29.5375 Y37.0627 
G01 X-29.5615 Y37.0866 
G01 X-29.5744 Y37.1179 
G01 X-29.5744 Y37.8121 
G01 X-29.5615 Y37.8433 
G01 X-29.5375 Y37.8673 
G01 X-29.5063 Y37.8802 
G01 X-28.9902 Y37.8802 
G01 X-28.9902 Y38.1647 
G01 X-28.9567 Y38.2897 
G01 X-28.9393 Y38.3198 
G01 X-29.5063 Y38.3198 
G01 X-29.5375 Y38.3327 
G01 X-29.5615 Y38.3567 
G01 X-29.5744 Y38.3879 
G01 X-29.5744 Y39.0821 
G01 X-29.5615 Y39.1133 
G01 X-29.5375 Y39.1373 
G01 X-29.5063 Y39.1502 
G01 X-27.4405 Y39.1502 
G01 X-27.4093 Y39.1373 
G01 X-27.3853 Y39.1133 
G01 X-27.3724 Y39.0821 
G01 X-27.3724 Y38.3879 
G01 X-27.3853 Y38.3567 
G01 X-27.4093 Y38.3327 
G01 X-27.4405 Y38.3198 
G01 X-28.0583 Y38.3198 
G01 X-28.0409 Y38.2897 
G01 X-28.0074 Y38.1647 
G01 X-28.0074 Y37.8802 
G01 X-27.5847 Y37.8802 
G01 X-26.9717 Y38.4932 
G01 X-26.8597 Y38.5579 
G01 X-26.7347 Y38.5914 
G01 X-25.8914 Y38.5914 
G01 X-25.8914 Y50.3086 
G01 X-35.3777 Y50.3086 
G01 X-35.4101 Y50.2601 
G01 X-35.5281 Y50.1421 
G01 X-35.6668 Y50.0494 
G01 X-35.8209 Y49.9856 
G01 X-35.9846 Y49.9530 
G01 X-37.6754 Y49.9530 
G01 X-37.8391 Y49.9856 
G01 X-37.9932 Y50.0494 
G01 X-38.1319 Y50.1421 
G01 X-38.2499 Y50.2601 
G01 X-38.3426 Y50.3988 
G01 X-38.4064 Y50.5529 
G01 X-38.4390 Y50.7166 
G01 X-38.4390 Y50.8834 
G01 X-38.4064 Y51.0471 
G01 X-38.3426 Y51.2012 
G01 X-38.2499 Y51.3399 
G01 X-38.1319 Y51.4579 
G01 X-37.9932 Y51.5506 
G01 X-37.8391 Y51.6144 
G01 X-37.6754 Y51.6470 
G01 X-35.9846 Y51.6470 
G01 X-35.8209 Y51.6144 
G01 X-35.6668 Y51.5506 
G01 X-35.5281 Y51.4579 
G01 X-35.4101 Y51.3399 
G01 X-35.3777 Y51.2914 
G01 X-25.7813 Y51.2914 
G01 X-25.7017 Y51.3710 
G01 X-25.5897 Y51.4357 
G01 X-25.4647 Y51.4692 
G01 X-14.7181 Y51.4692 
G01 X-14.5931 Y51.4357 
G01 X-14.4811 Y51.3710 
G01 X-14.3896 Y51.2795 
G01 X-14.3249 Y51.1675 
G01 X-14.2914 Y51.0425 
G01 X-14.2914 Y50.9131 
G01 X-14.3249 Y50.7881 
G01 X-14.3896 Y50.6761 
G01 X-14.6186 Y50.4471 
G01 X-14.6186 Y49.3450 
G01 X-14.2931 Y49.3450 
G01 X-14.2619 Y49.3321 
G01 X-14.2379 Y49.3081 
G01 X-14.2250 Y49.2769 
G01 X-14.2250 Y48.7514 
G01 X-3.7453 Y48.7514 
G01 X-3.6203 Y48.7179 
G01 X-3.5083 Y48.6532 
G01 X-3.4168 Y48.5617 
G01 X-2.1468 Y47.2917 
G01 X-2.0821 Y47.1797 
G01 X-2.0486 Y47.0547 
G01 X-2.0486 Y39.3053 
G01 X-2.0821 Y39.1803 
G01 X-2.1468 Y39.0683 
G01 X-2.2010 Y39.0141 
G01 X-2.2010 Y16.4453 
G01 X-2.2345 Y16.3203 
G01 X-2.2992 Y16.2083 
G01 X-2.3907 Y16.1168 
G01 X-2.5027 Y16.0521 
G01 X-2.6277 Y16.0186 
G01 X-4.1758 Y16.0186 
G01 X-4.2840 Y15.8567 
G01 X-4.4267 Y15.7140 
G01 X-4.5946 Y15.6018 
G01 X-4.7811 Y15.5246 
G01 X-4.9791 Y15.4852 
G01 X-5.1809 Y15.4852 
G01 X-5.3789 Y15.5246 
G01 X-5.5654 Y15.6018 
G01 X-5.7333 Y15.7140 
G01 X-5.8760 Y15.8567 
G01 X-5.9842 Y16.0186 
G01 X-19.1936 Y16.0186 
G01 X-19.1936 Y9.5707 
G01 X-19.1502 Y9.5417 
G01 X-19.0333 Y9.4248 
G01 X-18.9415 Y9.2874 
G01 X-18.8782 Y9.1347 
G01 X-18.8460 Y8.9726 
G01 X-18.8460 Y8.8074 
G01 X-18.8782 Y8.6453 
G01 X-18.9415 Y8.4926 
G01 X-19.0333 Y8.3552 
G01 X-19.1502 Y8.2383 
G01 X-19.2876 Y8.1465 
G01 X-19.4403 Y8.0832 
G01 X-19.6024 Y8.0510 
G01 X-19.7676 Y8.0510 
G01 X-19.9297 Y8.0832 
G01 X-20.0824 Y8.1465 
G01 X-20.2198 Y8.2383 
G01 X-20.3367 Y8.3552 
G01 X-20.4285 Y8.4926 
G01 X-20.4918 Y8.6453 
G01 X-20.5240 Y8.8074 
G01 X-20.5240 Y8.9726 
G01 X-20.4918 Y9.1347 
G01 X-20.4285 Y9.2874 
G01 X-20.3367 Y9.4248 
G01 X-20.2198 Y9.5417 
G01 X-20.1764 Y9.5707 
G01 X-20.1764 Y15.8657 
G01 X-20.2153 Y15.8882 
G01 X-20.3068 Y15.9797 
G01 X-20.3715 Y16.0917 
G01 X-20.4050 Y16.2167 
G01 X-20.4050 Y16.3461 
G01 X-20.3715 Y16.4711 
G01 X-20.3068 Y16.5831 
G01 X-20.0782 Y16.8117 
G01 X-19.9867 Y16.9032 
G01 X-19.8747 Y16.9679 
G01 X-19.7497 Y17.0014 
G01 X-5.9842 Y17.0014 
G01 X-5.8760 Y17.1633 
G01 X-5.7333 Y17.3060 
G01 X-5.5654 Y17.4182 
G01 X-5.3789 Y17.4954 
G01 X-5.1809 Y17.5348 
G01 X-4.9791 Y17.5348 
G01 X-4.7811 Y17.4954 
G01 X-4.5946 Y17.4182 
G01 X-4.4267 Y17.3060 
G01 X-4.2840 Y17.1633 
G01 X-4.1758 Y17.0014 
G01 X-3.1838 Y17.0014 
G01 X-3.1838 Y38.8786 
G01 X-5.2236 Y38.8786 
G01 X-5.2236 Y37.3928 
G01 X-4.9696 Y37.1388 
G01 X-4.9696 Y36.5212 
G01 X-5.4062 Y36.0846 
G01 X-6.0238 Y36.0846 
G01 X-6.4604 Y36.5212 
G01 X-6.4604 Y37.1388 
G01 X-6.2064 Y37.3928 
G01 X-6.2064 Y38.8786 
G01 X-12.5177 Y38.8786 
G01 X-12.5501 Y38.8301 
G01 X-12.6681 Y38.7121 
G01 X-12.8068 Y38.6194 
G01 X-12.9609 Y38.5556 
G01 X-13.1246 Y38.5230 
G01 X-14.8154 Y38.5230 
G01 X-14.9791 Y38.5556 
G01 X-15.1332 Y38.6194 
G01 X-15.2719 Y38.7121 
G01 X-15.3899 Y38.8301 
G01 X-15.4826 Y38.9688 
G01 X-15.5464 Y39.1229 
G01 X-15.5790 Y39.2866 
G01 X-15.5790 Y39.4534 
G01 X-15.5464 Y39.6171 
G01 X-15.4826 Y39.7712 
G01 X-15.3899 Y39.9099 
G01 X-15.2719 Y40.0279 
G01 X-15.1332 Y40.1206 
G01 X-14.9791 Y40.1844 
G01 X-14.8154 Y40.2170 
G01 X-13.1246 Y40.2170 
G01 X-12.9609 Y40.1844 
G01 X-12.8068 Y40.1206 
G01 X-12.6681 Y40.0279 
G01 X-12.5501 Y39.9099 
G01 X-12.5177 Y39.8614 
G01 X-3.0314 Y39.8614 
G01 X-3.0314 Y46.7865 
G01 X-4.0135 Y47.7686 
G01 X-14.2250 Y47.7686 
G01 X-14.2250 Y47.2431 
G01 X-14.2379 Y47.2119 
G01 X-14.2619 Y47.1879 
G01 X-14.2931 Y47.1750 
G01 X-15.9269 Y47.1750 
G01 X-15.9581 Y47.1879 
G01 X-15.9821 Y47.2119 
G01 X-15.9950 Y47.2431 
G01 X-15.9950 Y49.2769 
G01 X-15.9821 Y49.3081 
G01 X-15.9581 Y49.3321 
G01 X-15.9269 Y49.3450 
G01 X-15.6014 Y49.3450 
G01 X-15.6014 Y50.4864 
G01 X-24.9086 Y50.4864 
G01 X-24.9086 Y38.3035 
G01 X-24.5615 Y37.9564 
G01 X-22.2619 Y37.9564 
G01 X-22.1369 Y37.9229 
G01 X-22.0629 Y37.8802 
G01 X-21.2937 Y37.8802 
G01 X-21.2625 Y37.8673 
G01 X-21.2385 Y37.8433 
G01 X-21.2256 Y37.8121 
G01 X-21.2256 Y37.1179 
G01 X-21.2385 Y37.0866 
G01 X-21.2625 Y37.0627 
G01 X-21.2937 Y37.0498 
G01 X-21.9114 Y37.0498 
G01 X-21.9114 Y36.6102 
G01 X-21.2937 Y36.6102 
G01 X-21.2625 Y36.5973 
G01 X-21.2385 Y36.5733 
G01 X-21.2256 Y36.5421 
G01 X-21.2256 Y35.8479 
G01 X-21.2385 Y35.8167 
G01 X-21.2625 Y35.7927 
G01 X-21.2937 Y35.7798 
G01 X-23.3595 Y35.7798 
G01 X-23.3907 Y35.7927 
G01 X-23.4147 Y35.8167 
G01 X-23.4276 Y35.8479 
G01 X-23.4276 Y36.5421 
G01 X-23.4147 Y36.5733 
G01 X-23.3907 Y36.5973 
G01 X-23.3595 Y36.6102 
G01 X-22.8942 Y36.6102 
G01 X-22.8942 Y36.9736 
G01 X-24.8297 Y36.9736 
G01 X-24.9547 Y37.0071 
G01 X-25.0667 Y37.0718 
G01 X-25.6035 Y37.6086 
G01 X-26.4665 Y37.6086 
G01 X-27.4649 Y36.6102 
G01 X-27.4405 Y36.6102 
G01 X-27.4093 Y36.5973 
G01 X-27.3853 Y36.5733 
G01 X-27.3724 Y36.5421 
G01 X-27.3724 Y35.8479 
G01 X-27.3853 Y35.8167 
G01 X-27.4093 Y35.7927 
G01 X-27.4405 Y35.7798 
G00 Z2.0000 
G00 X-21.2937 Y39.5898 
G01 Z-0.1500 F100.00 
G01 X-23.3595 Y39.5898 F208.00 
G01 X-23.3907 Y39.6027 
G01 X-23.4147 Y39.6267 
G01 X-23.4276 Y39.6579 
G01 X-23.4276 Y40.3521 
G01 X-23.4147 Y40.3833 
G01 X-23.3907 Y40.4073 
G01 X-23.3595 Y40.4202 
G01 X-21.2937 Y40.4202 
G01 X-21.2625 Y40.4073 
G01 X-21.2385 Y40.3833 
G01 X-21.2256 Y40.3521 
G01 X-21.2256 Y39.6579 
G01 X-21.2385 Y39.6267 
G01 X-21.2625 Y39.6027 
G01 X-21.2937 Y39.5898 
G00 Z2.0000 
G00 X-27.4405 Y39.5898 
G01 Z-0.1500 F100.00 
G01 X-29.5063 Y39.5898 F208.00 
G01 X-29.5375 Y39.6027 
G01 X-29.5615 Y39.6267 
G01 X-29.5744 Y39.6579 
G01 X-29.5744 Y40.3521 
G01 X-29.5615 Y40.3833 
G01 X-29.5375 Y40.4073 
G01 X-29.5063 Y40.4202 
G01 X-27.4405 Y40.4202 
G01 X-27.4093 Y40.4073 
G01 X-27.3853 Y40.3833 
G01 X-27.3724 Y40.3521 
G01 X-27.3724 Y39.6579 
G01 X-27.3853 Y39.6267 
G01 X-27.4093 Y39.6027 
G01 X-27.4405 Y39.5898 
G00 Z2.0000 
G00 X-23.3595 Y40.8598 
G01 Z-0.1500 F100.00 
G01 X-23.3907 Y40.8727 F208.00 
G01 X-23.4147 Y40.8967 
G01 X-23.4276 Y40.9279 
G01 X-23.4276 Y41.6221 
G01 X-23.4147 Y41.6533 
G01 X-23.3907 Y41.6773 
G01 X-23.3595 Y41.6902 
G01 X-22.5903 Y41.6902 
G01 X-22.5163 Y41.7329 
G01 X-22.3913 Y41.7664 
G01 X-18.6185 Y41.7664 
G01 X-15.5417 Y44.8432 
G01 X-15.4542 Y44.8938 
G01 X-15.3899 Y44.9899 
G01 X-15.2719 Y45.1079 
G01 X-15.1332 Y45.2006 
G01 X-14.9791 Y45.2644 
G01 X-14.8154 Y45.2970 
G01 X-13.1246 Y45.2970 
G01 X-12.9609 Y45.2644 
G01 X-12.8068 Y45.2006 
G01 X-12.6681 Y45.1079 
G01 X-12.5501 Y44.9899 
G01 X-12.4574 Y44.8512 
G01 X-12.3936 Y44.6971 
G01 X-12.3610 Y44.5334 
G01 X-12.3610 Y44.3666 
G01 X-12.3936 Y44.2029 
G01 X-12.4574 Y44.0488 
G01 X-12.5501 Y43.9101 
G01 X-12.6681 Y43.7921 
G01 X-12.8068 Y43.6994 
G01 X-12.9609 Y43.6356 
G01 X-13.1246 Y43.6030 
G01 X-14.8154 Y43.6030 
G01 X-14.9791 Y43.6356 
G01 X-15.1332 Y43.6994 
G01 X-15.2306 Y43.7645 
G01 X-18.1133 Y40.8818 
G01 X-18.2253 Y40.8171 
G01 X-18.3503 Y40.7836 
G01 X-22.3913 Y40.7836 
G01 X-22.5163 Y40.8171 
G01 X-22.5903 Y40.8598 
G01 X-23.3595 Y40.8598 
G00 Z2.0000 
G00 X-27.4405 Y40.8598 
G01 Z-0.1500 F100.00 
G01 X-29.5063 Y40.8598 F208.00 
G01 X-29.5375 Y40.8727 
G01 X-29.5615 Y40.8967 
G01 X-29.5744 Y40.9279 
G01 X-29.5744 Y41.6221 
G01 X-29.5615 Y41.6533 
G01 X-29.5375 Y41.6773 
G01 X-29.5063 Y41.6902 
G01 X-27.4405 Y41.6902 
G01 X-27.4093 Y41.6773 
G01 X-27.3853 Y41.6533 
G01 X-27.3724 Y41.6221 
G01 X-27.3724 Y40.9279 
G01 X-27.3853 Y40.8967 
G01 X-27.4093 Y40.8727 
G01 X-27.4405 Y40.8598 
G00 Z2.0000 
G00 X-23.3595 Y42.1298 
G01 Z-0.1500 F100.00 
G01 X-23.3907 Y42.1427 F208.00 
G01 X-23.4147 Y42.1667 
G01 X-23.4276 Y42.1979 
G01 X-23.4276 Y42.8921 
G01 X-23.4147 Y42.9233 
G01 X-23.3907 Y42.9473 
G01 X-23.3595 Y42.9602 
G01 X-22.5903 Y42.9602 
G01 X-22.5163 Y43.0029 
G01 X-22.3913 Y43.0364 
G01 X-21.1585 Y43.0364 
G01 X-18.4014 Y45.7935 
G01 X-18.4014 Y47.1750 
G01 X-18.7269 Y47.1750 
G01 X-18.7581 Y47.1879 
G01 X-18.7821 Y47.2119 
G01 X-18.7950 Y47.2431 
G01 X-18.7950 Y47.7686 
G01 X-21.0272 Y47.7686 
G01 X-21.2812 Y47.5146 
G01 X-21.8988 Y47.5146 
G01 X-22.3354 Y47.9512 
G01 X-22.3354 Y48.5688 
G01 X-21.8988 Y49.0054 
G01 X-21.2812 Y49.0054 
G01 X-21.0272 Y48.7514 
G01 X-18.7950 Y48.7514 
G01 X-18.7950 Y49.2769 
G01 X-18.7821 Y49.3081 
G01 X-18.7581 Y49.3321 
G01 X-18.7269 Y49.3450 
G01 X-17.0931 Y49.3450 
G01 X-17.0618 Y49.3321 
G01 X-17.0379 Y49.3081 
G01 X-17.0250 Y49.2769 
G01 X-17.0250 Y47.2431 
G01 X-17.0379 Y47.2119 
G01 X-17.0618 Y47.1879 
G01 X-17.0931 Y47.1750 
G01 X-17.4186 Y47.1750 
G01 X-17.4186 Y45.5253 
G01 X-17.4521 Y45.4003 
G01 X-17.5168 Y45.2883 
G01 X-20.6533 Y42.1518 
G01 X-20.7653 Y42.0871 
G01 X-20.8903 Y42.0536 
G01 X-22.3913 Y42.0536 
G01 X-22.5163 Y42.0871 
G01 X-22.5903 Y42.1298 
G01 X-23.3595 Y42.1298 
G00 Z2.0000 
G00 X-21.2937 Y43.3998 
G01 Z-0.1500 F100.00 
G01 X-23.3595 Y43.3998 F208.00 
G01 X-23.3907 Y43.4127 
G01 X-23.4147 Y43.4367 
G01 X-23.4276 Y43.4679 
G01 X-23.4276 Y44.1621 
G01 X-23.4147 Y44.1933 
G01 X-23.3907 Y44.2173 
G01 X-23.3595 Y44.2302 
G01 X-21.2937 Y44.2302 
G01 X-21.2625 Y44.2173 
G01 X-21.2385 Y44.1933 
G01 X-21.2256 Y44.1621 
G01 X-21.2256 Y43.4679 
G01 X-21.2385 Y43.4367 
G01 X-21.2625 Y43.4127 
G01 X-21.2937 Y43.3998 
G00 Z2.0000 
G00 X-27.4405 Y43.3998 
G01 Z-0.1500 F100.00 
G01 X-29.5063 Y43.3998 F208.00 
G01 X-29.5375 Y43.4127 
G01 X-29.5615 Y43.4367 
G01 X-29.5744 Y43.4679 
G01 X-29.5744 Y44.1621 
G01 X-29.5615 Y44.1933 
G01 X-29.5375 Y44.2173 
G01 X-29.5063 Y44.2302 
G01 X-27.4405 Y44.2302 
G01 X-27.4093 Y44.2173 
G01 X-27.3853 Y44.1933 
G01 X-27.3724 Y44.1621 
G01 X-27.3724 Y43.4679 
G01 X-27.3853 Y43.4367 
G01 X-27.4093 Y43.4127 
G01 X-27.4405 Y43.3998 
G00 Z2.0000 
G00 X-23.3595 Y44.6698 
G01 Z-0.1500 F100.00 
G01 X-23.3907 Y44.6827 F208.00 
G01 X-23.4147 Y44.7067 
G01 X-23.4276 Y44.7379 
G01 X-23.4276 Y45.4321 
G01 X-23.4147 Y45.4633 
G01 X-23.3907 Y45.4873 
G01 X-23.3595 Y45.5002 
G01 X-22.5903 Y45.5002 
G01 X-22.5163 Y45.5429 
G01 X-22.3913 Y45.5764 
G01 X-21.1585 Y45.5764 
G01 X-21.0082 Y45.7267 
G01 X-21.0082 Y45.7878 
G01 X-20.9818 Y45.9207 
G01 X-20.9299 Y46.0460 
G01 X-20.8546 Y46.1587 
G01 X-20.7587 Y46.2546 
G01 X-20.6460 Y46.3299 
G01 X-20.5207 Y46.3818 
G01 X-20.3878 Y46.4082 
G01 X-20.2522 Y46.4082 
G01 X-20.1193 Y46.3818 
G01 X-19.9940 Y46.3299 
G01 X-19.8813 Y46.2546 
G01 X-19.7854 Y46.1587 
G01 X-19.7101 Y46.0460 
G01 X-19.6582 Y45.9207 
G01 X-19.6318 Y45.7878 
G01 X-19.6318 Y45.6522 
G01 X-19.6582 Y45.5193 
G01 X-19.7101 Y45.3940 
G01 X-19.7854 Y45.2813 
G01 X-19.8813 Y45.1854 
G01 X-19.9940 Y45.1101 
G01 X-20.1193 Y45.0582 
G01 X-20.2522 Y45.0318 
G01 X-20.3133 Y45.0318 
G01 X-20.5618 Y44.7833 
G01 X-20.6533 Y44.6918 
G01 X-20.7653 Y44.6271 
G01 X-20.8903 Y44.5936 
G01 X-22.3913 Y44.5936 
G01 X-22.5163 Y44.6271 
G01 X-22.5903 Y44.6698 
G01 X-23.3595 Y44.6698 
G00 Z2.0000 
G00 X-27.4405 Y44.6698 
G01 Z-0.1500 F100.00 
G01 X-29.5063 Y44.6698 F208.00 
G01 X-29.5375 Y44.6827 
G01 X-29.5615 Y44.7067 
G01 X-29.5744 Y44.7379 
G01 X-29.5744 Y45.4321 
G01 X-29.5615 Y45.4633 
G01 X-29.5375 Y45.4873 
G01 X-29.5063 Y45.5002 
G01 X-27.4405 Y45.5002 
G01 X-27.4093 Y45.4873 
G01 X-27.3853 Y45.4633 
G01 X-27.3724 Y45.4321 
G01 X-27.3724 Y44.7379 
G01 X-27.3853 Y44.7067 
G01 X-27.4093 Y44.6827 
G01 X-27.4405 Y44.6698 
G00 Z2.0000 
G00 X-27.4206 Y38.2198 
G01 Z-0.1500 F100.00 
G01 X-27.9196 Y38.2198 F208.00 
G01 X-27.9074 Y38.1582 
G01 X-27.9074 Y37.9802 
G01 X-27.6262 Y37.9802 
G01 X-27.3625 Y38.2439 
G01 X-27.4206 Y38.2198 
G00 Z2.0000 
G00 X-27.4206 Y44.5698 
G01 Z-0.1500 F100.00 
G01 X-29.5262 Y44.5698 F208.00 
G01 X-29.5942 Y44.5980 
G01 X-29.6462 Y44.6500 
G01 X-29.6744 Y44.7180 
G01 X-29.6744 Y45.4520 
G01 X-29.6462 Y45.5200 
G01 X-29.5942 Y45.5720 
G01 X-29.5262 Y45.6002 
G01 X-27.4206 Y45.6002 
G01 X-27.3526 Y45.5720 
G01 X-27.3006 Y45.5200 
G01 X-27.2724 Y45.4520 
G01 X-27.2724 Y44.7180 
G01 X-27.3006 Y44.6500 
G01 X-27.3526 Y44.5980 
G01 X-27.4206 Y44.5698 
G00 Z2.0000 
G00 X-23.3794 Y44.5698 
G01 Z-0.1500 F100.00 
G01 X-23.4474 Y44.5980 F208.00 
G01 X-23.4994 Y44.6500 
G01 X-23.5276 Y44.7180 
G01 X-23.5276 Y45.4520 
G01 X-23.4994 Y45.5200 
G01 X-23.4474 Y45.5720 
G01 X-23.3794 Y45.6002 
G01 X-22.6200 Y45.6002 
G01 X-22.6067 Y45.6091 
G01 X-22.4991 Y45.6537 
G01 X-22.3848 Y45.6764 
G01 X-21.2000 Y45.6764 
G01 X-21.1082 Y45.7682 
G01 X-21.1082 Y45.7976 
G01 X-21.0779 Y45.9499 
G01 X-21.0185 Y46.0934 
G01 X-20.9322 Y46.2224 
G01 X-20.8224 Y46.3322 
G01 X-20.6934 Y46.4185 
G01 X-20.5499 Y46.4779 
G01 X-20.3976 Y46.5082 
G01 X-20.2424 Y46.5082 
G01 X-20.0901 Y46.4779 
G01 X-19.9466 Y46.4185 
G01 X-19.8176 Y46.3322 
G01 X-19.7078 Y46.2224 
G01 X-19.6215 Y46.0934 
G01 X-19.5621 Y45.9499 
G01 X-19.5318 Y45.7976 
G01 X-19.5318 Y45.6424 
G01 X-19.5621 Y45.4901 
G01 X-19.6215 Y45.3466 
G01 X-19.7078 Y45.2176 
G01 X-19.8176 Y45.1078 
G01 X-19.9466 Y45.0215 
G01 X-20.0901 Y44.9621 
G01 X-20.2424 Y44.9318 
G01 X-20.2718 Y44.9318 
G01 X-20.4956 Y44.7080 
G01 X-20.5780 Y44.6256 
G01 X-20.6749 Y44.5609 
G01 X-20.7825 Y44.5163 
G01 X-20.8968 Y44.4936 
G01 X-22.3848 Y44.4936 
G01 X-22.4991 Y44.5163 
G01 X-22.6067 Y44.5609 
G01 X-22.6200 Y44.5698 
G01 X-23.3794 Y44.5698 
G00 Z2.0000 
G00 X-27.4206 Y43.2998 
G01 Z-0.1500 F100.00 
G01 X-29.5262 Y43.2998 F208.00 
G01 X-29.5942 Y43.3280 
G01 X-29.6462 Y43.3800 
G01 X-29.6744 Y43.4480 
G01 X-29.6744 Y44.1820 
G01 X-29.6462 Y44.2500 
G01 X-29.5942 Y44.3020 
G01 X-29.5262 Y44.3302 
G01 X-27.4206 Y44.3302 
G01 X-27.3526 Y44.3020 
G01 X-27.3006 Y44.2500 
G01 X-27.2724 Y44.1820 
G01 X-27.2724 Y43.4480 
G01 X-27.3006 Y43.3800 
G01 X-27.3526 Y43.3280 
G01 X-27.4206 Y43.2998 
G00 Z2.0000 
G00 X-27.4206 Y42.0298 
G01 Z-0.1500 F100.00 
G01 X-28.1800 Y42.0298 F208.00 
G01 X-28.1933 Y42.0209 
G01 X-28.3009 Y41.9763 
G01 X-28.4152 Y41.9536 
G01 X-29.6000 Y41.9536 
G01 X-31.7936 Y39.7600 
G01 X-31.7936 Y32.4842 
G01 X-31.7864 Y32.4794 
G01 X-31.6556 Y32.3486 
G01 X-31.5529 Y32.1948 
G01 X-31.4821 Y32.0239 
G01 X-31.4460 Y31.8425 
G01 X-31.4460 Y31.6575 
G01 X-31.4821 Y31.4761 
G01 X-31.5529 Y31.3052 
G01 X-31.6556 Y31.1514 
G01 X-31.7864 Y31.0206 
G01 X-31.9402 Y30.9179 
G01 X-32.1111 Y30.8471 
G01 X-32.2925 Y30.8110 
G01 X-32.4775 Y30.8110 
G01 X-32.6589 Y30.8471 
G01 X-32.8298 Y30.9179 
G01 X-32.9836 Y31.0206 
G01 X-33.1144 Y31.1514 
G01 X-33.2171 Y31.3052 
G01 X-33.2879 Y31.4761 
G01 X-33.3240 Y31.6575 
G01 X-33.3240 Y31.8425 
G01 X-33.2879 Y32.0239 
G01 X-33.2171 Y32.1948 
G01 X-33.1144 Y32.3486 
G01 X-32.9836 Y32.4794 
G01 X-32.9764 Y32.4842 
G01 X-32.9764 Y40.0632 
G01 X-32.9537 Y40.1775 
G01 X-32.9091 Y40.2851 
G01 X-32.8444 Y40.3820 
G01 X-30.2220 Y43.0044 
G01 X-30.1251 Y43.0691 
G01 X-30.0175 Y43.1137 
G01 X-29.9032 Y43.1364 
G01 X-28.4152 Y43.1364 
G01 X-28.3009 Y43.1137 
G01 X-28.1933 Y43.0691 
G01 X-28.1800 Y43.0602 
G01 X-27.4206 Y43.0602 
G01 X-27.3526 Y43.0320 
G01 X-27.3006 Y42.9800 
G01 X-27.2724 Y42.9120 
G01 X-27.2724 Y42.1780 
G01 X-27.3006 Y42.1100 
G01 X-27.3526 Y42.0580 
G01 X-27.4206 Y42.0298 
G00 Z2.0000 
G00 X-21.2738 Y43.2998 
G01 Z-0.1500 F100.00 
G01 X-23.3794 Y43.2998 F208.00 
G01 X-23.4474 Y43.3280 
G01 X-23.4994 Y43.3800 
G01 X-23.5276 Y43.4480 
G01 X-23.5276 Y44.1820 
G01 X-23.4994 Y44.2500 
G01 X-23.4474 Y44.3020 
G01 X-23.3794 Y44.3302 
G01 X-21.2738 Y44.3302 
G01 X-21.2058 Y44.3020 
G01 X-21.1538 Y44.2500 
G01 X-21.1256 Y44.1820 
G01 X-21.1256 Y43.4480 
G01 X-21.1538 Y43.3800 
G01 X-21.2058 Y43.3280 
G01 X-21.2738 Y43.2998 
G00 Z2.0000 
G00 X-27.4206 Y40.7598 
G01 Z-0.1500 F100.00 
G01 X-29.5262 Y40.7598 F208.00 
G01 X-29.5942 Y40.7880 
G01 X-29.6462 Y40.8400 
G01 X-29.6744 Y40.9080 
G01 X-29.6744 Y41.6420 
G01 X-29.6462 Y41.7100 
G01 X-29.5942 Y41.7620 
G01 X-29.5262 Y41.7902 
G01 X-27.4206 Y41.7902 
G01 X-27.3526 Y41.7620 
G01 X-27.3006 Y41.7100 
G01 X-27.2724 Y41.6420 
G01 X-27.2724 Y40.9080 
G01 X-27.3006 Y40.8400 
G01 X-27.3526 Y40.7880 
G01 X-27.4206 Y40.7598 
G00 Z2.0000 
G00 X-27.4206 Y39.4898 
G01 Z-0.1500 F100.00 
G01 X-29.5262 Y39.4898 F208.00 
G01 X-29.5942 Y39.5180 
G01 X-29.6462 Y39.5700 
G01 X-29.6744 Y39.6380 
G01 X-29.6744 Y40.3720 
G01 X-29.6462 Y40.4400 
G01 X-29.5942 Y40.4920 
G01 X-29.5262 Y40.5202 
G01 X-27.4206 Y40.5202 
G01 X-27.3526 Y40.4920 
G01 X-27.3006 Y40.4400 
G01 X-27.2724 Y40.3720 
G01 X-27.2724 Y39.6380 
G01 X-27.3006 Y39.5700 
G01 X-27.3526 Y39.5180 
G01 X-27.4206 Y39.4898 
G00 Z2.0000 
G00 X-21.2738 Y39.4898 
G01 Z-0.1500 F100.00 
G01 X-23.3794 Y39.4898 F208.00 
G01 X-23.4474 Y39.5180 
G01 X-23.4994 Y39.5700 
G01 X-23.5276 Y39.6380 
G01 X-23.5276 Y40.3720 
G01 X-23.4994 Y40.4400 
G01 X-23.4474 Y40.4920 
G01 X-23.3794 Y40.5202 
G01 X-21.2738 Y40.5202 
G01 X-21.2058 Y40.4920 
G01 X-21.1538 Y40.4400 
G01 X-21.1256 Y40.3720 
G01 X-21.1256 Y39.6380 
G01 X-21.1538 Y39.5700 
G01 X-21.2058 Y39.5180 
G01 X-21.2738 Y39.4898 
G00 Z2.0000 
G00 X-27.3006 Y36.6300 
G01 Z-0.1500 F100.00 
G01 X-27.2724 Y36.5620 F208.00 
G01 X-27.2724 Y35.8280 
G01 X-27.3006 Y35.7600 
G01 X-27.3526 Y35.7080 
G01 X-27.4206 Y35.6798 
G01 X-29.5262 Y35.6798 
G01 X-29.5942 Y35.7080 
G01 X-29.6462 Y35.7600 
G01 X-29.6744 Y35.8280 
G01 X-29.6744 Y36.5620 
G01 X-29.6462 Y36.6300 
G01 X-29.5942 Y36.6820 
G01 X-29.5262 Y36.7102 
G01 X-28.7600 Y36.7102 
G01 X-28.7600 Y36.8136 
G01 X-28.8758 Y36.9294 
G01 X-28.8962 Y36.9498 
G01 X-29.5262 Y36.9498 
G01 X-29.5942 Y36.9780 
G01 X-29.6462 Y37.0300 
G01 X-29.6744 Y37.0980 
G01 X-29.6744 Y37.8320 
G01 X-29.6462 Y37.9000 
G01 X-29.5942 Y37.9520 
G01 X-29.5262 Y37.9802 
G01 X-29.0902 Y37.9802 
G01 X-29.0902 Y38.1582 
G01 X-29.0780 Y38.2198 
G01 X-29.5262 Y38.2198 
G01 X-29.5942 Y38.2480 
G01 X-29.6462 Y38.3000 
G01 X-29.6744 Y38.3680 
G01 X-29.6744 Y39.1020 
G01 X-29.6462 Y39.1700 
G01 X-29.5942 Y39.2220 
G01 X-29.5262 Y39.2502 
G01 X-27.4206 Y39.2502 
G01 X-27.3526 Y39.2220 
G01 X-27.3006 Y39.1700 
G01 X-27.2724 Y39.1020 
G01 X-27.2724 Y38.3680 
G01 X-27.2965 Y38.3099 
G01 X-27.0470 Y38.5594 
G01 X-26.9501 Y38.6241 
G01 X-26.8425 Y38.6687 
G01 X-26.7282 Y38.6914 
G01 X-25.9914 Y38.6914 
G01 X-25.9914 Y50.2086 
G01 X-35.3242 Y50.2086 
G01 X-35.3324 Y50.1963 
G01 X-35.4643 Y50.0644 
G01 X-35.6194 Y49.9608 
G01 X-35.7918 Y49.8894 
G01 X-35.9747 Y49.8530 
G01 X-37.6853 Y49.8530 
G01 X-37.8682 Y49.8894 
G01 X-38.0406 Y49.9608 
G01 X-38.1957 Y50.0644 
G01 X-38.3276 Y50.1963 
G01 X-38.4312 Y50.3514 
G01 X-38.5026 Y50.5238 
G01 X-38.5390 Y50.7067 
G01 X-38.5390 Y50.8933 
G01 X-38.5026 Y51.0762 
G01 X-38.4312 Y51.2486 
G01 X-38.3276 Y51.4037 
G01 X-38.1957 Y51.5356 
G01 X-38.0406 Y51.6392 
G01 X-37.8682 Y51.7106 
G01 X-37.6853 Y51.7470 
G01 X-35.9747 Y51.7470 
G01 X-35.7918 Y51.7106 
G01 X-35.6194 Y51.6392 
G01 X-35.4643 Y51.5356 
G01 X-35.3324 Y51.4037 
G01 X-35.3242 Y51.3914 
G01 X-25.8228 Y51.3914 
G01 X-25.7770 Y51.4372 
G01 X-25.6801 Y51.5019 
G01 X-25.5725 Y51.5465 
G01 X-25.4582 Y51.5692 
G01 X-14.7246 Y51.5692 
G01 X-14.6103 Y51.5465 
G01 X-14.5027 Y51.5019 
G01 X-14.4058 Y51.4372 
G01 X-14.3234 Y51.3548 
G01 X-14.2587 Y51.2579 
G01 X-14.2141 Y51.1503 
G01 X-14.1914 Y51.0360 
G01 X-14.1914 Y50.9196 
G01 X-14.2141 Y50.8053 
G01 X-14.2587 Y50.6977 
G01 X-14.3234 Y50.6008 
G01 X-14.5186 Y50.4056 
G01 X-14.5186 Y49.4450 
G01 X-14.2732 Y49.4450 
G01 X-14.2052 Y49.4168 
G01 X-14.1532 Y49.3648 
G01 X-14.1250 Y49.2968 
G01 X-14.1250 Y48.8514 
G01 X-3.7518 Y48.8514 
G01 X-3.6375 Y48.8287 
G01 X-3.5299 Y48.7841 
G01 X-3.4330 Y48.7194 
G01 X-3.3506 Y48.6370 
G01 X-2.0806 Y47.3670 
G01 X-2.0159 Y47.2701 
G01 X-1.9713 Y47.1625 
G01 X-1.9486 Y47.0482 
G01 X-1.9486 Y39.3118 
G01 X-1.9713 Y39.1975 
G01 X-2.0159 Y39.0899 
G01 X-2.0806 Y38.9930 
G01 X-2.1010 Y38.9726 
G01 X-2.1010 Y16.4518 
G01 X-2.1237 Y16.3375 
G01 X-2.1683 Y16.2299 
G01 X-2.2330 Y16.1330 
G01 X-2.3154 Y16.0506 
G01 X-2.4123 Y15.9859 
G01 X-2.5199 Y15.9413 
G01 X-2.6341 Y15.9186 
G01 X-4.1193 Y15.9186 
G01 X-4.2221 Y15.7772 
G01 X-4.3472 Y15.6521 
G01 X-4.4905 Y15.5480 
G01 X-4.6482 Y15.4676 
G01 X-4.8166 Y15.4129 
G01 X-4.9915 Y15.3852 
G01 X-5.1685 Y15.3852 
G01 X-5.3434 Y15.4129 
G01 X-5.5118 Y15.4676 
G01 X-5.6695 Y15.5480 
G01 X-5.8128 Y15.6521 
G01 X-5.9379 Y15.7772 
G01 X-6.0406 Y15.9186 
G01 X-19.0936 Y15.9186 
G01 X-19.0936 Y9.6242 
G01 X-19.0864 Y9.6194 
G01 X-18.9556 Y9.4886 
G01 X-18.8529 Y9.3348 
G01 X-18.7821 Y9.1639 
G01 X-18.7460 Y8.9825 
G01 X-18.7460 Y8.7975 
G01 X-18.7821 Y8.6161 
G01 X-18.8529 Y8.4452 
G01 X-18.9556 Y8.2914 
G01 X-19.0864 Y8.1606 
G01 X-19.2402 Y8.0579 
G01 X-19.4111 Y7.9871 
G01 X-19.5925 Y7.9510 
G01 X-19.7775 Y7.9510 
G01 X-19.9589 Y7.9871 
G01 X-20.1298 Y8.0579 
G01 X-20.2836 Y8.1606 
G01 X-20.4144 Y8.2914 
G01 X-20.5171 Y8.4452 
G01 X-20.5879 Y8.6161 
G01 X-20.6240 Y8.7975 
G01 X-20.6240 Y8.9825 
G01 X-20.5879 Y9.1639 
G01 X-20.5171 Y9.3348 
G01 X-20.4144 Y9.4886 
G01 X-20.2836 Y9.6194 
G01 X-20.2764 Y9.6242 
G01 X-20.2764 Y15.8125 
G01 X-20.2906 Y15.8220 
G01 X-20.3730 Y15.9044 
G01 X-20.4377 Y16.0013 
G01 X-20.4823 Y16.1089 
G01 X-20.5050 Y16.2232 
G01 X-20.5050 Y16.3396 
G01 X-20.4823 Y16.4539 
G01 X-20.4377 Y16.5615 
G01 X-20.3730 Y16.6584 
G01 X-20.1444 Y16.8870 
G01 X-20.0620 Y16.9694 
G01 X-19.9651 Y17.0341 
G01 X-19.8575 Y17.0787 
G01 X-19.7432 Y17.1014 
G01 X-6.0406 Y17.1014 
G01 X-5.9379 Y17.2428 
G01 X-5.8128 Y17.3679 
G01 X-5.6695 Y17.4720 
G01 X-5.5118 Y17.5524 
G01 X-5.3434 Y17.6071 
G01 X-5.1685 Y17.6348 
G01 X-4.9915 Y17.6348 
G01 X-4.8166 Y17.6071 
G01 X-4.6482 Y17.5524 
G01 X-4.4905 Y17.4720 
G01 X-4.3472 Y17.3679 
G01 X-4.2221 Y17.2428 
G01 X-4.1193 Y17.1014 
G01 X-3.2838 Y17.1014 
G01 X-3.2838 Y38.7786 
G01 X-5.1236 Y38.7786 
G01 X-5.1236 Y37.4342 
G01 X-4.8696 Y37.1802 
G01 X-4.8696 Y36.4798 
G01 X-5.3648 Y35.9846 
G01 X-6.0652 Y35.9846 
G01 X-6.5604 Y36.4798 
G01 X-6.5604 Y37.1802 
G01 X-6.3064 Y37.4342 
G01 X-6.3064 Y38.7786 
G01 X-12.4642 Y38.7786 
G01 X-12.4724 Y38.7663 
G01 X-12.6043 Y38.6344 
G01 X-12.7594 Y38.5308 
G01 X-12.9318 Y38.4594 
G01 X-13.1147 Y38.4230 
G01 X-14.8253 Y38.4230 
G01 X-15.0082 Y38.4594 
G01 X-15.1806 Y38.5308 
G01 X-15.3357 Y38.6344 
G01 X-15.4676 Y38.7663 
G01 X-15.5712 Y38.9214 
G01 X-15.6426 Y39.0938 
G01 X-15.6790 Y39.2767 
G01 X-15.6790 Y39.4633 
G01 X-15.6426 Y39.6462 
G01 X-15.5712 Y39.8186 
G01 X-15.4676 Y39.9737 
G01 X-15.3357 Y40.1056 
G01 X-15.1806 Y40.2092 
G01 X-15.0082 Y40.2806 
G01 X-14.8253 Y40.3170 
G01 X-13.1147 Y40.3170 
G01 X-12.9318 Y40.2806 
G01 X-12.7594 Y40.2092 
G01 X-12.6043 Y40.1056 
G01 X-12.4724 Y39.9737 
G01 X-12.4642 Y39.9614 
G01 X-3.1314 Y39.9614 
G01 X-3.1314 Y46.7450 
G01 X-4.0550 Y47.6686 
G01 X-14.1250 Y47.6686 
G01 X-14.1250 Y47.2232 
G01 X-14.1532 Y47.1552 
G01 X-14.2052 Y47.1032 
G01 X-14.2732 Y47.0750 
G01 X-15.9468 Y47.0750 
G01 X-16.0148 Y47.1032 
G01 X-16.0668 Y47.1552 
G01 X-16.0950 Y47.2232 
G01 X-16.0950 Y49.2968 
G01 X-16.0668 Y49.3648 
G01 X-16.0148 Y49.4168 
G01 X-15.9468 Y49.4450 
G01 X-15.7014 Y49.4450 
G01 X-15.7014 Y50.3864 
G01 X-24.8086 Y50.3864 
G01 X-24.8086 Y38.3450 
G01 X-24.5200 Y38.0564 
G01 X-22.2684 Y38.0564 
G01 X-22.1541 Y38.0337 
G01 X-22.0465 Y37.9891 
G01 X-22.0332 Y37.9802 
G01 X-21.2738 Y37.9802 
G01 X-21.2058 Y37.9520 
G01 X-21.1538 Y37.9000 
G01 X-21.1256 Y37.8320 
G01 X-21.1256 Y37.0980 
G01 X-21.1538 Y37.0300 
G01 X-21.2058 Y36.9780 
G01 X-21.2738 Y36.9498 
G01 X-21.8114 Y36.9498 
G01 X-21.8114 Y36.7102 
G01 X-21.2738 Y36.7102 
G01 X-21.2058 Y36.6820 
G01 X-21.1538 Y36.6300 
G01 X-21.1256 Y36.5620 
G01 X-21.1256 Y35.8280 
G01 X-21.1538 Y35.7600 
G01 X-21.2058 Y35.7080 
G01 X-21.2738 Y35.6798 
G01 X-23.3794 Y35.6798 
G01 X-23.4474 Y35.7080 
G01 X-23.4994 Y35.7600 
G01 X-23.5276 Y35.8280 
G01 X-23.5276 Y36.5620 
G01 X-23.4994 Y36.6300 
G01 X-23.4474 Y36.6820 
G01 X-23.3794 Y36.7102 
G01 X-22.9942 Y36.7102 
G01 X-22.9942 Y36.8736 
G01 X-24.8232 Y36.8736 
G01 X-24.9375 Y36.8963 
G01 X-25.0451 Y36.9409 
G01 X-25.1420 Y37.0056 
G01 X-25.6450 Y37.5086 
G01 X-26.4250 Y37.5086 
G01 X-27.3021 Y36.6315 
G00 Z2.0000 
G00 X-23.3794 Y38.2198 
G01 Z-0.1500 F100.00 
G01 X-23.4474 Y38.2480 F208.00 
G01 X-23.4994 Y38.3000 
G01 X-23.5276 Y38.3680 
G01 X-23.5276 Y39.1020 
G01 X-23.4994 Y39.1700 
G01 X-23.4474 Y39.2220 
G01 X-23.3794 Y39.2502 
G01 X-22.6200 Y39.2502 
G01 X-22.6067 Y39.2591 
G01 X-22.4991 Y39.3037 
G01 X-22.3848 Y39.3264 
G01 X-19.6268 Y39.3264 
G01 X-19.5125 Y39.3037 
G01 X-19.4049 Y39.2591 
G01 X-19.3080 Y39.1944 
G01 X-18.6730 Y38.5594 
G01 X-18.5906 Y38.4770 
G01 X-18.5259 Y38.3801 
G01 X-18.4813 Y38.2725 
G01 X-18.4586 Y38.1582 
G01 X-18.4586 Y34.2317 
G01 X-18.4813 Y34.1175 
G01 X-18.5259 Y34.0099 
G01 X-18.5906 Y33.9130 
G01 X-18.6730 Y33.8306 
G01 X-18.7699 Y33.7659 
G01 X-18.8775 Y33.7213 
G01 X-18.9917 Y33.6986 
G01 X-22.6150 Y33.6986 
G01 X-24.0074 Y32.3063 
G01 X-23.9329 Y32.1948 
G01 X-23.8621 Y32.0239 
G01 X-23.8260 Y31.8425 
G01 X-23.8260 Y31.6575 
G01 X-23.8621 Y31.4761 
G01 X-23.9329 Y31.3052 
G01 X-24.0356 Y31.1514 
G01 X-24.1664 Y31.0206 
G01 X-24.3202 Y30.9179 
G01 X-24.4911 Y30.8471 
G01 X-24.6725 Y30.8110 
G01 X-24.8575 Y30.8110 
G01 X-25.0389 Y30.8471 
G01 X-25.2098 Y30.9179 
G01 X-25.3636 Y31.0206 
G01 X-25.4944 Y31.1514 
G01 X-25.5971 Y31.3052 
G01 X-25.6679 Y31.4761 
G01 X-25.7040 Y31.6575 
G01 X-25.7040 Y31.8425 
G01 X-25.6679 Y32.0239 
G01 X-25.5971 Y32.1948 
G01 X-25.4944 Y32.3486 
G01 X-25.3636 Y32.4794 
G01 X-25.3470 Y32.4904 
G01 X-25.3337 Y32.5575 
G01 X-25.2891 Y32.6651 
G01 X-25.2244 Y32.7620 
G01 X-25.1420 Y32.8444 
G01 X-23.2370 Y34.7494 
G01 X-23.1401 Y34.8141 
G01 X-23.0325 Y34.8587 
G01 X-22.9182 Y34.8814 
G01 X-19.6414 Y34.8814 
G01 X-19.6414 Y37.8550 
G01 X-19.9300 Y38.1436 
G01 X-22.3848 Y38.1436 
G01 X-22.4991 Y38.1663 
G01 X-22.6067 Y38.2109 
G01 X-22.6200 Y38.2198 
G01 X-23.3794 Y38.2198 
G00 Z2.0000 
G00 X-13.1147 Y43.5030 
G01 Z-0.1500 F100.00 
G01 X-14.8253 Y43.5030 F208.00 
G01 X-15.0082 Y43.5394 
G01 X-15.1806 Y43.6108 
G01 X-15.2179 Y43.6357 
G01 X-18.0380 Y40.8156 
G01 X-18.1349 Y40.7509 
G01 X-18.2425 Y40.7063 
G01 X-18.3568 Y40.6836 
G01 X-22.3848 Y40.6836 
G01 X-22.4991 Y40.7063 
G01 X-22.6067 Y40.7509 
G01 X-22.6200 Y40.7598 
G01 X-23.3794 Y40.7598 
G01 X-23.4474 Y40.7880 
G01 X-23.4994 Y40.8400 
G01 X-23.5276 Y40.9080 
G01 X-23.5276 Y41.6420 
G01 X-23.4994 Y41.7100 
G01 X-23.4474 Y41.7620 
G01 X-23.3794 Y41.7902 
G01 X-22.6200 Y41.7902 
G01 X-22.6067 Y41.7991 
G01 X-22.4991 Y41.8437 
G01 X-22.3848 Y41.8664 
G01 X-18.6600 Y41.8664 
G01 X-15.6170 Y44.9094 
G01 X-15.5213 Y44.9733 
G01 X-15.4676 Y45.0537 
G01 X-15.3357 Y45.1856 
G01 X-15.1806 Y45.2892 
G01 X-15.0082 Y45.3606 
G01 X-14.8253 Y45.3970 
G01 X-13.1147 Y45.3970 
G01 X-12.9318 Y45.3606 
G01 X-12.7594 Y45.2892 
G01 X-12.6043 Y45.1856 
G01 X-12.4724 Y45.0537 
G01 X-12.3688 Y44.8986 
G01 X-12.2974 Y44.7262 
G01 X-12.2610 Y44.5433 
G01 X-12.2610 Y44.3567 
G01 X-12.2974 Y44.1738 
G01 X-12.3688 Y44.0014 
G01 X-12.4724 Y43.8463 
G01 X-12.6043 Y43.7144 
G01 X-12.7594 Y43.6108 
G01 X-12.9318 Y43.5394 
G01 X-13.1147 Y43.5030 
G00 Z2.0000 
G00 X-20.6240 Y31.6575 
G01 Z-0.1500 F100.00 
G01 X-20.6240 Y31.8425 F208.00 
G01 X-20.5879 Y32.0239 
G01 X-20.5171 Y32.1948 
G01 X-20.4144 Y32.3486 
G01 X-20.2836 Y32.4794 
G01 X-20.1298 Y32.5821 
G01 X-19.9589 Y32.6529 
G01 X-19.7775 Y32.6890 
G01 X-19.5925 Y32.6890 
G01 X-19.4111 Y32.6529 
G01 X-19.2402 Y32.5821 
G01 X-19.0864 Y32.4794 
G01 X-18.9556 Y32.3486 
G01 X-18.8529 Y32.1948 
G01 X-18.7821 Y32.0239 
G01 X-18.7460 Y31.8425 
G01 X-18.7460 Y31.6575 
G01 X-18.7821 Y31.4761 
G01 X-18.8529 Y31.3052 
G01 X-18.9556 Y31.1514 
G01 X-19.0864 Y31.0206 
G01 X-19.2402 Y30.9179 
G01 X-19.4111 Y30.8471 
G01 X-19.5925 Y30.8110 
G01 X-19.7775 Y30.8110 
G01 X-19.9589 Y30.8471 
G01 X-20.1298 Y30.9179 
G01 X-20.2836 Y31.0206 
G01 X-20.4144 Y31.1514 
G01 X-20.5171 Y31.3052 
G01 X-20.5879 Y31.4761 
G01 X-20.6240 Y31.6575 
G00 Z2.0000 
G00 X-23.1640 Y31.6575 
G01 Z-0.1500 F100.00 
G01 X-23.1640 Y31.8425 F208.00 
G01 X-23.1279 Y32.0239 
G01 X-23.0571 Y32.1948 
G01 X-22.9544 Y32.3486 
G01 X-22.8236 Y32.4794 
G01 X-22.6698 Y32.5821 
G01 X-22.4989 Y32.6529 
G01 X-22.3175 Y32.6890 
G01 X-22.1325 Y32.6890 
G01 X-21.9511 Y32.6529 
G01 X-21.7802 Y32.5821 
G01 X-21.6264 Y32.4794 
G01 X-21.4956 Y32.3486 
G01 X-21.3929 Y32.1948 
G01 X-21.3221 Y32.0239 
G01 X-21.2860 Y31.8425 
G01 X-21.2860 Y31.6575 
G01 X-21.3221 Y31.4761 
G01 X-21.3929 Y31.3052 
G01 X-21.4956 Y31.1514 
G01 X-21.6264 Y31.0206 
G01 X-21.6336 Y31.0158 
G01 X-21.6336 Y29.1468 
G01 X-21.5861 Y29.0993 
G01 X-21.4961 Y28.9646 
G01 X-21.4341 Y28.8149 
G01 X-21.4025 Y28.6560 
G01 X-21.4025 Y28.4940 
G01 X-21.4341 Y28.3351 
G01 X-21.4961 Y28.1854 
G01 X-21.5861 Y28.0507 
G01 X-21.7007 Y27.9361 
G01 X-21.8354 Y27.8461 
G01 X-21.9851 Y27.7841 
G01 X-22.1440 Y27.7525 
G01 X-22.3060 Y27.7525 
G01 X-22.4649 Y27.7841 
G01 X-22.6146 Y27.8461 
G01 X-22.7493 Y27.9361 
G01 X-22.8639 Y28.0507 
G01 X-22.9539 Y28.1854 
G01 X-23.0159 Y28.3351 
G01 X-23.0475 Y28.4940 
G01 X-23.0475 Y28.6560 
G01 X-23.0159 Y28.8149 
G01 X-22.9539 Y28.9646 
G01 X-22.8639 Y29.0993 
G01 X-22.8164 Y29.1468 
G01 X-22.8164 Y31.0158 
G01 X-22.8236 Y31.0206 
G01 X-22.9544 Y31.1514 
G01 X-23.0571 Y31.3052 
G01 X-23.1279 Y31.4761 
G01 X-23.1640 Y31.6575 
G00 Z2.0000 
G00 X-30.7840 Y31.6575 
G01 Z-0.1500 F100.00 
G01 X-30.7840 Y31.8425 F208.00 
G01 X-30.7479 Y32.0239 
G01 X-30.6771 Y32.1948 
G01 X-30.5744 Y32.3486 
G01 X-30.4436 Y32.4794 
G01 X-30.2898 Y32.5821 
G01 X-30.1189 Y32.6529 
G01 X-29.9375 Y32.6890 
G01 X-29.7525 Y32.6890 
G01 X-29.5711 Y32.6529 
G01 X-29.4002 Y32.5821 
G01 X-29.2464 Y32.4794 
G01 X-29.1156 Y32.3486 
G01 X-29.0129 Y32.1948 
G01 X-28.9421 Y32.0239 
G01 X-28.9060 Y31.8425 
G01 X-28.9060 Y31.6575 
G01 X-28.9421 Y31.4761 
G01 X-29.0129 Y31.3052 
G01 X-29.1156 Y31.1514 
G01 X-29.2464 Y31.0206 
G01 X-29.4002 Y30.9179 
G01 X-29.5711 Y30.8471 
G01 X-29.7525 Y30.8110 
G01 X-29.9375 Y30.8110 
G01 X-30.1189 Y30.8471 
G01 X-30.2898 Y30.9179 
G01 X-30.4436 Y31.0206 
G01 X-30.5744 Y31.1514 
G01 X-30.6771 Y31.3052 
G01 X-30.7479 Y31.4761 
G01 X-30.7840 Y31.6575 
G00 Z2.0000 
G00 X-35.8640 Y31.6575 
G01 Z-0.1500 F100.00 
G01 X-35.8640 Y31.8425 F208.00 
G01 X-35.8279 Y32.0239 
G01 X-35.7571 Y32.1948 
G01 X-35.6544 Y32.3486 
G01 X-35.5236 Y32.4794 
G01 X-35.3698 Y32.5821 
G01 X-35.1989 Y32.6529 
G01 X-35.0175 Y32.6890 
G01 X-34.8325 Y32.6890 
G01 X-34.6511 Y32.6529 
G01 X-34.4802 Y32.5821 
G01 X-34.3264 Y32.4794 
G01 X-34.1956 Y32.3486 
G01 X-34.0929 Y32.1948 
G01 X-34.0221 Y32.0239 
G01 X-33.9860 Y31.8425 
G01 X-33.9860 Y31.6575 
G01 X-34.0221 Y31.4761 
G01 X-34.0929 Y31.3052 
G01 X-34.1956 Y31.1514 
G01 X-34.3264 Y31.0206 
G01 X-34.4802 Y30.9179 
G01 X-34.6511 Y30.8471 
G01 X-34.8325 Y30.8110 
G01 X-35.0175 Y30.8110 
G01 X-35.1989 Y30.8471 
G01 X-35.3698 Y30.9179 
G01 X-35.5236 Y31.0206 
G01 X-35.6544 Y31.1514 
G01 X-35.7571 Y31.3052 
G01 X-35.8279 Y31.4761 
G01 X-35.8640 Y31.6575 
G00 Z2.0000 
G00 X-23.1640 Y8.7975 
G01 Z-0.1500 F100.00 
G01 X-23.1640 Y8.9825 F208.00 
G01 X-23.1279 Y9.1639 
G01 X-23.0571 Y9.3348 
G01 X-22.9544 Y9.4886 
G01 X-22.8236 Y9.6194 
G01 X-22.6698 Y9.7221 
G01 X-22.4989 Y9.7929 
G01 X-22.3175 Y9.8290 
G01 X-22.1325 Y9.8290 
G01 X-21.9511 Y9.7929 
G01 X-21.7802 Y9.7221 
G01 X-21.6264 Y9.6194 
G01 X-21.4956 Y9.4886 
G01 X-21.3929 Y9.3348 
G01 X-21.3221 Y9.1639 
G01 X-21.2860 Y8.9825 
G01 X-21.2860 Y8.7975 
G01 X-21.3221 Y8.6161 
G01 X-21.3929 Y8.4452 
G01 X-21.4956 Y8.2914 
G01 X-21.6264 Y8.1606 
G01 X-21.7802 Y8.0579 
G01 X-21.9511 Y7.9871 
G01 X-22.1325 Y7.9510 
G01 X-22.3175 Y7.9510 
G01 X-22.4989 Y7.9871 
G01 X-22.6698 Y8.0579 
G01 X-22.8236 Y8.1606 
G01 X-22.9544 Y8.2914 
G01 X-23.0571 Y8.4452 
G01 X-23.1279 Y8.6161 
G01 X-23.1640 Y8.7975 
G00 Z2.0000 
G00 X-25.7040 Y8.7975 
G01 Z-0.1500 F100.00 
G01 X-25.7040 Y8.9825 F208.00 
G01 X-25.6679 Y9.1639 
G01 X-25.5971 Y9.3348 
G01 X-25.4944 Y9.4886 
G01 X-25.3636 Y9.6194 
G01 X-25.2098 Y9.7221 
G01 X-25.0389 Y9.7929 
G01 X-24.8575 Y9.8290 
G01 X-24.6725 Y9.8290 
G01 X-24.4911 Y9.7929 
G01 X-24.3202 Y9.7221 
G01 X-24.1664 Y9.6194 
G01 X-24.0356 Y9.4886 
G01 X-23.9329 Y9.3348 
G01 X-23.8621 Y9.1639 
G01 X-23.8260 Y8.9825 
G01 X-23.8260 Y8.7975 
G01 X-23.8621 Y8.6161 
G01 X-23.9329 Y8.4452 
G01 X-24.0356 Y8.2914 
G01 X-24.1664 Y8.1606 
G01 X-24.3202 Y8.0579 
G01 X-24.4911 Y7.9871 
G01 X-24.6725 Y7.9510 
G01 X-24.8575 Y7.9510 
G01 X-25.0389 Y7.9871 
G01 X-25.2098 Y8.0579 
G01 X-25.3636 Y8.1606 
G01 X-25.4944 Y8.2914 
G01 X-25.5971 Y8.4452 
G01 X-25.6679 Y8.6161 
G01 X-25.7040 Y8.7975 
G00 Z2.0000 
G00 X-28.2440 Y8.7975 
G01 Z-0.1500 F100.00 
G01 X-28.2440 Y8.9825 F208.00 
G01 X-28.2079 Y9.1639 
G01 X-28.1371 Y9.3348 
G01 X-28.0344 Y9.4886 
G01 X-27.9036 Y9.6194 
G01 X-27.7498 Y9.7221 
G01 X-27.5789 Y9.7929 
G01 X-27.3975 Y9.8290 
G01 X-27.2125 Y9.8290 
G01 X-27.0311 Y9.7929 
G01 X-26.8602 Y9.7221 
G01 X-26.7064 Y9.6194 
G01 X-26.5756 Y9.4886 
G01 X-26.4729 Y9.3348 
G01 X-26.4021 Y9.1639 
G01 X-26.3660 Y8.9825 
G01 X-26.3660 Y8.7975 
G01 X-26.4021 Y8.6161 
G01 X-26.4729 Y8.4452 
G01 X-26.5756 Y8.2914 
G01 X-26.7064 Y8.1606 
G01 X-26.8602 Y8.0579 
G01 X-27.0311 Y7.9871 
G01 X-27.2125 Y7.9510 
G01 X-27.3975 Y7.9510 
G01 X-27.5789 Y7.9871 
G01 X-27.7498 Y8.0579 
G01 X-27.9036 Y8.1606 
G01 X-28.0344 Y8.2914 
G01 X-28.1371 Y8.4452 
G01 X-28.2079 Y8.6161 
G01 X-28.2440 Y8.7975 
G00 Z2.0000 
G00 X-30.7840 Y8.7975 
G01 Z-0.1500 F100.00 
G01 X-30.7840 Y8.9825 F208.00 
G01 X-30.7479 Y9.1639 
G01 X-30.6771 Y9.3348 
G01 X-30.5744 Y9.4886 
G01 X-30.4436 Y9.6194 
G01 X-30.2898 Y9.7221 
G01 X-30.1189 Y9.7929 
G01 X-29.9375 Y9.8290 
G01 X-29.7525 Y9.8290 
G01 X-29.5711 Y9.7929 
G01 X-29.4002 Y9.7221 
G01 X-29.2464 Y9.6194 
G01 X-29.1156 Y9.4886 
G01 X-29.0129 Y9.3348 
G01 X-28.9421 Y9.1639 
G01 X-28.9060 Y8.9825 
G01 X-28.9060 Y8.7975 
G01 X-28.9421 Y8.6161 
G01 X-29.0129 Y8.4452 
G01 X-29.1156 Y8.2914 
G01 X-29.2464 Y8.1606 
G01 X-29.4002 Y8.0579 
G01 X-29.5711 Y7.9871 
G01 X-29.7525 Y7.9510 
G01 X-29.9375 Y7.9510 
G01 X-30.1189 Y7.9871 
G01 X-30.2898 Y8.0579 
G01 X-30.4436 Y8.1606 
G01 X-30.5744 Y8.2914 
G01 X-30.6771 Y8.4452 
G01 X-30.7479 Y8.6161 
G01 X-30.7840 Y8.7975 
G00 Z2.0000 
G00 X-33.3240 Y8.7975 
G01 Z-0.1500 F100.00 
G01 X-33.3240 Y8.9825 F208.00 
G01 X-33.2879 Y9.1639 
G01 X-33.2171 Y9.3348 
G01 X-33.1144 Y9.4886 
G01 X-32.9836 Y9.6194 
G01 X-32.8298 Y9.7221 
G01 X-32.6589 Y9.7929 
G01 X-32.4775 Y9.8290 
G01 X-32.2925 Y9.8290 
G01 X-32.1111 Y9.7929 
G01 X-31.9402 Y9.7221 
G01 X-31.7864 Y9.6194 
G01 X-31.6556 Y9.4886 
G01 X-31.5529 Y9.3348 
G01 X-31.4821 Y9.1639 
G01 X-31.4460 Y8.9825 
G01 X-31.4460 Y8.7975 
G01 X-31.4821 Y8.6161 
G01 X-31.5529 Y8.4452 
G01 X-31.6556 Y8.2914 
G01 X-31.7864 Y8.1606 
G01 X-31.9402 Y8.0579 
G01 X-32.1111 Y7.9871 
G01 X-32.2925 Y7.9510 
G01 X-32.4775 Y7.9510 
G01 X-32.6589 Y7.9871 
G01 X-32.8298 Y8.0579 
G01 X-32.9836 Y8.1606 
G01 X-33.1144 Y8.2914 
G01 X-33.2171 Y8.4452 
G01 X-33.2879 Y8.6161 
G01 X-33.3240 Y8.7975 
G00 Z2.0000 
G00 X-35.8640 Y8.7975 
G01 Z-0.1500 F100.00 
G01 X-35.8640 Y8.9825 F208.00 
G01 X-35.8279 Y9.1639 
G01 X-35.7571 Y9.3348 
G01 X-35.6544 Y9.4886 
G01 X-35.5236 Y9.6194 
G01 X-35.3698 Y9.7221 
G01 X-35.1989 Y9.7929 
G01 X-35.0175 Y9.8290 
G01 X-34.8325 Y9.8290 
G01 X-34.6511 Y9.7929 
G01 X-34.4802 Y9.7221 
G01 X-34.3264 Y9.6194 
G01 X-34.1956 Y9.4886 
G01 X-34.0929 Y9.3348 
G01 X-34.0221 Y9.1639 
G01 X-33.9860 Y8.9825 
G01 X-33.9860 Y8.7975 
G01 X-34.0221 Y8.6161 
G01 X-34.0929 Y8.4452 
G01 X-34.1956 Y8.2914 
G01 X-34.3264 Y8.1606 
G01 X-34.4802 Y8.0579 
G01 X-34.6511 Y7.9871 
G01 X-34.8325 Y7.9510 
G01 X-35.0175 Y7.9510 
G01 X-35.1989 Y7.9871 
G01 X-35.3698 Y8.0579 
G01 X-35.5236 Y8.1606 
G01 X-35.6544 Y8.2914 
G01 X-35.7571 Y8.4452 
G01 X-35.8279 Y8.6161 
G01 X-35.8640 Y8.7975 
G00 Z2.0000 
G00 X-18.0840 Y31.6575 
G01 Z-0.1500 F100.00 
G01 X-18.0840 Y31.8425 F208.00 
G01 X-18.0479 Y32.0239 
G01 X-17.9771 Y32.1948 
G01 X-17.8744 Y32.3486 
G01 X-17.7436 Y32.4794 
G01 X-17.5898 Y32.5821 
G01 X-17.4189 Y32.6529 
G01 X-17.2375 Y32.6890 
G01 X-17.0525 Y32.6890 
G01 X-16.8711 Y32.6529 
G01 X-16.7002 Y32.5821 
G01 X-16.5464 Y32.4794 
G01 X-16.4156 Y32.3486 
G01 X-16.3129 Y32.1948 
G01 X-16.2421 Y32.0239 
G01 X-16.2060 Y31.8425 
G01 X-16.2060 Y31.6575 
G01 X-16.2421 Y31.4761 
G01 X-16.3129 Y31.3052 
G01 X-16.4156 Y31.1514 
G01 X-16.5464 Y31.0206 
G01 X-16.7002 Y30.9179 
G01 X-16.8711 Y30.8471 
G01 X-17.0525 Y30.8110 
G01 X-17.2375 Y30.8110 
G01 X-17.4189 Y30.8471 
G01 X-17.5898 Y30.9179 
G01 X-17.7436 Y31.0206 
G01 X-17.8744 Y31.1514 
G01 X-17.9771 Y31.3052 
G01 X-18.0479 Y31.4761 
G01 X-18.0840 Y31.6575 
G00 Z2.0000 
G00 X-6.2048 Y21.5015 
G01 Z-0.1500 F100.00 
G01 X-6.2048 Y21.6785 F208.00 
G01 X-6.1775 Y21.8511 
G01 X-6.7250 Y22.3986 
G01 X-10.2450 Y22.3986 
G01 X-10.2450 Y22.1532 
G01 X-10.2732 Y22.0852 
G01 X-10.3252 Y22.0332 
G01 X-10.3932 Y22.0050 
G01 X-12.4668 Y22.0050 
G01 X-12.5348 Y22.0332 
G01 X-12.5868 Y22.0852 
G01 X-12.6150 Y22.1532 
G01 X-12.6150 Y23.8268 
G01 X-12.5868 Y23.8948 
G01 X-12.5348 Y23.9468 
G01 X-12.4668 Y23.9750 
G01 X-12.0214 Y23.9750 
G01 X-12.0214 Y25.4632 
G01 X-12.0689 Y25.5107 
G01 X-12.1589 Y25.6454 
G01 X-12.2209 Y25.7951 
G01 X-12.2525 Y25.9540 
G01 X-12.2525 Y26.1160 
G01 X-12.2209 Y26.2749 
G01 X-12.1589 Y26.4246 
G01 X-12.0689 Y26.5593 
G01 X-11.9543 Y26.6739 
G01 X-11.8196 Y26.7639 
G01 X-11.6699 Y26.8259 
G01 X-11.5110 Y26.8575 
G01 X-11.4439 Y26.8575 
G01 X-9.4814 Y28.8200 
G01 X-9.4814 Y34.9686 
G01 X-16.5682 Y34.9686 
G01 X-16.6825 Y34.9913 
G01 X-16.7901 Y35.0359 
G01 X-16.8870 Y35.1006 
G01 X-16.9694 Y35.1830 
G01 X-17.0341 Y35.2799 
G01 X-17.0787 Y35.3875 
G01 X-17.1014 Y35.5018 
G01 X-17.1014 Y39.4817 
G01 X-17.1222 Y39.5025 
G01 X-17.2085 Y39.6316 
G01 X-17.2679 Y39.7751 
G01 X-17.2982 Y39.9274 
G01 X-17.2982 Y40.0826 
G01 X-17.2679 Y40.2349 
G01 X-17.2085 Y40.3784 
G01 X-17.1222 Y40.5074 
G01 X-17.1014 Y40.5283 
G01 X-17.1014 Y40.6982 
G01 X-17.0787 Y40.8125 
G01 X-17.0341 Y40.9201 
G01 X-16.9694 Y41.0170 
G01 X-16.8870 Y41.0994 
G01 X-15.6994 Y42.2870 
G01 X-15.6170 Y42.3694 
G01 X-15.5213 Y42.4333 
G01 X-15.4676 Y42.5137 
G01 X-15.3357 Y42.6456 
G01 X-15.1806 Y42.7492 
G01 X-15.0082 Y42.8206 
G01 X-14.8253 Y42.8570 
G01 X-13.1147 Y42.8570 
G01 X-12.9318 Y42.8206 
G01 X-12.7594 Y42.7492 
G01 X-12.6043 Y42.6456 
G01 X-12.4724 Y42.5137 
G01 X-12.3688 Y42.3586 
G01 X-12.2974 Y42.1862 
G01 X-12.2610 Y42.0033 
G01 X-12.2610 Y41.8167 
G01 X-12.2974 Y41.6338 
G01 X-12.3688 Y41.4614 
G01 X-12.4724 Y41.3063 
G01 X-12.6043 Y41.1744 
G01 X-12.7594 Y41.0708 
G01 X-12.9318 Y40.9994 
G01 X-13.1147 Y40.9630 
G01 X-14.8253 Y40.9630 
G01 X-15.0082 Y40.9994 
G01 X-15.1806 Y41.0708 
G01 X-15.2179 Y41.0957 
G01 X-15.8611 Y40.4525 
G01 X-15.8115 Y40.3784 
G01 X-15.7521 Y40.2349 
G01 X-15.7218 Y40.0826 
G01 X-15.7218 Y39.9274 
G01 X-15.7521 Y39.7751 
G01 X-15.8115 Y39.6316 
G01 X-15.8978 Y39.5025 
G01 X-15.9186 Y39.4817 
G01 X-15.9186 Y36.1514 
G01 X-8.8317 Y36.1514 
G01 X-8.7175 Y36.1287 
G01 X-8.6099 Y36.0841 
G01 X-8.5130 Y36.0194 
G01 X-8.4306 Y35.9370 
G01 X-8.3659 Y35.8401 
G01 X-8.3213 Y35.7325 
G01 X-8.2986 Y35.6182 
G01 X-8.2986 Y34.8814 
G01 X-6.3192 Y34.8814 
G01 X-6.0652 Y35.1354 
G01 X-5.3648 Y35.1354 
G01 X-4.8696 Y34.6402 
G01 X-4.8696 Y33.9398 
G01 X-5.3648 Y33.4446 
G01 X-6.0652 Y33.4446 
G01 X-6.3192 Y33.6986 
G01 X-8.2986 Y33.6986 
G01 X-8.2986 Y28.5168 
G01 X-8.3213 Y28.4025 
G01 X-8.3659 Y28.2949 
G01 X-8.4306 Y28.1980 
G01 X-8.5130 Y28.1156 
G01 X-10.6075 Y26.0211 
G01 X-10.6075 Y25.9540 
G01 X-10.6391 Y25.7951 
G01 X-10.7011 Y25.6454 
G01 X-10.7911 Y25.5107 
G01 X-10.8386 Y25.4632 
G01 X-10.8386 Y23.9750 
G01 X-10.3932 Y23.9750 
G01 X-10.3252 Y23.9468 
G01 X-10.2732 Y23.8948 
G01 X-10.2450 Y23.8268 
G01 X-10.2450 Y23.5814 
G01 X-6.4218 Y23.5814 
G01 X-6.3075 Y23.5587 
G01 X-6.1999 Y23.5141 
G01 X-6.1030 Y23.4494 
G01 X-5.3411 Y22.6875 
G01 X-5.1685 Y22.7148 
G01 X-4.9915 Y22.7148 
G01 X-4.8166 Y22.6871 
G01 X-4.6482 Y22.6324 
G01 X-4.4905 Y22.5520 
G01 X-4.3472 Y22.4479 
G01 X-4.2221 Y22.3228 
G01 X-4.1180 Y22.1795 
G01 X-4.0376 Y22.0218 
G01 X-3.9829 Y21.8534 
G01 X-3.9552 Y21.6785 
G01 X-3.9552 Y21.5015 
G01 X-3.9829 Y21.3266 
G01 X-4.0376 Y21.1582 
G01 X-4.1180 Y21.0005 
G01 X-4.2221 Y20.8572 
G01 X-4.3472 Y20.7321 
G01 X-4.4905 Y20.6280 
G01 X-4.6482 Y20.5476 
G01 X-4.8166 Y20.4929 
G01 X-4.9915 Y20.4652 
G01 X-5.1685 Y20.4652 
G01 X-5.3434 Y20.4929 
G01 X-5.5118 Y20.5476 
G01 X-5.6695 Y20.6280 
G01 X-5.8128 Y20.7321 
G01 X-5.9379 Y20.8572 
G01 X-6.0420 Y21.0005 
G01 X-6.1224 Y21.1582 
G01 X-6.1771 Y21.3266 
G01 X-6.2048 Y21.5015 
G00 Z2.0000 
G00 X-63.8628 Y32.2867 
G01 Z-0.1500 F100.00 
G01 X-63.8628 Y32.4833 F208.00 
G01 X-63.8245 Y32.6760 
G01 X-63.7492 Y32.8576 
G01 X-63.6400 Y33.0211 
G01 X-63.5011 Y33.1600 
G01 X-63.3376 Y33.2692 
G01 X-63.1560 Y33.3445 
G01 X-62.9633 Y33.3828 
G01 X-62.7667 Y33.3828 
G01 X-62.5740 Y33.3445 
G01 X-62.3924 Y33.2692 
G01 X-62.2289 Y33.1600 
G01 X-62.0900 Y33.0211 
G01 X-61.9808 Y32.8576 
G01 X-61.9055 Y32.6760 
G01 X-61.8672 Y32.4833 
G01 X-61.8672 Y32.2867 
G01 X-61.9055 Y32.0939 
G01 X-61.9808 Y31.9124 
G01 X-62.0900 Y31.7489 
G01 X-62.2289 Y31.6100 
G01 X-62.3924 Y31.5008 
G01 X-62.5740 Y31.4255 
G01 X-62.7667 Y31.3872 
G01 X-62.9633 Y31.3872 
G01 X-63.1560 Y31.4255 
G01 X-63.3376 Y31.5008 
G01 X-63.5011 Y31.6100 
G01 X-63.6400 Y31.7489 
G01 X-63.7492 Y31.9124 
G01 X-63.8245 Y32.0939 
G01 X-63.8628 Y32.2867 
G00 Z2.0000 
G00 X-56.2428 Y34.8267 
G01 Z-0.1500 F100.00 
G01 X-56.2428 Y35.0233 F208.00 
G01 X-56.2045 Y35.2160 
G01 X-56.1292 Y35.3976 
G01 X-56.0200 Y35.5611 
G01 X-55.8811 Y35.7000 
G01 X-55.7176 Y35.8092 
G01 X-55.5360 Y35.8845 
G01 X-55.3433 Y35.9228 
G01 X-55.1467 Y35.9228 
G01 X-54.9540 Y35.8845 
G01 X-54.7724 Y35.8092 
G01 X-54.6089 Y35.7000 
G01 X-54.4700 Y35.5611 
G01 X-54.3608 Y35.3976 
G01 X-54.2855 Y35.2160 
G01 X-54.2472 Y35.0233 
G01 X-54.2472 Y34.8267 
G01 X-54.2855 Y34.6339 
G01 X-54.3608 Y34.4524 
G01 X-54.4700 Y34.2889 
G01 X-54.6089 Y34.1500 
G01 X-54.7724 Y34.0408 
G01 X-54.9540 Y33.9655 
G01 X-55.1467 Y33.9272 
G01 X-55.3433 Y33.9272 
G01 X-55.5360 Y33.9655 
G01 X-55.7176 Y34.0408 
G01 X-55.8811 Y34.1500 
G01 X-56.0200 Y34.2889 
G01 X-56.1292 Y34.4524 
G01 X-56.2045 Y34.6339 
G01 X-56.2428 Y34.8267 
G00 Z2.0000 
G00 X-63.6400 Y38.1011 
G01 Z-0.1500 F100.00 
G01 X-63.5011 Y38.2400 F208.00 
G01 X-63.3376 Y38.3492 
G01 X-63.1560 Y38.4245 
G01 X-62.9633 Y38.4628 
G01 X-62.7667 Y38.4628 
G01 X-62.5740 Y38.4245 
G01 X-62.3924 Y38.3492 
G01 X-62.2289 Y38.2400 
G01 X-62.0900 Y38.1011 
G01 X-61.9808 Y37.9376 
G01 X-61.9055 Y37.7560 
G01 X-61.8672 Y37.5633 
G01 X-61.8672 Y37.3667 
G01 X-61.9055 Y37.1740 
G01 X-61.9808 Y36.9924 
G01 X-62.0900 Y36.8289 
G01 X-62.2289 Y36.6900 
G01 X-62.3924 Y36.5808 
G01 X-62.5740 Y36.5055 
G01 X-62.7667 Y36.4672 
G01 X-62.9633 Y36.4672 
G01 X-63.1560 Y36.5055 
G01 X-63.3376 Y36.5808 
G01 X-63.5011 Y36.6900 
G01 X-63.6400 Y36.8289 
G01 X-63.7378 Y36.9752 
G01 X-64.8345 Y36.9752 
G01 X-64.9591 Y37.0086 
G01 X-65.0707 Y37.0731 
G01 X-66.1520 Y38.1543 
G01 X-66.2125 Y38.1663 
G01 X-66.3201 Y38.2109 
G01 X-66.4170 Y38.2756 
G01 X-66.4994 Y38.3580 
G01 X-66.5641 Y38.4549 
G01 X-66.6087 Y38.5625 
G01 X-66.6314 Y38.6767 
G01 X-66.6314 Y43.4400 
G01 X-67.7964 Y44.6050 
G01 X-68.9818 Y44.6050 
G01 X-69.0498 Y44.6332 
G01 X-69.1018 Y44.6852 
G01 X-69.1300 Y44.7532 
G01 X-69.1300 Y46.4268 
G01 X-69.1018 Y46.4948 
G01 X-69.0498 Y46.5468 
G01 X-68.9818 Y46.5750 
G01 X-66.9082 Y46.5750 
G01 X-66.8402 Y46.5468 
G01 X-66.7882 Y46.4948 
G01 X-66.7600 Y46.4268 
G01 X-66.7600 Y45.2414 
G01 X-65.6630 Y44.1444 
G01 X-65.5806 Y44.0620 
G01 X-65.5159 Y43.9651 
G01 X-65.4713 Y43.8575 
G01 X-65.4486 Y43.7432 
G01 X-65.4486 Y38.8363 
G01 X-64.5671 Y37.9548 
G01 X-63.7378 Y37.9548 
G01 X-63.6400 Y38.1011 
G00 Z2.0000 
G00 X-56.2428 Y37.3667 
G01 Z-0.1500 F100.00 
G01 X-56.2428 Y37.5633 F208.00 
G01 X-56.2045 Y37.7560 
G01 X-56.1292 Y37.9376 
G01 X-56.0200 Y38.1011 
G01 X-55.8811 Y38.2400 
G01 X-55.7176 Y38.3492 
G01 X-55.5360 Y38.4245 
G01 X-55.3433 Y38.4628 
G01 X-55.1467 Y38.4628 
G01 X-54.9540 Y38.4245 
G01 X-54.7724 Y38.3492 
G01 X-54.6089 Y38.2400 
G01 X-54.4700 Y38.1011 
G01 X-54.3608 Y37.9376 
G01 X-54.2855 Y37.7560 
G01 X-54.2472 Y37.5633 
G01 X-54.2472 Y37.3667 
G01 X-54.2855 Y37.1740 
G01 X-54.3608 Y36.9924 
G01 X-54.4700 Y36.8289 
G01 X-54.6089 Y36.6900 
G01 X-54.7724 Y36.5808 
G01 X-54.9540 Y36.5055 
G01 X-55.1467 Y36.4672 
G01 X-55.3433 Y36.4672 
G01 X-55.5360 Y36.5055 
G01 X-55.7176 Y36.5808 
G01 X-55.8811 Y36.6900 
G01 X-56.0200 Y36.8289 
G01 X-56.1292 Y36.9924 
G01 X-56.2045 Y37.1740 
G01 X-56.2428 Y37.3667 
G00 Z2.0000 
G00 X-56.2428 Y39.9067 
G01 Z-0.1500 F100.00 
G01 X-56.2428 Y40.1033 F208.00 
G01 X-56.2045 Y40.2960 
G01 X-56.1292 Y40.4776 
G01 X-56.0200 Y40.6411 
G01 X-55.8811 Y40.7800 
G01 X-55.7176 Y40.8892 
G01 X-55.5360 Y40.9645 
G01 X-55.3433 Y41.0028 
G01 X-55.1467 Y41.0028 
G01 X-54.9540 Y40.9645 
G01 X-54.7724 Y40.8892 
G01 X-54.6089 Y40.7800 
G01 X-54.4700 Y40.6411 
G01 X-54.3608 Y40.4776 
G01 X-54.2855 Y40.2960 
G01 X-54.2472 Y40.1033 
G01 X-54.2472 Y39.9067 
G01 X-54.2855 Y39.7140 
G01 X-54.3608 Y39.5324 
G01 X-54.4700 Y39.3689 
G01 X-54.6089 Y39.2300 
G01 X-54.7724 Y39.1208 
G01 X-54.9540 Y39.0455 
G01 X-55.1467 Y39.0072 
G01 X-55.3433 Y39.0072 
G01 X-55.5360 Y39.0455 
G01 X-55.7176 Y39.1208 
G01 X-55.8811 Y39.2300 
G01 X-56.0200 Y39.3689 
G01 X-56.1292 Y39.5324 
G01 X-56.2045 Y39.7140 
G01 X-56.2428 Y39.9067 
G00 Z2.0000 
G00 X-12.4668 Y19.2050 
G01 Z-0.1500 F100.00 
G01 X-12.5348 Y19.2332 F208.00 
G01 X-12.5868 Y19.2852 
G01 X-12.6150 Y19.3532 
G01 X-12.6150 Y19.7286 
G01 X-19.1082 Y19.7286 
G01 X-19.2225 Y19.7513 
G01 X-19.3301 Y19.7959 
G01 X-19.4270 Y19.8606 
G01 X-19.5094 Y19.9430 
G01 X-28.3170 Y28.7506 
G01 X-28.3994 Y28.8330 
G01 X-28.4641 Y28.9299 
G01 X-28.5087 Y29.0375 
G01 X-28.5314 Y29.1517 
G01 X-28.5314 Y31.0970 
G01 X-28.5087 Y31.2113 
G01 X-28.4641 Y31.3189 
G01 X-28.3994 Y31.4158 
G01 X-28.2297 Y31.5855 
G01 X-28.2440 Y31.6575 
G01 X-28.2440 Y31.8425 
G01 X-28.2079 Y32.0239 
G01 X-28.1371 Y32.1948 
G01 X-28.0344 Y32.3486 
G01 X-27.9036 Y32.4794 
G01 X-27.7498 Y32.5821 
G01 X-27.5789 Y32.6529 
G01 X-27.3975 Y32.6890 
G01 X-27.2125 Y32.6890 
G01 X-27.0311 Y32.6529 
G01 X-26.8602 Y32.5821 
G01 X-26.7064 Y32.4794 
G01 X-26.5756 Y32.3486 
G01 X-26.4729 Y32.1948 
G01 X-26.4021 Y32.0239 
G01 X-26.3660 Y31.8425 
G01 X-26.3660 Y31.6575 
G01 X-26.4021 Y31.4761 
G01 X-26.4729 Y31.3052 
G01 X-26.5756 Y31.1514 
G01 X-26.7064 Y31.0206 
G01 X-26.8602 Y30.9179 
G01 X-27.0311 Y30.8471 
G01 X-27.2125 Y30.8110 
G01 X-27.3314 Y30.8110 
G01 X-27.3486 Y30.7938 
G01 X-27.3486 Y29.4550 
G01 X-18.8050 Y20.9114 
G01 X-12.6150 Y20.9114 
G01 X-12.6150 Y21.0268 
G01 X-12.5868 Y21.0948 
G01 X-12.5348 Y21.1468 
G01 X-12.4668 Y21.1750 
G01 X-10.3932 Y21.1750 
G01 X-10.3252 Y21.1468 
G01 X-10.2732 Y21.0948 
G01 X-10.2450 Y21.0268 
G01 X-10.2450 Y19.9714 
G01 X-9.9150 Y19.6414 
G01 X-6.0407 Y19.6414 
G01 X-5.9379 Y19.7828 
G01 X-5.8128 Y19.9079 
G01 X-5.6695 Y20.0120 
G01 X-5.5118 Y20.0924 
G01 X-5.3434 Y20.1471 
G01 X-5.1685 Y20.1748 
G01 X-4.9915 Y20.1748 
G01 X-4.8166 Y20.1471 
G01 X-4.6482 Y20.0924 
G01 X-4.4905 Y20.0120 
G01 X-4.3472 Y19.9079 
G01 X-4.2221 Y19.7828 
G01 X-4.1180 Y19.6395 
G01 X-4.0376 Y19.4818 
G01 X-3.9829 Y19.3134 
G01 X-3.9552 Y19.1385 
G01 X-3.9552 Y18.9615 
G01 X-3.9829 Y18.7866 
G01 X-4.0376 Y18.6182 
G01 X-4.1180 Y18.4605 
G01 X-4.2221 Y18.3172 
G01 X-4.3472 Y18.1921 
G01 X-4.4905 Y18.0880 
G01 X-4.6482 Y18.0076 
G01 X-4.8166 Y17.9529 
G01 X-4.9915 Y17.9252 
G01 X-5.1685 Y17.9252 
G01 X-5.3434 Y17.9529 
G01 X-5.5118 Y18.0076 
G01 X-5.6695 Y18.0880 
G01 X-5.8128 Y18.1921 
G01 X-5.9379 Y18.3172 
G01 X-6.0407 Y18.4586 
G01 X-10.2182 Y18.4586 
G01 X-10.3325 Y18.4813 
G01 X-10.4401 Y18.5259 
G01 X-10.5370 Y18.5906 
G01 X-10.6194 Y18.6730 
G01 X-11.1514 Y19.2050 
G01 X-12.4668 Y19.2050 
G00 Z2.0000 
G00 X-22.4354 Y47.9098 
G01 Z-0.1500 F100.00 
G01 X-22.4354 Y48.6102 F208.00 
G01 X-21.9402 Y49.1054 
G01 X-21.2398 Y49.1054 
G01 X-20.9858 Y48.8514 
G01 X-18.8950 Y48.8514 
G01 X-18.8950 Y49.2968 
G01 X-18.8668 Y49.3648 
G01 X-18.8148 Y49.4168 
G01 X-18.7468 Y49.4450 
G01 X-17.0732 Y49.4450 
G01 X-17.0052 Y49.4168 
G01 X-16.9532 Y49.3648 
G01 X-16.9250 Y49.2968 
G01 X-16.9250 Y47.2232 
G01 X-16.9532 Y47.1552 
G01 X-17.0052 Y47.1032 
G01 X-17.0732 Y47.0750 
G01 X-17.3186 Y47.0750 
G01 X-17.3186 Y45.5318 
G01 X-17.3413 Y45.4175 
G01 X-17.3859 Y45.3099 
G01 X-17.4506 Y45.2130 
G01 X-20.5780 Y42.0856 
G01 X-20.6749 Y42.0209 
G01 X-20.7825 Y41.9763 
G01 X-20.8968 Y41.9536 
G01 X-22.3848 Y41.9536 
G01 X-22.4991 Y41.9763 
G01 X-22.6067 Y42.0209 
G01 X-22.6200 Y42.0298 
G01 X-23.3794 Y42.0298 
G01 X-23.4474 Y42.0580 
G01 X-23.4994 Y42.1100 
G01 X-23.5276 Y42.1780 
G01 X-23.5276 Y42.9120 
G01 X-23.4994 Y42.9800 
G01 X-23.4474 Y43.0320 
G01 X-23.3794 Y43.0602 
G01 X-22.6200 Y43.0602 
G01 X-22.6067 Y43.0691 
G01 X-22.4991 Y43.1137 
G01 X-22.3848 Y43.1364 
G01 X-21.2000 Y43.1364 
G01 X-18.5014 Y45.8350 
G01 X-18.5014 Y47.0750 
G01 X-18.7468 Y47.0750 
G01 X-18.8148 Y47.1032 
G01 X-18.8668 Y47.1552 
G01 X-18.8950 Y47.2232 
G01 X-18.8950 Y47.6686 
G01 X-20.9858 Y47.6686 
G01 X-21.2398 Y47.4146 
G01 X-21.9402 Y47.4146 
G01 X-22.4354 Y47.9098 
G00 Z2.0000 
G00 X-67.2932 Y34.7600 
G01 Z-0.1500 F100.00 
G01 X-69.8668 Y34.7600 F208.00 
G01 X-69.9348 Y34.7882 
G01 X-69.9868 Y34.8402 
G01 X-70.0150 Y34.9082 
G01 X-70.0150 Y37.4818 
G01 X-69.9868 Y37.5498 
G01 X-69.9348 Y37.6018 
G01 X-69.8668 Y37.6300 
G01 X-69.1714 Y37.6300 
G01 X-69.1714 Y39.7600 
G01 X-72.0000 Y42.5886 
G01 X-77.1580 Y42.5886 
G01 X-77.1580 Y42.3247 
G01 X-77.1944 Y42.1418 
G01 X-77.2658 Y41.9694 
G01 X-77.3694 Y41.8143 
G01 X-77.5013 Y41.6824 
G01 X-77.6564 Y41.5788 
G01 X-77.8288 Y41.5074 
G01 X-78.0117 Y41.4710 
G01 X-78.1983 Y41.4710 
G01 X-78.3812 Y41.5074 
G01 X-78.5536 Y41.5788 
G01 X-78.7087 Y41.6824 
G01 X-78.8406 Y41.8143 
G01 X-78.9442 Y41.9694 
G01 X-79.0156 Y42.1418 
G01 X-79.0520 Y42.3247 
G01 X-79.0520 Y44.0353 
G01 X-79.0156 Y44.2182 
G01 X-78.9442 Y44.3906 
G01 X-78.8406 Y44.5457 
G01 X-78.7087 Y44.6776 
G01 X-78.5536 Y44.7812 
G01 X-78.3812 Y44.8526 
G01 X-78.1983 Y44.8890 
G01 X-78.0117 Y44.8890 
G01 X-77.8288 Y44.8526 
G01 X-77.6564 Y44.7812 
G01 X-77.5013 Y44.6776 
G01 X-77.3694 Y44.5457 
G01 X-77.2658 Y44.3906 
G01 X-77.1944 Y44.2182 
G01 X-77.1580 Y44.0353 
G01 X-77.1580 Y43.7714 
G01 X-71.6968 Y43.7714 
G01 X-71.5825 Y43.7487 
G01 X-71.4749 Y43.7041 
G01 X-71.3780 Y43.6394 
G01 X-68.1206 Y40.3820 
G01 X-68.0559 Y40.2851 
G01 X-68.0113 Y40.1775 
G01 X-67.9886 Y40.0632 
G01 X-67.9886 Y37.6300 
